P3
400 225
255
204 226 255
204 226 255
204 226 255
204 226 255
204 226 255
204 226 255
204 226 255
204 226 255
204 226 255
204 226 255
204 226 255
204 226 255
204 226 255
204 226 255
204 226 255
203 226 255
203 226 255
203 226 255
203 226 255
203 226 255
203 226 255
203 226 255
203 226 255
203 225 255
203 225 255
203 225 255
203 225 255
203 225 255
203 225 255
203 225 255
203 225 255
203 225 255
202 225 255
202 225 255
202 225 255
202 225 255
202 225 255
202 225 255
202 225 255
202 225 255
202 225 255
202 225 255
202 225 255
202 225 255
202 225 255
202 225 255
202 225 255
202 225 255
201 225 255
201 225 255
201 225 255
201 225 255
201 224 255
201 224 255
201 224 255
201 224 255
201 224 255
201 224 255
201 224 255
201 224 255
201 224 255
201 224 255
201 224 255
200 224 255
200 224 255
200 224 255
200 224 255
200 224 255
200 224 255
200 224 255
200 224 255
200 224 255
200 224 255
200 224 255
200 224 255
200 224 255
200 224 255
200 224 255
199 224 255
199 224 255
199 223 255
199 223 255
199 223 255
199 223 255
199 223 255
199 223 255
199 223 255
199 223 255
199 223 255
199 223 255
199 223 255
199 223 255
198 223 255
198 223 255
198 223 255
198 223 255
198 223 255
198 223 255
198 223 255
198 223 255
198 223 255
198 223 255
198 223 255
198 223 255
198 223 255
198 223 255
197 222 255
197 222 255
197 222 255
197 222 255
197 222 255
197 222 255
197 222 255
197 222 255
197 222 255
197 222 255
197 222 255
197 222 255
197 222 255
197 222 255
197 222 255
196 222 255
196 222 255
196 222 255
196 222 255
196 222 255
196 222 255
196 222 255
196 222 255
196 222 255
196 222 255
196 222 255
196 222 255
196 222 255
196 222 255
196 221 255
196 221 255
195 221 255
195 221 255
195 221 255
195 221 255
195 221 255
195 221 255
195 221 255
195 221 255
195 221 255
195 221 255
195 221 255
195 221 255
195 221 255
195 221 255
195 221 255
195 221 255
195 221 255
195 221 255
194 221 255
194 221 255
194 221 255
194 221 255
194 221 255
194 221 255
194 221 255
194 221 255
194 221 255
194 221 255
194 221 255
194 221 255
194 221 255
194 221 255
194 221 255
194 221 255
194 221 255
194 221 255
194 221 255
194 221 255
194 221 255
194 221 255
194 220 255
194 220 255
194 220 255
194 220 255
194 220 255
194 220 255
194 220 255
194 220 255
194 220 255
193 220 255
193 220 255
193 220 255
193 220 255
193 220 255
193 220 255
193 220 255
193 220 255
193 220 255
193 220 255
193 220 255
193 220 255
193 220 255
193 220 255
193 220 255
193 220 255
193 220 255
193 220 255
193 220 255
193 220 255
193 220 255
193 220 255
193 220 255
193 220 255
193 220 255
193 220 255
193 220 255
193 220 255
194 220 255
194 220 255
194 220 255
194 220 255
194 220 255
194 220 255
194 220 255
194 220 255
194 220 255
194 221 255
194 221 255
194 221 255
194 221 255
194 221 255
194 221 255
194 221 255
194 221 255
194 221 255
194 221 255
194 221 255
194 221 255
194 221 255
194 221 255
194 221 255
194 221 255
194 221 255
194 221 255
194 221 255
194 221 255
194 221 255
194 221 255
195 221 255
195 221 255
195 221 255
195 221 255
195 221 255
195 221 255
195 221 255
195 221 255
195 221 255
195 221 255
195 221 255
195 221 255
195 221 255
195 221 255
195 221 255
195 221 255
195 221 255
195 221 255
196 221 255
196 221 255
196 222 255
196 222 255
196 222 255
196 222 255
196 222 255
196 222 255
196 222 255
196 222 255
196 222 255
196 222 255
196 222 255
196 222 255
196 222 255
196 222 255
197 222 255
197 222 255
197 222 255
197 222 255
197 222 255
197 222 255
197 222 255
197 222 255
197 222 255
197 222 255
197 222 255
197 222 255
197 222 255
197 222 255
197 223 255
198 223 255
198 223 255
198 223 255
198 223 255
198 223 255
198 223 255
198 223 255
198 223 255
198 223 255
198 223 255
198 223 255
198 223 255
198 223 255
198 223 255
199 223 255
199 223 255
199 223 255
199 223 255
199 223 255
199 223 255
199 223 255
199 223 255
199 223 255
199 223 255
199 223 255
199 223 255
199 224 255
199 224 255
199 224 255
200 224 255
200 224 255
200 224 255
200 224 255
200 224 255
200 224 255
200 224 255
200 224 255
200 224 255
200 224 255
200 224 255
200 224 255
200 224 255
200 224 255
201 224 255
201 224 255
201 224 255
201 224 255
201 224 255
201 224 255
201 224 255
201 224 255
201 224 255
201 224 255
201 225 255
201 225 255
201 225 255
201 225 255
201 225 255
202 225 255
202 225 255
202 225 255
202 225 255
202 225 255
202 225 255
202 225 255
202 225 255
202 225 255
202 225 255
202 225 255
202 225 255
202 225 255
202 225 255
202 225 255
202 225 255
203 225 255
203 225 255
203 225 255
203 225 255
203 225 255
203 225 255
203 225 255
203 225 255
203 225 255
203 226 255
203 226 255
203 226 255
203 226 255
203 226 255
203 226 255
203 226 255
203 226 255
204 226 255
204 226 255
204 226 255
204 226 255
204 226 255
204 226 255
204 226 255
204 226 255
204 226 255
204 226 255
204 226 255
204 226 255
204 226 255
204 226 255
204 226 255
204 226 255
204 226 255
204 226 255
204 226 255
204 226 255
204 226 255
204 226 255
204 226 255
204 226 255
204 226 255
204 226 255
204 226 255
204 226 255
204 226 255
204 226 255
204 226 255
204 226 255
204 226 255
203 226 255
203 226 255
203 226 255
203 226 255
203 226 255
203 226 255
203 226 255
203 225 255
203 225 255
203 225 255
203 225 255
203 225 255
203 225 255
203 225 255
203 225 255
203 225 255
202 225 255
202 225 255
202 225 255
202 225 255
202 225 255
202 225 255
202 225 255
202 225 255
202 225 255
202 225 255
202 225 255
202 225 255
202 225 255
202 225 255
202 225 255
202 225 255
201 225 255
201 225 255
201 225 255
201 225 255
201 224 255
201 224 255
201 224 255
201 224 255
201 224 255
201 224 255
201 224 255
201 224 255
201 224 255
201 224 255
201 224 255
200 224 255
200 224 255
200 224 255
200 224 255
200 224 255
200 224 255
200 224 255
200 224 255
200 224 255
200 224 255
200 224 255
200 224 255
200 224 255
200 224 255
200 224 255
199 224 255
199 224 255
199 223 255
199 223 255
199 223 255
199 223 255
199 223 255
199 223 255
199 223 255
199 223 255
199 223 255
199 223 255
199 223 255
199 223 255
198 223 255
198 223 255
198 223 255
198 223 255
198 223 255
198 223 255
198 223 255
198 223 255
198 223 255
198 223 255
198 223 255
198 223 255
198 223 255
198 223 255
197 223 255
197 222 255
197 222 255
197 222 255
197 222 255
197 222 255
197 222 255
197 222 255
197 222 255
197 222 255
197 222 255
197 222 255
197 222 255
197 222 255
197 222 255
196 222 255
196 222 255
196 222 255
196 222 255
196 222 255
196 222 255
196 222 255
196 222 255
196 222 255
196 222 255
196 222 255
196 222 255
196 222 255
196 222 255
196 222 255
196 221 255
195 221 255
195 221 255
195 221 255
195 221 255
195 221 255
195 221 255
195 221 255
195 221 255
195 221 255
195 221 255
195 221 255
195 221 255
195 221 255
195 221 255
195 221 255
195 221 255
195 221 255
195 221 255
195 221 255
194 221 255
194 221 255
194 221 255
194 221 255
194 221 255
194 221 255
194 221 255
194 221 255
194 221 255
194 221 255
194 221 255
194 221 255
194 221 255
194 221 255
194 221 255
194 221 255
194 221 255
194 221 255
194 221 255
194 221 255
194 221 255
194 221 255
194 221 255
194 221 255
194 221 255
194 220 255
194 220 255
194 220 255
194 220 255
194 220 255
194 220 255
194 220 255
194 220 255
194 220 255
194 220 255
194 220 255
194 220 255
194 220 255
194 220 255
194 220 255
194 220 255
194 220 255
194 220 255
194 220 255
194 220 255
194 220 255
194 220 255
194 220 255
194 220 255
194 220 255
194 220 255
194 220 255
194 220 255
194 220 255
194 220 255
194 220 255
194 220 255
194 220 255
194 220 255
194 221 255
194 221 255
194 221 255
194 221 255
194 221 255
194 221 255
194 221 255
194 221 255
194 221 255
194 221 255
194 221 255
194 221 255
194 221 255
194 221 255
194 221 255
194 221 255
194 221 255
194 221 255
194 221 255
194 221 255
194 221 255
194 221 255
194 221 255
194 221 255
194 221 255
195 221 255
195 221 255
195 221 255
195 221 255
195 221 255
195 221 255
195 221 255
195 221 255
195 221 255
195 221 255
195 221 255
195 221 255
195 221 255
195 221 255
195 221 255
195 221 255
195 221 255
195 221 255
195 221 255
196 221 255
196 222 255
196 222 255
196 222 255
196 222 255
196 222 255
196 222 255
196 222 255
196 222 255
196 222 255
196 222 255
196 222 255
196 222 255
196 222 255
196 222 255
196 222 255
197 222 255
197 222 255
197 222 255
197 222 255
197 222 255
197 222 255
197 222 255
197 222 255
197 222 255
197 222 255
197 222 255
197 222 255
197 222 255
197 222 255
197 223 255
198 223 255
198 223 255
198 223 255
198 223 255
198 223 255
198 223 255
198 223 255
198 223 255
198 223 255
198 223 255
198 223 255
198 223 255
198 223 255
198 223 255
199 223 255
199 223 255
199 223 255
199 223 255
199 223 255
199 223 255
199 223 255
199 223 255
199 223 255
199 223 255
199 223 255
199 223 255
199 224 255
199 224 255
199 224 255
200 224 255
200 224 255
200 224 255
200 224 255
200 224 255
200 224 255
200 224 255
200 224 255
200 224 255
200 224 255
200 224 255
200 224 255
200 224 255
200 224 255
201 224 255
201 224 255
201 224 255
201 224 255
201 224 255
201 224 255
201 224 255
201 224 255
201 224 255
201 224 255
201 225 255
201 225 255
201 225 255
201 225 255
201 225 255
202 225 255
202 225 255
202 225 255
202 225 255
202 225 255
202 225 255
202 225 255
202 225 255
202 225 255
202 225 255
202 225 255
202 225 255
202 225 255
202 225 255
202 225 255
202 225 255
203 225 255
203 225 255
203 225 255
203 225 255
203 225 255
203 225 255
203 225 255
203 225 255
203 225 255
203 226 255
203 226 255
203 226 255
203 226 255
203 226 255
203 226 255
203 226 255
204 226 255
204 226 255
204 226 255
204 226 255
204 226 255
204 226 255
204 226 255
204 226 255
204 226 255
204 226 255
204 226 255
204 226 255
204 226 255
204 226 255
204 226 255
204 226 255
204 226 255
204 226 255
205 226 255
205 226 255
204 226 255
204 226 255
204 226 255
204 226 255
204 226 255
204 226 255
204 226 255
204 226 255
204 226 255
204 226 255
204 226 255
204 226 255
204 226 255
204 226 255
204 226 255
204 226 255
204 226 255
204 226 255
203 226 255
203 226 255
203 226 255
203 226 255
203 226 255
203 226 255
203 226 255
203 225 255
203 225 255
203 225 255
203 225 255
203 225 255
203 225 255
203 225 255
203 225 255
203 225 255
203 225 255
202 225 255
202 225 255
202 225 255
202 225 255
202 225 255
202 225 255
202 225 255
202 225 255
202 225 255
202 225 255
202 225 255
202 225 255
202 225 255
202 225 255
202 225 255
201 225 255
201 225 255
201 225 255
201 225 255
201 225 255
201 224 255
201 224 255
201 224 255
201 224 255
201 224 255
201 224 255
201 224 255
201 224 255
201 224 255
201 224 255
200 224 255
200 224 255
200 224 255
200 224 255
200 224 255
200 224 255
200 224 255
200 224 255
200 224 255
200 224 255
200 224 255
200 224 255
200 224 255
200 224 255
200 224 255
199 224 255
199 224 255
199 223 255
199 223 255
199 223 255
199 223 255
199 223 255
199 223 255
199 223 255
199 223 255
199 223 255
199 223 255
199 223 255
199 223 255
198 223 255
198 223 255
198 223 255
198 223 255
198 223 255
198 223 255
198 223 255
198 223 255
198 223 255
198 223 255
198 223 255
198 223 255
198 223 255
198 223 255
197 223 255
197 222 255
197 222 255
197 222 255
197 222 255
197 222 255
197 222 255
197 222 255
197 222 255
197 222 255
197 222 255
197 222 255
197 222 255
197 222 255
197 222 255
196 222 255
196 222 255
196 222 255
196 222 255
196 222 255
196 222 255
196 222 255
196 222 255
196 222 255
196 222 255
196 222 255
196 222 255
196 222 255
196 222 255
196 222 255
196 221 255
195 221 255
195 221 255
195 221 255
195 221 255
195 221 255
195 221 255
195 221 255
195 221 255
195 221 255
195 221 255
195 221 255
195 221 255
195 221 255
195 221 255
195 221 255
195 221 255
195 221 255
195 221 255
195 221 255
195 221 255
195 221 255
194 221 255
194 221 255
194 221 255
194 221 255
194 221 255
194 221 255
194 221 255
194 221 255
194 221 255
194 221 255
194 221 255
194 221 255
194 221 255
194 221 255
194 221 255
194 221 255
194 221 255
194 221 255
194 221 255
194 221 255
194 221 255
194 221 255
194 221 255
194 221 255
194 221 255
194 221 255
194 221 255
194 221 255
194 221 255
194 221 255
194 221 255
194 220 255
194 220 255
194 220 255
194 220 255
194 220 255
194 220 255
194 220 255
194 220 255
194 220 255
194 220 255
194 220 255
194 220 255
194 220 255
194 220 255
194 220 255
194 221 255
194 221 255
194 221 255
194 221 255
194 221 255
194 221 255
194 221 255
194 221 255
194 221 255
194 221 255
194 221 255
194 221 255
194 221 255
194 221 255
194 221 255
194 221 255
194 221 255
194 221 255
194 221 255
194 221 255
194 221 255
194 221 255
194 221 255
194 221 255
194 221 255
194 221 255
194 221 255
194 221 255
194 221 255
194 221 255
194 221 255
195 221 255
195 221 255
195 221 255
195 221 255
195 221 255
195 221 255
195 221 255
195 221 255
195 221 255
195 221 255
195 221 255
195 221 255
195 221 255
195 221 255
195 221 255
195 221 255
195 221 255
195 221 255
195 221 255
195 221 255
196 221 255
196 222 255
196 222 255
196 222 255
196 222 255
196 222 255
196 222 255
196 222 255
196 222 255
196 222 255
196 222 255
196 222 255
196 222 255
196 222 255
196 222 255
196 222 255
197 222 255
197 222 255
197 222 255
197 222 255
197 222 255
197 222 255
197 222 255
197 222 255
197 222 255
197 222 255
197 222 255
197 222 255
197 222 255
197 222 255
197 223 255
198 223 255
198 223 255
198 223 255
198 223 255
198 223 255
198 223 255
198 223 255
198 223 255
198 223 255
198 223 255
198 223 255
198 223 255
198 223 255
198 223 255
199 223 255
199 223 255
199 223 255
199 223 255
199 223 255
199 223 255
199 223 255
199 223 255
199 223 255
199 223 255
199 223 255
199 223 255
199 224 255
199 224 255
200 224 255
200 224 255
200 224 255
200 224 255
200 224 255
200 224 255
200 224 255
200 224 255
200 224 255
200 224 255
200 224 255
200 224 255
200 224 255
200 224 255
200 224 255
201 224 255
201 224 255
201 224 255
201 224 255
201 224 255
201 224 255
201 224 255
201 224 255
201 224 255
201 224 255
201 225 255
201 225 255
201 225 255
201 225 255
201 225 255
202 225 255
202 225 255
202 225 255
202 225 255
202 225 255
202 225 255
202 225 255
202 225 255
202 225 255
202 225 255
202 225 255
202 225 255
202 225 255
202 225 255
202 225 255
203 225 255
203 225 255
203 225 255
203 225 255
203 225 255
203 225 255
203 225 255
203 225 255
203 225 255
203 225 255
203 226 255
203 226 255
203 226 255
203 226 255
203 226 255
203 226 255
203 226 255
204 226 255
204 226 255
204 226 255
204 226 255
204 226 255
204 226 255
204 226 255
204 226 255
204 226 255
204 226 255
204 226 255
204 226 255
204 226 255
204 226 255
204 226 255
204 226 255
204 226 255
204 226 255
205 226 255
205 226 255
205 226 255
205 226 255
205 226 255
205 226 255
204 226 255
204 226 255
204 226 255
204 226 255
204 226 255
204 226 255
204 226 255
204 226 255
204 226 255
204 226 255
204 226 255
204 226 255
204 226 255
204 226 255
204 226 255
204 226 255
204 226 255
204 226 255
203 226 255
203 226 255
203 226 255
203 226 255
203 226 255
203 226 255
203 226 255
203 226 255
203 225 255
203 225 255
203 225 255
203 225 255
203 225 255
203 225 255
203 225 255
203 225 255
203 225 255
202 225 255
202 225 255
202 225 255
202 225 255
202 225 255
202 225 255
202 225 255
202 225 255
202 225 255
202 225 255
202 225 255
202 225 255
202 225 255
202 225 255
202 225 255
201 225 255
201 225 255
201 225 255
201 225 255
201 225 255
201 224 255
201 224 255
201 224 255
201 224 255
201 224 255
201 224 255
201 224 255
201 224 255
201 224 255
201 224 255
200 224 255
200 224 255
200 224 255
200 224 255
200 224 255
200 224 255
200 224 255
200 224 255
200 224 255
200 224 255
200 224 255
200 224 255
200 224 255
200 224 255
200 224 255
199 224 255
199 224 255
199 223 255
199 223 255
199 223 255
199 223 255
199 223 255
199 223 255
199 223 255
199 223 255
199 223 255
199 223 255
199 223 255
199 223 255
198 223 255
198 223 255
198 223 255
198 223 255
198 223 255
198 223 255
198 223 255
198 223 255
198 223 255
198 223 255
198 223 255
198 223 255
198 223 255
198 223 255
197 223 255
197 222 255
197 222 255
197 222 255
197 222 255
197 222 255
197 222 255
197 222 255
197 222 255
197 222 255
197 222 255
197 222 255
197 222 255
197 222 255
197 222 255
196 222 255
196 222 255
196 222 255
196 222 255
196 222 255
196 222 255
196 222 255
196 222 255
196 222 255
196 222 255
196 222 255
196 222 255
196 222 255
196 222 255
196 222 255
196 221 255
196 221 255
195 221 255
195 221 255
195 221 255
195 221 255
195 221 255
195 221 255
195 221 255
195 221 255
195 221 255
195 221 255
195 221 255
195 221 255
195 221 255
195 221 255
195 221 255
195 221 255
195 221 255
195 221 255
195 221 255
195 221 255
195 221 255
194 221 255
194 221 255
194 221 255
194 221 255
194 221 255
194 221 255
194 221 255
194 221 255
194 221 255
194 221 255
194 221 255
194 221 255
194 221 255
194 221 255
194 221 255
194 221 255
194 221 255
194 221 255
194 221 255
194 221 255
194 221 255
194 221 255
194 221 255
194 221 255
194 221 255
194 221 255
194 221 255
194 221 255
194 221 255
194 221 255
194 221 255
194 221 255
194 221 255
194 221 255
194 221 255
194 221 255
194 221 255
194 221 255
194 221 255
194 221 255
194 221 255
194 221 255
194 221 255
194 221 255
194 221 255
194 221 255
194 221 255
194 221 255
194 221 255
194 221 255
194 221 255
194 221 255
194 221 255
194 221 255
194 221 255
194 221 255
194 221 255
194 221 255
194 221 255
194 221 255
194 221 255
194 221 255
194 221 255
194 221 255
194 221 255
194 221 255
194 221 255
194 221 255
194 221 255
194 221 255
195 221 255
195 221 255
195 221 255
195 221 255
195 221 255
195 221 255
195 221 255
195 221 255
195 221 255
195 221 255
195 221 255
195 221 255
195 221 255
195 221 255
195 221 255
195 221 255
195 221 255
195 221 255
195 221 255
195 221 255
195 221 255
196 221 255
196 222 255
196 222 255
196 222 255
196 222 255
196 222 255
196 222 255
196 222 255
196 222 255
196 222 255
196 222 255
196 222 255
196 222 255
196 222 255
196 222 255
196 222 255
196 222 255
197 222 255
197 222 255
197 222 255
197 222 255
197 222 255
197 222 255
197 222 255
197 222 255
197 222 255
197 222 255
197 222 255
197 222 255
197 222 255
197 222 255
197 223 255
198 223 255
198 223 255
198 223 255
198 223 255
198 223 255
198 223 255
198 223 255
198 223 255
198 223 255
198 223 255
198 223 255
198 223 255
198 223 255
198 223 255
199 223 255
199 223 255
199 223 255
199 223 255
199 223 255
199 223 255
199 223 255
199 223 255
199 223 255
199 223 255
199 223 255
199 223 255
199 224 255
199 224 255
200 224 255
200 224 255
200 224 255
200 224 255
200 224 255
200 224 255
200 224 255
200 224 255
200 224 255
200 224 255
200 224 255
200 224 255
200 224 255
200 224 255
200 224 255
201 224 255
201 224 255
201 224 255
201 224 255
201 224 255
201 224 255
201 224 255
201 224 255
201 224 255
201 224 255
201 225 255
201 225 255
201 225 255
201 225 255
201 225 255
202 225 255
202 225 255
202 225 255
202 225 255
202 225 255
202 225 255
202 225 255
202 225 255
202 225 255
202 225 255
202 225 255
202 225 255
202 225 255
202 225 255
202 225 255
203 225 255
203 225 255
203 225 255
203 225 255
203 225 255
203 225 255
203 225 255
203 225 255
203 225 255
203 226 255
203 226 255
203 226 255
203 226 255
203 226 255
203 226 255
203 226 255
203 226 255
204 226 255
204 226 255
204 226 255
204 226 255
204 226 255
204 226 255
204 226 255
204 226 255
204 226 255
204 226 255
204 226 255
204 226 255
204 226 255
204 226 255
204 226 255
204 226 255
204 226 255
204 226 255
205 226 255
205 226 255
205 226 255
205 226 255
205 226 255
205 226 255
205 226 255
205 226 255
205 226 255
205 226 255
205 226 255
204 226 255
204 226 255
204 226 255
204 226 255
204 226 255
204 226 255
204 226 255
204 226 255
204 226 255
204 226 255
204 226 255
204 226 255
204 226 255
204 226 255
204 226 255
204 226 255
204 226 255
204 226 255
203 226 255
203 226 255
203 226 255
203 226 255
203 226 255
203 226 255
203 226 255
203 225 255
203 225 255
203 225 255
203 225 255
203 225 255
203 225 255
203 225 255
203 225 255
203 225 255
202 225 255
202 225 255
202 225 255
202 225 255
202 225 255
202 225 255
202 225 255
202 225 255
202 225 255
202 225 255
202 225 255
202 225 255
202 225 255
202 225 255
202 225 255
202 225 255
201 225 255
201 225 255
201 225 255
201 225 255
201 224 255
201 224 255
201 224 255
201 224 255
201 224 255
201 224 255
201 224 255
201 224 255
201 224 255
201 224 255
200 224 255
200 224 255
200 224 255
200 224 255
200 224 255
200 224 255
200 224 255
200 224 255
200 224 255
200 224 255
200 224 255
200 224 255
200 224 255
200 224 255
200 224 255
199 224 255
199 224 255
199 223 255
199 223 255
199 223 255
199 223 255
199 223 255
199 223 255
199 223 255
199 223 255
199 223 255
199 223 255
199 223 255
199 223 255
198 223 255
198 223 255
198 223 255
198 223 255
198 223 255
198 223 255
198 223 255
198 223 255
198 223 255
198 223 255
198 223 255
198 223 255
198 223 255
198 223 255
197 223 255
197 222 255
197 222 255
197 222 255
197 222 255
197 222 255
197 222 255
197 222 255
197 222 255
197 222 255
197 222 255
197 222 255
197 222 255
197 222 255
197 222 255
197 222 255
196 222 255
196 222 255
196 222 255
196 222 255
196 222 255
196 222 255
196 222 255
196 222 255
196 222 255
196 222 255
196 222 255
196 222 255
196 222 255
196 222 255
196 222 255
196 221 255
196 221 255
195 221 255
195 221 255
195 221 255
195 221 255
195 221 255
195 221 255
195 221 255
195 221 255
195 221 255
195 221 255
195 221 255
195 221 255
195 221 255
195 221 255
195 221 255
195 221 255
195 221 255
195 221 255
195 221 255
195 221 255
195 221 255
195 221 255
194 221 255
194 221 255
194 221 255
194 221 255
194 221 255
194 221 255
194 221 255
194 221 255
194 221 255
194 221 255
194 221 255
194 221 255
194 221 255
194 221 255
194 221 255
194 221 255
194 221 255
194 221 255
194 221 255
194 221 255
194 221 255
194 221 255
194 221 255
194 221 255
194 221 255
194 221 255
194 221 255
194 221 255
194 221 255
194 221 255
194 221 255
194 221 255
194 221 255
194 221 255
194 221 255
194 221 255
194 221 255
194 221 255
194 221 255
194 221 255
194 221 255
194 221 255
194 221 255
194 221 255
194 221 255
194 221 255
194 221 255
194 221 255
194 221 255
194 221 255
194 221 255
194 221 255
194 221 255
194 221 255
194 221 255
194 221 255
194 221 255
194 221 255
194 221 255
194 221 255
194 221 255
194 221 255
195 221 255
195 221 255
195 221 255
195 221 255
195 221 255
195 221 255
195 221 255
195 221 255
195 221 255
195 221 255
195 221 255
195 221 255
195 221 255
195 221 255
195 221 255
195 221 255
195 221 255
195 221 255
195 221 255
195 221 255
195 221 255
195 221 255
196 221 255
196 221 255
196 222 255
196 222 255
196 222 255
196 222 255
196 222 255
196 222 255
196 222 255
196 222 255
196 222 255
196 222 255
196 222 255
196 222 255
196 222 255
196 222 255
196 222 255
197 222 255
197 222 255
197 222 255
197 222 255
197 222 255
197 222 255
197 222 255
197 222 255
197 222 255
197 222 255
197 222 255
197 222 255
197 222 255
197 222 255
197 222 255
197 223 255
198 223 255
198 223 255
198 223 255
198 223 255
198 223 255
198 223 255
198 223 255
198 223 255
198 223 255
198 223 255
198 223 255
198 223 255
198 223 255
198 223 255
199 223 255
199 223 255
199 223 255
199 223 255
199 223 255
199 223 255
199 223 255
199 223 255
199 223 255
199 223 255
199 223 255
199 223 255
199 224 255
199 224 255
200 224 255
200 224 255
200 224 255
200 224 255
200 224 255
200 224 255
200 224 255
200 224 255
200 224 255
200 224 255
200 224 255
200 224 255
200 224 255
200 224 255
200 224 255
201 224 255
201 224 255
201 224 255
201 224 255
201 224 255
201 224 255
201 224 255
201 224 255
201 224 255
201 224 255
201 225 255
201 225 255
201 225 255
201 225 255
202 225 255
202 225 255
202 225 255
202 225 255
202 225 255
202 225 255
202 225 255
202 225 255
202 225 255
202 225 255
202 225 255
202 225 255
202 225 255
202 225 255
202 225 255
202 225 255
203 225 255
203 225 255
203 225 255
203 225 255
203 225 255
203 225 255
203 225 255
203 225 255
203 225 255
203 226 255
203 226 255
203 226 255
203 226 255
203 226 255
203 226 255
203 226 255
203 226 255
204 226 255
204 226 255
204 226 255
204 226 255
204 226 255
204 226 255
204 226 255
204 226 255
204 226 255
204 226 255
204 226 255
204 226 255
204 226 255
204 226 255
204 226 255
204 226 255
204 226 255
205 226 255
205 226 255
205 226 255
205 226 255
205 226 255
205 226 255
205 226 255
205 227 255
205 227 255
205 226 255
205 226 255
205 226 255
205 226 255
205 226 255
205 226 255
205 226 255
204 226 255
204 226 255
204 226 255
204 226 255
204 226 255
204 226 255
204 226 255
204 226 255
204 226 255
204 226 255
204 226 255
204 226 255
204 226 255
204 226 255
204 226 255
204 226 255
204 226 255
204 226 255
203 226 255
203 226 255
203 226 255
203 226 255
203 226 255
203 226 255
203 226 255
203 225 255
203 225 255
203 225 255
203 225 255
203 225 255
203 225 255
203 225 255
203 225 255
203 225 255
202 225 255
202 225 255
202 225 255
202 225 255
202 225 255
202 225 255
202 225 255
202 225 255
202 225 255
202 225 255
202 225 255
202 225 255
202 225 255
202 225 255
202 225 255
202 225 255
201 225 255
201 225 255
201 225 255
201 225 255
201 224 255
201 224 255
201 224 255
201 224 255
201 224 255
201 224 255
201 224 255
201 224 255
201 224 255
201 224 255
200 224 255
200 224 255
200 224 255
200 224 255
200 224 255
200 224 255
200 224 255
200 224 255
200 224 255
200 224 255
200 224 255
200 224 255
200 224 255
200 224 255
200 224 255
199 224 255
199 224 255
199 223 255
199 223 255
199 223 255
199 223 255
199 223 255
199 223 255
199 223 255
199 223 255
199 223 255
199 223 255
199 223 255
199 223 255
198 223 255
198 223 255
198 223 255
198 223 255
198 223 255
198 223 255
198 223 255
198 223 255
198 223 255
198 223 255
198 223 255
198 223 255
198 223 255
198 223 255
198 223 255
197 222 255
197 222 255
197 222 255
197 222 255
197 222 255
197 222 255
197 222 255
197 222 255
197 222 255
197 222 255
197 222 255
197 222 255
197 222 255
197 222 255
197 222 255
196 222 255
196 222 255
196 222 255
196 222 255
196 222 255
196 222 255
196 222 255
196 222 255
196 222 255
196 222 255
196 222 255
196 222 255
196 222 255
196 222 255
196 222 255
196 222 255
196 221 255
195 221 255
195 221 255
195 221 255
195 221 255
195 221 255
195 221 255
195 221 255
195 221 255
195 221 255
195 221 255
195 221 255
195 221 255
195 221 255
195 221 255
195 221 255
195 221 255
195 221 255
195 221 255
195 221 255
195 221 255
195 221 255
195 221 255
195 221 255
195 221 255
194 221 255
194 221 255
194 221 255
194 221 255
194 221 255
194 221 255
194 221 255
194 221 255
194 221 255
194 221 255
194 221 255
194 221 255
194 221 255
194 221 255
194 221 255
194 221 255
194 221 255
194 221 255
194 221 255
194 221 255
194 221 255
194 221 255
194 221 255
194 221 255
194 221 255
194 221 255
194 221 255
194 221 255
194 221 255
194 221 255
194 221 255
194 221 255
194 221 255
194 221 255
194 221 255
194 221 255
194 221 255
194 221 255
194 221 255
194 221 255
194 221 255
194 221 255
194 221 255
194 221 255
194 221 255
194 221 255
194 221 255
194 221 255
194 221 255
194 221 255
194 221 255
194 221 255
194 221 255
194 221 255
195 221 255
195 221 255
195 221 255
195 221 255
195 221 255
195 221 255
195 221 255
195 221 255
195 221 255
195 221 255
195 221 255
195 221 255
195 221 255
195 221 255
195 221 255
195 221 255
195 221 255
195 221 255
195 221 255
195 221 255
195 221 255
195 221 255
195 221 255
195 221 255
196 221 255
196 222 255
196 222 255
196 222 255
196 222 255
196 222 255
196 222 255
196 222 255
196 222 255
196 222 255
196 222 255
196 222 255
196 222 255
196 222 255
196 222 255
196 222 255
196 222 255
197 222 255
197 222 255
197 222 255
197 222 255
197 222 255
197 222 255
197 222 255
197 222 255
197 222 255
197 222 255
197 222 255
197 222 255
197 222 255
197 222 255
197 222 255
198 223 255
198 223 255
198 223 255
198 223 255
198 223 255
198 223 255
198 223 255
198 223 255
198 223 255
198 223 255
198 223 255
198 223 255
198 223 255
198 223 255
198 223 255
199 223 255
199 223 255
199 223 255
199 223 255
199 223 255
199 223 255
199 223 255
199 223 255
199 223 255
199 223 255
199 223 255
199 223 255
199 224 255
199 224 255
200 224 255
200 224 255
200 224 255
200 224 255
200 224 255
200 224 255
200 224 255
200 224 255
200 224 255
200 224 255
200 224 255
200 224 255
200 224 255
200 224 255
200 224 255
201 224 255
201 224 255
201 224 255
201 224 255
201 224 255
201 224 255
201 224 255
201 224 255
201 224 255
201 224 255
201 225 255
201 225 255
201 225 255
201 225 255
202 225 255
202 225 255
202 225 255
202 225 255
202 225 255
202 225 255
202 225 255
202 225 255
202 225 255
202 225 255
202 225 255
202 225 255
202 225 255
202 225 255
202 225 255
202 225 255
203 225 255
203 225 255
203 225 255
203 225 255
203 225 255
203 225 255
203 225 255
203 225 255
203 225 255
203 226 255
203 226 255
203 226 255
203 226 255
203 226 255
203 226 255
203 226 255
204 226 255
204 226 255
204 226 255
204 226 255
204 226 255
204 226 255
204 226 255
204 226 255
204 226 255
204 226 255
204 226 255
204 226 255
204 226 255
204 226 255
204 226 255
204 226 255
204 226 255
204 226 255
205 226 255
205 226 255
205 226 255
205 226 255
205 226 255
205 226 255
205 226 255
205 227 255
205 227 255
205 227 255
205 227 255
205 227 255
205 227 255
205 226 255
205 226 255
205 226 255
205 226 255
205 226 255
205 226 255
205 226 255
205 226 255
204 226 255
204 226 255
204 226 255
204 226 255
204 226 255
204 226 255
204 226 255
204 226 255
204 226 255
204 226 255
204 226 255
204 226 255
204 226 255
204 226 255
204 226 255
204 226 255
204 226 255
203 226 255
203 226 255
203 226 255
203 226 255
203 226 255
203 226 255
203 226 255
203 225 255
203 225 255
203 225 255
203 225 255
203 225 255
203 225 255
203 225 255
203 225 255
203 225 255
202 225 255
202 225 255
202 225 255
202 225 255
202 225 255
202 225 255
202 225 255
202 225 255
202 225 255
202 225 255
202 225 255
202 225 255
202 225 255
202 225 255
202 225 255
202 225 255
201 225 255
201 225 255
201 225 255
201 225 255
201 224 255
201 224 255
201 224 255
201 224 255
201 224 255
201 224 255
201 224 255
201 224 255
201 224 255
201 224 255
200 224 255
200 224 255
200 224 255
200 224 255
200 224 255
200 224 255
200 224 255
200 224 255
200 224 255
200 224 255
200 224 255
200 224 255
200 224 255
200 224 255
200 224 255
199 224 255
199 224 255
199 223 255
199 223 255
199 223 255
199 223 255
199 223 255
199 223 255
199 223 255
199 223 255
199 223 255
199 223 255
199 223 255
199 223 255
198 223 255
198 223 255
198 223 255
198 223 255
198 223 255
198 223 255
198 223 255
198 223 255
198 223 255
198 223 255
198 223 255
198 223 255
198 223 255
198 223 255
198 223 255
197 222 255
197 222 255
197 222 255
197 222 255
197 222 255
197 222 255
197 222 255
197 222 255
197 222 255
197 222 255
197 222 255
197 222 255
197 222 255
197 222 255
197 222 255
196 222 255
196 222 255
196 222 255
196 222 255
196 222 255
196 222 255
196 222 255
196 222 255
196 222 255
196 222 255
196 222 255
196 222 255
196 222 255
196 222 255
196 222 255
196 222 255
196 222 255
196 221 255
195 221 255
195 221 255
195 221 255
195 221 255
195 221 255
195 221 255
195 221 255
195 221 255
195 221 255
195 221 255
195 221 255
195 221 255
195 221 255
195 221 255
195 221 255
195 221 255
195 221 255
195 221 255
195 221 255
195 221 255
195 221 255
195 221 255
195 221 255
195 221 255
195 221 255
195 221 255
194 221 255
194 221 255
194 221 255
194 221 255
194 221 255
194 221 255
194 221 255
194 221 255
194 221 255
194 221 255
194 221 255
194 221 255
194 221 255
194 221 255
194 221 255
194 221 255
194 221 255
194 221 255
194 221 255
194 221 255
194 221 255
194 221 255
194 221 255
194 221 255
194 221 255
194 221 255
194 221 255
194 221 255
194 221 255
194 221 255
194 221 255
194 221 255
194 221 255
194 221 255
194 221 255
194 221 255
194 221 255
194 221 255
194 221 255
194 221 255
194 221 255
194 221 255
194 221 255
194 221 255
195 221 255
195 221 255
195 221 255
195 221 255
195 221 255
195 221 255
195 221 255
195 221 255
195 221 255
195 221 255
195 221 255
195 221 255
195 221 255
195 221 255
195 221 255
195 221 255
195 221 255
195 221 255
195 221 255
195 221 255
195 221 255
195 221 255
195 221 255
195 221 255
195 221 255
195 221 255
196 221 255
196 222 255
196 222 255
196 222 255
196 222 255
196 222 255
196 222 255
196 222 255
196 222 255
196 222 255
196 222 255
196 222 255
196 222 255
196 222 255
196 222 255
196 222 255
196 222 255
196 222 255
197 222 255
197 222 255
197 222 255
197 222 255
197 222 255
197 222 255
197 222 255
197 222 255
197 222 255
197 222 255
197 222 255
197 222 255
197 222 255
197 222 255
197 222 255
198 223 255
198 223 255
198 223 255
198 223 255
198 223 255
198 223 255
198 223 255
198 223 255
198 223 255
198 223 255
198 223 255
198 223 255
198 223 255
198 223 255
198 223 255
199 223 255
199 223 255
199 223 255
199 223 255
199 223 255
199 223 255
199 223 255
199 223 255
199 223 255
199 223 255
199 223 255
199 223 255
199 224 255
199 224 255
200 224 255
200 224 255
200 224 255
200 224 255
200 224 255
200 224 255
200 224 255
200 224 255
200 224 255
200 224 255
200 224 255
200 224 255
200 224 255
200 224 255
200 224 255
201 224 255
201 224 255
201 224 255
201 224 255
201 224 255
201 224 255
201 224 255
201 224 255
201 224 255
201 224 255
201 225 255
201 225 255
201 225 255
201 225 255
202 225 255
202 225 255
202 225 255
202 225 255
202 225 255
202 225 255
202 225 255
202 225 255
202 225 255
202 225 255
202 225 255
202 225 255
202 225 255
202 225 255
202 225 255
202 225 255
203 225 255
203 225 255
203 225 255
203 225 255
203 225 255
203 225 255
203 225 255
203 225 255
203 225 255
203 226 255
203 226 255
203 226 255
203 226 255
203 226 255
203 226 255
203 226 255
204 226 255
204 226 255
204 226 255
204 226 255
204 226 255
204 226 255
204 226 255
204 226 255
204 226 255
204 226 255
204 226 255
204 226 255
204 226 255
204 226 255
204 226 255
204 226 255
204 226 255
204 226 255
205 226 255
205 226 255
205 226 255
205 226 255
205 226 255
205 226 255
205 226 255
205 227 255
205 227 255
205 227 255
205 227 255
205 227 255
205 227 255
205 227 255
205 227 255
205 227 255
205 227 255
205 227 255
205 226 255
205 226 255
205 226 255
205 226 255
205 226 255
205 226 255
205 226 255
204 226 255
204 226 255
204 226 255
204 226 255
204 226 255
204 226 255
204 226 255
204 226 255
204 226 255
204 226 255
204 226 255
204 226 255
204 226 255
204 226 255
204 226 255
204 226 255
204 226 255
203 226 255
203 226 255
203 226 255
203 226 255
203 226 255
203 226 255
203 226 255
203 226 255
203 225 255
203 225 255
203 225 255
203 225 255
203 225 255
203 225 255
203 225 255
203 225 255
202 225 255
202 225 255
202 225 255
202 225 255
202 225 255
202 225 255
202 225 255
202 225 255
202 225 255
202 225 255
202 225 255
202 225 255
202 225 255
202 225 255
202 225 255
202 225 255
201 225 255
201 225 255
201 225 255
201 225 255
201 224 255
201 224 255
201 224 255
201 224 255
201 224 255
201 224 255
201 224 255
201 224 255
201 224 255
201 224 255
201 224 255
200 224 255
200 224 255
200 224 255
200 224 255
200 224 255
200 224 255
200 224 255
200 224 255
200 224 255
200 224 255
200 224 255
200 224 255
200 224 255
200 224 255
199 224 255
199 224 255
199 223 255
199 223 255
199 223 255
199 223 255
199 223 255
199 223 255
199 223 255
199 223 255
199 223 255
199 223 255
199 223 255
199 223 255
198 223 255
198 223 255
198 223 255
198 223 255
198 223 255
198 223 255
198 223 255
198 223 255
198 223 255
198 223 255
198 223 255
198 223 255
198 223 255
198 223 255
198 223 255
197 223 255
197 222 255
197 222 255
197 222 255
197 222 255
197 222 255
197 222 255
197 222 255
197 222 255
197 222 255
197 222 255
197 222 255
197 222 255
197 222 255
197 222 255
197 222 255
196 222 255
196 222 255
196 222 255
196 222 255
196 222 255
196 222 255
196 222 255
196 222 255
196 222 255
196 222 255
196 222 255
196 222 255
196 222 255
196 222 255
196 222 255
196 222 255
196 222 255
196 221 255
195 221 255
195 221 255
195 221 255
195 221 255
195 221 255
195 221 255
195 221 255
195 221 255
195 221 255
195 221 255
195 221 255
195 221 255
195 221 255
195 221 255
195 221 255
195 221 255
195 221 255
195 221 255
195 221 255
195 221 255
195 221 255
195 221 255
195 221 255
195 221 255
195 221 255
195 221 255
195 221 255
195 221 255
195 221 255
195 221 255
194 221 255
194 221 255
194 221 255
194 221 255
194 221 255
194 221 255
194 221 255
194 221 255
194 221 255
194 221 255
194 221 255
194 221 255
194 221 255
194 221 255
194 221 255
194 221 255
194 221 255
194 221 255
194 221 255
194 221 255
194 221 255
194 221 255
194 221 255
194 221 255
194 221 255
194 221 255
194 221 255
194 221 255
194 221 255
194 221 255
195 221 255
195 221 255
195 221 255
195 221 255
195 221 255
195 221 255
195 221 255
195 221 255
195 221 255
195 221 255
195 221 255
195 221 255
195 221 255
195 221 255
195 221 255
195 221 255
195 221 255
195 221 255
195 221 255
195 221 255
195 221 255
195 221 255
195 221 255
195 221 255
195 221 255
195 221 255
195 221 255
195 221 255
195 221 255
195 221 255
196 221 255
196 222 255
196 222 255
196 222 255
196 222 255
196 222 255
196 222 255
196 222 255
196 222 255
196 222 255
196 222 255
196 222 255
196 222 255
196 222 255
196 222 255
196 222 255
196 222 255
196 222 255
197 222 255
197 222 255
197 222 255
197 222 255
197 222 255
197 222 255
197 222 255
197 222 255
197 222 255
197 222 255
197 222 255
197 222 255
197 222 255
197 222 255
197 222 255
197 223 255
198 223 255
198 223 255
198 223 255
198 223 255
198 223 255
198 223 255
198 223 255
198 223 255
198 223 255
198 223 255
198 223 255
198 223 255
198 223 255
198 223 255
198 223 255
199 223 255
199 223 255
199 223 255
199 223 255
199 223 255
199 223 255
199 223 255
199 223 255
199 223 255
199 223 255
199 223 255
199 223 255
199 224 255
199 224 255
200 224 255
200 224 255
200 224 255
200 224 255
200 224 255
200 224 255
200 224 255
200 224 255
200 224 255
200 224 255
200 224 255
200 224 255
200 224 255
200 224 255
201 224 255
201 224 255
201 224 255
201 224 255
201 224 255
201 224 255
201 224 255
201 224 255
201 224 255
201 224 255
201 224 255
201 225 255
201 225 255
201 225 255
201 225 255
202 225 255
202 225 255
202 225 255
202 225 255
202 225 255
202 225 255
202 225 255
202 225 255
202 225 255
202 225 255
202 225 255
202 225 255
202 225 255
202 225 255
202 225 255
203 225 255
203 225 255
203 225 255
203 225 255
203 225 255
203 225 255
203 225 255
203 225 255
203 225 255
203 226 255
203 226 255
203 226 255
203 226 255
203 226 255
203 226 255
203 226 255
203 226 255
204 226 255
204 226 255
204 226 255
204 226 255
204 226 255
204 226 255
204 226 255
204 226 255
204 226 255
204 226 255
204 226 255
204 226 255
204 226 255
204 226 255
204 226 255
204 226 255
204 226 255
205 226 255
205 226 255
205 226 255
205 226 255
205 226 255
205 226 255
205 226 255
205 227 255
205 227 255
205 227 255
205 227 255
205 227 255
205 227 255
205 227 255
205 227 255
205 227 255
205 227 255
205 227 255
205 227 255
205 227 255
205 227 255
205 227 255
205 227 255
205 226 255
205 226 255
205 226 255
205 226 255
205 226 255
205 226 255
205 226 255
204 226 255
204 226 255
204 226 255
204 226 255
204 226 255
204 226 255
204 226 255
204 226 255
204 226 255
204 226 255
204 226 255
204 226 255
204 226 255
204 226 255
204 226 255
204 226 255
204 226 255
204 226 255
203 226 255
203 226 255
203 226 255
203 226 255
203 226 255
203 226 255
203 226 255
203 225 255
203 225 255
203 225 255
203 225 255
203 225 255
203 225 255
203 225 255
203 225 255
203 225 255
202 225 255
202 225 255
202 225 255
202 225 255
202 225 255
202 225 255
202 225 255
202 225 255
202 225 255
202 225 255
202 225 255
202 225 255
202 225 255
202 225 255
202 225 255
201 225 255
201 225 255
201 225 255
201 225 255
201 224 255
201 224 255
201 224 255
201 224 255
201 224 255
201 224 255
201 224 255
201 224 255
201 224 255
201 224 255
201 224 255
200 224 255
200 224 255
200 224 255
200 224 255
200 224 255
200 224 255
200 224 255
200 224 255
200 224 255
200 224 255
200 224 255
200 224 255
200 224 255
200 224 255
199 224 255
199 224 255
199 223 255
199 223 255
199 223 255
199 223 255
199 223 255
199 223 255
199 223 255
199 223 255
199 223 255
199 223 255
199 223 255
199 223 255
199 223 255
198 223 255
198 223 255
198 223 255
198 223 255
198 223 255
198 223 255
198 223 255
198 223 255
198 223 255
198 223 255
198 223 255
198 223 255
198 223 255
198 223 255
197 223 255
197 222 255
197 222 255
197 222 255
197 222 255
197 222 255
197 222 255
197 222 255
197 222 255
197 222 255
197 222 255
197 222 255
197 222 255
197 222 255
197 222 255
197 222 255
197 222 255
196 222 255
196 222 255
196 222 255
196 222 255
196 222 255
196 222 255
196 222 255
196 222 255
196 222 255
196 222 255
196 222 255
196 222 255
196 222 255
196 222 255
196 222 255
196 222 255
196 222 255
196 221 255
196 221 255
195 221 255
195 221 255
195 221 255
195 221 255
195 221 255
195 221 255
195 221 255
195 221 255
195 221 255
195 221 255
195 221 255
195 221 255
195 221 255
195 221 255
195 221 255
195 221 255
195 221 255
195 221 255
195 221 255
195 221 255
195 221 255
195 221 255
195 221 255
195 221 255
195 221 255
195 221 255
195 221 255
195 221 255
195 221 255
195 221 255
195 221 255
195 221 255
195 221 255
195 221 255
195 221 255
195 221 255
195 221 255
195 221 255
195 221 255
195 221 255
195 221 255
195 221 255
195 221 255
195 221 255
195 221 255
195 221 255
195 221 255
195 221 255
195 221 255
195 221 255
195 221 255
195 221 255
195 221 255
195 221 255
195 221 255
195 221 255
195 221 255
195 221 255
195 221 255
195 221 255
195 221 255
195 221 255
195 221 255
195 221 255
195 221 255
195 221 255
195 221 255
195 221 255
195 221 255
195 221 255
195 221 255
195 221 255
195 221 255
195 221 255
195 221 255
195 221 255
195 221 255
195 221 255
195 221 255
195 221 255
195 221 255
195 221 255
196 221 255
196 221 255
196 222 255
196 222 255
196 222 255
196 222 255
196 222 255
196 222 255
196 222 255
196 222 255
196 222 255
196 222 255
196 222 255
196 222 255
196 222 255
196 222 255
196 222 255
196 222 255
196 222 255
197 222 255
197 222 255
197 222 255
197 222 255
197 222 255
197 222 255
197 222 255
197 222 255
197 222 255
197 222 255
197 222 255
197 222 255
197 222 255
197 222 255
197 222 255
197 222 255
197 223 255
198 223 255
198 223 255
198 223 255
198 223 255
198 223 255
198 223 255
198 223 255
198 223 255
198 223 255
198 223 255
198 223 255
198 223 255
198 223 255
198 223 255
199 223 255
199 223 255
199 223 255
199 223 255
199 223 255
199 223 255
199 223 255
199 223 255
199 223 255
199 223 255
199 223 255
199 223 255
199 223 255
199 224 255
199 224 255
200 224 255
200 224 255
200 224 255
200 224 255
200 224 255
200 224 255
200 224 255
200 224 255
200 224 255
200 224 255
200 224 255
200 224 255
200 224 255
200 224 255
201 224 255
201 224 255
201 224 255
201 224 255
201 224 255
201 224 255
201 224 255
201 224 255
201 224 255
201 224 255
201 225 255
201 225 255
201 225 255
201 225 255
201 225 255
202 225 255
202 225 255
202 225 255
202 225 255
202 225 255
202 225 255
202 225 255
202 225 255
202 225 255
202 225 255
202 225 255
202 225 255
202 225 255
202 225 255
202 225 255
203 225 255
203 225 255
203 225 255
203 225 255
203 225 255
203 225 255
203 225 255
203 225 255
203 225 255
203 226 255
203 226 255
203 226 255
203 226 255
203 226 255
203 226 255
203 226 255
204 226 255
204 226 255
204 226 255
204 226 255
204 226 255
204 226 255
204 226 255
204 226 255
204 226 255
204 226 255
204 226 255
204 226 255
204 226 255
204 226 255
204 226 255
204 226 255
204 226 255
204 226 255
205 226 255
205 226 255
205 226 255
205 226 255
205 226 255
205 226 255
205 226 255
205 227 255
205 227 255
205 227 255
205 227 255
205 227 255
205 227 255
205 227 255
205 227 255
205 227 255
205 227 255
205 227 255
205 227 255
205 227 255
205 227 255
205 227 255
205 227 255
205 227 255
205 227 255
205 227 255
205 227 255
205 227 255
205 226 255
205 226 255
205 226 255
205 226 255
205 226 255
205 226 255
205 226 255
204 226 255
204 226 255
204 226 255
204 226 255
204 226 255
204 226 255
204 226 255
204 226 255
204 226 255
204 226 255
204 226 255
204 226 255
204 226 255
204 226 255
204 226 255
204 226 255
204 226 255
203 226 255
203 226 255
203 226 255
203 226 255
203 226 255
203 226 255
203 226 255
203 225 255
203 225 255
203 225 255
203 225 255
203 225 255
203 225 255
203 225 255
203 225 255
203 225 255
202 225 255
202 225 255
202 225 255
202 225 255
202 225 255
202 225 255
202 225 255
202 225 255
202 225 255
202 225 255
202 225 255
202 225 255
202 225 255
202 225 255
202 225 255
201 225 255
201 225 255
201 225 255
201 225 255
201 225 255
201 224 255
201 224 255
201 224 255
201 224 255
201 224 255
201 224 255
201 224 255
201 224 255
201 224 255
201 224 255
200 224 255
200 224 255
200 224 255
200 224 255
200 224 255
200 224 255
200 224 255
200 224 255
200 224 255
200 224 255
200 224 255
200 224 255
200 224 255
200 224 255
199 224 255
199 224 255
199 224 255
199 223 255
199 223 255
199 223 255
199 223 255
199 223 255
199 223 255
199 223 255
199 223 255
199 223 255
199 223 255
199 223 255
199 223 255
198 223 255
198 223 255
198 223 255
198 223 255
198 223 255
198 223 255
198 223 255
198 223 255
198 223 255
198 223 255
198 223 255
198 223 255
198 223 255
198 223 255
198 223 255
197 222 255
197 222 255
197 222 255
197 222 255
197 222 255
197 222 255
197 222 255
197 222 255
197 222 255
197 222 255
197 222 255
197 222 255
197 222 255
197 222 255
197 222 255
197 222 255
196 222 255
196 222 255
196 222 255
196 222 255
196 222 255
196 222 255
196 222 255
196 222 255
196 222 255
196 222 255
196 222 255
196 222 255
196 222 255
196 222 255
196 222 255
196 222 255
196 222 255
196 222 255
196 221 255
196 221 255
195 221 255
195 221 255
195 221 255
195 221 255
195 221 255
195 221 255
195 221 255
195 221 255
195 221 255
195 221 255
195 221 255
195 221 255
195 221 255
195 221 255
195 221 255
195 221 255
195 221 255
195 221 255
195 221 255
195 221 255
195 221 255
195 221 255
195 221 255
195 221 255
195 221 255
195 221 255
195 221 255
195 221 255
195 221 255
195 221 255
195 221 255
195 221 255
195 221 255
195 221 255
195 221 255
195 221 255
195 221 255
195 221 255
195 221 255
195 221 255
195 221 255
195 221 255
195 221 255
195 221 255
195 221 255
195 221 255
195 221 255
195 221 255
195 221 255
195 221 255
195 221 255
195 221 255
195 221 255
195 221 255
195 221 255
195 221 255
195 221 255
195 221 255
195 221 255
195 221 255
195 221 255
195 221 255
195 221 255
195 221 255
195 221 255
195 221 255
195 221 255
195 221 255
195 221 255
195 221 255
195 221 255
195 221 255
195 221 255
195 221 255
195 221 255
195 221 255
196 221 255
196 221 255
196 222 255
196 222 255
196 222 255
196 222 255
196 222 255
196 222 255
196 222 255
196 222 255
196 222 255
196 222 255
196 222 255
196 222 255
196 222 255
196 222 255
196 222 255
196 222 255
196 222 255
196 222 255
197 222 255
197 222 255
197 222 255
197 222 255
197 222 255
197 222 255
197 222 255
197 222 255
197 222 255
197 222 255
197 222 255
197 222 255
197 222 255
197 222 255
197 222 255
197 222 255
198 223 255
198 223 255
198 223 255
198 223 255
198 223 255
198 223 255
198 223 255
198 223 255
198 223 255
198 223 255
198 223 255
198 223 255
198 223 255
198 223 255
198 223 255
199 223 255
199 223 255
199 223 255
199 223 255
199 223 255
199 223 255
199 223 255
199 223 255
199 223 255
199 223 255
199 223 255
199 223 255
199 224 255
199 224 255
199 224 255
200 224 255
200 224 255
200 224 255
200 224 255
200 224 255
200 224 255
200 224 255
200 224 255
200 224 255
200 224 255
200 224 255
200 224 255
200 224 255
200 224 255
201 224 255
201 224 255
201 224 255
201 224 255
201 224 255
201 224 255
201 224 255
201 224 255
201 224 255
201 224 255
201 225 255
201 225 255
201 225 255
201 225 255
201 225 255
202 225 255
202 225 255
202 225 255
202 225 255
202 225 255
202 225 255
202 225 255
202 225 255
202 225 255
202 225 255
202 225 255
202 225 255
202 225 255
202 225 255
202 225 255
203 225 255
203 225 255
203 225 255
203 225 255
203 225 255
203 225 255
203 225 255
203 225 255
203 225 255
203 226 255
203 226 255
203 226 255
203 226 255
203 226 255
203 226 255
203 226 255
204 226 255
204 226 255
204 226 255
204 226 255
204 226 255
204 226 255
204 226 255
204 226 255
204 226 255
204 226 255
204 226 255
204 226 255
204 226 255
204 226 255
204 226 255
204 226 255
204 226 255
205 226 255
205 226 255
205 226 255
205 226 255
205 226 255
205 226 255
205 226 255
205 227 255
205 227 255
205 227 255
205 227 255
205 227 255
205 227 255
205 227 255
205 227 255
205 227 255
205 227 255
205 227 255
205 227 255
206 227 255
206 227 255
206 227 255
205 227 255
205 227 255
205 227 255
205 227 255
205 227 255
205 227 255
205 227 255
205 227 255
205 227 255
205 227 255
205 227 255
205 226 255
205 226 255
205 226 255
205 226 255
205 226 255
205 226 255
205 226 255
204 226 255
204 226 255
204 226 255
204 226 255
204 226 255
204 226 255
204 226 255
204 226 255
204 226 255
204 226 255
204 226 255
204 226 255
204 226 255
204 226 255
204 226 255
204 226 255
204 226 255
203 226 255
203 226 255
203 226 255
203 226 255
203 226 255
203 226 255
203 226 255
203 226 255
203 225 255
203 225 255
203 225 255
203 225 255
203 225 255
203 225 255
203 225 255
203 225 255
202 225 255
202 225 255
202 225 255
202 225 255
202 225 255
202 225 255
202 225 255
202 225 255
202 225 255
202 225 255
202 225 255
202 225 255
202 225 255
202 225 255
202 225 255
202 225 255
201 225 255
201 225 255
201 225 255
201 225 255
201 224 255
201 224 255
201 224 255
201 224 255
201 224 255
201 224 255
201 224 255
201 224 255
201 224 255
201 224 255
200 224 255
200 224 255
200 224 255
200 224 255
200 224 255
200 224 255
200 224 255
200 224 255
200 224 255
200 224 255
200 224 255
200 224 255
200 224 255
200 224 255
200 224 255
199 224 255
199 224 255
199 223 255
199 223 255
199 223 255
199 223 255
199 223 255
199 223 255
199 223 255
199 223 255
199 223 255
199 223 255
199 223 255
199 223 255
198 223 255
198 223 255
198 223 255
198 223 255
198 223 255
198 223 255
198 223 255
198 223 255
198 223 255
198 223 255
198 223 255
198 223 255
198 223 255
198 223 255
198 223 255
197 223 255
197 222 255
197 222 255
197 222 255
197 222 255
197 222 255
197 222 255
197 222 255
197 222 255
197 222 255
197 222 255
197 222 255
197 222 255
197 222 255
197 222 255
197 222 255
197 222 255
196 222 255
196 222 255
196 222 255
196 222 255
196 222 255
196 222 255
196 222 255
196 222 255
196 222 255
196 222 255
196 222 255
196 222 255
196 222 255
196 222 255
196 222 255
196 222 255
196 222 255
196 222 255
196 222 255
196 221 255
196 221 255
195 221 255
195 221 255
195 221 255
195 221 255
195 221 255
195 221 255
195 221 255
195 221 255
195 221 255
195 221 255
195 221 255
195 221 255
195 221 255
195 221 255
195 221 255
195 221 255
195 221 255
195 221 255
195 221 255
195 221 255
195 221 255
195 221 255
195 221 255
195 221 255
195 221 255
195 221 255
195 221 255
195 221 255
195 221 255
195 221 255
195 221 255
195 221 255
195 221 255
195 221 255
195 221 255
195 221 255
195 221 255
195 221 255
195 221 255
195 221 255
195 221 255
195 221 255
195 221 255
195 221 255
195 221 255
195 221 255
195 221 255
195 221 255
195 221 255
195 221 255
195 221 255
195 221 255
195 221 255
195 221 255
195 221 255
195 221 255
195 221 255
195 221 255
195 221 255
195 221 255
195 221 255
195 221 255
195 221 255
195 221 255
195 221 255
195 221 255
195 221 255
195 221 255
196 221 255
196 221 255
196 222 255
196 222 255
196 222 255
196 222 255
196 222 255
196 222 255
196 222 255
196 222 255
196 222 255
196 222 255
196 222 255
196 222 255
196 222 255
196 222 255
196 222 255
196 222 255
196 222 255
196 222 255
196 222 255
197 222 255
197 222 255
197 222 255
197 222 255
197 222 255
197 222 255
197 222 255
197 222 255
197 222 255
197 222 255
197 222 255
197 222 255
197 222 255
197 222 255
197 222 255
197 222 255
197 223 255
198 223 255
198 223 255
198 223 255
198 223 255
198 223 255
198 223 255
198 223 255
198 223 255
198 223 255
198 223 255
198 223 255
198 223 255
198 223 255
198 223 255
198 223 255
199 223 255
199 223 255
199 223 255
199 223 255
199 223 255
199 223 255
199 223 255
199 223 255
199 223 255
199 223 255
199 223 255
199 223 255
199 224 255
199 224 255
200 224 255
200 224 255
200 224 255
200 224 255
200 224 255
200 224 255
200 224 255
200 224 255
200 224 255
200 224 255
200 224 255
200 224 255
200 224 255
200 224 255
200 224 255
201 224 255
201 224 255
201 224 255
201 224 255
201 224 255
201 224 255
201 224 255
201 224 255
201 224 255
201 224 255
201 225 255
201 225 255
201 225 255
201 225 255
202 225 255
202 225 255
202 225 255
202 225 255
202 225 255
202 225 255
202 225 255
202 225 255
202 225 255
202 225 255
202 225 255
202 225 255
202 225 255
202 225 255
202 225 255
202 225 255
203 225 255
203 225 255
203 225 255
203 225 255
203 225 255
203 225 255
203 225 255
203 225 255
203 226 255
203 226 255
203 226 255
203 226 255
203 226 255
203 226 255
203 226 255
203 226 255
204 226 255
204 226 255
204 226 255
204 226 255
204 226 255
204 226 255
204 226 255
204 226 255
204 226 255
204 226 255
204 226 255
204 226 255
204 226 255
204 226 255
204 226 255
204 226 255
204 226 255
205 226 255
205 226 255
205 226 255
205 226 255
205 226 255
205 226 255
205 226 255
205 227 255
205 227 255
205 227 255
205 227 255
205 227 255
205 227 255
205 227 255
205 227 255
205 227 255
205 227 255
205 227 255
206 227 255
206 227 255
206 227 255
206 227 255
206 227 255
206 227 255
206 227 255
206 227 255
205 227 255
205 227 255
205 227 255
205 227 255
205 227 255
205 227 255
205 227 255
205 227 255
205 227 255
205 227 255
205 227 255
205 226 255
205 226 255
205 226 255
205 226 255
205 226 255
205 226 255
205 226 255
205 226 255
204 226 255
204 226 255
204 226 255
204 226 255
204 226 255
204 226 255
204 226 255
204 226 255
204 226 255
204 226 255
204 226 255
204 226 255
204 226 255
204 226 255
204 226 255
204 226 255
204 226 255
203 226 255
203 226 255
203 226 255
203 226 255
203 226 255
203 226 255
203 226 255
203 225 255
203 225 255
203 225 255
203 225 255
203 225 255
203 225 255
203 225 255
203 225 255
203 225 255
202 225 255
202 225 255
202 225 255
202 225 255
202 225 255
202 225 255
202 225 255
202 225 255
202 225 255
202 225 255
202 225 255
202 225 255
202 225 255
202 225 255
202 225 255
201 225 255
201 225 255
201 225 255
201 225 255
201 224 255
201 224 255
201 224 255
201 224 255
201 224 255
201 224 255
201 224 255
201 224 255
201 224 255
201 224 255
201 224 255
200 224 255
200 224 255
200 224 255
200 224 255
200 224 255
200 224 255
200 224 255
200 224 255
200 224 255
200 224 255
200 224 255
200 224 255
200 224 255
200 224 255
199 224 255
199 224 255
199 223 255
199 223 255
199 223 255
199 223 255
199 223 255
199 223 255
199 223 255
199 223 255
199 223 255
199 223 255
199 223 255
199 223 255
198 223 255
198 223 255
198 223 255
198 223 255
198 223 255
198 223 255
198 223 255
198 223 255
198 223 255
198 223 255
198 223 255
198 223 255
198 223 255
198 223 255
198 223 255
198 223 255
197 222 255
197 222 255
197 222 255
197 222 255
197 222 255
197 222 255
197 222 255
197 222 255
197 222 255
197 222 255
197 222 255
197 222 255
197 222 255
197 222 255
197 222 255
197 222 255
197 222 255
196 222 255
196 222 255
196 222 255
196 222 255
196 222 255
196 222 255
196 222 255
196 222 255
196 222 255
196 222 255
196 222 255
196 222 255
196 222 255
196 222 255
196 222 255
196 222 255
196 222 255
196 222 255
196 222 255
196 222 255
196 221 255
196 221 255
195 221 255
195 221 255
195 221 255
195 221 255
195 221 255
195 221 255
195 221 255
195 221 255
195 221 255
195 221 255
195 221 255
195 221 255
195 221 255
195 221 255
195 221 255
195 221 255
195 221 255
195 221 255
195 221 255
195 221 255
195 221 255
195 221 255
195 221 255
195 221 255
195 221 255
195 221 255
195 221 255
195 221 255
195 221 255
195 221 255
195 221 255
195 221 255
195 221 255
195 221 255
195 221 255
195 221 255
195 221 255
195 221 255
195 221 255
195 221 255
195 221 255
195 221 255
195 221 255
195 221 255
195 221 255
195 221 255
195 221 255
195 221 255
195 221 255
195 221 255
195 221 255
195 221 255
195 221 255
195 221 255
195 221 255
195 221 255
195 221 255
195 221 255
195 221 255
195 221 255
196 221 255
196 221 255
196 222 255
196 222 255
196 222 255
196 222 255
196 222 255
196 222 255
196 222 255
196 222 255
196 222 255
196 222 255
196 222 255
196 222 255
196 222 255
196 222 255
196 222 255
196 222 255
196 222 255
196 222 255
196 222 255
196 222 255
197 222 255
197 222 255
197 222 255
197 222 255
197 222 255
197 222 255
197 222 255
197 222 255
197 222 255
197 222 255
197 222 255
197 222 255
197 222 255
197 222 255
197 222 255
197 222 255
197 222 255
198 223 255
198 223 255
198 223 255
198 223 255
198 223 255
198 223 255
198 223 255
198 223 255
198 223 255
198 223 255
198 223 255
198 223 255
198 223 255
198 223 255
198 223 255
198 223 255
199 223 255
199 223 255
199 223 255
199 223 255
199 223 255
199 223 255
199 223 255
199 223 255
199 223 255
199 223 255
199 223 255
199 223 255
199 224 255
199 224 255
200 224 255
200 224 255
200 224 255
200 224 255
200 224 255
200 224 255
200 224 255
200 224 255
200 224 255
200 224 255
200 224 255
200 224 255
200 224 255
200 224 255
200 224 255
201 224 255
201 224 255
201 224 255
201 224 255
201 224 255
201 224 255
201 224 255
201 224 255
201 224 255
201 224 255
201 225 255
201 225 255
201 225 255
201 225 255
202 225 255
202 225 255
202 225 255
202 225 255
202 225 255
202 225 255
202 225 255
202 225 255
202 225 255
202 225 255
202 225 255
202 225 255
202 225 255
202 225 255
202 225 255
203 225 255
203 225 255
203 225 255
203 225 255
203 225 255
203 225 255
203 225 255
203 225 255
203 225 255
203 226 255
203 226 255
203 226 255
203 226 255
203 226 255
203 226 255
203 226 255
204 226 255
204 226 255
204 226 255
204 226 255
204 226 255
204 226 255
204 226 255
204 226 255
204 226 255
204 226 255
204 226 255
204 226 255
204 226 255
204 226 255
204 226 255
204 226 255
204 226 255
205 226 255
205 226 255
205 226 255
205 226 255
205 226 255
205 226 255
205 226 255
205 226 255
205 227 255
205 227 255
205 227 255
205 227 255
205 227 255
205 227 255
205 227 255
205 227 255
205 227 255
205 227 255
205 227 255
206 227 255
206 227 255
206 227 255
206 227 255
206 227 255
206 227 255
206 227 255
206 227 255
206 227 255
206 227 255
206 227 255
206 227 255
206 227 255
205 227 255
205 227 255
205 227 255
205 227 255
205 227 255
205 227 255
205 227 255
205 227 255
205 227 255
205 227 255
205 227 255
205 226 255
205 226 255
205 226 255
205 226 255
205 226 255
205 226 255
205 226 255
204 226 255
204 226 255
204 226 255
204 226 255
204 226 255
204 226 255
204 226 255
204 226 255
204 226 255
204 226 255
204 226 255
204 226 255
204 226 255
204 226 255
204 226 255
204 226 255
204 226 255
203 226 255
203 226 255
203 226 255
203 226 255
203 226 255
203 226 255
203 226 255
203 225 255
203 225 255
203 225 255
203 225 255
203 225 255
203 225 255
203 225 255
203 225 255
203 225 255
202 225 255
202 225 255
202 225 255
202 225 255
202 225 255
202 225 255
202 225 255
202 225 255
202 225 255
202 225 255
202 225 255
202 225 255
202 225 255
202 225 255
202 225 255
201 225 255
201 225 255
201 225 255
201 225 255
201 224 255
201 224 255
201 224 255
201 224 255
201 224 255
201 224 255
201 224 255
201 224 255
201 224 255
201 224 255
201 224 255
200 224 255
200 224 255
200 224 255
200 224 255
200 224 255
200 224 255
200 224 255
200 224 255
200 224 255
200 224 255
200 224 255
200 224 255
200 224 255
200 224 255
199 224 255
199 224 255
199 223 255
199 223 255
199 223 255
199 223 255
199 223 255
199 223 255
199 223 255
199 223 255
199 223 255
199 223 255
199 223 255
199 223 255
199 223 255
198 223 255
198 223 255
198 223 255
198 223 255
198 223 255
198 223 255
198 223 255
198 223 255
198 223 255
198 223 255
198 223 255
198 223 255
198 223 255
198 223 255
198 223 255
197 223 255
197 222 255
197 222 255
197 222 255
197 222 255
197 222 255
197 222 255
197 222 255
197 222 255
197 222 255
197 222 255
197 222 255
197 222 255
197 222 255
197 222 255
197 222 255
197 222 255
197 222 255
196 222 255
196 222 255
196 222 255
196 222 255
196 222 255
196 222 255
196 222 255
196 222 255
196 222 255
196 222 255
196 222 255
196 222 255
196 222 255
196 222 255
196 222 255
196 222 255
196 222 255
196 222 255
196 222 255
196 222 255
196 222 255
196 221 255
196 221 255
196 221 255
195 221 255
195 221 255
195 221 255
195 221 255
195 221 255
195 221 255
195 221 255
195 221 255
195 221 255
195 221 255
195 221 255
195 221 255
195 221 255
195 221 255
195 221 255
195 221 255
195 221 255
195 221 255
195 221 255
195 221 255
195 221 255
195 221 255
195 221 255
195 221 255
195 221 255
195 221 255
195 221 255
195 221 255
195 221 255
195 221 255
195 221 255
195 221 255
195 221 255
195 221 255
195 221 255
195 221 255
195 221 255
195 221 255
195 221 255
195 221 255
195 221 255
195 221 255
195 221 255
195 221 255
195 221 255
195 221 255
195 221 255
195 221 255
195 221 255
195 221 255
196 221 255
196 221 255
196 221 255
196 222 255
196 222 255
196 222 255
196 222 255
196 222 255
196 222 255
196 222 255
196 222 255
196 222 255
196 222 255
196 222 255
196 222 255
196 222 255
196 222 255
196 222 255
196 222 255
196 222 255
196 222 255
196 222 255
196 222 255
196 222 255
197 222 255
197 222 255
197 222 255
197 222 255
197 222 255
197 222 255
197 222 255
197 222 255
197 222 255
197 222 255
197 222 255
197 222 255
197 222 255
197 222 255
197 222 255
197 222 255
197 222 255
197 223 255
198 223 255
198 223 255
198 223 255
198 223 255
198 223 255
198 223 255
198 223 255
198 223 255
198 223 255
198 223 255
198 223 255
198 223 255
198 223 255
198 223 255
198 223 255
199 223 255
199 223 255
199 223 255
199 223 255
199 223 255
199 223 255
199 223 255
199 223 255
199 223 255
199 223 255
199 223 255
199 223 255
199 223 255
199 224 255
199 224 255
200 224 255
200 224 255
200 224 255
200 224 255
200 224 255
200 224 255
200 224 255
200 224 255
200 224 255
200 224 255
200 224 255
200 224 255
200 224 255
200 224 255
201 224 255
201 224 255
201 224 255
201 224 255
201 224 255
201 224 255
201 224 255
201 224 255
201 224 255
201 224 255
201 225 255
201 225 255
201 225 255
201 225 255
201 225 255
202 225 255
202 225 255
202 225 255
202 225 255
202 225 255
202 225 255
202 225 255
202 225 255
202 225 255
202 225 255
202 225 255
202 225 255
202 225 255
202 225 255
202 225 255
203 225 255
203 225 255
203 225 255
203 225 255
203 225 255
203 225 255
203 225 255
203 225 255
203 225 255
203 226 255
203 226 255
203 226 255
203 226 255
203 226 255
203 226 255
203 226 255
204 226 255
204 226 255
204 226 255
204 226 255
204 226 255
204 226 255
204 226 255
204 226 255
204 226 255
204 226 255
204 226 255
204 226 255
204 226 255
204 226 255
204 226 255
204 226 255
204 226 255
205 226 255
205 226 255
205 226 255
205 226 255
205 226 255
205 226 255
205 226 255
205 227 255
205 227 255
205 227 255
205 227 255
205 227 255
205 227 255
205 227 255
205 227 255
205 227 255
205 227 255
205 227 255
206 227 255
206 227 255
206 227 255
206 227 255
206 227 255
206 227 255
206 227 255
206 227 255
206 227 255
206 227 255
206 227 255
206 227 255
206 227 255
206 227 255
206 227 255
206 227 255
206 227 255
206 227 255
206 227 255
205 227 255
205 227 255
205 227 255
205 227 255
205 227 255
205 227 255
205 227 255
205 227 255
205 227 255
205 227 255
205 226 255
205 226 255
205 226 255
205 226 255
205 226 255
205 226 255
205 226 255
205 226 255
204 226 255
204 226 255
204 226 255
204 226 255
204 226 255
204 226 255
204 226 255
204 226 255
204 226 255
204 226 255
204 226 255
204 226 255
204 226 255
204 226 255
204 226 255
204 226 255
203 226 255
203 226 255
203 226 255
203 226 255
203 226 255
203 226 255
203 226 255
203 226 255
203 225 255
203 225 255
203 225 255
203 225 255
203 225 255
203 225 255
203 225 255
203 225 255
202 225 255
202 225 255
202 225 255
202 225 255
202 225 255
202 225 255
202 225 255
202 225 255
202 225 255
202 225 255
202 225 255
202 225 255
202 225 255
202 225 255
202 225 255
201 225 255
201 225 255
201 225 255
201 225 255
201 225 255
201 224 255
201 224 255
201 224 255
201 224 255
201 224 255
201 224 255
201 224 255
201 224 255
201 224 255
201 224 255
200 224 255
200 224 255
200 224 255
200 224 255
200 224 255
200 224 255
200 224 255
200 224 255
200 224 255
200 224 255
200 224 255
200 224 255
200 224 255
200 224 255
199 224 255
199 224 255
199 224 255
199 223 255
199 223 255
199 223 255
199 223 255
199 223 255
199 223 255
199 223 255
199 223 255
199 223 255
199 223 255
199 223 255
199 223 255
198 223 255
198 223 255
198 223 255
198 223 255
198 223 255
198 223 255
198 223 255
198 223 255
198 223 255
198 223 255
198 223 255
198 223 255
198 223 255
198 223 255
198 223 255
198 223 255
197 222 255
197 222 255
197 222 255
197 222 255
197 222 255
197 222 255
197 222 255
197 222 255
197 222 255
197 222 255
197 222 255
197 222 255
197 222 255
197 222 255
197 222 255
197 222 255
197 222 255
197 222 255
196 222 255
196 222 255
196 222 255
196 222 255
196 222 255
196 222 255
196 222 255
196 222 255
196 222 255
196 222 255
196 222 255
196 222 255
196 222 255
196 222 255
196 222 255
196 222 255
196 222 255
196 222 255
196 222 255
196 222 255
196 222 255
196 222 255
196 222 255
196 222 255
196 221 255
196 221 255
196 221 255
195 221 255
195 221 255
195 221 255
195 221 255
195 221 255
195 221 255
195 221 255
195 221 255
195 221 255
195 221 255
195 221 255
195 221 255
195 221 255
195 221 255
195 221 255
195 221 255
195 221 255
195 221 255
195 221 255
195 221 255
195 221 255
195 221 255
195 221 255
195 221 255
195 221 255
195 221 255
195 221 255
195 221 255
195 221 255
195 221 255
195 221 255
195 221 255
195 221 255
195 221 255
195 221 255
195 221 255
195 221 255
195 221 255
196 221 255
196 221 255
196 221 255
196 221 255
196 222 255
196 222 255
196 222 255
196 222 255
196 222 255
196 222 255
196 222 255
196 222 255
196 222 255
196 222 255
196 222 255
196 222 255
196 222 255
196 222 255
196 222 255
196 222 255
196 222 255
196 222 255
196 222 255
196 222 255
196 222 255
196 222 255
196 222 255
197 222 255
197 222 255
197 222 255
197 222 255
197 222 255
197 222 255
197 222 255
197 222 255
197 222 255
197 222 255
197 222 255
197 222 255
197 222 255
197 222 255
197 222 255
197 222 255
197 222 255
197 222 255
198 223 255
198 223 255
198 223 255
198 223 255
198 223 255
198 223 255
198 223 255
198 223 255
198 223 255
198 223 255
198 223 255
198 223 255
198 223 255
198 223 255
198 223 255
198 223 255
199 223 255
199 223 255
199 223 255
199 223 255
199 223 255
199 223 255
199 223 255
199 223 255
199 223 255
199 223 255
199 223 255
199 223 255
199 224 255
199 224 255
199 224 255
200 224 255
200 224 255
200 224 255
200 224 255
200 224 255
200 224 255
200 224 255
200 224 255
200 224 255
200 224 255
200 224 255
200 224 255
200 224 255
200 224 255
201 224 255
201 224 255
201 224 255
201 224 255
201 224 255
201 224 255
201 224 255
201 224 255
201 224 255
201 224 255
201 225 255
201 225 255
201 225 255
201 225 255
201 225 255
202 225 255
202 225 255
202 225 255
202 225 255
202 225 255
202 225 255
202 225 255
202 225 255
202 225 255
202 225 255
202 225 255
202 225 255
202 225 255
202 225 255
202 225 255
203 225 255
203 225 255
203 225 255
203 225 255
203 225 255
203 225 255
203 225 255
203 225 255
203 226 255
203 226 255
203 226 255
203 226 255
203 226 255
203 226 255
203 226 255
204 226 255
204 226 255
204 226 255
204 226 255
204 226 255
204 226 255
204 226 255
204 226 255
204 226 255
204 226 255
204 226 255
204 226 255
204 226 255
204 226 255
204 226 255
204 226 255
204 226 255
205 226 255
205 226 255
205 226 255
205 226 255
205 226 255
205 226 255
205 226 255
205 227 255
205 227 255
205 227 255
205 227 255
205 227 255
205 227 255
205 227 255
205 227 255
205 227 255
205 227 255
205 227 255
206 227 255
206 227 255
206 227 255
206 227 255
206 227 255
206 227 255
206 227 255
206 227 255
206 227 255
206 227 255
206 227 255
206 227 255
206 227 255
206 227 255
206 227 255
206 227 255
206 227 255
206 227 255
206 227 255
206 227 255
206 227 255
206 227 255
206 227 255
206 227 255
205 227 255
205 227 255
205 227 255
205 227 255
205 227 255
205 227 255
205 227 255
205 227 255
205 227 255
205 227 255
205 227 255
205 226 255
205 226 255
205 226 255
205 226 255
205 226 255
205 226 255
205 226 255
204 226 255
204 226 255
204 226 255
204 226 255
204 226 255
204 226 255
204 226 255
204 226 255
204 226 255
204 226 255
204 226 255
204 226 255
204 226 255
204 226 255
204 226 255
204 226 255
204 226 255
203 226 255
203 226 255
203 226 255
203 226 255
203 226 255
203 226 255
203 226 255
203 225 255
203 225 255
203 225 255
203 225 255
203 225 255
203 225 255
203 225 255
203 225 255
203 225 255
202 225 255
202 225 255
202 225 255
202 225 255
202 225 255
202 225 255
202 225 255
202 225 255
202 225 255
202 225 255
202 225 255
202 225 255
202 225 255
202 225 255
201 225 255
201 225 255
201 225 255
201 225 255
201 225 255
201 224 255
201 224 255
201 224 255
201 224 255
201 224 255
201 224 255
201 224 255
201 224 255
201 224 255
201 224 255
200 224 255
200 224 255
200 224 255
200 224 255
200 224 255
200 224 255
200 224 255
200 224 255
200 224 255
200 224 255
200 224 255
200 224 255
200 224 255
200 224 255
200 224 255
199 224 255
199 224 255
199 223 255
199 223 255
199 223 255
199 223 255
199 223 255
199 223 255
199 223 255
199 223 255
199 223 255
199 223 255
199 223 255
199 223 255
198 223 255
198 223 255
198 223 255
198 223 255
198 223 255
198 223 255
198 223 255
198 223 255
198 223 255
198 223 255
198 223 255
198 223 255
198 223 255
198 223 255
198 223 255
198 223 255
198 223 255
197 222 255
197 222 255
197 222 255
197 222 255
197 222 255
197 222 255
197 222 255
197 222 255
197 222 255
197 222 255
197 222 255
197 222 255
197 222 255
197 222 255
197 222 255
197 222 255
197 222 255
197 222 255
196 222 255
196 222 255
196 222 255
196 222 255
196 222 255
196 222 255
196 222 255
196 222 255
196 222 255
196 222 255
196 222 255
196 222 255
196 222 255
196 222 255
196 222 255
196 222 255
196 222 255
196 222 255
196 222 255
196 222 255
196 222 255
196 222 255
196 222 255
196 222 255
196 222 255
196 222 255
196 222 255
196 222 255
196 221 255
196 221 255
196 221 255
196 221 255
196 221 255
195 221 255
195 221 255
195 221 255
195 221 255
195 221 255
195 221 255
195 221 255
195 221 255
195 221 255
195 221 255
195 221 255
195 221 255
195 221 255
195 221 255
195 221 255
195 221 255
195 221 255
195 221 255
195 221 255
195 221 255
196 221 255
196 221 255
196 221 255
196 221 255
196 221 255
196 222 255
196 222 255
196 222 255
196 222 255
196 222 255
196 222 255
196 222 255
196 222 255
196 222 255
196 222 255
196 222 255
196 222 255
196 222 255
196 222 255
196 222 255
196 222 255
196 222 255
196 222 255
196 222 255
196 222 255
196 222 255
196 222 255
196 222 255
196 222 255
196 222 255
196 222 255
196 222 255
196 222 255
197 222 255
197 222 255
197 222 255
197 222 255
197 222 255
197 222 255
197 222 255
197 222 255
197 222 255
197 222 255
197 222 255
197 222 255
197 222 255
197 222 255
197 222 255
197 222 255
197 222 255
197 222 255
197 223 255
198 223 255
198 223 255
198 223 255
198 223 255
198 223 255
198 223 255
198 223 255
198 223 255
198 223 255
198 223 255
198 223 255
198 223 255
198 223 255
198 223 255
198 223 255
199 223 255
199 223 255
199 223 255
199 223 255
199 223 255
199 223 255
199 223 255
199 223 255
199 223 255
199 223 255
199 223 255
199 223 255
199 223 255
199 224 255
199 224 255
200 224 255
200 224 255
200 224 255
200 224 255
200 224 255
200 224 255
200 224 255
200 224 255
200 224 255
200 224 255
200 224 255
200 224 255
200 224 255
200 224 255
200 224 255
201 224 255
201 224 255
201 224 255
201 224 255
201 224 255
201 224 255
201 224 255
201 224 255
201 224 255
201 224 255
201 225 255
201 225 255
201 225 255
201 225 255
202 225 255
202 225 255
202 225 255
202 225 255
202 225 255
202 225 255
202 225 255
202 225 255
202 225 255
202 225 255
202 225 255
202 225 255
202 225 255
202 225 255
202 225 255
203 225 255
203 225 255
203 225 255
203 225 255
203 225 255
203 225 255
203 225 255
203 225 255
203 225 255
203 226 255
203 226 255
203 226 255
203 226 255
203 226 255
203 226 255
203 226 255
204 226 255
204 226 255
204 226 255
204 226 255
204 226 255
204 226 255
204 226 255
204 226 255
204 226 255
204 226 255
204 226 255
204 226 255
204 226 255
204 226 255
204 226 255
204 226 255
204 226 255
205 226 255
205 226 255
205 226 255
205 226 255
205 226 255
205 226 255
205 226 255
205 227 255
205 227 255
205 227 255
205 227 255
205 227 255
205 227 255
205 227 255
205 227 255
205 227 255
205 227 255
205 227 255
206 227 255
206 227 255
206 227 255
206 227 255
206 227 255
206 227 255
206 227 255
206 227 255
206 227 255
206 227 255
206 227 255
206 227 255
206 227 255
206 227 255
206 227 255
206 227 255
206 227 255
206 227 255
206 227 255
206 227 255
206 227 255
206 227 255
206 227 255
206 227 255
206 227 255
206 227 255
206 227 255
206 227 255
206 227 255
205 227 255
205 227 255
205 227 255
205 227 255
205 227 255
205 227 255
205 227 255
205 227 255
205 227 255
205 227 255
205 227 255
205 226 255
205 226 255
205 226 255
205 226 255
205 226 255
205 226 255
205 226 255
204 226 255
204 226 255
204 226 255
204 226 255
204 226 255
204 226 255
204 226 255
204 226 255
204 226 255
204 226 255
204 226 255
204 226 255
204 226 255
204 226 255
204 226 255
204 226 255
203 226 255
203 226 255
203 226 255
203 226 255
203 226 255
203 226 255
203 226 255
203 225 255
203 225 255
203 225 255
203 225 255
203 225 255
203 225 255
203 225 255
203 225 255
203 225 255
202 225 255
202 225 255
202 225 255
202 225 255
202 225 255
202 225 255
202 225 255
202 225 255
202 225 255
202 225 255
202 225 255
202 225 255
202 225 255
202 225 255
202 225 255
201 225 255
201 225 255
201 225 255
201 225 255
201 224 255
201 224 255
201 224 255
201 224 255
201 224 255
201 224 255
201 224 255
201 224 255
201 224 255
201 224 255
201 224 255
200 224 255
200 224 255
200 224 255
200 224 255
200 224 255
200 224 255
200 224 255
200 224 255
200 224 255
200 224 255
200 224 255
200 224 255
200 224 255
200 224 255
199 224 255
199 224 255
199 223 255
199 223 255
199 223 255
199 223 255
199 223 255
199 223 255
199 223 255
199 223 255
199 223 255
199 223 255
199 223 255
199 223 255
199 223 255
198 223 255
198 223 255
198 223 255
198 223 255
198 223 255
198 223 255
198 223 255
198 223 255
198 223 255
198 223 255
198 223 255
198 223 255
198 223 255
198 223 255
198 223 255
198 223 255
197 223 255
197 222 255
197 222 255
197 222 255
197 222 255
197 222 255
197 222 255
197 222 255
197 222 255
197 222 255
197 222 255
197 222 255
197 222 255
197 222 255
197 222 255
197 222 255
197 222 255
197 222 255
197 222 255
197 222 255
196 222 255
196 222 255
196 222 255
196 222 255
196 222 255
196 222 255
196 222 255
196 222 255
196 222 255
196 222 255
196 222 255
196 222 255
196 222 255
196 222 255
196 222 255
196 222 255
196 222 255
196 222 255
196 222 255
196 222 255
196 222 255
196 222 255
196 222 255
196 222 255
196 222 255
196 222 255
196 222 255
196 222 255
196 222 255
196 222 255
196 222 255
196 222 255
196 222 255
196 222 255
196 222 255
196 222 255
196 222 255
196 222 255
196 222 255
196 222 255
196 222 255
196 222 255
196 222 255
196 222 255
196 222 255
196 222 255
196 222 255
196 222 255
196 222 255
196 222 255
196 222 255
196 222 255
196 222 255
196 222 255
196 222 255
196 222 255
196 222 255
196 222 255
196 222 255
196 222 255
196 222 255
196 222 255
196 222 255
196 222 255
196 222 255
196 222 255
196 222 255
196 222 255
196 222 255
196 222 255
196 222 255
196 222 255
196 222 255
196 222 255
196 222 255
196 222 255
196 222 255
196 222 255
197 222 255
197 222 255
197 222 255
197 222 255
197 222 255
197 222 255
197 222 255
197 222 255
197 222 255
197 222 255
197 222 255
197 222 255
197 222 255
197 222 255
197 222 255
197 222 255
197 222 255
197 222 255
197 222 255
197 223 255
198 223 255
198 223 255
198 223 255
198 223 255
198 223 255
198 223 255
198 223 255
198 223 255
198 223 255
198 223 255
198 223 255
198 223 255
198 223 255
198 223 255
198 223 255
198 223 255
199 223 255
199 223 255
199 223 255
199 223 255
199 223 255
199 223 255
199 223 255
199 223 255
199 223 255
199 223 255
199 223 255
199 223 255
199 223 255
199 224 255
199 224 255
200 224 255
200 224 255
200 224 255
200 224 255
200 224 255
200 224 255
200 224 255
200 224 255
200 224 255
200 224 255
200 224 255
200 224 255
200 224 255
200 224 255
201 224 255
201 224 255
201 224 255
201 224 255
201 224 255
201 224 255
201 224 255
201 224 255
201 224 255
201 224 255
201 224 255
201 225 255
201 225 255
201 225 255
201 225 255
202 225 255
202 225 255
202 225 255
202 225 255
202 225 255
202 225 255
202 225 255
202 225 255
202 225 255
202 225 255
202 225 255
202 225 255
202 225 255
202 225 255
202 225 255
203 225 255
203 225 255
203 225 255
203 225 255
203 225 255
203 225 255
203 225 255
203 225 255
203 225 255
203 226 255
203 226 255
203 226 255
203 226 255
203 226 255
203 226 255
203 226 255
204 226 255
204 226 255
204 226 255
204 226 255
204 226 255
204 226 255
204 226 255
204 226 255
204 226 255
204 226 255
204 226 255
204 226 255
204 226 255
204 226 255
204 226 255
204 226 255
205 226 255
205 226 255
205 226 255
205 226 255
205 226 255
205 226 255
205 226 255
205 227 255
205 227 255
205 227 255
205 227 255
205 227 255
205 227 255
205 227 255
205 227 255
205 227 255
205 227 255
205 227 255
206 227 255
206 227 255
206 227 255
206 227 255
206 227 255
206 227 255
206 227 255
206 227 255
206 227 255
206 227 255
206 227 255
206 227 255
206 227 255
206 227 255
206 227 255
206 227 255
206 227 255
206 227 255
206 227 255
206 227 255
206 227 255
206 227 255
206 227 255
206 227 255
206 227 255
206 227 255
206 227 255
206 227 255
206 227 255
206 227 255
206 227 255
206 227 255
206 227 255
206 227 255
205 227 255
205 227 255
205 227 255
205 227 255
205 227 255
205 227 255
205 227 255
205 227 255
205 227 255
205 227 255
205 227 255
205 226 255
205 226 255
205 226 255
205 226 255
205 226 255
205 226 255
205 226 255
204 226 255
204 226 255
204 226 255
204 226 255
204 226 255
204 226 255
204 226 255
204 226 255
204 226 255
204 226 255
204 226 255
204 226 255
204 226 255
204 226 255
204 226 255
204 226 255
204 226 255
203 226 255
203 226 255
203 226 255
203 226 255
203 226 255
203 226 255
203 226 255
203 225 255
203 225 255
203 225 255
203 225 255
203 225 255
203 225 255
203 225 255
203 225 255
202 225 255
202 225 255
202 225 255
202 225 255
202 225 255
202 225 255
202 225 255
202 225 255
202 225 255
202 225 255
202 225 255
202 225 255
202 225 255
202 225 255
202 225 255
201 225 255
201 225 255
201 225 255
201 225 255
201 225 255
201 224 255
201 224 255
201 224 255
201 224 255
201 224 255
201 224 255
201 224 255
201 224 255
201 224 255
201 224 255
200 224 255
200 224 255
200 224 255
200 224 255
200 224 255
200 224 255
200 224 255
200 224 255
200 224 255
200 224 255
200 224 255
200 224 255
200 224 255
200 224 255
199 224 255
199 224 255
199 224 255
199 223 255
199 223 255
199 223 255
199 223 255
199 223 255
199 223 255
199 223 255
199 223 255
199 223 255
199 223 255
199 223 255
199 223 255
199 223 255
198 223 255
198 223 255
198 223 255
198 223 255
198 223 255
198 223 255
198 223 255
198 223 255
198 223 255
198 223 255
198 223 255
198 223 255
198 223 255
198 223 255
198 223 255
198 223 255
197 223 255
197 222 255
197 222 255
197 222 255
197 222 255
197 222 255
197 222 255
197 222 255
197 222 255
197 222 255
197 222 255
197 222 255
197 222 255
197 222 255
197 222 255
197 222 255
197 222 255
197 222 255
197 222 255
197 222 255
197 222 255
196 222 255
196 222 255
196 222 255
196 222 255
196 222 255
196 222 255
196 222 255
196 222 255
196 222 255
196 222 255
196 222 255
196 222 255
196 222 255
196 222 255
196 222 255
196 222 255
196 222 255
196 222 255
196 222 255
196 222 255
196 222 255
196 222 255
196 222 255
196 222 255
196 222 255
196 222 255
196 222 255
196 222 255
196 222 255
196 222 255
196 222 255
196 222 255
196 222 255
196 222 255
196 222 255
196 222 255
196 222 255
196 222 255
196 222 255
196 222 255
196 222 255
196 222 255
196 222 255
196 222 255
196 222 255
196 222 255
196 222 255
196 222 255
196 222 255
196 222 255
196 222 255
196 222 255
196 222 255
196 222 255
196 222 255
196 222 255
196 222 255
196 222 255
196 222 255
196 222 255
196 222 255
196 222 255
196 222 255
196 222 255
196 222 255
196 222 255
196 222 255
196 222 255
196 222 255
196 222 255
197 222 255
197 222 255
197 222 255
197 222 255
197 222 255
197 222 255
197 222 255
197 222 255
197 222 255
197 222 255
197 222 255
197 222 255
197 222 255
197 222 255
197 222 255
197 222 255
197 222 255
197 222 255
197 222 255
197 222 255
197 223 255
198 223 255
198 223 255
198 223 255
198 223 255
198 223 255
198 223 255
198 223 255
198 223 255
198 223 255
198 223 255
198 223 255
198 223 255
198 223 255
198 223 255
198 223 255
198 223 255
199 223 255
199 223 255
199 223 255
199 223 255
199 223 255
199 223 255
199 223 255
199 223 255
199 223 255
199 223 255
199 223 255
199 223 255
199 223 255
199 224 255
199 224 255
199 224 255
200 224 255
200 224 255
200 224 255
200 224 255
200 224 255
200 224 255
200 224 255
200 224 255
200 224 255
200 224 255
200 224 255
200 224 255
200 224 255
200 224 255
201 224 255
201 224 255
201 224 255
201 224 255
201 224 255
201 224 255
201 224 255
201 224 255
201 224 255
201 224 255
201 225 255
201 225 255
201 225 255
201 225 255
201 225 255
202 225 255
202 225 255
202 225 255
202 225 255
202 225 255
202 225 255
202 225 255
202 225 255
202 225 255
202 225 255
202 225 255
202 225 255
202 225 255
202 225 255
202 225 255
203 225 255
203 225 255
203 225 255
203 225 255
203 225 255
203 225 255
203 225 255
203 225 255
203 226 255
203 226 255
203 226 255
203 226 255
203 226 255
203 226 255
203 226 255
204 226 255
204 226 255
204 226 255
204 226 255
204 226 255
204 226 255
204 226 255
204 226 255
204 226 255
204 226 255
204 226 255
204 226 255
204 226 255
204 226 255
204 226 255
204 226 255
204 226 255
205 226 255
205 226 255
205 226 255
205 226 255
205 226 255
205 226 255
205 226 255
205 227 255
205 227 255
205 227 255
205 227 255
205 227 255
205 227 255
205 227 255
205 227 255
205 227 255
205 227 255
205 227 255
206 227 255
206 227 255
206 227 255
206 227 255
206 227 255
206 227 255
206 227 255
206 227 255
206 227 255
206 227 255
206 227 255
206 227 255
206 227 255
206 227 255
206 227 255
206 227 255
206 227 255
206 227 255
207 227 255
207 227 255
206 227 255
206 227 255
206 227 255
206 227 255
206 227 255
206 227 255
206 227 255
206 227 255
206 227 255
206 227 255
206 227 255
206 227 255
206 227 255
206 227 255
206 227 255
206 227 255
206 227 255
206 227 255
206 227 255
205 227 255
205 227 255
205 227 255
205 227 255
205 227 255
205 227 255
205 227 255
205 227 255
205 227 255
205 227 255
205 227 255
205 226 255
205 226 255
205 226 255
205 226 255
205 226 255
205 226 255
205 226 255
204 226 255
204 226 255
204 226 255
204 226 255
204 226 255
204 226 255
204 226 255
204 226 255
204 226 255
204 226 255
204 226 255
204 226 255
204 226 255
204 226 255
204 226 255
204 226 255
203 226 255
203 226 255
203 226 255
203 226 255
203 226 255
203 226 255
203 226 255
203 225 255
203 225 255
203 225 255
203 225 255
203 225 255
203 225 255
203 225 255
203 225 255
203 225 255
202 225 255
202 225 255
202 225 255
202 225 255
202 225 255
202 225 255
202 225 255
202 225 255
202 225 255
202 225 255
202 225 255
202 225 255
202 225 255
202 225 255
202 225 255
201 225 255
201 225 255
201 225 255
201 225 255
201 224 255
201 224 255
201 224 255
201 224 255
201 224 255
201 224 255
201 224 255
201 224 255
201 224 255
201 224 255
200 224 255
200 224 255
200 224 255
200 224 255
200 224 255
200 224 255
200 224 255
200 224 255
200 224 255
200 224 255
200 224 255
200 224 255
200 224 255
200 224 255
200 224 255
199 224 255
199 224 255
199 223 255
199 223 255
199 223 255
199 223 255
199 223 255
199 223 255
199 223 255
199 223 255
199 223 255
199 223 255
199 223 255
199 223 255
199 223 255
198 223 255
198 223 255
198 223 255
198 223 255
198 223 255
198 223 255
198 223 255
198 223 255
198 223 255
198 223 255
198 223 255
198 223 255
198 223 255
198 223 255
198 223 255
198 223 255
198 223 255
197 223 255
197 222 255
197 222 255
197 222 255
197 222 255
197 222 255
197 222 255
197 222 255
197 222 255
197 222 255
197 222 255
197 222 255
197 222 255
197 222 255
197 222 255
197 222 255
197 222 255
197 222 255
197 222 255
197 222 255
197 222 255
197 222 255
196 222 255
196 222 255
196 222 255
196 222 255
196 222 255
196 222 255
196 222 255
196 222 255
196 222 255
196 222 255
196 222 255
196 222 255
196 222 255
196 222 255
196 222 255
196 222 255
196 222 255
196 222 255
196 222 255
196 222 255
196 222 255
196 222 255
196 222 255
196 222 255
196 222 255
196 222 255
196 222 255
196 222 255
196 222 255
196 222 255
196 222 255
196 222 255
196 222 255
196 222 255
196 222 255
196 222 255
196 222 255
196 222 255
196 222 255
196 222 255
196 222 255
196 222 255
196 222 255
196 222 255
196 222 255
196 222 255
196 222 255
196 222 255
196 222 255
196 222 255
196 222 255
196 222 255
196 222 255
196 222 255
196 222 255
196 222 255
196 222 255
196 222 255
196 222 255
196 222 255
196 222 255
196 222 255
197 222 255
197 222 255
197 222 255
197 222 255
197 222 255
197 222 255
197 222 255
197 222 255
197 222 255
197 222 255
197 222 255
197 222 255
197 222 255
197 222 255
197 222 255
197 222 255
197 222 255
197 222 255
197 222 255
197 222 255
197 222 255
197 223 255
198 223 255
198 223 255
198 223 255
198 223 255
198 223 255
198 223 255
198 223 255
198 223 255
198 223 255
198 223 255
198 223 255
198 223 255
198 223 255
198 223 255
198 223 255
198 223 255
198 223 255
199 223 255
199 223 255
199 223 255
199 223 255
199 223 255
199 223 255
199 223 255
199 223 255
199 223 255
199 223 255
199 223 255
199 223 255
199 223 255
199 224 255
199 224 255
200 224 255
200 224 255
200 224 255
200 224 255
200 224 255
200 224 255
200 224 255
200 224 255
200 224 255
200 224 255
200 224 255
200 224 255
200 224 255
200 224 255
200 224 255
201 224 255
201 224 255
201 224 255
201 224 255
201 224 255
201 224 255
201 224 255
201 224 255
201 224 255
201 224 255
201 225 255
201 225 255
201 225 255
201 225 255
202 225 255
202 225 255
202 225 255
202 225 255
202 225 255
202 225 255
202 225 255
202 225 255
202 225 255
202 225 255
202 225 255
202 225 255
202 225 255
202 225 255
202 225 255
203 225 255
203 225 255
203 225 255
203 225 255
203 225 255
203 225 255
203 225 255
203 225 255
203 225 255
203 226 255
203 226 255
203 226 255
203 226 255
203 226 255
203 226 255
203 226 255
204 226 255
204 226 255
204 226 255
204 226 255
204 226 255
204 226 255
204 226 255
204 226 255
204 226 255
204 226 255
204 226 255
204 226 255
204 226 255
204 226 255
204 226 255
204 226 255
205 226 255
205 226 255
205 226 255
205 226 255
205 226 255
205 226 255
205 226 255
205 227 255
205 227 255
205 227 255
205 227 255
205 227 255
205 227 255
205 227 255
205 227 255
205 227 255
205 227 255
205 227 255
206 227 255
206 227 255
206 227 255
206 227 255
206 227 255
206 227 255
206 227 255
206 227 255
206 227 255
206 227 255
206 227 255
206 227 255
206 227 255
206 227 255
206 227 255
206 227 255
206 227 255
206 227 255
206 227 255
207 227 255
207 227 255
207 227 255
207 227 255
207 227 255
207 227 255
206 227 255
206 227 255
206 227 255
206 227 255
206 227 255
206 227 255
206 227 255
206 227 255
206 227 255
206 227 255
206 227 255
206 227 255
206 227 255
206 227 255
206 227 255
206 227 255
206 227 255
206 227 255
206 227 255
206 227 255
205 227 255
205 227 255
205 227 255
205 227 255
205 227 255
205 227 255
205 227 255
205 227 255
205 227 255
205 227 255
205 226 255
205 226 255
205 226 255
205 226 255
205 226 255
205 226 255
205 226 255
204 226 255
204 226 255
204 226 255
204 226 255
204 226 255
204 226 255
204 226 255
204 226 255
204 226 255
204 226 255
204 226 255
204 226 255
204 226 255
204 226 255
204 226 255
204 226 255
204 226 255
203 226 255
203 226 255
203 226 255
203 226 255
203 226 255
203 226 255
203 225 255
203 225 255
203 225 255
203 225 255
203 225 255
203 225 255
203 225 255
203 225 255
203 225 255
202 225 255
202 225 255
202 225 255
202 225 255
202 225 255
202 225 255
202 225 255
202 225 255
202 225 255
202 225 255
202 225 255
202 225 255
202 225 255
202 225 255
202 225 255
201 225 255
201 225 255
201 225 255
201 225 255
201 224 255
201 224 255
201 224 255
201 224 255
201 224 255
201 224 255
201 224 255
201 224 255
201 224 255
201 224 255
201 224 255
200 224 255
200 224 255
200 224 255
200 224 255
200 224 255
200 224 255
200 224 255
200 224 255
200 224 255
200 224 255
200 224 255
200 224 255
200 224 255
200 224 255
199 224 255
199 224 255
199 224 255
199 223 255
199 223 255
199 223 255
199 223 255
199 223 255
199 223 255
199 223 255
199 223 255
199 223 255
199 223 255
199 223 255
199 223 255
199 223 255
198 223 255
198 223 255
198 223 255
198 223 255
198 223 255
198 223 255
198 223 255
198 223 255
198 223 255
198 223 255
198 223 255
198 223 255
198 223 255
198 223 255
198 223 255
198 223 255
198 223 255
197 223 255
197 222 255
197 222 255
197 222 255
197 222 255
197 222 255
197 222 255
197 222 255
197 222 255
197 222 255
197 222 255
197 222 255
197 222 255
197 222 255
197 222 255
197 222 255
197 222 255
197 222 255
197 222 255
197 222 255
197 222 255
197 222 255
197 222 255
197 222 255
196 222 255
196 222 255
196 222 255
196 222 255
196 222 255
196 222 255
196 222 255
196 222 255
196 222 255
196 222 255
196 222 255
196 222 255
196 222 255
196 222 255
196 222 255
196 222 255
196 222 255
196 222 255
196 222 255
196 222 255
196 222 255
196 222 255
196 222 255
196 222 255
196 222 255
196 222 255
196 222 255
196 222 255
196 222 255
196 222 255
196 222 255
196 222 255
196 222 255
196 222 255
196 222 255
196 222 255
196 222 255
196 222 255
196 222 255
196 222 255
196 222 255
196 222 255
196 222 255
196 222 255
196 222 255
196 222 255
196 222 255
196 222 255
196 222 255
196 222 255
196 222 255
196 222 255
197 222 255
197 222 255
197 222 255
197 222 255
197 222 255
197 222 255
197 222 255
197 222 255
197 222 255
197 222 255
197 222 255
197 222 255
197 222 255
197 222 255
197 222 255
197 222 255
197 222 255
197 222 255
197 222 255
197 222 255
197 222 255
197 222 255
197 222 255
197 223 255
198 223 255
198 223 255
198 223 255
198 223 255
198 223 255
198 223 255
198 223 255
198 223 255
198 223 255
198 223 255
198 223 255
198 223 255
198 223 255
198 223 255
198 223 255
198 223 255
198 223 255
199 223 255
199 223 255
199 223 255
199 223 255
199 223 255
199 223 255
199 223 255
199 223 255
199 223 255
199 223 255
199 223 255
199 223 255
199 223 255
199 224 255
199 224 255
199 224 255
200 224 255
200 224 255
200 224 255
200 224 255
200 224 255
200 224 255
200 224 255
200 224 255
200 224 255
200 224 255
200 224 255
200 224 255
200 224 255
200 224 255
201 224 255
201 224 255
201 224 255
201 224 255
201 224 255
201 224 255
201 224 255
201 224 255
201 224 255
201 224 255
201 224 255
201 225 255
201 225 255
201 225 255
201 225 255
202 225 255
202 225 255
202 225 255
202 225 255
202 225 255
202 225 255
202 225 255
202 225 255
202 225 255
202 225 255
202 225 255
202 225 255
202 225 255
202 225 255
202 225 255
203 225 255
203 225 255
203 225 255
203 225 255
203 225 255
203 225 255
203 225 255
203 225 255
203 226 255
203 226 255
203 226 255
203 226 255
203 226 255
203 226 255
203 226 255
204 226 255
204 226 255
204 226 255
204 226 255
204 226 255
204 226 255
204 226 255
204 226 255
204 226 255
204 226 255
204 226 255
204 226 255
204 226 255
204 226 255
204 226 255
204 226 255
204 226 255
205 226 255
205 226 255
205 226 255
205 226 255
205 226 255
205 226 255
205 226 255
205 227 255
205 227 255
205 227 255
205 227 255
205 227 255
205 227 255
205 227 255
205 227 255
205 227 255
205 227 255
206 227 255
206 227 255
206 227 255
206 227 255
206 227 255
206 227 255
206 227 255
206 227 255
206 227 255
206 227 255
206 227 255
206 227 255
206 227 255
206 227 255
206 227 255
206 227 255
206 227 255
206 227 255
206 227 255
207 227 255
207 227 255
207 227 255
207 227 255
207 227 255
207 228 255
207 228 255
207 227 255
207 227 255
207 227 255
207 227 255
207 227 255
206 227 255
206 227 255
206 227 255
206 227 255
206 227 255
206 227 255
206 227 255
206 227 255
206 227 255
206 227 255
206 227 255
206 227 255
206 227 255
206 227 255
206 227 255
206 227 255
206 227 255
206 227 255
206 227 255
205 227 255
205 227 255
205 227 255
205 227 255
205 227 255
205 227 255
205 227 255
205 227 255
205 227 255
205 227 255
205 227 255
205 226 255
205 226 255
205 226 255
205 226 255
205 226 255
205 226 255
205 226 255
204 226 255
204 226 255
204 226 255
204 226 255
204 226 255
204 226 255
204 226 255
204 226 255
204 226 255
204 226 255
204 226 255
204 226 255
204 226 255
204 226 255
204 226 255
204 226 255
203 226 255
203 226 255
203 226 255
203 226 255
203 226 255
203 226 255
203 226 255
203 225 255
203 225 255
203 225 255
203 225 255
203 225 255
203 225 255
203 225 255
203 225 255
203 225 255
202 225 255
202 225 255
202 225 255
202 225 255
202 225 255
202 225 255
202 225 255
202 225 255
202 225 255
202 225 255
202 225 255
202 225 255
202 225 255
202 225 255
201 225 255
201 225 255
201 225 255
201 225 255
201 225 255
201 224 255
201 224 255
201 224 255
201 224 255
201 224 255
201 224 255
201 224 255
201 224 255
201 224 255
201 224 255
200 224 255
200 224 255
200 224 255
200 224 255
200 224 255
200 224 255
200 224 255
200 224 255
200 224 255
200 224 255
200 224 255
200 224 255
200 224 255
200 224 255
200 224 255
199 224 255
199 224 255
199 223 255
199 223 255
199 223 255
199 223 255
199 223 255
199 223 255
199 223 255
199 223 255
199 223 255
199 223 255
199 223 255
199 223 255
199 223 255
198 223 255
198 223 255
198 223 255
198 223 255
198 223 255
198 223 255
198 223 255
198 223 255
198 223 255
198 223 255
198 223 255
198 223 255
198 223 255
198 223 255
198 223 255
198 223 255
198 223 255
198 223 255
198 223 255
197 222 255
197 222 255
197 222 255
197 222 255
197 222 255
197 222 255
197 222 255
197 222 255
197 222 255
197 222 255
197 222 255
197 222 255
197 222 255
197 222 255
197 222 255
197 222 255
197 222 255
197 222 255
197 222 255
197 222 255
197 222 255
197 222 255
197 222 255
197 222 255
197 222 255
197 222 255
196 222 255
196 222 255
196 222 255
196 222 255
196 222 255
196 222 255
196 222 255
196 222 255
196 222 255
196 222 255
196 222 255
196 222 255
196 222 255
196 222 255
196 222 255
196 222 255
196 222 255
196 222 255
196 222 255
196 222 255
196 222 255
196 222 255
196 222 255
196 222 255
196 222 255
196 222 255
196 222 255
196 222 255
196 222 255
196 222 255
196 222 255
196 222 255
196 222 255
196 222 255
196 222 255
196 222 255
196 222 255
196 222 255
196 222 255
196 222 255
197 222 255
197 222 255
197 222 255
197 222 255
197 222 255
197 222 255
197 222 255
197 222 255
197 222 255
197 222 255
197 222 255
197 222 255
197 222 255
197 222 255
197 222 255
197 222 255
197 222 255
197 222 255
197 222 255
197 222 255
197 222 255
197 222 255
197 222 255
197 222 255
197 222 255
197 222 255
198 223 255
198 223 255
198 223 255
198 223 255
198 223 255
198 223 255
198 223 255
198 223 255
198 223 255
198 223 255
198 223 255
198 223 255
198 223 255
198 223 255
198 223 255
198 223 255
198 223 255
198 223 255
199 223 255
199 223 255
199 223 255
199 223 255
199 223 255
199 223 255
199 223 255
199 223 255
199 223 255
199 223 255
199 223 255
199 223 255
199 223 255
199 223 255
199 224 255
199 224 255
200 224 255
200 224 255
200 224 255
200 224 255
200 224 255
200 224 255
200 224 255
200 224 255
200 224 255
200 224 255
200 224 255
200 224 255
200 224 255
200 224 255
200 224 255
201 224 255
201 224 255
201 224 255
201 224 255
201 224 255
201 224 255
201 224 255
201 224 255
201 224 255
201 224 255
201 225 255
201 225 255
201 225 255
201 225 255
201 225 255
202 225 255
202 225 255
202 225 255
202 225 255
202 225 255
202 225 255
202 225 255
202 225 255
202 225 255
202 225 255
202 225 255
202 225 255
202 225 255
202 225 255
202 225 255
203 225 255
203 225 255
203 225 255
203 225 255
203 225 255
203 225 255
203 225 255
203 225 255
203 226 255
203 226 255
203 226 255
203 226 255
203 226 255
203 226 255
203 226 255
204 226 255
204 226 255
204 226 255
204 226 255
204 226 255
204 226 255
204 226 255
204 226 255
204 226 255
204 226 255
204 226 255
204 226 255
204 226 255
204 226 255
204 226 255
204 226 255
205 226 255
205 226 255
205 226 255
205 226 255
205 226 255
205 226 255
205 226 255
205 227 255
205 227 255
205 227 255
205 227 255
205 227 255
205 227 255
205 227 255
205 227 255
205 227 255
205 227 255
205 227 255
206 227 255
206 227 255
206 227 255
206 227 255
206 227 255
206 227 255
206 227 255
206 227 255
206 227 255
206 227 255
206 227 255
206 227 255
206 227 255
206 227 255
206 227 255
206 227 255
206 227 255
206 227 255
206 227 255
207 227 255
207 227 255
207 227 255
207 227 255
207 227 255
207 228 255
207 228 255
207 228 255
207 228 255
207 228 255
207 228 255
207 228 255
207 227 255
207 227 255
207 227 255
207 227 255
207 227 255
206 227 255
206 227 255
206 227 255
206 227 255
206 227 255
206 227 255
206 227 255
206 227 255
206 227 255
206 227 255
206 227 255
206 227 255
206 227 255
206 227 255
206 227 255
206 227 255
206 227 255
206 227 255
206 227 255
205 227 255
205 227 255
205 227 255
205 227 255
205 227 255
205 227 255
205 227 255
205 227 255
205 227 255
205 227 255
205 226 255
205 226 255
205 226 255
205 226 255
205 226 255
205 226 255
205 226 255
204 226 255
204 226 255
204 226 255
204 226 255
204 226 255
204 226 255
204 226 255
204 226 255
204 226 255
204 226 255
204 226 255
204 226 255
204 226 255
204 226 255
204 226 255
204 226 255
204 226 255
203 226 255
203 226 255
203 226 255
203 226 255
203 226 255
203 226 255
203 225 255
203 225 255
203 225 255
203 225 255
203 225 255
203 225 255
203 225 255
203 225 255
203 225 255
202 225 255
202 225 255
202 225 255
202 225 255
202 225 255
202 225 255
202 225 255
202 225 255
202 225 255
202 225 255
202 225 255
202 225 255
202 225 255
202 225 255
202 225 255
201 225 255
201 225 255
201 225 255
201 225 255
201 224 255
201 224 255
201 224 255
201 224 255
201 224 255
201 224 255
201 224 255
201 224 255
201 224 255
201 224 255
200 224 255
200 224 255
200 224 255
200 224 255
200 224 255
200 224 255
200 224 255
200 224 255
200 224 255
200 224 255
200 224 255
200 224 255
200 224 255
200 224 255
200 224 255
199 224 255
199 224 255
199 224 255
199 223 255
199 223 255
199 223 255
199 223 255
199 223 255
199 223 255
199 223 255
199 223 255
199 223 255
199 223 255
199 223 255
199 223 255
199 223 255
199 223 255
198 223 255
198 223 255
198 223 255
198 223 255
198 223 255
198 223 255
198 223 255
198 223 255
198 223 255
198 223 255
198 223 255
198 223 255
198 223 255
198 223 255
198 223 255
198 223 255
198 223 255
198 223 255
197 223 255
197 222 255
197 222 255
197 222 255
197 222 255
197 222 255
197 222 255
197 222 255
197 222 255
197 222 255
197 222 255
197 222 255
197 222 255
197 222 255
197 222 255
197 222 255
197 222 255
197 222 255
197 222 255
197 222 255
197 222 255
197 222 255
197 222 255
197 222 255
197 222 255
197 222 255
197 222 255
197 222 255
197 222 255
197 222 255
197 222 255
197 222 255
196 222 255
196 222 255
196 222 255
196 222 255
196 222 255
196 222 255
196 222 255
196 222 255
196 222 255
196 222 255
196 222 255
196 222 255
196 222 255
196 222 255
196 222 255
196 222 255
196 222 255
196 222 255
196 222 255
196 222 255
196 222 255
197 222 255
197 222 255
197 222 255
197 222 255
197 222 255
197 222 255
197 222 255
197 222 255
197 222 255
197 222 255
197 222 255
197 222 255
197 222 255
197 222 255
197 222 255
197 222 255
197 222 255
197 222 255
197 222 255
197 222 255
197 222 255
197 222 255
197 222 255
197 222 255
197 222 255
197 222 255
197 222 255
197 222 255
197 222 255
197 222 255
197 222 255
197 222 255
197 223 255
198 223 255
198 223 255
198 223 255
198 223 255
198 223 255
198 223 255
198 223 255
198 223 255
198 223 255
198 223 255
198 223 255
198 223 255
198 223 255
198 223 255
198 223 255
198 223 255
198 223 255
198 223 255
198 223 255
199 223 255
199 223 255
199 223 255
199 223 255
199 223 255
199 223 255
199 223 255
199 223 255
199 223 255
199 223 255
199 223 255
199 223 255
199 223 255
199 224 255
199 224 255
200 224 255
200 224 255
200 224 255
200 224 255
200 224 255
200 224 255
200 224 255
200 224 255
200 224 255
200 224 255
200 224 255
200 224 255
200 224 255
200 224 255
200 224 255
201 224 255
201 224 255
201 224 255
201 224 255
201 224 255
201 224 255
201 224 255
201 224 255
201 224 255
201 224 255
201 224 255
201 225 255
201 225 255
201 225 255
201 225 255
202 225 255
202 225 255
202 225 255
202 225 255
202 225 255
202 225 255
202 225 255
202 225 255
202 225 255
202 225 255
202 225 255
202 225 255
202 225 255
202 225 255
202 225 255
203 225 255
203 225 255
203 225 255
203 225 255
203 225 255
203 225 255
203 225 255
203 225 255
203 225 255
203 226 255
203 226 255
203 226 255
203 226 255
203 226 255
203 226 255
204 226 255
204 226 255
204 226 255
204 226 255
204 226 255
204 226 255
204 226 255
204 226 255
204 226 255
204 226 255
204 226 255
204 226 255
204 226 255
204 226 255
204 226 255
204 226 255
204 226 255
205 226 255
205 226 255
205 226 255
205 226 255
205 226 255
205 226 255
205 227 255
205 227 255
205 227 255
205 227 255
205 227 255
205 227 255
205 227 255
205 227 255
205 227 255
205 227 255
205 227 255
206 227 255
206 227 255
206 227 255
206 227 255
206 227 255
206 227 255
206 227 255
206 227 255
206 227 255
206 227 255
206 227 255
206 227 255
206 227 255
206 227 255
206 227 255
206 227 255
206 227 255
206 227 255
206 227 255
207 227 255
207 227 255
207 227 255
207 227 255
207 227 255
207 228 255
207 228 255
207 228 255
207 228 255
207 228 255
207 228 255
207 228 255
207 228 255
207 228 255
207 228 255
207 228 255
207 228 255
207 228 255
207 227 255
207 227 255
207 227 255
207 227 255
207 227 255
206 227 255
206 227 255
206 227 255
206 227 255
206 227 255
206 227 255
206 227 255
206 227 255
206 227 255
206 227 255
206 227 255
206 227 255
206 227 255
206 227 255
206 227 255
206 227 255
206 227 255
206 227 255
206 227 255
205 227 255
205 227 255
205 227 255
205 227 255
205 227 255
205 227 255
205 227 255
205 227 255
205 227 255
205 227 255
205 226 255
205 226 255
205 226 255
205 226 255
205 226 255
205 226 255
205 226 255
204 226 255
204 226 255
204 226 255
204 226 255
204 226 255
204 226 255
204 226 255
204 226 255
204 226 255
204 226 255
204 226 255
204 226 255
204 226 255
204 226 255
204 226 255
204 226 255
203 226 255
203 226 255
203 226 255
203 226 255
203 226 255
203 226 255
203 226 255
203 225 255
203 225 255
203 225 255
203 225 255
203 225 255
203 225 255
203 225 255
203 225 255
203 225 255
202 225 255
202 225 255
202 225 255
202 225 255
202 225 255
202 225 255
202 225 255
202 225 255
202 225 255
202 225 255
202 225 255
202 225 255
202 225 255
202 225 255
201 225 255
201 225 255
201 225 255
201 225 255
201 225 255
201 224 255
201 224 255
201 224 255
201 224 255
201 224 255
201 224 255
201 224 255
201 224 255
201 224 255
201 224 255
200 224 255
200 224 255
200 224 255
200 224 255
200 224 255
200 224 255
200 224 255
200 224 255
200 224 255
200 224 255
200 224 255
200 224 255
200 224 255
200 224 255
200 224 255
199 224 255
199 224 255
199 224 255
199 223 255
199 223 255
199 223 255
199 223 255
199 223 255
199 223 255
199 223 255
199 223 255
199 223 255
199 223 255
199 223 255
199 223 255
199 223 255
198 223 255
198 223 255
198 223 255
198 223 255
198 223 255
198 223 255
198 223 255
198 223 255
198 223 255
198 223 255
198 223 255
198 223 255
198 223 255
198 223 255
198 223 255
198 223 255
198 223 255
198 223 255
198 223 255
198 223 255
197 223 255
197 222 255
197 222 255
197 222 255
197 222 255
197 222 255
197 222 255
197 222 255
197 222 255
197 222 255
197 222 255
197 222 255
197 222 255
197 222 255
197 222 255
197 222 255
197 222 255
197 222 255
197 222 255
197 222 255
197 222 255
197 222 255
197 222 255
197 222 255
197 222 255
197 222 255
197 222 255
197 222 255
197 222 255
197 222 255
197 222 255
197 222 255
197 222 255
197 222 255
197 222 255
197 222 255
197 222 255
197 222 255
197 222 255
197 222 255
197 222 255
197 222 255
197 222 255
197 222 255
197 222 255
197 222 255
197 222 255
197 222 255
197 222 255
197 222 255
197 222 255
197 222 255
197 222 255
197 222 255
197 222 255
197 222 255
197 222 255
197 222 255
197 222 255
197 222 255
197 222 255
197 222 255
197 222 255
197 222 255
197 222 255
197 222 255
197 222 255
197 222 255
197 222 255
197 222 255
197 222 255
197 222 255
197 222 255
197 222 255
197 222 255
197 222 255
197 222 255
197 223 255
198 223 255
198 223 255
198 223 255
198 223 255
198 223 255
198 223 255
198 223 255
198 223 255
198 223 255
198 223 255
198 223 255
198 223 255
198 223 255
198 223 255
198 223 255
198 223 255
198 223 255
198 223 255
198 223 255
199 223 255
199 223 255
199 223 255
199 223 255
199 223 255
199 223 255
199 223 255
199 223 255
199 223 255
199 223 255
199 223 255
199 223 255
199 223 255
199 223 255
199 224 255
199 224 255
199 224 255
200 224 255
200 224 255
200 224 255
200 224 255
200 224 255
200 224 255
200 224 255
200 224 255
200 224 255
200 224 255
200 224 255
200 224 255
200 224 255
200 224 255
200 224 255
201 224 255
201 224 255
201 224 255
201 224 255
201 224 255
201 224 255
201 224 255
201 224 255
201 224 255
201 224 255
201 224 255
201 225 255
201 225 255
201 225 255
201 225 255
202 225 255
202 225 255
202 225 255
202 225 255
202 225 255
202 225 255
202 225 255
202 225 255
202 225 255
202 225 255
202 225 255
202 225 255
202 225 255
202 225 255
202 225 255
203 225 255
203 225 255
203 225 255
203 225 255
203 225 255
203 225 255
203 225 255
203 225 255
203 226 255
203 226 255
203 226 255
203 226 255
203 226 255
203 226 255
203 226 255
204 226 255
204 226 255
204 226 255
204 226 255
204 226 255
204 226 255
204 226 255
204 226 255
204 226 255
204 226 255
204 226 255
204 226 255
204 226 255
204 226 255
204 226 255
204 226 255
205 226 255
205 226 255
205 226 255
205 226 255
205 226 255
205 226 255
205 226 255
205 227 255
205 227 255
205 227 255
205 227 255
205 227 255
205 227 255
205 227 255
205 227 255
205 227 255
205 227 255
206 227 255
206 227 255
206 227 255
206 227 255
206 227 255
206 227 255
206 227 255
206 227 255
206 227 255
206 227 255
206 227 255
206 227 255
206 227 255
206 227 255
206 227 255
206 227 255
206 227 255
206 227 255
206 227 255
207 227 255
207 227 255
207 227 255
207 227 255
207 227 255
207 228 255
207 228 255
207 228 255
207 228 255
207 228 255
207 228 255
207 228 255
207 228 255
207 228 255
207 228 255
207 228 255
207 228 255
207 228 255
207 228 255
207 228 255
207 228 255
207 228 255
207 228 255
207 228 255
207 227 255
207 227 255
207 227 255
207 227 255
207 227 255
206 227 255
206 227 255
206 227 255
206 227 255
206 227 255
206 227 255
206 227 255
206 227 255
206 227 255
206 227 255
206 227 255
206 227 255
206 227 255
206 227 255
206 227 255
206 227 255
206 227 255
206 227 255
205 227 255
205 227 255
205 227 255
205 227 255
205 227 255
205 227 255
205 227 255
205 227 255
205 227 255
205 227 255
205 227 255
205 226 255
205 226 255
205 226 255
205 226 255
205 226 255
205 226 255
205 226 255
204 226 255
204 226 255
204 226 255
204 226 255
204 226 255
204 226 255
204 226 255
204 226 255
204 226 255
204 226 255
204 226 255
204 226 255
204 226 255
204 226 255
204 226 255
204 226 255
203 226 255
203 226 255
203 226 255
203 226 255
203 226 255
203 226 255
203 225 255
203 225 255
203 225 255
203 225 255
203 225 255
203 225 255
203 225 255
203 225 255
203 225 255
202 225 255
202 225 255
202 225 255
202 225 255
202 225 255
202 225 255
202 225 255
202 225 255
202 225 255
202 225 255
202 225 255
202 225 255
202 225 255
202 225 255
202 225 255
201 225 255
201 225 255
201 225 255
201 225 255
201 224 255
201 224 255
201 224 255
201 224 255
201 224 255
201 224 255
201 224 255
201 224 255
201 224 255
201 224 255
201 224 255
200 224 255
200 224 255
200 224 255
200 224 255
200 224 255
200 224 255
200 224 255
200 224 255
200 224 255
200 224 255
200 224 255
200 224 255
200 224 255
200 224 255
200 224 255
199 224 255
199 224 255
199 223 255
199 223 255
199 223 255
199 223 255
199 223 255
199 223 255
199 223 255
199 223 255
199 223 255
199 223 255
199 223 255
199 223 255
199 223 255
199 223 255
198 223 255
198 223 255
198 223 255
198 223 255
198 223 255
198 223 255
198 223 255
198 223 255
198 223 255
198 223 255
198 223 255
198 223 255
198 223 255
198 223 255
198 223 255
198 223 255
198 223 255
198 223 255
198 223 255
198 223 255
198 223 255
197 223 255
197 222 255
197 222 255
197 222 255
197 222 255
197 222 255
197 222 255
197 222 255
197 222 255
197 222 255
197 222 255
197 222 255
197 222 255
197 222 255
197 222 255
197 222 255
197 222 255
197 222 255
197 222 255
197 222 255
197 222 255
197 222 255
197 222 255
197 222 255
197 222 255
197 222 255
197 222 255
197 222 255
197 222 255
197 222 255
197 222 255
197 222 255
197 222 255
197 222 255
197 222 255
197 222 255
197 222 255
197 222 255
197 222 255
197 222 255
197 222 255
197 222 255
197 222 255
197 222 255
197 222 255
197 222 255
197 222 255
197 222 255
197 222 255
197 222 255
197 222 255
197 222 255
197 222 255
197 222 255
197 222 255
197 222 255
197 222 255
197 222 255
197 222 255
197 222 255
197 222 255
197 222 255
197 222 255
197 222 255
197 222 255
197 222 255
197 222 255
197 222 255
197 222 255
197 223 255
198 223 255
198 223 255
198 223 255
198 223 255
198 223 255
198 223 255
198 223 255
198 223 255
198 223 255
198 223 255
198 223 255
198 223 255
198 223 255
198 223 255
198 223 255
198 223 255
198 223 255
198 223 255
198 223 255
198 223 255
198 223 255
199 223 255
199 223 255
199 223 255
199 223 255
199 223 255
199 223 255
199 223 255
199 223 255
199 223 255
199 223 255
199 223 255
199 223 255
199 223 255
199 223 255
199 224 255
199 224 255
200 224 255
200 224 255
200 224 255
200 224 255
200 224 255
200 224 255
200 224 255
200 224 255
200 224 255
200 224 255
200 224 255
200 224 255
200 224 255
200 224 255
200 224 255
201 224 255
201 224 255
201 224 255
201 224 255
201 224 255
201 224 255
201 224 255
201 224 255
201 224 255
201 224 255
201 224 255
201 225 255
201 225 255
201 225 255
201 225 255
202 225 255
202 225 255
202 225 255
202 225 255
202 225 255
202 225 255
202 225 255
202 225 255
202 225 255
202 225 255
202 225 255
202 225 255
202 225 255
202 225 255
202 225 255
203 225 255
203 225 255
203 225 255
203 225 255
203 225 255
203 225 255
203 225 255
203 225 255
203 225 255
203 226 255
203 226 255
203 226 255
203 226 255
203 226 255
203 226 255
204 226 255
204 226 255
204 226 255
204 226 255
204 226 255
204 226 255
204 226 255
204 226 255
204 226 255
204 226 255
204 226 255
204 226 255
204 226 255
204 226 255
204 226 255
204 226 255
205 226 255
205 226 255
205 226 255
205 226 255
205 226 255
205 226 255
205 226 255
205 227 255
205 227 255
205 227 255
205 227 255
205 227 255
205 227 255
205 227 255
205 227 255
205 227 255
205 227 255
205 227 255
206 227 255
206 227 255
206 227 255
206 227 255
206 227 255
206 227 255
206 227 255
206 227 255
206 227 255
206 227 255
206 227 255
206 227 255
206 227 255
206 227 255
206 227 255
206 227 255
206 227 255
206 227 255
207 227 255
207 227 255
207 227 255
207 227 255
207 227 255
207 228 255
207 228 255
207 228 255
207 228 255
207 228 255
207 228 255
207 228 255
207 228 255
207 228 255
207 228 255
207 228 255
207 228 255
207 228 255
207 228 255
207 228 255
207 228 255
207 228 255
207 228 255
207 228 255
207 228 255
207 228 255
207 228 255
207 228 255
207 228 255
207 228 255
207 227 255
207 227 255
207 227 255
207 227 255
206 227 255
206 227 255
206 227 255
206 227 255
206 227 255
206 227 255
206 227 255
206 227 255
206 227 255
206 227 255
206 227 255
206 227 255
206 227 255
206 227 255
206 227 255
206 227 255
206 227 255
206 227 255
206 227 255
205 227 255
205 227 255
205 227 255
205 227 255
205 227 255
205 227 255
205 227 255
205 227 255
205 227 255
205 227 255
205 226 255
205 226 255
205 226 255
205 226 255
205 226 255
205 226 255
205 226 255
204 226 255
204 226 255
204 226 255
204 226 255
204 226 255
204 226 255
204 226 255
204 226 255
204 226 255
204 226 255
204 226 255
204 226 255
204 226 255
204 226 255
204 226 255
204 226 255
203 226 255
203 226 255
203 226 255
203 226 255
203 226 255
203 226 255
203 226 255
203 225 255
203 225 255
203 225 255
203 225 255
203 225 255
203 225 255
203 225 255
203 225 255
202 225 255
202 225 255
202 225 255
202 225 255
202 225 255
202 225 255
202 225 255
202 225 255
202 225 255
202 225 255
202 225 255
202 225 255
202 225 255
202 225 255
202 225 255
201 225 255
201 225 255
201 225 255
201 225 255
201 225 255
201 224 255
201 224 255
201 224 255
201 224 255
201 224 255
201 224 255
201 224 255
201 224 255
201 224 255
201 224 255
200 224 255
200 224 255
200 224 255
200 224 255
200 224 255
200 224 255
200 224 255
200 224 255
200 224 255
200 224 255
200 224 255
200 224 255
200 224 255
200 224 255
200 224 255
200 224 255
199 224 255
199 224 255
199 223 255
199 223 255
199 223 255
199 223 255
199 223 255
199 223 255
199 223 255
199 223 255
199 223 255
199 223 255
199 223 255
199 223 255
199 223 255
199 223 255
199 223 255
198 223 255
198 223 255
198 223 255
198 223 255
198 223 255
198 223 255
198 223 255
198 223 255
198 223 255
198 223 255
198 223 255
198 223 255
198 223 255
198 223 255
198 223 255
198 223 255
198 223 255
198 223 255
198 223 255
198 223 255
198 223 255
198 223 255
197 223 255
197 222 255
197 222 255
197 222 255
197 222 255
197 222 255
197 222 255
197 222 255
197 222 255
197 222 255
197 222 255
197 222 255
197 222 255
197 222 255
197 222 255
197 222 255
197 222 255
197 222 255
197 222 255
197 222 255
197 222 255
197 222 255
197 222 255
197 222 255
197 222 255
197 222 255
197 222 255
197 222 255
197 222 255
197 222 255
197 222 255
197 222 255
197 222 255
197 222 255
197 222 255
197 222 255
197 222 255
197 222 255
197 222 255
197 222 255
197 222 255
197 222 255
197 222 255
197 222 255
197 222 255
197 222 255
197 222 255
197 222 255
197 222 255
197 222 255
197 222 255
197 222 255
197 222 255
197 222 255
197 222 255
197 222 255
197 222 255
197 222 255
197 222 255
197 223 255
198 223 255
198 223 255
198 223 255
198 223 255
198 223 255
198 223 255
198 223 255
198 223 255
198 223 255
198 223 255
198 223 255
198 223 255
198 223 255
198 223 255
198 223 255
198 223 255
198 223 255
198 223 255
198 223 255
198 223 255
198 223 255
198 223 255
199 223 255
199 223 255
199 223 255
199 223 255
199 223 255
199 223 255
199 223 255
199 223 255
199 223 255
199 223 255
199 223 255
199 223 255
199 223 255
199 223 255
199 223 255
199 224 255
199 224 255
200 224 255
200 224 255
200 224 255
200 224 255
200 224 255
200 224 255
200 224 255
200 224 255
200 224 255
200 224 255
200 224 255
200 224 255
200 224 255
200 224 255
200 224 255
200 224 255
201 224 255
201 224 255
201 224 255
201 224 255
201 224 255
201 224 255
201 224 255
201 224 255
201 224 255
201 224 255
201 225 255
201 225 255
201 225 255
201 225 255
201 225 255
202 225 255
202 225 255
202 225 255
202 225 255
202 225 255
202 225 255
202 225 255
202 225 255
202 225 255
202 225 255
202 225 255
202 225 255
202 225 255
202 225 255
202 225 255
203 225 255
203 225 255
203 225 255
203 225 255
203 225 255
203 225 255
203 225 255
203 225 255
203 226 255
203 226 255
203 226 255
203 226 255
203 226 255
203 226 255
203 226 255
204 226 255
204 226 255
204 226 255
204 226 255
204 226 255
204 226 255
204 226 255
204 226 255
204 226 255
204 226 255
204 226 255
204 226 255
204 226 255
204 226 255
204 226 255
204 226 255
205 226 255
205 226 255
205 226 255
205 226 255
205 226 255
205 226 255
205 226 255
205 227 255
205 227 255
205 227 255
205 227 255
205 227 255
205 227 255
205 227 255
205 227 255
205 227 255
205 227 255
206 227 255
206 227 255
206 227 255
206 227 255
206 227 255
206 227 255
206 227 255
206 227 255
206 227 255
206 227 255
206 227 255
206 227 255
206 227 255
206 227 255
206 227 255
206 227 255
206 227 255
206 227 255
206 227 255
207 227 255
207 227 255
207 227 255
207 227 255
207 228 255
207 228 255
207 228 255
207 228 255
207 228 255
207 228 255
207 228 255
207 228 255
207 228 255
207 228 255
207 228 255
207 228 255
207 228 255
207 228 255
208 228 255
207 228 255
207 228 255
207 228 255
207 228 255
207 228 255
207 228 255
207 228 255
207 228 255
207 228 255
207 228 255
207 228 255
207 228 255
207 228 255
207 228 255
207 228 255
207 228 255
207 227 255
207 227 255
207 227 255
207 227 255
206 227 255
206 227 255
206 227 255
206 227 255
206 227 255
206 227 255
206 227 255
206 227 255
206 227 255
206 227 255
206 227 255
206 227 255
206 227 255
206 227 255
206 227 255
206 227 255
206 227 255
206 227 255
206 227 255
205 227 255
205 227 255
205 227 255
205 227 255
205 227 255
205 227 255
205 227 255
205 227 255
205 227 255
205 227 255
205 226 255
205 226 255
205 226 255
205 226 255
205 226 255
205 226 255
205 226 255
204 226 255
204 226 255
204 226 255
204 226 255
204 226 255
204 226 255
204 226 255
204 226 255
204 226 255
204 226 255
204 226 255
204 226 255
204 226 255
204 226 255
204 226 255
204 226 255
203 226 255
203 226 255
203 226 255
203 226 255
203 226 255
203 226 255
203 226 255
203 225 255
203 225 255
203 225 255
203 225 255
203 225 255
203 225 255
203 225 255
203 225 255
202 225 255
202 225 255
202 225 255
202 225 255
202 225 255
202 225 255
202 225 255
202 225 255
202 225 255
202 225 255
202 225 255
202 225 255
202 225 255
202 225 255
202 225 255
201 225 255
201 225 255
201 225 255
201 225 255
201 224 255
201 224 255
201 224 255
201 224 255
201 224 255
201 224 255
201 224 255
201 224 255
201 224 255
201 224 255
201 224 255
200 224 255
200 224 255
200 224 255
200 224 255
200 224 255
200 224 255
200 224 255
200 224 255
200 224 255
200 224 255
200 224 255
200 224 255
200 224 255
200 224 255
200 224 255
199 224 255
199 224 255
199 224 255
199 223 255
199 223 255
199 223 255
199 223 255
199 223 255
199 223 255
199 223 255
199 223 255
199 223 255
199 223 255
199 223 255
199 223 255
199 223 255
199 223 255
199 223 255
198 223 255
198 223 255
198 223 255
198 223 255
198 223 255
198 223 255
198 223 255
198 223 255
198 223 255
198 223 255
198 223 255
198 223 255
198 223 255
198 223 255
198 223 255
198 223 255
198 223 255
198 223 255
198 223 255
198 223 255
198 223 255
198 223 255
198 223 255
198 223 255
198 223 255
197 223 255
197 222 255
197 222 255
197 222 255
197 222 255
197 222 255
197 222 255
197 222 255
197 222 255
197 222 255
197 222 255
197 222 255
197 222 255
197 222 255
197 222 255
197 222 255
197 222 255
197 222 255
197 222 255
197 222 255
197 222 255
197 222 255
197 222 255
197 222 255
197 222 255
197 222 255
197 222 255
197 222 255
197 222 255
197 222 255
197 222 255
197 222 255
197 222 255
197 222 255
197 222 255
197 222 255
197 222 255
197 222 255
197 222 255
197 222 255
197 222 255
197 222 255
197 222 255
197 222 255
197 222 255
197 222 255
197 222 255
197 223 255
197 223 255
198 223 255
198 223 255
198 223 255
198 223 255
198 223 255
198 223 255
198 223 255
198 223 255
198 223 255
198 223 255
198 223 255
198 223 255
198 223 255
198 223 255
198 223 255
198 223 255
198 223 255
198 223 255
198 223 255
198 223 255
198 223 255
198 223 255
198 223 255
198 223 255
199 223 255
199 223 255
199 223 255
199 223 255
199 223 255
199 223 255
199 223 255
199 223 255
199 223 255
199 223 255
199 223 255
199 223 255
199 223 255
199 223 255
199 223 255
199 224 255
199 224 255
199 224 255
200 224 255
200 224 255
200 224 255
200 224 255
200 224 255
200 224 255
200 224 255
200 224 255
200 224 255
200 224 255
200 224 255
200 224 255
200 224 255
200 224 255
200 224 255
201 224 255
201 224 255
201 224 255
201 224 255
201 224 255
201 224 255
201 224 255
201 224 255
201 224 255
201 224 255
201 224 255
201 225 255
201 225 255
201 225 255
201 225 255
202 225 255
202 225 255
202 225 255
202 225 255
202 225 255
202 225 255
202 225 255
202 225 255
202 225 255
202 225 255
202 225 255
202 225 255
202 225 255
202 225 255
202 225 255
203 225 255
203 225 255
203 225 255
203 225 255
203 225 255
203 225 255
203 225 255
203 225 255
203 226 255
203 226 255
203 226 255
203 226 255
203 226 255
203 226 255
203 226 255
204 226 255
204 226 255
204 226 255
204 226 255
204 226 255
204 226 255
204 226 255
204 226 255
204 226 255
204 226 255
204 226 255
204 226 255
204 226 255
204 226 255
204 226 255
204 226 255
205 226 255
205 226 255
205 226 255
205 226 255
205 226 255
205 226 255
205 226 255
205 227 255
205 227 255
205 227 255
205 227 255
205 227 255
205 227 255
205 227 255
205 227 255
205 227 255
205 227 255
206 227 255
206 227 255
206 227 255
206 227 255
206 227 255
206 227 255
206 227 255
206 227 255
206 227 255
206 227 255
206 227 255
206 227 255
206 227 255
206 227 255
206 227 255
206 227 255
206 227 255
206 227 255
206 227 255
207 227 255
207 227 255
207 227 255
207 227 255
207 228 255
207 228 255
207 228 255
207 228 255
207 228 255
207 228 255
207 228 255
207 228 255
207 228 255
207 228 255
207 228 255
207 228 255
207 228 255
207 228 255
207 228 255
207 228 255
208 228 255
208 228 255
208 228 255
208 228 255
208 228 255
207 228 255
207 228 255
207 228 255
207 228 255
207 228 255
207 228 255
207 228 255
207 228 255
207 228 255
207 228 255
207 228 255
207 228 255
207 228 255
207 228 255
207 228 255
207 228 255
207 227 255
207 227 255
207 227 255
207 227 255
206 227 255
206 227 255
206 227 255
206 227 255
206 227 255
206 227 255
206 227 255
206 227 255
206 227 255
206 227 255
206 227 255
206 227 255
206 227 255
206 227 255
206 227 255
206 227 255
206 227 255
206 227 255
205 227 255
205 227 255
205 227 255
205 227 255
205 227 255
205 227 255
205 227 255
205 227 255
205 227 255
205 227 255
205 227 255
205 226 255
205 226 255
205 226 255
205 226 255
205 226 255
205 226 255
204 226 255
204 226 255
204 226 255
204 226 255
204 226 255
204 226 255
204 226 255
204 226 255
204 226 255
204 226 255
204 226 255
204 226 255
204 226 255
204 226 255
204 226 255
204 226 255
203 226 255
203 226 255
203 226 255
203 226 255
203 226 255
203 226 255
203 226 255
203 225 255
203 225 255
203 225 255
203 225 255
203 225 255
203 225 255
203 225 255
203 225 255
202 225 255
202 225 255
202 225 255
202 225 255
202 225 255
202 225 255
202 225 255
202 225 255
202 225 255
202 225 255
202 225 255
202 225 255
202 225 255
202 225 255
202 225 255
202 225 255
201 225 255
201 225 255
201 225 255
201 225 255
201 224 255
201 224 255
201 224 255
201 224 255
201 224 255
201 224 255
201 224 255
201 224 255
201 224 255
201 224 255
201 224 255
200 224 255
200 224 255
200 224 255
200 224 255
200 224 255
200 224 255
200 224 255
200 224 255
200 224 255
200 224 255
200 224 255
200 224 255
200 224 255
200 224 255
200 224 255
199 224 255
199 224 255
199 224 255
199 223 255
199 223 255
199 223 255
199 223 255
199 223 255
199 223 255
199 223 255
199 223 255
199 223 255
199 223 255
199 223 255
199 223 255
199 223 255
199 223 255
199 223 255
199 223 255
198 223 255
198 223 255
198 223 255
198 223 255
198 223 255
198 223 255
198 223 255
198 223 255
198 223 255
198 223 255
198 223 255
198 223 255
198 223 255
198 223 255
198 223 255
198 223 255
198 223 255
198 223 255
198 223 255
198 223 255
198 223 255
198 223 255
198 223 255
198 223 255
198 223 255
198 223 255
198 223 255
197 223 255
197 223 255
197 223 255
197 222 255
197 222 255
197 222 255
197 222 255
197 222 255
197 222 255
197 222 255
197 222 255
197 222 255
197 222 255
197 222 255
197 222 255
197 222 255
197 222 255
197 222 255
197 222 255
197 222 255
197 222 255
197 222 255
197 222 255
197 222 255
197 222 255
197 222 255
197 222 255
197 222 255
197 222 255
197 222 255
197 222 255
197 222 255
197 222 255
197 223 255
197 223 255
198 223 255
198 223 255
198 223 255
198 223 255
198 223 255
198 223 255
198 223 255
198 223 255
198 223 255
198 223 255
198 223 255
198 223 255
198 223 255
198 223 255
198 223 255
198 223 255
198 223 255
198 223 255
198 223 255
198 223 255
198 223 255
198 223 255
198 223 255
198 223 255
198 223 255
198 223 255
198 223 255
198 223 255
199 223 255
199 223 255
199 223 255
199 223 255
199 223 255
199 223 255
199 223 255
199 223 255
199 223 255
199 223 255
199 223 255
199 223 255
199 223 255
199 223 255
199 223 255
199 223 255
199 224 255
199 224 255
199 224 255
200 224 255
200 224 255
200 224 255
200 224 255
200 224 255
200 224 255
200 224 255
200 224 255
200 224 255
200 224 255
200 224 255
200 224 255
200 224 255
200 224 255
200 224 255
201 224 255
201 224 255
201 224 255
201 224 255
201 224 255
201 224 255
201 224 255
201 224 255
201 224 255
201 224 255
201 224 255
201 225 255
201 225 255
201 225 255
201 225 255
201 225 255
202 225 255
202 225 255
202 225 255
202 225 255
202 225 255
202 225 255
202 225 255
202 225 255
202 225 255
202 225 255
202 225 255
202 225 255
202 225 255
202 225 255
202 225 255
203 225 255
203 225 255
203 225 255
203 225 255
203 225 255
203 225 255
203 225 255
203 225 255
203 226 255
203 226 255
203 226 255
203 226 255
203 226 255
203 226 255
203 226 255
204 226 255
204 226 255
204 226 255
204 226 255
204 226 255
204 226 255
204 226 255
204 226 255
204 226 255
204 226 255
204 226 255
204 226 255
204 226 255
204 226 255
204 226 255
204 226 255
205 226 255
205 226 255
205 226 255
205 226 255
205 226 255
205 226 255
205 227 255
205 227 255
205 227 255
205 227 255
205 227 255
205 227 255
205 227 255
205 227 255
205 227 255
205 227 255
205 227 255
206 227 255
206 227 255
206 227 255
206 227 255
206 227 255
206 227 255
206 227 255
206 227 255
206 227 255
206 227 255
206 227 255
206 227 255
206 227 255
206 227 255
206 227 255
206 227 255
206 227 255
206 227 255
207 227 255
207 227 255
207 227 255
207 227 255
207 228 255
207 228 255
207 228 255
207 228 255
207 228 255
207 228 255
207 228 255
207 228 255
207 228 255
207 228 255
207 228 255
207 228 255
207 228 255
207 228 255
207 228 255
207 228 255
208 228 255
208 228 255
208 228 255
208 228 255
208 228 255
208 228 255
208 228 255
208 228 255
208 228 255
208 228 255
208 228 255
207 228 255
207 228 255
207 228 255
207 228 255
207 228 255
207 228 255
207 228 255
207 228 255
207 228 255
207 228 255
207 228 255
207 228 255
207 228 255
207 228 255
207 228 255
207 227 255
207 227 255
207 227 255
207 227 255
207 227 255
206 227 255
206 227 255
206 227 255
206 227 255
206 227 255
206 227 255
206 227 255
206 227 255
206 227 255
206 227 255
206 227 255
206 227 255
206 227 255
206 227 255
206 227 255
206 227 255
206 227 255
206 227 255
205 227 255
205 227 255
205 227 255
205 227 255
205 227 255
205 227 255
205 227 255
205 227 255
205 227 255
205 227 255
205 226 255
205 226 255
205 226 255
205 226 255
205 226 255
205 226 255
205 226 255
204 226 255
204 226 255
204 226 255
204 226 255
204 226 255
204 226 255
204 226 255
204 226 255
204 226 255
204 226 255
204 226 255
204 226 255
204 226 255
204 226 255
204 226 255
204 226 255
203 226 255
203 226 255
203 226 255
203 226 255
203 226 255
203 226 255
203 226 255
203 225 255
203 225 255
203 225 255
203 225 255
203 225 255
203 225 255
203 225 255
203 225 255
202 225 255
202 225 255
202 225 255
202 225 255
202 225 255
202 225 255
202 225 255
202 225 255
202 225 255
202 225 255
202 225 255
202 225 255
202 225 255
202 225 255
202 225 255
201 225 255
201 225 255
201 225 255
201 225 255
201 225 255
201 224 255
201 224 255
201 224 255
201 224 255
201 224 255
201 224 255
201 224 255
201 224 255
201 224 255
201 224 255
200 224 255
200 224 255
200 224 255
200 224 255
200 224 255
200 224 255
200 224 255
200 224 255
200 224 255
200 224 255
200 224 255
200 224 255
200 224 255
200 224 255
200 224 255
200 224 255
200 224 255
199 224 255
199 224 255
199 223 255
199 223 255
199 223 255
199 223 255
199 223 255
199 223 255
199 223 255
199 223 255
199 223 255
199 223 255
199 223 255
199 223 255
199 223 255
199 223 255
199 223 255
199 223 255
199 223 255
198 223 255
198 223 255
198 223 255
198 223 255
198 223 255
198 223 255
198 223 255
198 223 255
198 223 255
198 223 255
198 223 255
198 223 255
198 223 255
198 223 255
198 223 255
198 223 255
198 223 255
198 223 255
198 223 255
198 223 255
198 223 255
198 223 255
198 223 255
198 223 255
198 223 255
198 223 255
198 223 255
198 223 255
198 223 255
198 223 255
198 223 255
198 223 255
198 223 255
198 223 255
198 223 255
198 223 255
198 223 255
198 223 255
198 223 255
197 223 255
197 223 255
197 223 255
198 223 255
197 223 255
197 223 255
198 223 255
198 223 255
198 223 255
198 223 255
198 223 255
198 223 255
198 223 255
198 223 255
198 223 255
198 223 255
198 223 255
198 223 255
198 223 255
198 223 255
198 223 255
198 223 255
198 223 255
198 223 255
198 223 255
198 223 255
198 223 255
198 223 255
198 223 255
198 223 255
198 223 255
198 223 255
198 223 255
198 223 255
198 223 255
198 223 255
198 223 255
198 223 255
198 223 255
198 223 255
198 223 255
198 223 255
198 223 255
199 223 255
199 223 255
199 223 255
199 223 255
199 223 255
199 223 255
199 223 255
199 223 255
199 223 255
199 223 255
199 223 255
199 223 255
199 223 255
199 223 255
199 223 255
199 223 255
199 223 255
199 224 255
199 224 255
199 224 255
200 224 255
200 224 255
200 224 255
200 224 255
200 224 255
200 224 255
200 224 255
200 224 255
200 224 255
200 224 255
200 224 255
200 224 255
200 224 255
200 224 255
200 224 255
200 224 255
201 224 255
201 224 255
201 224 255
201 224 255
201 224 255
201 224 255
201 224 255
201 224 255
201 224 255
201 224 255
201 224 255
201 225 255
201 225 255
201 225 255
201 225 255
202 225 255
202 225 255
202 225 255
202 225 255
202 225 255
202 225 255
202 225 255
202 225 255
202 225 255
202 225 255
202 225 255
202 225 255
202 225 255
202 225 255
202 225 255
203 225 255
203 225 255
203 225 255
203 225 255
203 225 255
203 225 255
203 225 255
203 225 255
203 226 255
203 226 255
203 226 255
203 226 255
203 226 255
203 226 255
203 226 255
204 226 255
204 226 255
204 226 255
204 226 255
204 226 255
204 226 255
204 226 255
204 226 255
204 226 255
204 226 255
204 226 255
204 226 255
204 226 255
204 226 255
204 226 255
204 226 255
205 226 255
205 226 255
205 226 255
205 226 255
205 226 255
205 226 255
205 226 255
205 227 255
205 227 255
205 227 255
205 227 255
205 227 255
205 227 255
205 227 255
205 227 255
205 227 255
205 227 255
206 227 255
206 227 255
206 227 255
206 227 255
206 227 255
206 227 255
206 227 255
206 227 255
206 227 255
206 227 255
206 227 255
206 227 255
206 227 255
206 227 255
206 227 255
206 227 255
206 227 255
206 227 255
207 227 255
207 227 255
207 227 255
207 227 255
207 227 255
207 228 255
207 228 255
207 228 255
207 228 255
207 228 255
207 228 255
207 228 255
207 228 255
207 228 255
207 228 255
207 228 255
207 228 255
207 228 255
207 228 255
207 228 255
208 228 255
208 228 255
208 228 255
208 228 255
208 228 255
208 228 255
208 228 255
208 228 255
208 228 255
208 228 255
208 228 255
208 228 255
208 228 255
208 228 255
208 228 255
208 228 255
208 228 255
207 228 255
207 228 255
207 228 255
207 228 255
207 228 255
207 228 255
207 228 255
207 228 255
207 228 255
207 228 255
207 228 255
207 228 255
207 228 255
207 228 255
207 228 255
207 227 255
207 227 255
207 227 255
207 227 255
207 227 255
206 227 255
206 227 255
206 227 255
206 227 255
206 227 255
206 227 255
206 227 255
206 227 255
206 227 255
206 227 255
206 227 255
206 227 255
206 227 255
206 227 255
206 227 255
206 227 255
206 227 255
206 227 255
205 227 255
205 227 255
205 227 255
205 227 255
205 227 255
205 227 255
205 227 255
205 227 255
205 227 255
205 227 255
205 226 255
205 226 255
205 226 255
205 226 255
205 226 255
205 226 255
205 226 255
204 226 255
204 226 255
204 226 255
204 226 255
204 226 255
204 226 255
204 226 255
204 226 255
204 226 255
204 226 255
204 226 255
204 226 255
204 226 255
204 226 255
204 226 255
204 226 255
203 226 255
203 226 255
203 226 255
203 226 255
203 226 255
203 226 255
203 225 255
203 225 255
203 225 255
203 225 255
203 225 255
203 225 255
203 225 255
203 225 255
203 225 255
202 225 255
202 225 255
202 225 255
202 225 255
202 225 255
202 225 255
202 225 255
202 225 255
202 225 255
202 225 255
202 225 255
202 225 255
202 225 255
202 225 255
202 225 255
201 225 255
201 225 255
201 225 255
201 225 255
201 224 255
201 224 255
201 224 255
201 224 255
201 224 255
201 224 255
201 224 255
201 224 255
201 224 255
201 224 255
201 224 255
200 224 255
200 224 255
200 224 255
200 224 255
200 224 255
200 224 255
200 224 255
200 224 255
200 224 255
200 224 255
200 224 255
200 224 255
200 224 255
200 224 255
200 224 255
200 224 255
200 224 255
199 224 255
199 224 255
199 224 255
199 223 255
199 223 255
199 223 255
199 223 255
199 223 255
199 223 255
199 223 255
199 223 255
199 223 255
199 223 255
199 223 255
199 223 255
199 223 255
199 223 255
199 223 255
199 223 255
199 223 255
198 223 255
198 223 255
198 223 255
198 223 255
198 223 255
198 223 255
198 223 255
198 223 255
198 223 255
198 223 255
198 223 255
198 223 255
198 223 255
198 223 255
198 223 255
198 223 255
198 223 255
198 223 255
198 223 255
198 223 255
198 223 255
198 223 255
198 223 255
198 223 255
198 223 255
198 223 255
198 223 255
198 223 255
198 223 255
198 223 255
198 223 255
198 223 255
198 223 255
198 223 255
198 223 255
198 223 255
198 223 255
198 223 255
198 223 255
198 223 255
198 223 255
198 223 255
198 223 255
198 223 255
198 223 255
198 223 255
198 223 255
198 223 255
198 223 255
198 223 255
198 223 255
198 223 255
198 223 255
198 223 255
198 223 255
198 223 255
198 223 255
198 223 255
198 223 255
198 223 255
198 223 255
198 223 255
198 223 255
198 223 255
198 223 255
198 223 255
198 223 255
198 223 255
198 223 255
198 223 255
198 223 255
198 223 255
198 223 255
198 223 255
199 223 255
199 223 255
199 223 255
199 223 255
199 223 255
199 223 255
199 223 255
199 223 255
199 223 255
199 223 255
199 223 255
199 223 255
199 223 255
199 223 255
199 223 255
199 223 255
199 223 255
199 224 255
199 224 255
199 224 255
200 224 255
200 224 255
200 224 255
200 224 255
200 224 255
200 224 255
200 224 255
200 224 255
200 224 255
200 224 255
200 224 255
200 224 255
200 224 255
200 224 255
200 224 255
200 224 255
200 224 255
201 224 255
201 224 255
201 224 255
201 224 255
201 224 255
201 224 255
201 224 255
201 224 255
201 224 255
201 224 255
201 224 255
201 225 255
201 225 255
201 225 255
201 225 255
202 225 255
202 225 255
202 225 255
202 225 255
202 225 255
202 225 255
202 225 255
202 225 255
202 225 255
202 225 255
202 225 255
202 225 255
202 225 255
202 225 255
202 225 255
203 225 255
203 225 255
203 225 255
203 225 255
203 225 255
203 225 255
203 225 255
203 225 255
203 225 255
203 226 255
203 226 255
203 226 255
203 226 255
203 226 255
203 226 255
204 226 255
204 226 255
204 226 255
204 226 255
204 226 255
204 226 255
204 226 255
204 226 255
204 226 255
204 226 255
204 226 255
204 226 255
204 226 255
204 226 255
204 226 255
204 226 255
205 226 255
205 226 255
205 226 255
205 226 255
205 226 255
205 226 255
205 226 255
205 227 255
205 227 255
205 227 255
205 227 255
205 227 255
205 227 255
205 227 255
205 227 255
205 227 255
205 227 255
206 227 255
206 227 255
206 227 255
206 227 255
206 227 255
206 227 255
206 227 255
206 227 255
206 227 255
206 227 255
206 227 255
206 227 255
206 227 255
206 227 255
206 227 255
206 227 255
206 227 255
206 227 255
207 227 255
207 227 255
207 227 255
207 227 255
207 227 255
207 228 255
207 228 255
207 228 255
207 228 255
207 228 255
207 228 255
207 228 255
207 228 255
207 228 255
207 228 255
207 228 255
207 228 255
207 228 255
207 228 255
207 228 255
208 228 255
208 228 255
208 228 255
208 228 255
208 228 255
208 228 255
208 228 255
208 228 255
208 228 255
208 228 255
208 228 255
208 228 255
208 228 255
208 228 255
208 228 255
208 228 255
208 228 255
208 228 255
208 228 255
208 228 255
208 228 255
208 228 255
208 228 255
207 228 255
207 228 255
207 228 255
207 228 255
207 228 255
207 228 255
207 228 255
207 228 255
207 228 255
207 228 255
207 228 255
207 228 255
207 228 255
207 228 255
207 228 255
207 227 255
207 227 255
207 227 255
207 227 255
207 227 255
206 227 255
206 227 255
206 227 255
206 227 255
206 227 255
206 227 255
206 227 255
206 227 255
206 227 255
206 227 255
206 227 255
206 227 255
206 227 255
206 227 255
206 227 255
206 227 255
206 227 255
206 227 255
205 227 255
205 227 255
205 227 255
205 227 255
205 227 255
205 227 255
205 227 255
205 227 255
205 227 255
205 227 255
205 226 255
205 226 255
205 226 255
205 226 255
205 226 255
205 226 255
204 226 255
204 226 255
204 226 255
204 226 255
204 226 255
204 226 255
204 226 255
204 226 255
204 226 255
204 226 255
204 226 255
204 226 255
204 226 255
204 226 255
204 226 255
204 226 255
203 226 255
203 226 255
203 226 255
203 226 255
203 226 255
203 226 255
203 226 255
203 225 255
203 225 255
203 225 255
203 225 255
203 225 255
203 225 255
203 225 255
203 225 255
202 225 255
202 225 255
202 225 255
202 225 255
202 225 255
202 225 255
202 225 255
202 225 255
202 225 255
202 225 255
202 225 255
202 225 255
202 225 255
202 225 255
202 225 255
202 225 255
201 225 255
201 225 255
201 225 255
201 225 255
201 224 255
201 224 255
201 224 255
201 224 255
201 224 255
201 224 255
201 224 255
201 224 255
201 224 255
201 224 255
201 224 255
200 224 255
200 224 255
200 224 255
200 224 255
200 224 255
200 224 255
200 224 255
200 224 255
200 224 255
200 224 255
200 224 255
200 224 255
200 224 255
200 224 255
200 224 255
200 224 255
200 224 255
199 224 255
199 224 255
199 224 255
199 223 255
199 223 255
199 223 255
199 223 255
199 223 255
199 223 255
199 223 255
199 223 255
199 223 255
199 223 255
199 223 255
199 223 255
199 223 255
199 223 255
199 223 255
199 223 255
199 223 255
199 223 255
198 223 255
198 223 255
198 223 255
198 223 255
198 223 255
198 223 255
198 223 255
198 223 255
198 223 255
198 223 255
198 223 255
198 223 255
198 223 255
198 223 255
198 223 255
198 223 255
198 223 255
198 223 255
198 223 255
198 223 255
198 223 255
198 223 255
198 223 255
198 223 255
198 223 255
198 223 255
198 223 255
198 223 255
198 223 255
198 223 255
198 223 255
198 223 255
198 223 255
198 223 255
198 223 255
198 223 255
198 223 255
198 223 255
198 223 255
198 223 255
198 223 255
198 223 255
198 223 255
198 223 255
198 223 255
198 223 255
198 223 255
198 223 255
198 223 255
198 223 255
198 223 255
198 223 255
198 223 255
198 223 255
198 223 255
198 223 255
198 223 255
198 223 255
198 223 255
198 223 255
198 223 255
198 223 255
198 223 255
198 223 255
198 223 255
199 223 255
199 223 255
199 223 255
199 223 255
199 223 255
199 223 255
199 223 255
199 223 255
199 223 255
199 223 255
199 223 255
199 223 255
199 223 255
199 223 255
199 223 255
199 223 255
199 223 255
199 223 255
199 223 255
199 224 255
199 224 255
199 224 255
200 224 255
200 224 255
200 224 255
200 224 255
200 224 255
200 224 255
200 224 255
200 224 255
200 224 255
200 224 255
200 224 255
200 224 255
200 224 255
200 224 255
200 224 255
200 224 255
200 224 255
201 224 255
201 224 255
201 224 255
201 224 255
201 224 255
201 224 255
201 224 255
201 224 255
201 224 255
201 224 255
201 224 255
201 225 255
201 225 255
201 225 255
201 225 255
202 225 255
202 225 255
202 225 255
202 225 255
202 225 255
202 225 255
202 225 255
202 225 255
202 225 255
202 225 255
202 225 255
202 225 255
202 225 255
202 225 255
202 225 255
203 225 255
203 225 255
203 225 255
203 225 255
203 225 255
203 225 255
203 225 255
203 225 255
203 225 255
203 226 255
203 226 255
203 226 255
203 226 255
203 226 255
203 226 255
203 226 255
204 226 255
204 226 255
204 226 255
204 226 255
204 226 255
204 226 255
204 226 255
204 226 255
204 226 255
204 226 255
204 226 255
204 226 255
204 226 255
204 226 255
204 226 255
204 226 255
205 226 255
205 226 255
205 226 255
205 226 255
205 226 255
205 226 255
205 227 255
205 227 255
205 227 255
205 227 255
205 227 255
205 227 255
205 227 255
205 227 255
205 227 255
205 227 255
206 227 255
206 227 255
206 227 255
206 227 255
206 227 255
206 227 255
206 227 255
206 227 255
206 227 255
206 227 255
206 227 255
206 227 255
206 227 255
206 227 255
206 227 255
206 227 255
206 227 255
206 227 255
207 227 255
207 227 255
207 227 255
207 227 255
207 227 255
207 228 255
207 228 255
207 228 255
207 228 255
207 228 255
207 228 255
207 228 255
207 228 255
207 228 255
207 228 255
207 228 255
207 228 255
207 228 255
207 228 255
207 228 255
208 228 255
208 228 255
208 228 255
208 228 255
208 228 255
208 228 255
208 228 255
208 228 255
208 228 255
208 228 255
208 228 255
208 228 255
208 228 255
208 228 255
208 228 255
208 228 255
208 228 255
208 228 255
208 228 255
208 228 255
208 228 255
208 228 255
208 228 255
208 228 255
208 228 255
208 228 255
208 228 255
208 228 255
208 228 255
207 228 255
207 228 255
207 228 255
207 228 255
207 228 255
207 228 255
207 228 255
207 228 255
207 228 255
207 228 255
207 228 255
207 228 255
207 228 255
207 228 255
207 228 255
207 227 255
207 227 255
207 227 255
207 227 255
206 227 255
206 227 255
206 227 255
206 227 255
206 227 255
206 227 255
206 227 255
206 227 255
206 227 255
206 227 255
206 227 255
206 227 255
206 227 255
206 227 255
206 227 255
206 227 255
206 227 255
206 227 255
206 227 255
205 227 255
205 227 255
205 227 255
205 227 255
205 227 255
205 227 255
205 227 255
205 227 255
205 227 255
205 227 255
205 226 255
205 226 255
205 226 255
205 226 255
205 226 255
205 226 255
204 226 255
204 226 255
204 226 255
204 226 255
204 226 255
204 226 255
204 226 255
204 226 255
204 226 255
204 226 255
204 226 255
204 226 255
204 226 255
204 226 255
204 226 255
204 226 255
203 226 255
203 226 255
203 226 255
203 226 255
203 226 255
203 226 255
203 226 255
203 225 255
203 225 255
203 225 255
203 225 255
203 225 255
203 225 255
203 225 255
203 225 255
202 225 255
202 225 255
202 225 255
202 225 255
202 225 255
202 225 255
202 225 255
202 225 255
202 225 255
202 225 255
202 225 255
202 225 255
202 225 255
202 225 255
202 225 255
201 225 255
201 225 255
201 225 255
201 225 255
201 225 255
201 224 255
201 224 255
201 224 255
201 224 255
201 224 255
201 224 255
201 224 255
201 224 255
201 224 255
201 224 255
201 224 255
200 224 255
200 224 255
200 224 255
200 224 255
200 224 255
200 224 255
200 224 255
200 224 255
200 224 255
200 224 255
200 224 255
200 224 255
200 224 255
200 224 255
200 224 255
200 224 255
200 224 255
200 224 255
199 224 255
199 224 255
199 224 255
199 223 255
199 223 255
199 223 255
199 223 255
199 223 255
199 223 255
199 223 255
199 223 255
199 223 255
199 223 255
199 223 255
199 223 255
199 223 255
199 223 255
199 223 255
199 223 255
199 223 255
199 223 255
199 223 255
199 223 255
198 223 255
198 223 255
198 223 255
198 223 255
198 223 255
198 223 255
198 223 255
198 223 255
198 223 255
198 223 255
198 223 255
198 223 255
198 223 255
198 223 255
198 223 255
198 223 255
198 223 255
198 223 255
198 223 255
198 223 255
198 223 255
198 223 255
198 223 255
198 223 255
198 223 255
198 223 255
198 223 255
198 223 255
198 223 255
198 223 255
198 223 255
198 223 255
198 223 255
198 223 255
198 223 255
198 223 255
198 223 255
198 223 255
198 223 255
198 223 255
198 223 255
198 223 255
198 223 255
198 223 255
198 223 255
198 223 255
198 223 255
198 223 255
198 223 255
198 223 255
198 223 255
198 223 255
198 223 255
198 223 255
199 223 255
199 223 255
199 223 255
199 223 255
199 223 255
199 223 255
199 223 255
199 223 255
199 223 255
199 223 255
199 223 255
199 223 255
199 223 255
199 223 255
199 223 255
199 223 255
199 223 255
199 223 255
199 223 255
199 223 255
199 224 255
199 224 255
199 224 255
200 224 255
200 224 255
200 224 255
200 224 255
200 224 255
200 224 255
200 224 255
200 224 255
200 224 255
200 224 255
200 224 255
200 224 255
200 224 255
200 224 255
200 224 255
200 224 255
200 224 255
200 224 255
201 224 255
201 224 255
201 224 255
201 224 255
201 224 255
201 224 255
201 224 255
201 224 255
201 224 255
201 224 255
201 224 255
201 225 255
201 225 255
201 225 255
201 225 255
201 225 255
202 225 255
202 225 255
202 225 255
202 225 255
202 225 255
202 225 255
202 225 255
202 225 255
202 225 255
202 225 255
202 225 255
202 225 255
202 225 255
202 225 255
202 225 255
203 225 255
203 225 255
203 225 255
203 225 255
203 225 255
203 225 255
203 225 255
203 225 255
203 226 255
203 226 255
203 226 255
203 226 255
203 226 255
203 226 255
203 226 255
204 226 255
204 226 255
204 226 255
204 226 255
204 226 255
204 226 255
204 226 255
204 226 255
204 226 255
204 226 255
204 226 255
204 226 255
204 226 255
204 226 255
204 226 255
204 226 255
205 226 255
205 226 255
205 226 255
205 226 255
205 226 255
205 226 255
205 226 255
205 227 255
205 227 255
205 227 255
205 227 255
205 227 255
205 227 255
205 227 255
205 227 255
205 227 255
206 227 255
206 227 255
206 227 255
206 227 255
206 227 255
206 227 255
206 227 255
206 227 255
206 227 255
206 227 255
206 227 255
206 227 255
206 227 255
206 227 255
206 227 255
206 227 255
206 227 255
206 227 255
207 227 255
207 227 255
207 227 255
207 227 255
207 227 255
207 228 255
207 228 255
207 228 255
207 228 255
207 228 255
207 228 255
207 228 255
207 228 255
207 228 255
207 228 255
207 228 255
207 228 255
207 228 255
207 228 255
207 228 255
208 228 255
208 228 255
208 228 255
208 228 255
208 228 255
208 228 255
208 228 255
208 228 255
208 228 255
208 228 255
208 228 255
208 228 255
208 228 255
208 228 255
208 228 255
208 228 255
208 228 255
208 228 255
208 228 255
208 228 255
208 228 255
208 228 255
208 228 255
208 228 255
208 228 255
208 228 255
208 228 255
208 228 255
208 228 255
208 228 255
208 228 255
208 228 255
208 228 255
208 228 255
208 228 255
207 228 255
207 228 255
207 228 255
207 228 255
207 228 255
207 228 255
207 228 255
207 228 255
207 228 255
207 228 255
207 228 255
207 228 255
207 228 255
207 228 255
207 228 255
207 227 255
207 227 255
207 227 255
207 227 255
206 227 255
206 227 255
206 227 255
206 227 255
206 227 255
206 227 255
206 227 255
206 227 255
206 227 255
206 227 255
206 227 255
206 227 255
206 227 255
206 227 255
206 227 255
206 227 255
206 227 255
206 227 255
205 227 255
205 227 255
205 227 255
205 227 255
205 227 255
205 227 255
205 227 255
205 227 255
205 227 255
205 227 255
205 226 255
205 226 255
205 226 255
205 226 255
205 226 255
205 226 255
205 226 255
204 226 255
204 226 255
204 226 255
204 226 255
204 226 255
204 226 255
204 226 255
204 226 255
204 226 255
204 226 255
204 226 255
204 226 255
204 226 255
204 226 255
204 226 255
204 226 255
203 226 255
203 226 255
203 226 255
203 226 255
203 226 255
203 226 255
203 225 255
203 225 255
203 225 255
203 225 255
203 225 255
203 225 255
203 225 255
203 225 255
203 225 255
202 225 255
202 225 255
202 225 255
202 225 255
202 225 255
202 225 255
202 225 255
202 225 255
202 225 255
202 225 255
202 225 255
202 225 255
202 225 255
202 225 255
202 225 255
201 225 255
201 225 255
201 225 255
201 225 255
201 225 255
201 224 255
201 224 255
201 224 255
201 224 255
201 224 255
201 224 255
201 224 255
201 224 255
201 224 255
201 224 255
201 224 255
200 224 255
200 224 255
200 224 255
200 224 255
200 224 255
200 224 255
200 224 255
200 224 255
200 224 255
200 224 255
200 224 255
200 224 255
200 224 255
200 224 255
200 224 255
200 224 255
200 224 255
200 224 255
199 224 255
199 224 255
199 224 255
199 224 255
199 223 255
199 223 255
199 223 255
199 223 255
199 223 255
199 223 255
199 223 255
199 223 255
199 223 255
199 223 255
199 223 255
199 223 255
199 223 255
199 223 255
199 223 255
199 223 255
199 223 255
199 223 255
199 223 255
199 223 255
199 223 255
199 223 255
199 223 255
198 223 255
198 223 255
198 223 255
198 223 255
198 223 255
198 223 255
198 223 255
198 223 255
198 223 255
198 223 255
198 223 255
198 223 255
198 223 255
198 223 255
198 223 255
198 223 255
198 223 255
198 223 255
198 223 255
198 223 255
198 223 255
198 223 255
198 223 255
198 223 255
198 223 255
198 223 255
198 223 255
198 223 255
198 223 255
198 223 255
198 223 255
198 223 255
198 223 255
198 223 255
198 223 255
198 223 255
198 223 255
198 223 255
198 223 255
198 223 255
199 223 255
199 223 255
199 223 255
199 223 255
199 223 255
199 223 255
199 223 255
199 223 255
199 223 255
199 223 255
199 223 255
199 223 255
199 223 255
199 223 255
199 223 255
199 223 255
199 223 255
199 223 255
199 223 255
199 223 255
199 223 255
199 223 255
199 223 255
199 224 255
199 224 255
199 224 255
199 224 255
200 224 255
200 224 255
200 224 255
200 224 255
200 224 255
200 224 255
200 224 255
200 224 255
200 224 255
200 224 255
200 224 255
200 224 255
200 224 255
200 224 255
200 224 255
200 224 255
200 224 255
200 224 255
201 224 255
201 224 255
201 224 255
201 224 255
201 224 255
201 224 255
201 224 255
201 224 255
201 224 255
201 224 255
201 224 255
201 225 255
201 225 255
201 225 255
201 225 255
201 225 255
202 225 255
202 225 255
202 225 255
202 225 255
202 225 255
202 225 255
202 225 255
202 225 255
202 225 255
202 225 255
202 225 255
202 225 255
202 225 255
202 225 255
202 225 255
203 225 255
203 225 255
203 225 255
203 225 255
203 225 255
203 225 255
203 225 255
203 225 255
203 226 255
203 226 255
203 226 255
203 226 255
203 226 255
203 226 255
203 226 255
204 226 255
204 226 255
204 226 255
204 226 255
204 226 255
204 226 255
204 226 255
204 226 255
204 226 255
204 226 255
204 226 255
204 226 255
204 226 255
204 226 255
204 226 255
204 226 255
205 226 255
205 226 255
205 226 255
205 226 255
205 226 255
205 226 255
205 226 255
205 227 255
205 227 255
205 227 255
205 227 255
205 227 255
205 227 255
205 227 255
205 227 255
205 227 255
205 227 255
206 227 255
206 227 255
206 227 255
206 227 255
206 227 255
206 227 255
206 227 255
206 227 255
206 227 255
206 227 255
206 227 255
206 227 255
206 227 255
206 227 255
206 227 255
206 227 255
206 227 255
207 227 255
207 227 255
207 227 255
207 227 255
207 227 255
207 228 255
207 228 255
207 228 255
207 228 255
207 228 255
207 228 255
207 228 255
207 228 255
207 228 255
207 228 255
207 228 255
207 228 255
207 228 255
207 228 255
207 228 255
208 228 255
208 228 255
208 228 255
208 228 255
208 228 255
208 228 255
208 228 255
208 228 255
208 228 255
208 228 255
208 228 255
208 228 255
208 228 255
208 228 255
208 228 255
208 228 255
208 228 255
208 228 255
208 228 255
209 228 255
208 228 255
208 228 255
208 228 255
208 228 255
208 228 255
208 228 255
208 228 255
208 228 255
208 228 255
208 228 255
208 228 255
208 228 255
208 228 255
208 228 255
208 228 255
208 228 255
208 228 255
208 228 255
208 228 255
208 228 255
208 228 255
207 228 255
207 228 255
207 228 255
207 228 255
207 228 255
207 228 255
207 228 255
207 228 255
207 228 255
207 228 255
207 228 255
207 228 255
207 228 255
207 228 255
207 228 255
207 227 255
207 227 255
207 227 255
207 227 255
207 227 255
206 227 255
206 227 255
206 227 255
206 227 255
206 227 255
206 227 255
206 227 255
206 227 255
206 227 255
206 227 255
206 227 255
206 227 255
206 227 255
206 227 255
206 227 255
206 227 255
206 227 255
205 227 255
205 227 255
205 227 255
205 227 255
205 227 255
205 227 255
205 227 255
205 227 255
205 227 255
205 227 255
205 226 255
205 226 255
205 226 255
205 226 255
205 226 255
205 226 255
205 226 255
204 226 255
204 226 255
204 226 255
204 226 255
204 226 255
204 226 255
204 226 255
204 226 255
204 226 255
204 226 255
204 226 255
204 226 255
204 226 255
204 226 255
204 226 255
203 226 255
203 226 255
203 226 255
203 226 255
203 226 255
203 226 255
203 226 255
203 225 255
203 225 255
203 225 255
203 225 255
203 225 255
203 225 255
203 225 255
203 225 255
203 225 255
202 225 255
202 225 255
202 225 255
202 225 255
202 225 255
202 225 255
202 225 255
202 225 255
202 225 255
202 225 255
202 225 255
202 225 255
202 225 255
202 225 255
202 225 255
201 225 255
201 225 255
201 225 255
201 225 255
201 225 255
201 224 255
201 224 255
201 224 255
201 224 255
201 224 255
201 224 255
201 224 255
201 224 255
201 224 255
201 224 255
201 224 255
201 224 255
200 224 255
200 224 255
200 224 255
200 224 255
200 224 255
200 224 255
200 224 255
200 224 255
200 224 255
200 224 255
200 224 255
200 224 255
200 224 255
200 224 255
200 224 255
200 224 255
200 224 255
200 224 255
199 224 255
199 224 255
199 224 255
199 224 255
199 223 255
199 223 255
199 223 255
199 223 255
199 223 255
199 223 255
199 223 255
199 223 255
199 223 255
199 223 255
199 223 255
199 223 255
199 223 255
199 223 255
199 223 255
199 223 255
199 223 255
199 223 255
199 223 255
199 223 255
199 223 255
199 223 255
199 223 255
199 223 255
199 223 255
199 223 255
199 223 255
199 223 255
199 223 255
199 223 255
198 223 255
198 223 255
198 223 255
198 223 255
198 223 255
198 223 255
198 223 255
198 223 255
198 223 255
198 223 255
198 223 255
198 223 255
198 223 255
198 223 255
198 223 255
198 223 255
198 223 255
198 223 255
198 223 255
199 223 255
199 223 255
199 223 255
199 223 255
199 223 255
199 223 255
199 223 255
199 223 255
199 223 255
199 223 255
199 223 255
199 223 255
199 223 255
199 223 255
199 223 255
199 223 255
199 223 255
199 223 255
199 223 255
199 223 255
199 223 255
199 223 255
199 223 255
199 223 255
199 223 255
199 223 255
199 223 255
199 223 255
199 223 255
199 224 255
199 224 255
199 224 255
199 224 255
200 224 255
200 224 255
200 224 255
200 224 255
200 224 255
200 224 255
200 224 255
200 224 255
200 224 255
200 224 255
200 224 255
200 224 255
200 224 255
200 224 255
200 224 255
200 224 255
200 224 255
200 224 255
201 224 255
201 224 255
201 224 255
201 224 255
201 224 255
201 224 255
201 224 255
201 224 255
201 224 255
201 224 255
201 224 255
201 224 255
201 225 255
201 225 255
201 225 255
201 225 255
201 225 255
202 225 255
202 225 255
202 225 255
202 225 255
202 225 255
202 225 255
202 225 255
202 225 255
202 225 255
202 225 255
202 225 255
202 225 255
202 225 255
202 225 255
202 225 255
203 225 255
203 225 255
203 225 255
203 225 255
203 225 255
203 225 255
203 225 255
203 225 255
203 225 255
203 226 255
203 226 255
203 226 255
203 226 255
203 226 255
203 226 255
203 226 255
204 226 255
204 226 255
204 226 255
204 226 255
204 226 255
204 226 255
204 226 255
204 226 255
204 226 255
204 226 255
204 226 255
204 226 255
204 226 255
204 226 255
204 226 255
205 226 255
205 226 255
205 226 255
205 226 255
205 226 255
205 226 255
205 226 255
205 227 255
205 227 255
205 227 255
205 227 255
205 227 255
205 227 255
205 227 255
205 227 255
205 227 255
205 227 255
206 227 255
206 227 255
206 227 255
206 227 255
206 227 255
206 227 255
206 227 255
206 227 255
206 227 255
206 227 255
206 227 255
206 227 255
206 227 255
206 227 255
206 227 255
206 227 255
206 227 255
207 227 255
207 227 255
207 227 255
207 227 255
207 227 255
207 228 255
207 228 255
207 228 255
207 228 255
207 228 255
207 228 255
207 228 255
207 228 255
207 228 255
207 228 255
207 228 255
207 228 255
207 228 255
207 228 255
207 228 255
208 228 255
208 228 255
208 228 255
208 228 255
208 228 255
208 228 255
208 228 255
208 228 255
208 228 255
208 228 255
208 228 255
208 228 255
208 228 255
208 228 255
208 228 255
208 228 255
208 228 255
208 228 255
208 228 255
208 228 255
208 228 255
209 228 255
209 229 255
209 229 255
209 228 255
209 228 255
208 228 255
208 228 255
208 228 255
208 228 255
208 228 255
208 228 255
208 228 255
208 228 255
208 228 255
208 228 255
208 228 255
208 228 255
208 228 255
208 228 255
208 228 255
208 228 255
208 228 255
208 228 255
208 228 255
208 228 255
208 228 255
208 228 255
207 228 255
207 228 255
207 228 255
207 228 255
207 228 255
207 228 255
207 228 255
207 228 255
207 228 255
207 228 255
207 228 255
207 228 255
207 228 255
207 228 255
207 227 255
207 227 255
207 227 255
207 227 255
207 227 255
206 227 255
206 227 255
206 227 255
206 227 255
206 227 255
206 227 255
206 227 255
206 227 255
206 227 255
206 227 255
206 227 255
206 227 255
206 227 255
206 227 255
206 227 255
206 227 255
206 227 255
205 227 255
205 227 255
205 227 255
205 227 255
205 227 255
205 227 255
205 227 255
205 227 255
205 227 255
205 227 255
205 226 255
205 226 255
205 226 255
205 226 255
205 226 255
205 226 255
205 226 255
204 226 255
204 226 255
204 226 255
204 226 255
204 226 255
204 226 255
204 226 255
204 226 255
204 226 255
204 226 255
204 226 255
204 226 255
204 226 255
204 226 255
204 226 255
203 226 255
203 226 255
203 226 255
203 226 255
203 226 255
203 226 255
203 226 255
203 225 255
203 225 255
203 225 255
203 225 255
203 225 255
203 225 255
203 225 255
203 225 255
203 225 255
202 225 255
202 225 255
202 225 255
202 225 255
202 225 255
202 225 255
202 225 255
202 225 255
202 225 255
202 225 255
202 225 255
202 225 255
202 225 255
202 225 255
202 225 255
201 225 255
201 225 255
201 225 255
201 225 255
201 225 255
201 224 255
201 224 255
201 224 255
201 224 255
201 224 255
201 224 255
201 224 255
201 224 255
201 224 255
201 224 255
201 224 255
201 224 255
200 224 255
200 224 255
200 224 255
200 224 255
200 224 255
200 224 255
200 224 255
200 224 255
200 224 255
200 224 255
200 224 255
200 224 255
200 224 255
200 224 255
200 224 255
200 224 255
200 224 255
200 224 255
200 224 255
200 224 255
199 224 255
199 224 255
199 224 255
199 224 255
199 223 255
199 223 255
199 223 255
199 223 255
199 223 255
199 223 255
199 223 255
199 223 255
199 223 255
199 223 255
199 223 255
199 223 255
199 223 255
199 223 255
199 223 255
199 223 255
199 223 255
199 223 255
199 223 255
199 223 255
199 223 255
199 223 255
199 223 255
199 223 255
199 223 255
199 223 255
199 223 255
199 223 255
199 223 255
199 223 255
199 223 255
199 223 255
199 223 255
199 223 255
199 223 255
199 223 255
199 223 255
199 223 255
199 223 255
199 223 255
199 223 255
199 223 255
199 223 255
199 223 255
199 223 255
199 223 255
199 223 255
199 223 255
199 223 255
199 223 255
199 223 255
199 223 255
199 223 255
199 223 255
199 223 255
199 223 255
199 223 255
199 223 255
199 223 255
199 223 255
199 223 255
199 223 255
199 223 255
199 223 255
199 223 255
199 223 255
199 223 255
199 223 255
199 224 255
199 224 255
199 224 255
199 224 255
200 224 255
200 224 255
200 224 255
200 224 255
200 224 255
200 224 255
200 224 255
200 224 255
200 224 255
200 224 255
200 224 255
200 224 255
200 224 255
200 224 255
200 224 255
200 224 255
200 224 255
200 224 255
200 224 255
200 224 255
201 224 255
201 224 255
201 224 255
201 224 255
201 224 255
201 224 255
201 224 255
201 224 255
201 224 255
201 224 255
201 224 255
201 224 255
201 225 255
201 225 255
201 225 255
201 225 255
201 225 255
202 225 255
202 225 255
202 225 255
202 225 255
202 225 255
202 225 255
202 225 255
202 225 255
202 225 255
202 225 255
202 225 255
202 225 255
202 225 255
202 225 255
202 225 255
203 225 255
203 225 255
203 225 255
203 225 255
203 225 255
203 225 255
203 225 255
203 225 255
203 225 255
203 226 255
203 226 255
203 226 255
203 226 255
203 226 255
203 226 255
203 226 255
204 226 255
204 226 255
204 226 255
204 226 255
204 226 255
204 226 255
204 226 255
204 226 255
204 226 255
204 226 255
204 226 255
204 226 255
204 226 255
204 226 255
204 226 255
205 226 255
205 226 255
205 226 255
205 226 255
205 226 255
205 226 255
205 226 255
205 227 255
205 227 255
205 227 255
205 227 255
205 227 255
205 227 255
205 227 255
205 227 255
205 227 255
205 227 255
206 227 255
206 227 255
206 227 255
206 227 255
206 227 255
206 227 255
206 227 255
206 227 255
206 227 255
206 227 255
206 227 255
206 227 255
206 227 255
206 227 255
206 227 255
206 227 255
206 227 255
207 227 255
207 227 255
207 227 255
207 227 255
207 227 255
207 228 255
207 228 255
207 228 255
207 228 255
207 228 255
207 228 255
207 228 255
207 228 255
207 228 255
207 228 255
207 228 255
207 228 255
207 228 255
207 228 255
207 228 255
208 228 255
208 228 255
208 228 255
208 228 255
208 228 255
208 228 255
208 228 255
208 228 255
208 228 255
208 228 255
208 228 255
208 228 255
208 228 255
208 228 255
208 228 255
208 228 255
208 228 255
208 228 255
208 228 255
208 228 255
208 228 255
209 228 255
209 229 255
209 229 255
209 229 255
209 229 255
209 229 255
209 229 255
209 229 255
209 229 255
209 229 255
209 228 255
208 228 255
208 228 255
208 228 255
208 228 255
208 228 255
208 228 255
208 228 255
208 228 255
208 228 255
208 228 255
208 228 255
208 228 255
208 228 255
208 228 255
208 228 255
208 228 255
208 228 255
208 228 255
208 228 255
208 228 255
208 228 255
207 228 255
207 228 255
207 228 255
207 228 255
207 228 255
207 228 255
207 228 255
207 228 255
207 228 255
207 228 255
207 228 255
207 228 255
207 228 255
207 228 255
207 228 255
207 227 255
207 227 255
207 227 255
207 227 255
206 227 255
206 227 255
206 227 255
206 227 255
206 227 255
206 227 255
206 227 255
206 227 255
206 227 255
206 227 255
206 227 255
206 227 255
206 227 255
206 227 255
206 227 255
206 227 255
206 227 255
206 227 255
205 227 255
205 227 255
205 227 255
205 227 255
205 227 255
205 227 255
205 227 255
205 227 255
205 227 255
205 227 255
205 226 255
205 226 255
205 226 255
205 226 255
205 226 255
205 226 255
204 226 255
204 226 255
204 226 255
204 226 255
204 226 255
204 226 255
204 226 255
204 226 255
204 226 255
204 226 255
204 226 255
204 226 255
204 226 255
204 226 255
204 226 255
204 226 255
203 226 255
203 226 255
203 226 255
203 226 255
203 226 255
203 226 255
203 226 255
203 225 255
203 225 255
203 225 255
203 225 255
203 225 255
203 225 255
203 225 255
203 225 255
203 225 255
202 225 255
202 225 255
202 225 255
202 225 255
202 225 255
202 225 255
202 225 255
202 225 255
202 225 255
202 225 255
202 225 255
202 225 255
202 225 255
202 225 255
202 225 255
201 225 255
201 225 255
201 225 255
201 225 255
201 225 255
201 224 255
201 224 255
201 224 255
201 224 255
201 224 255
201 224 255
201 224 255
201 224 255
201 224 255
201 224 255
201 224 255
201 224 255
201 224 255
200 224 255
200 224 255
200 224 255
200 224 255
200 224 255
200 224 255
200 224 255
200 224 255
200 224 255
200 224 255
200 224 255
200 224 255
200 224 255
200 224 255
200 224 255
200 224 255
200 224 255
200 224 255
200 224 255
200 224 255
200 224 255
199 224 255
199 224 255
199 224 255
199 224 255
199 223 255
199 223 255
199 223 255
199 223 255
199 223 255
199 223 255
199 223 255
199 223 255
199 223 255
199 223 255
199 223 255
199 223 255
199 223 255
199 223 255
199 223 255
199 223 255
199 223 255
199 223 255
199 223 255
199 223 255
199 223 255
199 223 255
199 223 255
199 223 255
199 223 255
199 223 255
199 223 255
199 223 255
199 223 255
199 223 255
199 223 255
199 223 255
199 223 255
199 223 255
199 223 255
199 223 255
199 223 255
199 223 255
199 223 255
199 223 255
199 223 255
199 223 255
199 223 255
199 223 255
199 223 255
199 223 255
199 223 255
199 223 255
199 223 255
199 223 255
199 223 255
199 223 255
199 223 255
199 223 255
199 223 255
199 223 255
199 223 255
199 223 255
199 224 255
199 224 255
199 224 255
199 224 255
200 224 255
200 224 255
200 224 255
200 224 255
200 224 255
200 224 255
200 224 255
200 224 255
200 224 255
200 224 255
200 224 255
200 224 255
200 224 255
200 224 255
200 224 255
200 224 255
200 224 255
200 224 255
200 224 255
200 224 255
200 224 255
200 224 255
201 224 255
201 224 255
201 224 255
201 224 255
201 224 255
201 224 255
201 224 255
201 224 255
201 224 255
201 224 255
201 224 255
201 224 255
201 225 255
201 225 255
201 225 255
201 225 255
201 225 255
202 225 255
202 225 255
202 225 255
202 225 255
202 225 255
202 225 255
202 225 255
202 225 255
202 225 255
202 225 255
202 225 255
202 225 255
202 225 255
202 225 255
202 225 255
203 225 255
203 225 255
203 225 255
203 225 255
203 225 255
203 225 255
203 225 255
203 225 255
203 225 255
203 226 255
203 226 255
203 226 255
203 226 255
203 226 255
203 226 255
203 226 255
204 226 255
204 226 255
204 226 255
204 226 255
204 226 255
204 226 255
204 226 255
204 226 255
204 226 255
204 226 255
204 226 255
204 226 255
204 226 255
204 226 255
204 226 255
204 226 255
205 226 255
205 226 255
205 226 255
205 226 255
205 226 255
205 226 255
205 227 255
205 227 255
205 227 255
205 227 255
205 227 255
205 227 255
205 227 255
205 227 255
205 227 255
205 227 255
206 227 255
206 227 255
206 227 255
206 227 255
206 227 255
206 227 255
206 227 255
206 227 255
206 227 255
206 227 255
206 227 255
206 227 255
206 227 255
206 227 255
206 227 255
206 227 255
206 227 255
207 227 255
207 227 255
207 227 255
207 227 255
207 227 255
207 228 255
207 228 255
207 228 255
207 228 255
207 228 255
207 228 255
207 228 255
207 228 255
207 228 255
207 228 255
207 228 255
207 228 255
207 228 255
207 228 255
208 228 255
208 228 255
208 228 255
208 228 255
208 228 255
208 228 255
208 228 255
208 228 255
208 228 255
208 228 255
208 228 255
208 228 255
208 228 255
208 228 255
208 228 255
208 228 255
208 228 255
208 228 255
208 228 255
208 228 255
208 228 255
208 228 255
209 228 255
209 229 255
209 229 255
209 229 255
209 229 255
209 229 255
209 229 255
209 229 255
209 229 255
209 229 255
209 229 255
209 229 255
209 229 255
209 229 255
209 229 255
209 229 255
209 228 255
209 228 255
208 228 255
208 228 255
208 228 255
208 228 255
208 228 255
208 228 255
208 228 255
208 228 255
208 228 255
208 228 255
208 228 255
208 228 255
208 228 255
208 228 255
208 228 255
208 228 255
208 228 255
208 228 255
208 228 255
208 228 255
208 228 255
207 228 255
207 228 255
207 228 255
207 228 255
207 228 255
207 228 255
207 228 255
207 228 255
207 228 255
207 228 255
207 228 255
207 228 255
207 228 255
207 228 255
207 227 255
207 227 255
207 227 255
207 227 255
206 227 255
206 227 255
206 227 255
206 227 255
206 227 255
206 227 255
206 227 255
206 227 255
206 227 255
206 227 255
206 227 255
206 227 255
206 227 255
206 227 255
206 227 255
206 227 255
206 227 255
206 227 255
205 227 255
205 227 255
205 227 255
205 227 255
205 227 255
205 227 255
205 227 255
205 227 255
205 227 255
205 227 255
205 226 255
205 226 255
205 226 255
205 226 255
205 226 255
205 226 255
204 226 255
204 226 255
204 226 255
204 226 255
204 226 255
204 226 255
204 226 255
204 226 255
204 226 255
204 226 255
204 226 255
204 226 255
204 226 255
204 226 255
204 226 255
204 226 255
203 226 255
203 226 255
203 226 255
203 226 255
203 226 255
203 226 255
203 226 255
203 225 255
203 225 255
203 225 255
203 225 255
203 225 255
203 225 255
203 225 255
203 225 255
203 225 255
202 225 255
202 225 255
202 225 255
202 225 255
202 225 255
202 225 255
202 225 255
202 225 255
202 225 255
202 225 255
202 225 255
202 225 255
202 225 255
202 225 255
202 225 255
201 225 255
201 225 255
201 225 255
201 225 255
201 225 255
201 224 255
201 224 255
201 224 255
201 224 255
201 224 255
201 224 255
201 224 255
201 224 255
201 224 255
201 224 255
201 224 255
201 224 255
201 224 255
200 224 255
200 224 255
200 224 255
200 224 255
200 224 255
200 224 255
200 224 255
200 224 255
200 224 255
200 224 255
200 224 255
200 224 255
200 224 255
200 224 255
200 224 255
200 224 255
200 224 255
200 224 255
200 224 255
200 224 255
200 224 255
200 224 255
200 224 255
200 224 255
199 224 255
199 224 255
199 224 255
199 224 255
199 224 255
199 223 255
199 223 255
199 223 255
199 223 255
199 223 255
199 223 255
199 223 255
199 223 255
199 223 255
199 223 255
199 223 255
199 223 255
199 223 255
199 223 255
199 223 255
199 223 255
199 223 255
199 223 255
199 223 255
199 223 255
199 223 255
199 223 255
199 223 255
199 223 255
199 223 255
199 223 255
199 223 255
199 223 255
199 223 255
199 223 255
199 223 255
199 223 255
199 223 255
199 223 255
199 223 255
199 223 255
199 223 255
199 223 255
199 223 255
199 223 255
199 223 255
199 223 255
199 223 255
199 223 255
199 224 255
199 224 255
199 224 255
199 224 255
199 224 255
200 224 255
200 224 255
200 224 255
200 224 255
200 224 255
200 224 255
200 224 255
200 224 255
200 224 255
200 224 255
200 224 255
200 224 255
200 224 255
200 224 255
200 224 255
200 224 255
200 224 255
200 224 255
200 224 255
200 224 255
200 224 255
200 224 255
200 224 255
200 224 255
201 224 255
201 224 255
201 224 255
201 224 255
201 224 255
201 224 255
201 224 255
201 224 255
201 224 255
201 224 255
201 224 255
201 224 255
201 224 255
201 225 255
201 225 255
201 225 255
201 225 255
201 225 255
202 225 255
202 225 255
202 225 255
202 225 255
202 225 255
202 225 255
202 225 255
202 225 255
202 225 255
202 225 255
202 225 255
202 225 255
202 225 255
202 225 255
202 225 255
202 225 255
203 225 255
203 225 255
203 225 255
203 225 255
203 225 255
203 225 255
203 225 255
203 225 255
203 226 255
203 226 255
203 226 255
203 226 255
203 226 255
203 226 255
203 226 255
204 226 255
204 226 255
204 226 255
204 226 255
204 226 255
204 226 255
204 226 255
204 226 255
204 226 255
204 226 255
204 226 255
204 226 255
204 226 255
204 226 255
204 226 255
204 226 255
205 226 255
205 226 255
205 226 255
205 226 255
205 226 255
205 226 255
205 227 255
205 227 255
205 227 255
205 227 255
205 227 255
205 227 255
205 227 255
205 227 255
205 227 255
205 227 255
206 227 255
206 227 255
206 227 255
206 227 255
206 227 255
206 227 255
206 227 255
206 227 255
206 227 255
206 227 255
206 227 255
206 227 255
206 227 255
206 227 255
206 227 255
206 227 255
206 227 255
206 227 255
207 227 255
207 227 255
207 227 255
207 227 255
207 228 255
207 228 255
207 228 255
207 228 255
207 228 255
207 228 255
207 228 255
207 228 255
207 228 255
207 228 255
207 228 255
207 228 255
207 228 255
207 228 255
208 228 255
208 228 255
208 228 255
208 228 255
208 228 255
208 228 255
208 228 255
208 228 255
208 228 255
208 228 255
208 228 255
208 228 255
208 228 255
208 228 255
208 228 255
208 228 255
208 228 255
208 228 255
208 228 255
208 228 255
208 228 255
209 228 255
209 228 255
209 229 255
209 229 255
209 229 255
209 229 255
209 229 255
209 229 255
209 229 255
209 229 255
209 229 255
209 229 255
209 229 255
209 229 255
209 229 255
209 229 255
209 229 255
209 229 255
209 229 255
209 229 255
209 229 255
209 229 255
209 229 255
209 228 255
209 228 255
208 228 255
208 228 255
208 228 255
208 228 255
208 228 255
208 228 255
208 228 255
208 228 255
208 228 255
208 228 255
208 228 255
208 228 255
208 228 255
208 228 255
208 228 255
208 228 255
208 228 255
208 228 255
208 228 255
208 228 255
208 228 255
207 228 255
207 228 255
207 228 255
207 228 255
207 228 255
207 228 255
207 228 255
207 228 255
207 228 255
207 228 255
207 228 255
207 228 255
207 228 255
207 228 255
207 227 255
207 227 255
207 227 255
207 227 255
206 227 255
206 227 255
206 227 255
206 227 255
206 227 255
206 227 255
206 227 255
206 227 255
206 227 255
206 227 255
206 227 255
206 227 255
206 227 255
206 227 255
206 227 255
206 227 255
206 227 255
206 227 255
205 227 255
205 227 255
205 227 255
205 227 255
205 227 255
205 227 255
205 227 255
205 227 255
205 227 255
205 227 255
205 226 255
205 226 255
205 226 255
205 226 255
205 226 255
205 226 255
204 226 255
204 226 255
204 226 255
204 226 255
204 226 255
204 226 255
204 226 255
204 226 255
204 226 255
204 226 255
204 226 255
204 226 255
204 226 255
204 226 255
204 226 255
204 226 255
203 226 255
203 226 255
203 226 255
203 226 255
203 226 255
203 226 255
203 226 255
203 225 255
203 225 255
203 225 255
203 225 255
203 225 255
203 225 255
203 225 255
203 225 255
203 225 255
202 225 255
202 225 255
202 225 255
202 225 255
202 225 255
202 225 255
202 225 255
202 225 255
202 225 255
202 225 255
202 225 255
202 225 255
202 225 255
202 225 255
202 225 255
202 225 255
201 225 255
201 225 255
201 225 255
201 225 255
201 225 255
201 224 255
201 224 255
201 224 255
201 224 255
201 224 255
201 224 255
201 224 255
201 224 255
201 224 255
201 224 255
201 224 255
201 224 255
201 224 255
200 224 255
200 224 255
200 224 255
200 224 255
200 224 255
200 224 255
200 224 255
200 224 255
200 224 255
200 224 255
200 224 255
200 224 255
200 224 255
200 224 255
200 224 255
200 224 255
200 224 255
200 224 255
200 224 255
200 224 255
200 224 255
200 224 255
200 224 255
200 224 255
200 224 255
200 224 255
200 224 255
199 224 255
199 224 255
199 224 255
199 224 255
199 224 255
199 224 255
199 224 255
199 223 255
199 223 255
199 223 255
199 223 255
199 223 255
199 223 255
199 223 255
199 223 255
199 223 255
199 223 255
199 223 255
199 223 255
199 223 255
199 223 255
199 223 255
199 223 255
199 223 255
199 223 255
199 223 255
199 223 255
199 223 255
199 223 255
199 223 255
199 223 255
199 223 255
199 224 255
199 224 255
199 224 255
199 224 255
199 224 255
199 224 255
199 224 255
199 224 255
199 224 255
200 224 255
200 224 255
200 224 255
200 224 255
200 224 255
200 224 255
200 224 255
200 224 255
200 224 255
200 224 255
200 224 255
200 224 255
200 224 255
200 224 255
200 224 255
200 224 255
200 224 255
200 224 255
200 224 255
200 224 255
200 224 255
200 224 255
200 224 255
200 224 255
200 224 255
200 224 255
201 224 255
201 224 255
201 224 255
201 224 255
201 224 255
201 224 255
201 224 255
201 224 255
201 224 255
201 224 255
201 224 255
201 224 255
201 224 255
201 225 255
201 225 255
201 225 255
201 225 255
201 225 255
202 225 255
202 225 255
202 225 255
202 225 255
202 225 255
202 225 255
202 225 255
202 225 255
202 225 255
202 225 255
202 225 255
202 225 255
202 225 255
202 225 255
202 225 255
202 225 255
202 225 255
203 225 255
203 225 255
203 225 255
203 225 255
203 225 255
203 225 255
203 225 255
203 225 255
203 226 255
203 226 255
203 226 255
203 226 255
203 226 255
203 226 255
203 226 255
204 226 255
204 226 255
204 226 255
204 226 255
204 226 255
204 226 255
204 226 255
204 226 255
204 226 255
204 226 255
204 226 255
204 226 255
204 226 255
204 226 255
204 226 255
204 226 255
205 226 255
205 226 255
205 226 255
205 226 255
205 226 255
205 226 255
205 227 255
205 227 255
205 227 255
205 227 255
205 227 255
205 227 255
205 227 255
205 227 255
205 227 255
205 227 255
206 227 255
206 227 255
206 227 255
206 227 255
206 227 255
206 227 255
206 227 255
206 227 255
206 227 255
206 227 255
206 227 255
206 227 255
206 227 255
206 227 255
206 227 255
206 227 255
206 227 255
207 227 255
207 227 255
207 227 255
207 227 255
207 227 255
207 228 255
207 228 255
207 228 255
207 228 255
207 228 255
207 228 255
207 228 255
207 228 255
207 228 255
207 228 255
207 228 255
207 228 255
207 228 255
207 228 255
208 228 255
208 228 255
208 228 255
208 228 255
208 228 255
208 228 255
208 228 255
208 228 255
208 228 255
208 228 255
208 228 255
208 228 255
208 228 255
208 228 255
208 228 255
208 228 255
208 228 255
208 228 255
208 228 255
208 228 255
208 228 255
209 228 255
209 229 255
209 229 255
209 229 255
209 229 255
209 229 255
209 229 255
209 229 255
209 229 255
209 229 255
209 229 255
209 229 255
209 229 255
209 229 255
209 229 255
209 229 255
209 229 255
209 229 255
209 229 255
209 229 255
209 229 255
209 229 255
209 229 255
209 229 255
209 229 255
209 229 255
209 229 255
209 229 255
209 229 255
209 229 255
209 228 255
208 228 255
208 228 255
208 228 255
208 228 255
208 228 255
208 228 255
208 228 255
208 228 255
208 228 255
208 228 255
208 228 255
208 228 255
208 228 255
208 228 255
208 228 255
208 228 255
208 228 255
208 228 255
208 228 255
208 228 255
208 228 255
207 228 255
207 228 255
207 228 255
207 228 255
207 228 255
207 228 255
207 228 255
207 228 255
207 228 255
207 228 255
207 228 255
207 228 255
207 228 255
207 228 255
207 227 255
207 227 255
207 227 255
207 227 255
207 227 255
206 227 255
206 227 255
206 227 255
206 227 255
206 227 255
206 227 255
206 227 255
206 227 255
206 227 255
206 227 255
206 227 255
206 227 255
206 227 255
206 227 255
206 227 255
206 227 255
206 227 255
205 227 255
205 227 255
205 227 255
205 227 255
205 227 255
205 227 255
205 227 255
205 227 255
205 227 255
205 227 255
205 226 255
205 226 255
205 226 255
205 226 255
205 226 255
205 226 255
204 226 255
204 226 255
204 226 255
204 226 255
204 226 255
204 226 255
204 226 255
204 226 255
204 226 255
204 226 255
204 226 255
204 226 255
204 226 255
204 226 255
204 226 255
204 226 255
203 226 255
203 226 255
203 226 255
203 226 255
203 226 255
203 226 255
203 226 255
203 225 255
203 225 255
203 225 255
203 225 255
203 225 255
203 225 255
203 225 255
203 225 255
203 225 255
202 225 255
202 225 255
202 225 255
202 225 255
202 225 255
202 225 255
202 225 255
202 225 255
202 225 255
202 225 255
202 225 255
202 225 255
202 225 255
202 225 255
202 225 255
202 225 255
201 225 255
201 225 255
201 225 255
201 225 255
201 225 255
201 225 255
201 224 255
201 224 255
201 224 255
201 224 255
201 224 255
201 224 255
201 224 255
201 224 255
201 224 255
201 224 255
201 224 255
201 224 255
201 224 255
200 224 255
200 224 255
200 224 255
200 224 255
200 224 255
200 224 255
200 224 255
200 224 255
200 224 255
200 224 255
200 224 255
200 224 255
200 224 255
200 224 255
200 224 255
200 224 255
200 224 255
200 224 255
200 224 255
200 224 255
200 224 255
200 224 255
200 224 255
200 224 255
200 224 255
200 224 255
200 224 255
200 224 255
200 224 255
200 224 255
200 224 255
200 224 255
200 224 255
200 224 255
199 224 255
199 224 255
199 224 255
199 224 255
199 224 255
199 224 255
199 224 255
199 224 255
199 224 255
199 224 255
199 224 255
199 224 255
199 224 255
199 224 255
199 224 255
199 224 255
199 224 255
199 224 255
199 224 255
200 224 255
200 224 255
200 224 255
200 224 255
200 224 255
200 224 255
200 224 255
200 224 255
200 224 255
200 224 255
200 224 255
200 224 255
200 224 255
200 224 255
200 224 255
200 224 255
200 224 255
200 224 255
200 224 255
200 224 255
200 224 255
200 224 255
200 224 255
200 224 255
200 224 255
200 224 255
200 224 255
200 224 255
200 224 255
200 224 255
200 224 255
200 224 255
200 224 255
201 224 255
201 224 255
201 224 255
201 224 255
201 224 255
201 224 255
201 224 255
201 224 255
201 224 255
201 224 255
201 224 255
201 224 255
201 224 255
201 224 255
201 225 255
201 225 255
201 225 255
201 225 255
201 225 255
202 225 255
202 225 255
202 225 255
202 225 255
202 225 255
202 225 255
202 225 255
202 225 255
202 225 255
202 225 255
202 225 255
202 225 255
202 225 255
202 225 255
202 225 255
202 225 255
203 225 255
203 225 255
203 225 255
203 225 255
203 225 255
203 225 255
203 225 255
203 225 255
203 225 255
203 226 255
203 226 255
203 226 255
203 226 255
203 226 255
203 226 255
203 226 255
204 226 255
204 226 255
204 226 255
204 226 255
204 226 255
204 226 255
204 226 255
204 226 255
204 226 255
204 226 255
204 226 255
204 226 255
204 226 255
204 226 255
204 226 255
204 226 255
205 226 255
205 226 255
205 226 255
205 226 255
205 226 255
205 226 255
205 227 255
205 227 255
205 227 255
205 227 255
205 227 255
205 227 255
205 227 255
205 227 255
205 227 255
205 227 255
206 227 255
206 227 255
206 227 255
206 227 255
206 227 255
206 227 255
206 227 255
206 227 255
206 227 255
206 227 255
206 227 255
206 227 255
206 227 255
206 227 255
206 227 255
206 227 255
206 227 255
206 227 255
207 227 255
207 227 255
207 227 255
207 227 255
207 228 255
207 228 255
207 228 255
207 228 255
207 228 255
207 228 255
207 228 255
207 228 255
207 228 255
207 228 255
207 228 255
207 228 255
207 228 255
207 228 255
208 228 255
208 228 255
208 228 255
208 228 255
208 228 255
208 228 255
208 228 255
208 228 255
208 228 255
208 228 255
208 228 255
208 228 255
208 228 255
208 228 255
208 228 255
208 228 255
208 228 255
208 228 255
208 228 255
208 228 255
208 228 255
209 228 255
209 229 255
209 229 255
209 229 255
209 229 255
209 229 255
209 229 255
209 229 255
209 229 255
209 229 255
209 229 255
209 229 255
209 229 255
209 229 255
209 229 255
209 229 255
209 229 255
209 229 255
209 229 255
209 229 255
209 229 255
209 229 255
209 229 255
209 229 255
209 229 255
209 229 255
209 229 255
209 229 255
209 229 255
209 229 255
209 229 255
209 229 255
209 229 255
209 229 255
209 229 255
209 229 255
209 228 255
208 228 255
208 228 255
208 228 255
208 228 255
208 228 255
208 228 255
208 228 255
208 228 255
208 228 255
208 228 255
208 228 255
208 228 255
208 228 255
208 228 255
208 228 255
208 228 255
208 228 255
208 228 255
208 228 255
208 228 255
208 228 255
207 228 255
207 228 255
207 228 255
207 228 255
207 228 255
207 228 255
207 228 255
207 228 255
207 228 255
207 228 255
207 228 255
207 228 255
207 228 255
207 228 255
207 227 255
207 227 255
207 227 255
207 227 255
206 227 255
206 227 255
206 227 255
206 227 255
206 227 255
206 227 255
206 227 255
206 227 255
206 227 255
206 227 255
206 227 255
206 227 255
206 227 255
206 227 255
206 227 255
206 227 255
206 227 255
206 227 255
205 227 255
205 227 255
205 227 255
205 227 255
205 227 255
205 227 255
205 227 255
205 227 255
205 227 255
205 227 255
205 226 255
205 226 255
205 226 255
205 226 255
205 226 255
205 226 255
204 226 255
204 226 255
204 226 255
204 226 255
204 226 255
204 226 255
204 226 255
204 226 255
204 226 255
204 226 255
204 226 255
204 226 255
204 226 255
204 226 255
204 226 255
204 226 255
203 226 255
203 226 255
203 226 255
203 226 255
203 226 255
203 226 255
203 226 255
203 225 255
203 225 255
203 225 255
203 225 255
203 225 255
203 225 255
203 225 255
203 225 255
203 225 255
202 225 255
202 225 255
202 225 255
202 225 255
202 225 255
202 225 255
202 225 255
202 225 255
202 225 255
202 225 255
202 225 255
202 225 255
202 225 255
202 225 255
202 225 255
202 225 255
202 225 255
201 225 255
201 225 255
201 225 255
201 225 255
201 225 255
201 224 255
201 224 255
201 224 255
201 224 255
201 224 255
201 224 255
201 224 255
201 224 255
201 224 255
201 224 255
201 224 255
201 224 255
201 224 255
201 224 255
201 224 255
200 224 255
200 224 255
200 224 255
200 224 255
200 224 255
200 224 255
200 224 255
200 224 255
200 224 255
200 224 255
200 224 255
200 224 255
200 224 255
200 224 255
200 224 255
200 224 255
200 224 255
200 224 255
200 224 255
200 224 255
200 224 255
200 224 255
200 224 255
200 224 255
200 224 255
200 224 255
200 224 255
200 224 255
200 224 255
200 224 255
200 224 255
200 224 255
200 224 255
200 224 255
200 224 255
200 224 255
200 224 255
200 224 255
200 224 255
200 224 255
200 224 255
200 224 255
200 224 255
200 224 255
200 224 255
200 224 255
200 224 255
200 224 255
200 224 255
200 224 255
200 224 255
200 224 255
200 224 255
200 224 255
200 224 255
200 224 255
200 224 255
200 224 255
200 224 255
200 224 255
200 224 255
200 224 255
200 224 255
200 224 255
200 224 255
200 224 255
200 224 255
200 224 255
200 224 255
200 224 255
200 224 255
200 224 255
200 224 255
200 224 255
200 224 255
200 224 255
201 224 255
201 224 255
201 224 255
201 224 255
201 224 255
201 224 255
201 224 255
201 224 255
201 224 255
201 224 255
201 224 255
201 224 255
201 224 255
201 224 255
201 224 255
201 225 255
201 225 255
201 225 255
201 225 255
201 225 255
202 225 255
202 225 255
202 225 255
202 225 255
202 225 255
202 225 255
202 225 255
202 225 255
202 225 255
202 225 255
202 225 255
202 225 255
202 225 255
202 225 255
202 225 255
202 225 255
202 225 255
203 225 255
203 225 255
203 225 255
203 225 255
203 225 255
203 225 255
203 225 255
203 225 255
203 225 255
203 226 255
203 226 255
203 226 255
203 226 255
203 226 255
203 226 255
203 226 255
204 226 255
204 226 255
204 226 255
204 226 255
204 226 255
204 226 255
204 226 255
204 226 255
204 226 255
204 226 255
204 226 255
204 226 255
204 226 255
204 226 255
204 226 255
204 226 255
205 226 255
205 226 255
205 226 255
205 226 255
205 226 255
205 226 255
205 226 255
205 227 255
205 227 255
205 227 255
205 227 255
205 227 255
205 227 255
205 227 255
205 227 255
205 227 255
206 227 255
206 227 255
206 227 255
206 227 255
206 227 255
206 227 255
206 227 255
206 227 255
206 227 255
206 227 255
206 227 255
206 227 255
206 227 255
206 227 255
206 227 255
206 227 255
206 227 255
207 227 255
207 227 255
207 227 255
207 227 255
207 227 255
207 228 255
207 228 255
207 228 255
207 228 255
207 228 255
207 228 255
207 228 255
207 228 255
207 228 255
207 228 255
207 228 255
207 228 255
207 228 255
207 228 255
208 228 255
208 228 255
208 228 255
208 228 255
208 228 255
208 228 255
208 228 255
208 228 255
208 228 255
208 228 255
208 228 255
208 228 255
208 228 255
208 228 255
208 228 255
208 228 255
208 228 255
208 228 255
208 228 255
208 228 255
209 228 255
209 228 255
209 229 255
209 229 255
209 229 255
209 229 255
209 229 255
209 229 255
209 229 255
209 229 255
209 229 255
209 229 255
209 229 255
209 229 255
209 229 255
209 229 255
209 229 255
209 229 255
209 229 255
209 229 255
209 229 255
210 229 255
209 229 255
209 229 255
209 229 255
209 229 255
209 229 255
209 229 255
209 229 255
209 229 255
209 229 255
209 229 255
209 229 255
209 229 255
209 229 255
209 229 255
209 229 255
209 229 255
209 229 255
209 229 255
209 229 255
209 229 255
209 229 255
209 228 255
209 228 255
208 228 255
208 228 255
208 228 255
208 228 255
208 228 255
208 228 255
208 228 255
208 228 255
208 228 255
208 228 255
208 228 255
208 228 255
208 228 255
208 228 255
208 228 255
208 228 255
208 228 255
208 228 255
208 228 255
208 228 255
207 228 255
207 228 255
207 228 255
207 228 255
207 228 255
207 228 255
207 228 255
207 228 255
207 228 255
207 228 255
207 228 255
207 228 255
207 228 255
207 228 255
207 227 255
207 227 255
207 227 255
207 227 255
207 227 255
206 227 255
206 227 255
206 227 255
206 227 255
206 227 255
206 227 255
206 227 255
206 227 255
206 227 255
206 227 255
206 227 255
206 227 255
206 227 255
206 227 255
206 227 255
206 227 255
206 227 255
205 227 255
205 227 255
205 227 255
205 227 255
205 227 255
205 227 255
205 227 255
205 227 255
205 227 255
205 227 255
205 226 255
205 226 255
205 226 255
205 226 255
205 226 255
205 226 255
204 226 255
204 226 255
204 226 255
204 226 255
204 226 255
204 226 255
204 226 255
204 226 255
204 226 255
204 226 255
204 226 255
204 226 255
204 226 255
204 226 255
204 226 255
204 226 255
203 226 255
203 226 255
203 226 255
203 226 255
203 226 255
203 226 255
203 226 255
203 225 255
203 225 255
203 225 255
203 225 255
203 225 255
203 225 255
203 225 255
203 225 255
203 225 255
202 225 255
202 225 255
202 225 255
202 225 255
202 225 255
202 225 255
202 225 255
202 225 255
202 225 255
202 225 255
202 225 255
202 225 255
202 225 255
202 225 255
202 225 255
202 225 255
202 225 255
202 225 255
201 225 255
201 225 255
201 225 255
201 225 255
201 225 255
201 224 255
201 224 255
201 224 255
201 224 255
201 224 255
201 224 255
201 224 255
201 224 255
201 224 255
201 224 255
201 224 255
201 224 255
201 224 255
201 224 255
201 224 255
201 224 255
200 224 255
200 224 255
200 224 255
200 224 255
200 224 255
200 224 255
200 224 255
200 224 255
200 224 255
200 224 255
200 224 255
200 224 255
200 224 255
200 224 255
200 224 255
200 224 255
200 224 255
200 224 255
200 224 255
200 224 255
200 224 255
200 224 255
200 224 255
200 224 255
200 224 255
200 224 255
200 224 255
200 224 255
200 224 255
200 224 255
200 224 255
200 224 255
200 224 255
200 224 255
200 224 255
200 224 255
200 224 255
200 224 255
200 224 255
200 224 255
200 224 255
200 224 255
200 224 255
200 224 255
200 224 255
200 224 255
200 224 255
200 224 255
200 224 255
200 224 255
200 224 255
200 224 255
200 224 255
200 224 255
200 224 255
200 224 255
200 224 255
200 224 255
200 224 255
200 224 255
200 224 255
200 224 255
200 224 255
200 224 255
200 224 255
200 224 255
201 224 255
201 224 255
201 224 255
201 224 255
201 224 255
201 224 255
201 224 255
201 224 255
201 224 255
201 224 255
201 224 255
201 224 255
201 224 255
201 224 255
201 224 255
201 224 255
201 225 255
201 225 255
201 225 255
201 225 255
201 225 255
201 225 255
202 225 255
202 225 255
202 225 255
202 225 255
202 225 255
202 225 255
202 225 255
202 225 255
202 225 255
202 225 255
202 225 255
202 225 255
202 225 255
202 225 255
202 225 255
202 225 255
202 225 255
203 225 255
203 225 255
203 225 255
203 225 255
203 225 255
203 225 255
203 225 255
203 225 255
203 225 255
203 226 255
203 226 255
203 226 255
203 226 255
203 226 255
203 226 255
203 226 255
204 226 255
204 226 255
204 226 255
204 226 255
204 226 255
204 226 255
204 226 255
204 226 255
204 226 255
204 226 255
204 226 255
204 226 255
204 226 255
204 226 255
204 226 255
204 226 255
205 226 255
205 226 255
205 226 255
205 226 255
205 226 255
205 226 255
205 227 255
205 227 255
205 227 255
205 227 255
205 227 255
205 227 255
205 227 255
205 227 255
205 227 255
205 227 255
206 227 255
206 227 255
206 227 255
206 227 255
206 227 255
206 227 255
206 227 255
206 227 255
206 227 255
206 227 255
206 227 255
206 227 255
206 227 255
206 227 255
206 227 255
206 227 255
206 227 255
207 227 255
207 227 255
207 227 255
207 227 255
207 227 255
207 228 255
207 228 255
207 228 255
207 228 255
207 228 255
207 228 255
207 228 255
207 228 255
207 228 255
207 228 255
207 228 255
207 228 255
207 228 255
207 228 255
208 228 255
208 228 255
208 228 255
208 228 255
208 228 255
208 228 255
208 228 255
208 228 255
208 228 255
208 228 255
208 228 255
208 228 255
208 228 255
208 228 255
208 228 255
208 228 255
208 228 255
208 228 255
208 228 255
208 228 255
209 228 255
209 228 255
209 229 255
209 229 255
209 229 255
209 229 255
209 229 255
209 229 255
209 229 255
209 229 255
209 229 255
209 229 255
209 229 255
209 229 255
209 229 255
209 229 255
209 229 255
209 229 255
209 229 255
209 229 255
209 229 255
209 229 255
209 229 255
210 229 255
210 229 255
210 229 255
210 229 255
210 229 255
210 229 255
209 229 255
209 229 255
209 229 255
209 229 255
209 229 255
209 229 255
209 229 255
209 229 255
209 229 255
209 229 255
209 229 255
209 229 255
209 229 255
209 229 255
209 229 255
209 229 255
209 229 255
209 229 255
209 229 255
209 229 255
209 229 255
209 228 255
209 228 255
208 228 255
208 228 255
208 228 255
208 228 255
208 228 255
208 228 255
208 228 255
208 228 255
208 228 255
208 228 255
208 228 255
208 228 255
208 228 255
208 228 255
208 228 255
208 228 255
208 228 255
208 228 255
208 228 255
207 228 255
207 228 255
207 228 255
207 228 255
207 228 255
207 228 255
207 228 255
207 228 255
207 228 255
207 228 255
207 228 255
207 228 255
207 228 255
207 228 255
207 228 255
207 227 255
207 227 255
207 227 255
207 227 255
206 227 255
206 227 255
206 227 255
206 227 255
206 227 255
206 227 255
206 227 255
206 227 255
206 227 255
206 227 255
206 227 255
206 227 255
206 227 255
206 227 255
206 227 255
206 227 255
206 227 255
205 227 255
205 227 255
205 227 255
205 227 255
205 227 255
205 227 255
205 227 255
205 227 255
205 227 255
205 227 255
205 226 255
205 226 255
205 226 255
205 226 255
205 226 255
205 226 255
204 226 255
204 226 255
204 226 255
204 226 255
204 226 255
204 226 255
204 226 255
204 226 255
204 226 255
204 226 255
204 226 255
204 226 255
204 226 255
204 226 255
204 226 255
204 226 255
203 226 255
203 226 255
203 226 255
203 226 255
203 226 255
203 226 255
203 226 255
203 225 255
203 225 255
203 225 255
203 225 255
203 225 255
203 225 255
203 225 255
203 225 255
203 225 255
203 225 255
202 225 255
202 225 255
202 225 255
202 225 255
202 225 255
202 225 255
202 225 255
202 225 255
202 225 255
202 225 255
202 225 255
202 225 255
202 225 255
202 225 255
202 225 255
202 225 255
202 225 255
202 225 255
201 225 255
201 225 255
201 225 255
201 225 255
201 225 255
201 225 255
201 224 255
201 224 255
201 224 255
201 224 255
201 224 255
201 224 255
201 224 255
201 224 255
201 224 255
201 224 255
201 224 255
201 224 255
201 224 255
201 224 255
201 224 255
201 224 255
201 224 255
201 224 255
200 224 255
200 224 255
200 224 255
200 224 255
200 224 255
200 224 255
200 224 255
200 224 255
200 224 255
200 224 255
200 224 255
200 224 255
200 224 255
200 224 255
200 224 255
200 224 255
200 224 255
200 224 255
200 224 255
200 224 255
200 224 255
200 224 255
200 224 255
200 224 255
200 224 255
200 224 255
200 224 255
200 224 255
200 224 255
200 224 255
200 224 255
200 224 255
200 224 255
200 224 255
200 224 255
200 224 255
200 224 255
200 224 255
200 224 255
200 224 255
200 224 255
200 224 255
200 224 255
200 224 255
200 224 255
200 224 255
200 224 255
200 224 255
200 224 255
200 224 255
200 224 255
200 224 255
200 224 255
201 224 255
201 224 255
201 224 255
201 224 255
201 224 255
201 224 255
201 224 255
201 224 255
201 224 255
201 224 255
201 224 255
201 224 255
201 224 255
201 224 255
201 224 255
201 224 255
201 224 255
201 225 255
201 225 255
201 225 255
201 225 255
201 225 255
201 225 255
202 225 255
202 225 255
202 225 255
202 225 255
202 225 255
202 225 255
202 225 255
202 225 255
202 225 255
202 225 255
202 225 255
202 225 255
202 225 255
202 225 255
202 225 255
202 225 255
202 225 255
202 225 255
203 225 255
203 225 255
203 225 255
203 225 255
203 225 255
203 225 255
203 225 255
203 225 255
203 225 255
203 225 255
203 226 255
203 226 255
203 226 255
203 226 255
203 226 255
203 226 255
203 226 255
204 226 255
204 226 255
204 226 255
204 226 255
204 226 255
204 226 255
204 226 255
204 226 255
204 226 255
204 226 255
204 226 255
204 226 255
204 226 255
204 226 255
204 226 255
204 226 255
205 226 255
205 226 255
205 226 255
205 226 255
205 226 255
205 226 255
205 226 255
205 227 255
205 227 255
205 227 255
205 227 255
205 227 255
205 227 255
205 227 255
205 227 255
205 227 255
206 227 255
206 227 255
206 227 255
206 227 255
206 227 255
206 227 255
206 227 255
206 227 255
206 227 255
206 227 255
206 227 255
206 227 255
206 227 255
206 227 255
206 227 255
206 227 255
206 227 255
207 227 255
207 227 255
207 227 255
207 227 255
207 227 255
207 228 255
207 228 255
207 228 255
207 228 255
207 228 255
207 228 255
207 228 255
207 228 255
207 228 255
207 228 255
207 228 255
207 228 255
207 228 255
207 228 255
208 228 255
208 228 255
208 228 255
208 228 255
208 228 255
208 228 255
208 228 255
208 228 255
208 228 255
208 228 255
208 228 255
208 228 255
208 228 255
208 228 255
208 228 255
208 228 255
208 228 255
208 228 255
208 228 255
208 228 255
209 228 255
209 229 255
209 229 255
209 229 255
209 229 255
209 229 255
209 229 255
209 229 255
209 229 255
209 229 255
209 229 255
209 229 255
209 229 255
209 229 255
209 229 255
209 229 255
209 229 255
209 229 255
209 229 255
209 229 255
209 229 255
209 229 255
210 229 255
210 229 255
210 229 255
210 229 255
210 229 255
210 229 255
210 229 255
210 229 255
210 229 255
210 229 255
210 229 255
210 229 255
210 229 255
209 229 255
209 229 255
209 229 255
209 229 255
209 229 255
209 229 255
209 229 255
209 229 255
209 229 255
209 229 255
209 229 255
209 229 255
209 229 255
209 229 255
209 229 255
209 229 255
209 229 255
209 229 255
209 229 255
209 229 255
209 229 255
209 228 255
209 228 255
208 228 255
208 228 255
208 228 255
208 228 255
208 228 255
208 228 255
208 228 255
208 228 255
208 228 255
208 228 255
208 228 255
208 228 255
208 228 255
208 228 255
208 228 255
208 228 255
208 228 255
208 228 255
208 228 255
208 228 255
207 228 255
207 228 255
207 228 255
207 228 255
207 228 255
207 228 255
207 228 255
207 228 255
207 228 255
207 228 255
207 228 255
207 228 255
207 228 255
207 228 255
207 227 255
207 227 255
207 227 255
207 227 255
206 227 255
206 227 255
206 227 255
206 227 255
206 227 255
206 227 255
206 227 255
206 227 255
206 227 255
206 227 255
206 227 255
206 227 255
206 227 255
206 227 255
206 227 255
206 227 255
206 227 255
205 227 255
205 227 255
205 227 255
205 227 255
205 227 255
205 227 255
205 227 255
205 227 255
205 227 255
205 227 255
205 226 255
205 226 255
205 226 255
205 226 255
205 226 255
205 226 255
204 226 255
204 226 255
204 226 255
204 226 255
204 226 255
204 226 255
204 226 255
204 226 255
204 226 255
204 226 255
204 226 255
204 226 255
204 226 255
204 226 255
204 226 255
204 226 255
203 226 255
203 226 255
203 226 255
203 226 255
203 226 255
203 226 255
203 226 255
203 226 255
203 225 255
203 225 255
203 225 255
203 225 255
203 225 255
203 225 255
203 225 255
203 225 255
203 225 255
202 225 255
202 225 255
202 225 255
202 225 255
202 225 255
202 225 255
202 225 255
202 225 255
202 225 255
202 225 255
202 225 255
202 225 255
202 225 255
202 225 255
202 225 255
202 225 255
202 225 255
202 225 255
202 225 255
201 225 255
201 225 255
201 225 255
201 225 255
201 225 255
201 225 255
201 224 255
201 224 255
201 224 255
201 224 255
201 224 255
201 224 255
201 224 255
201 224 255
201 224 255
201 224 255
201 224 255
201 224 255
201 224 255
201 224 255
201 224 255
201 224 255
201 224 255
201 224 255
201 224 255
201 224 255
201 224 255
200 224 255
200 224 255
200 224 255
200 224 255
200 224 255
200 224 255
200 224 255
200 224 255
200 224 255
200 224 255
200 224 255
200 224 255
200 224 255
200 224 255
200 224 255
200 224 255
200 224 255
200 224 255
200 224 255
200 224 255
200 224 255
200 224 255
200 224 255
200 224 255
200 224 255
200 224 255
200 224 255
200 224 255
200 224 255
200 224 255
200 224 255
200 224 255
200 224 255
200 224 255
200 224 255
200 224 255
200 224 255
201 224 255
201 224 255
201 224 255
201 224 255
201 224 255
201 224 255
201 224 255
201 224 255
201 224 255
201 224 255
201 224 255
201 224 255
201 224 255
201 224 255
201 224 255
201 224 255
201 224 255
201 224 255
201 224 255
201 224 255
201 224 255
201 224 255
201 225 255
201 225 255
201 225 255
201 225 255
201 225 255
201 225 255
202 225 255
202 225 255
202 225 255
202 225 255
202 225 255
202 225 255
202 225 255
202 225 255
202 225 255
202 225 255
202 225 255
202 225 255
202 225 255
202 225 255
202 225 255
202 225 255
202 225 255
202 225 255
202 225 255
203 225 255
203 225 255
203 225 255
203 225 255
203 225 255
203 225 255
203 225 255
203 225 255
203 225 255
203 226 255
203 226 255
203 226 255
203 226 255
203 226 255
203 226 255
203 226 255
203 226 255
204 226 255
204 226 255
204 226 255
204 226 255
204 226 255
204 226 255
204 226 255
204 226 255
204 226 255
204 226 255
204 226 255
204 226 255
204 226 255
204 226 255
204 226 255
204 226 255
205 226 255
205 226 255
205 226 255
205 226 255
205 226 255
205 226 255
205 227 255
205 227 255
205 227 255
205 227 255
205 227 255
205 227 255
205 227 255
205 227 255
205 227 255
205 227 255
206 227 255
206 227 255
206 227 255
206 227 255
206 227 255
206 227 255
206 227 255
206 227 255
206 227 255
206 227 255
206 227 255
206 227 255
206 227 255
206 227 255
206 227 255
206 227 255
206 227 255
207 227 255
207 227 255
207 227 255
207 227 255
207 228 255
207 228 255
207 228 255
207 228 255
207 228 255
207 228 255
207 228 255
207 228 255
207 228 255
207 228 255
207 228 255
207 228 255
207 228 255
207 228 255
207 228 255
208 228 255
208 228 255
208 228 255
208 228 255
208 228 255
208 228 255
208 228 255
208 228 255
208 228 255
208 228 255
208 228 255
208 228 255
208 228 255
208 228 255
208 228 255
208 228 255
208 228 255
208 228 255
208 228 255
209 228 255
209 228 255
209 229 255
209 229 255
209 229 255
209 229 255
209 229 255
209 229 255
209 229 255
209 229 255
209 229 255
209 229 255
209 229 255
209 229 255
209 229 255
209 229 255
209 229 255
209 229 255
209 229 255
209 229 255
209 229 255
209 229 255
209 229 255
210 229 255
210 229 255
210 229 255
210 229 255
210 229 255
210 229 255
210 229 255
210 229 255
210 229 255
210 229 255
210 229 255
210 229 255
210 229 255
210 229 255
210 229 255
210 229 255
210 229 255
210 229 255
210 229 255
210 229 255
209 229 255
209 229 255
209 229 255
209 229 255
209 229 255
209 229 255
209 229 255
209 229 255
209 229 255
209 229 255
209 229 255
209 229 255
209 229 255
209 229 255
209 229 255
209 229 255
209 229 255
209 229 255
209 229 255
209 229 255
209 229 255
209 228 255
208 228 255
208 228 255
208 228 255
208 228 255
208 228 255
208 228 255
208 228 255
208 228 255
208 228 255
208 228 255
208 228 255
208 228 255
208 228 255
208 228 255
208 228 255
208 228 255
208 228 255
208 228 255
208 228 255
208 228 255
207 228 255
207 228 255
207 228 255
207 228 255
207 228 255
207 228 255
207 228 255
207 228 255
207 228 255
207 228 255
207 228 255
207 228 255
207 228 255
207 228 255
207 227 255
207 227 255
207 227 255
207 227 255
206 227 255
206 227 255
206 227 255
206 227 255
206 227 255
206 227 255
206 227 255
206 227 255
206 227 255
206 227 255
206 227 255
206 227 255
206 227 255
206 227 255
206 227 255
206 227 255
206 227 255
205 227 255
205 227 255
205 227 255
205 227 255
205 227 255
205 227 255
205 227 255
205 227 255
205 227 255
205 227 255
205 226 255
205 226 255
205 226 255
205 226 255
205 226 255
205 226 255
204 226 255
204 226 255
204 226 255
204 226 255
204 226 255
204 226 255
204 226 255
204 226 255
204 226 255
204 226 255
204 226 255
204 226 255
204 226 255
204 226 255
204 226 255
204 226 255
204 226 255
203 226 255
203 226 255
203 226 255
203 226 255
203 226 255
203 226 255
203 226 255
203 225 255
203 225 255
203 225 255
203 225 255
203 225 255
203 225 255
203 225 255
203 225 255
203 225 255
203 225 255
202 225 255
202 225 255
202 225 255
202 225 255
202 225 255
202 225 255
202 225 255
202 225 255
202 225 255
202 225 255
202 225 255
202 225 255
202 225 255
202 225 255
202 225 255
202 225 255
202 225 255
202 225 255
202 225 255
202 225 255
201 225 255
201 225 255
201 225 255
201 225 255
201 225 255
201 225 255
201 224 255
201 224 255
201 224 255
201 224 255
201 224 255
201 224 255
201 224 255
201 224 255
201 224 255
201 224 255
201 224 255
201 224 255
201 224 255
201 224 255
201 224 255
201 224 255
201 224 255
201 224 255
201 224 255
201 224 255
201 224 255
201 224 255
201 224 255
201 224 255
201 224 255
201 224 255
201 224 255
201 224 255
201 224 255
201 224 255
201 224 255
201 224 255
201 224 255
201 224 255
201 224 255
201 224 255
201 224 255
201 224 255
201 224 255
201 224 255
201 224 255
201 224 255
201 224 255
201 224 255
201 224 255
201 224 255
201 224 255
201 224 255
201 224 255
201 224 255
201 224 255
201 224 255
201 224 255
201 224 255
201 224 255
201 224 255
201 224 255
201 224 255
201 224 255
201 224 255
201 224 255
201 224 255
201 224 255
201 224 255
201 224 255
201 224 255
201 224 255
201 224 255
201 224 255
201 225 255
201 225 255
201 225 255
201 225 255
201 225 255
201 225 255
201 225 255
202 225 255
202 225 255
202 225 255
202 225 255
202 225 255
202 225 255
202 225 255
202 225 255
202 225 255
202 225 255
202 225 255
202 225 255
202 225 255
202 225 255
202 225 255
202 225 255
202 225 255
202 225 255
202 225 255
202 225 255
203 225 255
203 225 255
203 225 255
203 225 255
203 225 255
203 225 255
203 225 255
203 225 255
203 225 255
203 225 255
203 226 255
203 226 255
203 226 255
203 226 255
203 226 255
203 226 255
203 226 255
204 226 255
204 226 255
204 226 255
204 226 255
204 226 255
204 226 255
204 226 255
204 226 255
204 226 255
204 226 255
204 226 255
204 226 255
204 226 255
204 226 255
204 226 255
204 226 255
204 226 255
205 226 255
205 226 255
205 226 255
205 226 255
205 226 255
205 226 255
205 227 255
205 227 255
205 227 255
205 227 255
205 227 255
205 227 255
205 227 255
205 227 255
205 227 255
205 227 255
206 227 255
206 227 255
206 227 255
206 227 255
206 227 255
206 227 255
206 227 255
206 227 255
206 227 255
206 227 255
206 227 255
206 227 255
206 227 255
206 227 255
206 227 255
206 227 255
206 227 255
207 227 255
207 227 255
207 227 255
207 227 255
207 228 255
207 228 255
207 228 255
207 228 255
207 228 255
207 228 255
207 228 255
207 228 255
207 228 255
207 228 255
207 228 255
207 228 255
207 228 255
207 228 255
208 228 255
208 228 255
208 228 255
208 228 255
208 228 255
208 228 255
208 228 255
208 228 255
208 228 255
208 228 255
208 228 255
208 228 255
208 228 255
208 228 255
208 228 255
208 228 255
208 228 255
208 228 255
208 228 255
208 228 255
209 228 255
209 229 255
209 229 255
209 229 255
209 229 255
209 229 255
209 229 255
209 229 255
209 229 255
209 229 255
209 229 255
209 229 255
209 229 255
209 229 255
209 229 255
209 229 255
209 229 255
209 229 255
209 229 255
209 229 255
209 229 255
209 229 255
210 229 255
210 229 255
210 229 255
210 229 255
210 229 255
210 229 255
210 229 255
210 229 255
210 229 255
210 229 255
210 229 255
210 229 255
210 229 255
210 229 255
210 229 255
210 229 255
210 229 255
210 229 255
210 229 255
210 229 255
210 229 255
210 229 255
210 229 255
210 229 255
210 229 255
210 229 255
210 229 255
210 229 255
209 229 255
209 229 255
209 229 255
209 229 255
209 229 255
209 229 255
209 229 255
209 229 255
209 229 255
209 229 255
209 229 255
209 229 255
209 229 255
209 229 255
209 229 255
209 229 255
209 229 255
209 229 255
209 229 255
209 229 255
209 228 255
209 228 255
208 228 255
208 228 255
208 228 255
208 228 255
208 228 255
208 228 255
208 228 255
208 228 255
208 228 255
208 228 255
208 228 255
208 228 255
208 228 255
208 228 255
208 228 255
208 228 255
208 228 255
208 228 255
208 228 255
207 228 255
207 228 255
207 228 255
207 228 255
207 228 255
207 228 255
207 228 255
207 228 255
207 228 255
207 228 255
207 228 255
207 228 255
207 228 255
207 228 255
207 227 255
207 227 255
207 227 255
207 227 255
206 227 255
206 227 255
206 227 255
206 227 255
206 227 255
206 227 255
206 227 255
206 227 255
206 227 255
206 227 255
206 227 255
206 227 255
206 227 255
206 227 255
206 227 255
206 227 255
206 227 255
205 227 255
205 227 255
205 227 255
205 227 255
205 227 255
205 227 255
205 227 255
205 227 255
205 227 255
205 227 255
205 226 255
205 226 255
205 226 255
205 226 255
205 226 255
205 226 255
204 226 255
204 226 255
204 226 255
204 226 255
204 226 255
204 226 255
204 226 255
204 226 255
204 226 255
204 226 255
204 226 255
204 226 255
204 226 255
204 226 255
204 226 255
204 226 255
204 226 255
203 226 255
203 226 255
203 226 255
203 226 255
203 226 255
203 226 255
203 226 255
203 226 255
203 225 255
203 225 255
203 225 255
203 225 255
203 225 255
203 225 255
203 225 255
203 225 255
203 225 255
202 225 255
202 225 255
202 225 255
202 225 255
202 225 255
202 225 255
202 225 255
202 225 255
202 225 255
202 225 255
202 225 255
202 225 255
202 225 255
202 225 255
202 225 255
202 225 255
202 225 255
202 225 255
202 225 255
202 225 255
202 225 255
202 225 255
201 225 255
201 225 255
201 225 255
201 225 255
201 225 255
201 225 255
201 225 255
201 225 255
201 224 255
201 224 255
201 224 255
201 224 255
201 224 255
201 224 255
201 224 255
201 224 255
201 224 255
201 224 255
201 224 255
201 224 255
201 224 255
201 224 255
201 224 255
201 224 255
201 224 255
201 224 255
201 224 255
201 224 255
201 224 255
201 224 255
201 224 255
201 224 255
201 224 255
201 224 255
201 224 255
201 224 255
201 224 255
201 224 255
201 224 255
201 224 255
201 224 255
201 224 255
201 224 255
201 224 255
201 224 255
201 224 255
201 224 255
201 224 255
201 224 255
201 224 255
201 224 255
201 224 255
201 224 255
201 224 255
201 224 255
201 224 255
201 224 255
201 224 255
201 224 255
201 224 255
201 224 255
201 224 255
201 224 255
201 224 255
201 225 255
201 225 255
201 225 255
201 225 255
201 225 255
201 225 255
201 225 255
201 225 255
202 225 255
202 225 255
202 225 255
202 225 255
202 225 255
202 225 255
202 225 255
202 225 255
202 225 255
202 225 255
202 225 255
202 225 255
202 225 255
202 225 255
202 225 255
202 225 255
202 225 255
202 225 255
202 225 255
202 225 255
202 225 255
203 225 255
203 225 255
203 225 255
203 225 255
203 225 255
203 225 255
203 225 255
203 225 255
203 225 255
203 225 255
203 226 255
203 226 255
203 226 255
203 226 255
203 226 255
203 226 255
203 226 255
203 226 255
204 226 255
204 226 255
204 226 255
204 226 255
204 226 255
204 226 255
204 226 255
204 226 255
204 226 255
204 226 255
204 226 255
204 226 255
204 226 255
204 226 255
204 226 255
204 226 255
205 226 255
205 226 255
205 226 255
205 226 255
205 226 255
205 226 255
205 226 255
205 227 255
205 227 255
205 227 255
205 227 255
205 227 255
205 227 255
205 227 255
205 227 255
205 227 255
205 227 255
206 227 255
206 227 255
206 227 255
206 227 255
206 227 255
206 227 255
206 227 255
206 227 255
206 227 255
206 227 255
206 227 255
206 227 255
206 227 255
206 227 255
206 227 255
206 227 255
206 227 255
207 227 255
207 227 255
207 227 255
207 227 255
207 228 255
207 228 255
207 228 255
207 228 255
207 228 255
207 228 255
207 228 255
207 228 255
207 228 255
207 228 255
207 228 255
207 228 255
207 228 255
207 228 255
208 228 255
208 228 255
208 228 255
208 228 255
208 228 255
208 228 255
208 228 255
208 228 255
208 228 255
208 228 255
208 228 255
208 228 255
208 228 255
208 228 255
208 228 255
208 228 255
208 228 255
208 228 255
208 228 255
208 228 255
209 228 255
209 229 255
209 229 255
209 229 255
209 229 255
209 229 255
209 229 255
209 229 255
209 229 255
209 229 255
209 229 255
209 229 255
209 229 255
209 229 255
209 229 255
209 229 255
209 229 255
209 229 255
209 229 255
209 229 255
209 229 255
210 229 255
210 229 255
210 229 255
210 229 255
210 229 255
210 229 255
210 229 255
210 229 255
210 229 255
210 229 255
210 229 255
210 229 255
210 229 255
210 229 255
210 229 255
210 229 255
210 229 255
210 229 255
210 229 255
210 229 255
210 229 255
210 229 255
210 229 255
210 229 255
210 229 255
210 229 255
210 229 255
210 229 255
210 229 255
210 229 255
210 229 255
210 229 255
210 229 255
210 229 255
210 229 255
210 229 255
209 229 255
209 229 255
209 229 255
209 229 255
209 229 255
209 229 255
209 229 255
209 229 255
209 229 255
209 229 255
209 229 255
209 229 255
209 229 255
209 229 255
209 229 255
209 229 255
209 229 255
209 229 255
209 229 255
209 228 255
209 228 255
208 228 255
208 228 255
208 228 255
208 228 255
208 228 255
208 228 255
208 228 255
208 228 255
208 228 255
208 228 255
208 228 255
208 228 255
208 228 255
208 228 255
208 228 255
208 228 255
208 228 255
208 228 255
208 228 255
208 228 255
207 228 255
207 228 255
207 228 255
207 228 255
207 228 255
207 228 255
207 228 255
207 228 255
207 228 255
207 228 255
207 228 255
207 228 255
207 228 255
207 227 255
207 227 255
207 227 255
207 227 255
207 227 255
206 227 255
206 227 255
206 227 255
206 227 255
206 227 255
206 227 255
206 227 255
206 227 255
206 227 255
206 227 255
206 227 255
206 227 255
206 227 255
206 227 255
206 227 255
206 227 255
205 227 255
205 227 255
205 227 255
205 227 255
205 227 255
205 227 255
205 227 255
205 227 255
205 227 255
205 227 255
205 227 255
205 226 255
205 226 255
205 226 255
205 226 255
205 226 255
205 226 255
204 226 255
204 226 255
204 226 255
204 226 255
204 226 255
204 226 255
204 226 255
204 226 255
204 226 255
204 226 255
204 226 255
204 226 255
204 226 255
204 226 255
204 226 255
204 226 255
204 226 255
203 226 255
203 226 255
203 226 255
203 226 255
203 226 255
203 226 255
203 226 255
203 225 255
203 225 255
203 225 255
203 225 255
203 225 255
203 225 255
203 225 255
203 225 255
203 225 255
203 225 255
203 225 255
202 225 255
202 225 255
202 225 255
202 225 255
202 225 255
202 225 255
202 225 255
202 225 255
202 225 255
202 225 255
202 225 255
202 225 255
202 225 255
202 225 255
202 225 255
202 225 255
202 225 255
202 225 255
202 225 255
202 225 255
202 225 255
202 225 255
202 225 255
201 225 255
201 225 255
201 225 255
201 225 255
201 225 255
201 225 255
201 225 255
201 225 255
201 225 255
201 225 255
201 224 255
201 224 255
201 224 255
201 224 255
201 224 255
201 224 255
201 224 255
201 224 255
201 224 255
201 224 255
201 224 255
201 224 255
201 224 255
201 224 255
201 224 255
201 224 255
201 224 255
201 224 255
201 224 255
201 224 255
201 224 255
201 224 255
201 224 255
201 224 255
201 224 255
201 224 255
201 224 255
201 224 255
201 224 255
201 224 255
201 224 255
201 224 255
201 224 255
201 224 255
201 224 255
201 224 255
201 224 255
201 224 255
201 224 255
201 224 255
201 225 255
201 225 255
201 225 255
201 225 255
201 225 255
201 225 255
201 225 255
201 225 255
201 225 255
201 225 255
202 225 255
202 225 255
202 225 255
202 225 255
202 225 255
202 225 255
202 225 255
202 225 255
202 225 255
202 225 255
202 225 255
202 225 255
202 225 255
202 225 255
202 225 255
202 225 255
202 225 255
202 225 255
202 225 255
202 225 255
202 225 255
202 225 255
202 225 255
203 225 255
203 225 255
203 225 255
203 225 255
203 225 255
203 225 255
203 225 255
203 225 255
203 225 255
203 225 255
203 225 255
203 226 255
203 226 255
203 226 255
203 226 255
203 226 255
203 226 255
203 226 255
204 226 255
204 226 255
204 226 255
204 226 255
204 226 255
204 226 255
204 226 255
204 226 255
204 226 255
204 226 255
204 226 255
204 226 255
204 226 255
204 226 255
204 226 255
204 226 255
204 226 255
205 226 255
205 226 255
205 226 255
205 226 255
205 226 255
205 226 255
205 226 255
205 227 255
205 227 255
205 227 255
205 227 255
205 227 255
205 227 255
205 227 255
205 227 255
205 227 255
206 227 255
206 227 255
206 227 255
206 227 255
206 227 255
206 227 255
206 227 255
206 227 255
206 227 255
206 227 255
206 227 255
206 227 255
206 227 255
206 227 255
206 227 255
206 227 255
206 227 255
207 227 255
207 227 255
207 227 255
207 227 255
207 227 255
207 228 255
207 228 255
207 228 255
207 228 255
207 228 255
207 228 255
207 228 255
207 228 255
207 228 255
207 228 255
207 228 255
207 228 255
207 228 255
208 228 255
208 228 255
208 228 255
208 228 255
208 228 255
208 228 255
208 228 255
208 228 255
208 228 255
208 228 255
208 228 255
208 228 255
208 228 255
208 228 255
208 228 255
208 228 255
208 228 255
208 228 255
208 228 255
208 228 255
209 228 255
209 229 255
209 229 255
209 229 255
209 229 255
209 229 255
209 229 255
209 229 255
209 229 255
209 229 255
209 229 255
209 229 255
209 229 255
209 229 255
209 229 255
209 229 255
209 229 255
209 229 255
209 229 255
209 229 255
209 229 255
209 229 255
210 229 255
210 229 255
210 229 255
210 229 255
210 229 255
210 229 255
210 229 255
210 229 255
210 229 255
210 229 255
210 229 255
210 229 255
210 229 255
210 229 255
210 229 255
210 229 255
210 229 255
210 229 255
210 229 255
210 230 255
210 229 255
210 229 255
210 229 255
210 229 255
210 229 255
210 229 255
210 229 255
210 229 255
210 229 255
210 229 255
210 229 255
210 229 255
210 229 255
210 229 255
210 229 255
210 229 255
210 229 255
210 229 255
210 229 255
210 229 255
210 229 255
210 229 255
209 229 255
209 229 255
209 229 255
209 229 255
209 229 255
209 229 255
209 229 255
209 229 255
209 229 255
209 229 255
209 229 255
209 229 255
209 229 255
209 229 255
209 229 255
209 229 255
209 229 255
209 229 255
209 229 255
209 229 255
209 228 255
208 228 255
208 228 255
208 228 255
208 228 255
208 228 255
208 228 255
208 228 255
208 228 255
208 228 255
208 228 255
208 228 255
208 228 255
208 228 255
208 228 255
208 228 255
208 228 255
208 228 255
208 228 255
208 228 255
208 228 255
207 228 255
207 228 255
207 228 255
207 228 255
207 228 255
207 228 255
207 228 255
207 228 255
207 228 255
207 228 255
207 228 255
207 228 255
207 228 255
207 228 255
207 227 255
207 227 255
207 227 255
207 227 255
206 227 255
206 227 255
206 227 255
206 227 255
206 227 255
206 227 255
206 227 255
206 227 255
206 227 255
206 227 255
206 227 255
206 227 255
206 227 255
206 227 255
206 227 255
206 227 255
206 227 255
205 227 255
205 227 255
205 227 255
205 227 255
205 227 255
205 227 255
205 227 255
205 227 255
205 227 255
205 227 255
205 226 255
205 226 255
205 226 255
205 226 255
205 226 255
205 226 255
205 226 255
204 226 255
204 226 255
204 226 255
204 226 255
204 226 255
204 226 255
204 226 255
204 226 255
204 226 255
204 226 255
204 226 255
204 226 255
204 226 255
204 226 255
204 226 255
204 226 255
203 226 255
203 226 255
203 226 255
203 226 255
203 226 255
203 226 255
203 226 255
203 226 255
203 226 255
203 225 255
203 225 255
203 225 255
203 225 255
203 225 255
203 225 255
203 225 255
203 225 255
203 225 255
203 225 255
202 225 255
202 225 255
202 225 255
202 225 255
202 225 255
202 225 255
202 225 255
202 225 255
202 225 255
202 225 255
202 225 255
202 225 255
202 225 255
202 225 255
202 225 255
202 225 255
202 225 255
202 225 255
202 225 255
202 225 255
202 225 255
202 225 255
202 225 255
202 225 255
202 225 255
202 225 255
201 225 255
201 225 255
201 225 255
201 225 255
201 225 255
201 225 255
201 225 255
201 225 255
201 225 255
201 225 255
201 225 255
201 225 255
201 225 255
201 225 255
201 225 255
201 225 255
201 225 255
201 225 255
201 224 255
201 225 255
201 224 255
201 224 255
201 224 255
201 224 255
201 224 255
201 224 255
201 224 255
201 224 255
201 224 255
201 225 255
201 225 255
201 225 255
201 225 255
201 225 255
201 225 255
201 225 255
201 225 255
201 225 255
201 225 255
201 225 255
201 225 255
201 225 255
201 225 255
201 225 255
201 225 255
201 225 255
202 225 255
202 225 255
202 225 255
202 225 255
202 225 255
202 225 255
202 225 255
202 225 255
202 225 255
202 225 255
202 225 255
202 225 255
202 225 255
202 225 255
202 225 255
202 225 255
202 225 255
202 225 255
202 225 255
202 225 255
202 225 255
202 225 255
202 225 255
202 225 255
202 225 255
202 225 255
203 225 255
203 225 255
203 225 255
203 225 255
203 225 255
203 225 255
203 225 255
203 225 255
203 225 255
203 225 255
203 225 255
203 226 255
203 226 255
203 226 255
203 226 255
203 226 255
203 226 255
203 226 255
203 226 255
204 226 255
204 226 255
204 226 255
204 226 255
204 226 255
204 226 255
204 226 255
204 226 255
204 226 255
204 226 255
204 226 255
204 226 255
204 226 255
204 226 255
204 226 255
204 226 255
205 226 255
205 226 255
205 226 255
205 226 255
205 226 255
205 226 255
205 226 255
205 227 255
205 227 255
205 227 255
205 227 255
205 227 255
205 227 255
205 227 255
205 227 255
205 227 255
205 227 255
206 227 255
206 227 255
206 227 255
206 227 255
206 227 255
206 227 255
206 227 255
206 227 255
206 227 255
206 227 255
206 227 255
206 227 255
206 227 255
206 227 255
206 227 255
206 227 255
206 227 255
207 227 255
207 227 255
207 227 255
207 227 255
207 228 255
207 228 255
207 228 255
207 228 255
207 228 255
207 228 255
207 228 255
207 228 255
207 228 255
207 228 255
207 228 255
207 228 255
207 228 255
207 228 255
208 228 255
208 228 255
208 228 255
208 228 255
208 228 255
208 228 255
208 228 255
208 228 255
208 228 255
208 228 255
208 228 255
208 228 255
208 228 255
208 228 255
208 228 255
208 228 255
208 228 255
208 228 255
208 228 255
208 228 255
209 228 255
209 229 255
209 229 255
209 229 255
209 229 255
209 229 255
209 229 255
209 229 255
209 229 255
209 229 255
209 229 255
209 229 255
209 229 255
209 229 255
209 229 255
209 229 255
209 229 255
209 229 255
209 229 255
209 229 255
209 229 255
210 229 255
210 229 255
210 229 255
210 229 255
210 229 255
210 229 255
210 229 255
210 229 255
210 229 255
210 229 255
210 229 255
210 229 255
210 229 255
210 229 255
210 229 255
210 229 255
210 229 255
210 229 255
210 229 255
210 229 255
210 229 255
210 229 255
210 230 255
211 230 255
211 230 255
210 230 255
210 230 255
210 230 255
210 229 255
210 229 255
210 229 255
210 229 255
210 229 255
210 229 255
210 229 255
210 229 255
210 229 255
210 229 255
210 229 255
210 229 255
210 229 255
210 229 255
210 229 255
210 229 255
210 229 255
210 229 255
210 229 255
210 229 255
210 229 255
210 229 255
209 229 255
209 229 255
209 229 255
209 229 255
209 229 255
209 229 255
209 229 255
209 229 255
209 229 255
209 229 255
209 229 255
209 229 255
209 229 255
209 229 255
209 229 255
209 229 255
209 229 255
209 229 255
209 229 255
209 228 255
209 228 255
208 228 255
208 228 255
208 228 255
208 228 255
208 228 255
208 228 255
208 228 255
208 228 255
208 228 255
208 228 255
208 228 255
208 228 255
208 228 255
208 228 255
208 228 255
208 228 255
208 228 255
208 228 255
208 228 255
207 228 255
207 228 255
207 228 255
207 228 255
207 228 255
207 228 255
207 228 255
207 228 255
207 228 255
207 228 255
207 228 255
207 228 255
207 228 255
207 228 255
207 227 255
207 227 255
207 227 255
207 227 255
206 227 255
206 227 255
206 227 255
206 227 255
206 227 255
206 227 255
206 227 255
206 227 255
206 227 255
206 227 255
206 227 255
206 227 255
206 227 255
206 227 255
206 227 255
206 227 255
206 227 255
205 227 255
205 227 255
205 227 255
205 227 255
205 227 255
205 227 255
205 227 255
205 227 255
205 227 255
205 227 255
205 226 255
205 226 255
205 226 255
205 226 255
205 226 255
205 226 255
205 226 255
204 226 255
204 226 255
204 226 255
204 226 255
204 226 255
204 226 255
204 226 255
204 226 255
204 226 255
204 226 255
204 226 255
204 226 255
204 226 255
204 226 255
204 226 255
204 226 255
204 226 255
203 226 255
203 226 255
203 226 255
203 226 255
203 226 255
203 226 255
203 226 255
203 226 255
203 225 255
203 225 255
203 225 255
203 225 255
203 225 255
203 225 255
203 225 255
203 225 255
203 225 255
203 225 255
203 225 255
203 225 255
202 225 255
202 225 255
202 225 255
202 225 255
202 225 255
202 225 255
202 225 255
202 225 255
202 225 255
202 225 255
202 225 255
202 225 255
202 225 255
202 225 255
202 225 255
202 225 255
202 225 255
202 225 255
202 225 255
202 225 255
202 225 255
202 225 255
202 225 255
202 225 255
202 225 255
202 225 255
202 225 255
202 225 255
202 225 255
202 225 255
202 225 255
202 225 255
201 225 255
201 225 255
201 225 255
201 225 255
201 225 255
201 225 255
201 225 255
201 225 255
201 225 255
201 225 255
201 225 255
201 225 255
201 225 255
201 225 255
201 225 255
201 225 255
201 225 255
201 225 255
201 225 255
201 225 255
201 225 255
201 225 255
201 225 255
201 225 255
202 225 255
202 225 255
202 225 255
202 225 255
202 225 255
202 225 255
202 225 255
202 225 255
202 225 255
202 225 255
202 225 255
202 225 255
202 225 255
202 225 255
202 225 255
202 225 255
202 225 255
202 225 255
202 225 255
202 225 255
202 225 255
202 225 255
202 225 255
202 225 255
202 225 255
202 225 255
202 225 255
202 225 255
202 225 255
202 225 255
202 225 255
202 225 255
203 225 255
203 225 255
203 225 255
203 225 255
203 225 255
203 225 255
203 225 255
203 225 255
203 225 255
203 225 255
203 225 255
203 225 255
203 226 255
203 226 255
203 226 255
203 226 255
203 226 255
203 226 255
203 226 255
203 226 255
204 226 255
204 226 255
204 226 255
204 226 255
204 226 255
204 226 255
204 226 255
204 226 255
204 226 255
204 226 255
204 226 255
204 226 255
204 226 255
204 226 255
204 226 255
204 226 255
204 226 255
205 226 255
205 226 255
205 226 255
205 226 255
205 226 255
205 226 255
205 226 255
205 227 255
205 227 255
205 227 255
205 227 255
205 227 255
205 227 255
205 227 255
205 227 255
205 227 255
205 227 255
206 227 255
206 227 255
206 227 255
206 227 255
206 227 255
206 227 255
206 227 255
206 227 255
206 227 255
206 227 255
206 227 255
206 227 255
206 227 255
206 227 255
206 227 255
206 227 255
206 227 255
207 227 255
207 227 255
207 227 255
207 227 255
207 228 255
207 228 255
207 228 255
207 228 255
207 228 255
207 228 255
207 228 255
207 228 255
207 228 255
207 228 255
207 228 255
207 228 255
207 228 255
207 228 255
208 228 255
208 228 255
208 228 255
208 228 255
208 228 255
208 228 255
208 228 255
208 228 255
208 228 255
208 228 255
208 228 255
208 228 255
208 228 255
208 228 255
208 228 255
208 228 255
208 228 255
208 228 255
208 228 255
209 228 255
209 228 255
209 229 255
209 229 255
209 229 255
209 229 255
209 229 255
209 229 255
209 229 255
209 229 255
209 229 255
209 229 255
209 229 255
209 229 255
209 229 255
209 229 255
209 229 255
209 229 255
209 229 255
209 229 255
209 229 255
210 229 255
210 229 255
210 229 255
210 229 255
210 229 255
210 229 255
210 229 255
210 229 255
210 229 255
210 229 255
210 229 255
210 229 255
210 229 255
210 229 255
210 229 255
210 229 255
210 229 255
210 229 255
210 229 255
210 229 255
210 229 255
210 229 255
210 230 255
210 230 255
210 230 255
211 230 255
211 230 255
211 230 255
211 230 255
211 230 255
211 230 255
211 230 255
211 230 255
210 230 255
210 230 255
210 230 255
210 229 255
210 229 255
210 229 255
210 229 255
210 229 255
210 229 255
210 229 255
210 229 255
210 229 255
210 229 255
210 229 255
210 229 255
210 229 255
210 229 255
210 229 255
210 229 255
210 229 255
210 229 255
210 229 255
210 229 255
210 229 255
209 229 255
209 229 255
209 229 255
209 229 255
209 229 255
209 229 255
209 229 255
209 229 255
209 229 255
209 229 255
209 229 255
209 229 255
209 229 255
209 229 255
209 229 255
209 229 255
209 229 255
209 229 255
209 229 255
209 229 255
209 228 255
208 228 255
208 228 255
208 228 255
208 228 255
208 228 255
208 228 255
208 228 255
208 228 255
208 228 255
208 228 255
208 228 255
208 228 255
208 228 255
208 228 255
208 228 255
208 228 255
208 228 255
208 228 255
208 228 255
208 228 255
207 228 255
207 228 255
207 228 255
207 228 255
207 228 255
207 228 255
207 228 255
207 228 255
207 228 255
207 228 255
207 228 255
207 228 255
207 228 255
207 227 255
207 227 255
207 227 255
207 227 255
207 227 255
206 227 255
206 227 255
206 227 255
206 227 255
206 227 255
206 227 255
206 227 255
206 227 255
206 227 255
206 227 255
206 227 255
206 227 255
206 227 255
206 227 255
206 227 255
206 227 255
206 227 255
205 227 255
205 227 255
205 227 255
205 227 255
205 227 255
205 227 255
205 227 255
205 227 255
205 227 255
205 226 255
205 226 255
205 226 255
205 226 255
205 226 255
205 226 255
205 226 255
205 226 255
204 226 255
204 226 255
204 226 255
204 226 255
204 226 255
204 226 255
204 226 255
204 226 255
204 226 255
204 226 255
204 226 255
204 226 255
204 226 255
204 226 255
204 226 255
204 226 255
204 226 255
203 226 255
203 226 255
203 226 255
203 226 255
203 226 255
203 226 255
203 226 255
203 226 255
203 226 255
203 225 255
203 225 255
203 225 255
203 225 255
203 225 255
203 225 255
203 225 255
203 225 255
203 225 255
203 225 255
203 225 255
203 225 255
202 225 255
202 225 255
202 225 255
202 225 255
202 225 255
202 225 255
202 225 255
202 225 255
202 225 255
202 225 255
202 225 255
202 225 255
202 225 255
202 225 255
202 225 255
202 225 255
202 225 255
202 225 255
202 225 255
202 225 255
202 225 255
202 225 255
202 225 255
202 225 255
202 225 255
202 225 255
202 225 255
202 225 255
202 225 255
202 225 255
202 225 255
202 225 255
202 225 255
202 225 255
202 225 255
202 225 255
202 225 255
202 225 255
202 225 255
202 225 255
202 225 255
202 225 255
202 225 255
202 225 255
202 225 255
202 225 255
202 225 255
202 225 255
202 225 255
202 225 255
202 225 255
202 225 255
202 225 255
202 225 255
202 225 255
202 225 255
202 225 255
202 225 255
202 225 255
202 225 255
202 225 255
202 225 255
202 225 255
202 225 255
202 225 255
202 225 255
202 225 255
202 225 255
202 225 255
202 225 255
202 225 255
202 225 255
202 225 255
202 225 255
202 225 255
202 225 255
202 225 255
202 225 255
203 225 255
203 225 255
203 225 255
203 225 255
203 225 255
203 225 255
203 225 255
203 225 255
203 225 255
203 225 255
203 225 255
203 225 255
203 226 255
203 226 255
203 226 255
203 226 255
203 226 255
203 226 255
203 226 255
203 226 255
203 226 255
204 226 255
204 226 255
204 226 255
204 226 255
204 226 255
204 226 255
204 226 255
204 226 255
204 226 255
204 226 255
204 226 255
204 226 255
204 226 255
204 226 255
204 226 255
204 226 255
204 226 255
205 226 255
205 226 255
205 226 255
205 226 255
205 226 255
205 226 255
205 226 255
205 227 255
205 227 255
205 227 255
205 227 255
205 227 255
205 227 255
205 227 255
205 227 255
205 227 255
205 227 255
205 227 255
206 227 255
206 227 255
206 227 255
206 227 255
206 227 255
206 227 255
206 227 255
206 227 255
206 227 255
206 227 255
206 227 255
206 227 255
206 227 255
206 227 255
206 227 255
206 227 255
207 227 255
207 227 255
207 227 255
207 227 255
207 227 255
207 228 255
207 228 255
207 228 255
207 228 255
207 228 255
207 228 255
207 228 255
207 228 255
207 228 255
207 228 255
207 228 255
207 228 255
207 228 255
208 228 255
208 228 255
208 228 255
208 228 255
208 228 255
208 228 255
208 228 255
208 228 255
208 228 255
208 228 255
208 228 255
208 228 255
208 228 255
208 228 255
208 228 255
208 228 255
208 228 255
208 228 255
208 228 255
209 228 255
209 228 255
209 229 255
209 229 255
209 229 255
209 229 255
209 229 255
209 229 255
209 229 255
209 229 255
209 229 255
209 229 255
209 229 255
209 229 255
209 229 255
209 229 255
209 229 255
209 229 255
209 229 255
209 229 255
209 229 255
209 229 255
210 229 255
210 229 255
210 229 255
210 229 255
210 229 255
210 229 255
210 229 255
210 229 255
210 229 255
210 229 255
210 229 255
210 229 255
210 229 255
210 229 255
210 229 255
210 229 255
210 229 255
210 229 255
210 229 255
210 229 255
210 229 255
210 230 255
210 230 255
210 230 255
211 230 255
211 230 255
211 230 255
211 230 255
211 230 255
211 230 255
211 230 255
211 230 255
211 230 255
211 230 255
211 230 255
211 230 255
211 230 255
211 230 255
211 230 255
211 230 255
210 230 255
210 230 255
210 230 255
210 229 255
210 229 255
210 229 255
210 229 255
210 229 255
210 229 255
210 229 255
210 229 255
210 229 255
210 229 255
210 229 255
210 229 255
210 229 255
210 229 255
210 229 255
210 229 255
210 229 255
210 229 255
210 229 255
210 229 255
210 229 255
209 229 255
209 229 255
209 229 255
209 229 255
209 229 255
209 229 254
209 229 255
208 228 254
209 228 253
210 229 255
209 229 255
209 229 254
208 228 255
209 229 255
207 227 253
208 228 254
208 228 255
208 228 255
208 228 255
209 229 255
208 228 255
209 228 253
208 228 254
209 229 255
208 228 255
209 229 255
208 228 255
208 228 255
208 228 255
208 228 255
208 228 255
208 228 255
208 228 255
208 228 255
208 228 255
208 228 255
208 228 255
208 228 255
208 228 255
208 228 255
207 228 255
207 228 255
207 228 255
207 228 255
207 228 255
207 228 255
207 228 255
207 228 255
207 228 255
207 228 255
207 228 255
207 228 255
207 228 255
207 228 255
207 227 255
207 227 255
207 227 255
207 227 255
206 227 255
206 227 255
206 227 255
206 227 255
206 227 255
206 227 255
206 227 255
206 227 255
206 227 255
206 227 255
206 227 255
206 227 255
206 227 255
206 227 255
206 227 255
206 227 255
206 227 255
205 227 255
205 227 255
205 227 255
205 227 255
205 227 255
205 227 255
205 227 255
205 227 255
205 227 255
205 227 255
205 226 255
205 226 255
205 226 255
205 226 255
205 226 255
205 226 255
205 226 255
204 226 255
204 226 255
204 226 255
204 226 255
204 226 255
204 226 255
204 226 255
204 226 255
204 226 255
204 226 255
204 226 255
204 226 255
204 226 255
204 226 255
204 226 255
204 226 255
204 226 255
204 226 255
203 226 255
203 226 255
203 226 255
203 226 255
203 226 255
203 226 255
203 226 255
203 226 255
203 226 255
203 225 255
203 225 255
203 225 255
203 225 255
203 225 255
203 225 255
203 225 255
203 225 255
203 225 255
203 225 255
203 225 255
203 225 255
203 225 255
203 225 255
202 225 255
202 225 255
202 225 255
202 225 255
202 225 255
202 225 255
202 225 255
202 225 255
202 225 255
202 225 255
202 225 255
202 225 255
202 225 255
202 225 255
202 225 255
202 225 255
202 225 255
202 225 255
202 225 255
202 225 255
202 225 255
202 225 255
202 225 255
202 225 255
202 225 255
200 223 254
190 213 247
184 207 243
175 199 238
175 199 238
153 177 220
149 174 220
150 175 218
149 174 219
158 182 226
161 185 226
171 195 234
176 199 236
185 208 244
193 216 249
201 224 255
202 225 255
202 225 255
202 225 255
202 225 255
202 225 255
202 225 255
202 225 255
202 225 255
202 225 255
202 225 255
202 225 255
202 225 255
202 225 255
202 225 255
202 225 255
202 225 255
202 225 255
202 225 255
202 225 255
202 225 255
202 225 255
202 225 255
202 225 255
202 225 255
202 225 255
203 225 255
203 225 255
203 225 255
203 225 255
203 225 255
203 225 255
203 225 255
203 225 255
203 225 255
203 225 255
203 225 255
203 225 255
203 225 255
203 226 255
203 226 255
203 226 255
203 226 255
203 226 255
203 226 255
203 226 255
203 226 255
203 226 255
203 226 255
204 226 255
204 226 255
204 226 255
204 226 255
204 226 255
204 226 255
204 226 255
204 226 255
204 226 255
204 226 255
204 226 255
204 226 255
204 226 255
204 226 255
204 226 255
204 226 255
204 226 255
204 226 255
205 226 255
205 226 255
205 226 255
205 226 255
205 226 255
205 226 255
205 226 255
205 227 255
205 227 255
205 227 255
205 227 255
205 227 255
205 227 255
205 227 255
205 227 255
205 227 255
205 227 255
206 227 255
206 227 255
206 227 255
206 227 255
206 227 255
206 227 255
206 227 255
206 227 255
206 227 255
206 227 255
206 227 255
206 227 255
206 227 255
206 227 255
206 227 255
206 227 255
206 227 255
207 227 255
207 227 255
207 227 255
207 227 255
207 228 255
207 228 255
207 228 255
207 228 255
207 228 255
207 228 255
207 228 255
207 228 255
207 228 255
207 228 255
207 228 255
207 228 255
207 228 255
207 228 255
208 228 255
208 228 255
208 228 255
208 228 255
208 228 255
208 228 255
208 228 255
208 228 255
208 228 255
208 228 255
208 228 255
208 228 255
208 228 254
203 222 247
195 212 234
199 215 234
186 202 217
187 203 219
178 190 199
184 199 213
186 201 216
174 186 196
173 185 193
177 190 201
172 184 193
184 199 216
193 206 217
177 188 192
180 193 202
188 202 216
190 205 221
194 209 224
198 214 232
197 214 234
202 220 245
208 228 254
209 229 255
209 229 255
209 229 255
209 229 255
210 229 255
210 229 255
210 229 255
210 229 255
210 229 255
210 229 255
210 229 255
210 229 255
210 229 255
210 229 255
210 229 255
210 229 255
210 229 255
210 229 255
210 229 255
210 229 255
210 229 255
210 229 255
210 229 255
210 229 255
210 229 255
210 230 255
210 230 255
210 230 255
211 230 255
211 230 255
211 230 255
211 230 255
211 230 255
211 230 255
211 230 255
211 230 255
211 230 255
211 230 255
211 230 255
211 230 255
211 230 255
211 230 255
211 230 255
211 230 255
211 230 255
211 230 255
211 230 255
211 230 255
211 230 255
211 230 255
211 230 255
211 230 255
210 230 255
210 230 255
210 230 255
210 229 255
210 229 255
210 229 255
210 229 255
210 229 255
210 229 255
210 229 255
210 229 255
210 229 255
210 229 255
210 229 255
210 229 255
210 229 255
210 229 255
209 229 254
210 229 255
209 229 254
210 229 253
210 229 254
209 229 255
209 229 252
210 229 254
209 229 255
209 228 253
209 228 253
209 229 253
207 227 252
209 229 254
208 228 253
207 228 253
207 228 252
208 228 253
206 227 252
209 228 253
207 228 254
207 227 250
207 227 254
207 228 253
206 227 254
208 228 255
206 227 252
207 227 254
209 228 252
208 227 249
207 227 250
208 228 254
208 228 255
206 227 252
208 228 252
208 228 255
208 228 254
208 228 255
208 228 255
208 228 255
208 228 255
208 228 255
208 228 255
208 228 255
208 228 255
208 228 255
207 228 255
207 228 255
207 228 255
207 228 255
207 228 255
207 228 255
207 228 255
207 228 255
207 228 255
207 228 255
207 228 255
207 228 255
207 228 255
207 228 255
207 227 255
207 227 255
207 227 255
207 227 255
206 227 255
206 227 255
206 227 255
206 227 255
206 227 255
206 227 255
206 227 255
206 227 255
206 227 255
206 227 255
206 227 255
206 227 255
206 227 255
206 227 255
206 227 255
206 227 255
206 227 255
206 227 255
205 227 255
205 227 255
205 227 255
205 227 255
205 227 255
205 227 255
205 227 255
205 227 255
205 227 255
205 227 255
205 226 255
205 226 255
205 226 255
205 226 255
205 226 255
205 226 255
205 226 255
204 226 255
204 226 255
204 226 255
204 226 255
204 226 255
204 226 255
204 226 255
204 226 255
204 226 255
204 226 255
204 226 255
204 226 255
204 226 255
204 226 255
204 226 255
204 226 255
204 226 255
204 226 255
204 226 255
203 226 255
203 226 255
203 226 255
203 226 255
203 226 255
203 226 255
203 226 255
203 226 255
203 226 255
203 225 255
203 225 255
203 225 255
203 225 255
203 225 255
203 225 255
203 225 255
203 225 255
203 225 255
203 225 255
203 225 255
203 225 255
203 225 255
203 225 255
203 225 255
203 225 255
202 225 255
202 225 255
202 225 255
202 225 255
202 225 255
202 225 255
202 225 255
202 225 255
202 225 255
202 225 255
202 225 255
202 225 255
197 220 252
181 204 240
158 182 225
144 169 215
113 140 197
97 126 190
65 101 177
62 99 173
62 99 176
62 99 175
62 99 174
62 99 173
62 99 173
62 99 174
63 100 177
62 99 172
62 99 171
61 98 170
62 98 171
61 98 177
62 99 178
62 99 176
94 124 186
116 142 197
136 161 208
159 183 225
180 203 240
198 220 252
202 225 255
202 225 255
202 225 255
202 225 255
202 225 255
202 225 255
202 225 255
202 225 255
202 225 255
202 225 255
202 225 255
202 225 255
203 225 255
203 225 255
203 225 255
203 225 255
203 225 255
203 225 255
203 225 255
203 225 255
203 225 255
203 225 255
203 225 255
203 225 255
203 225 255
203 225 255
203 225 255
203 226 255
203 226 255
203 226 255
203 226 255
203 226 255
203 226 255
203 226 255
203 226 255
203 226 255
203 226 255
204 226 255
204 226 255
204 226 255
204 226 255
204 226 255
204 226 255
204 226 255
204 226 255
204 226 255
204 226 255
204 226 255
204 226 255
204 226 255
204 226 255
204 226 255
204 226 255
204 226 255
204 226 255
204 226 255
205 226 255
205 226 255
205 226 255
205 226 255
205 226 255
205 226 255
205 226 255
205 227 255
205 227 255
205 227 255
205 227 255
205 227 255
205 227 255
205 227 255
205 227 255
205 227 255
205 227 255
206 227 255
206 227 255
206 227 255
206 227 255
206 227 255
206 227 255
206 227 255
206 227 255
206 227 255
206 227 255
206 227 255
206 227 255
206 227 255
206 227 255
206 227 255
206 227 255
206 227 255
206 227 255
207 227 255
207 227 255
207 227 255
207 227 255
207 228 255
207 228 255
207 228 255
207 228 255
207 228 255
207 228 255
207 228 255
207 228 255
207 228 255
207 228 255
207 228 255
207 228 255
207 228 255
208 228 255
208 228 255
208 228 255
208 228 255
208 228 255
208 228 255
208 228 255
206 226 252
194 211 229
186 200 215
184 197 207
171 180 178
145 150 139
146 153 146
142 146 129
140 140 110
123 119 79
131 129 86
136 134 89
132 130 87
133 131 87
121 119 80
143 140 93
129 126 84
128 126 84
134 131 87
131 128 85
133 130 87
133 130 86
135 132 87
127 125 83
134 130 85
124 121 80
129 126 84
126 124 83
122 118 78
133 130 85
136 133 88
136 133 87
130 127 84
131 130 99
152 158 147
162 170 168
157 164 157
170 178 176
172 184 191
184 198 209
195 210 229
205 224 248
210 229 255
210 229 255
210 229 255
210 229 255
210 229 255
210 229 255
210 229 255
210 229 255
210 229 255
210 229 255
210 229 255
210 229 255
210 230 255
210 230 255
210 230 255
211 230 255
211 230 255
211 230 255
211 230 255
211 230 255
211 230 255
211 230 255
211 230 255
211 230 255
211 230 255
211 230 255
211 230 255
211 230 255
211 230 255
211 230 255
211 230 255
211 230 255
211 230 255
211 230 255
211 230 255
211 230 255
211 230 255
211 230 255
211 230 255
211 230 255
211 230 255
211 230 255
211 230 255
211 230 255
211 230 255
211 230 255
211 230 255
210 230 255
210 230 255
210 230 255
210 229 255
210 229 255
210 229 255
210 230 255
210 229 254
211 230 255
210 229 255
210 229 253
211 229 253
209 229 254
210 229 253
210 229 254
208 228 250
208 228 253
208 228 252
207 227 249
206 227 249
208 228 254
209 229 255
206 227 250
203 225 248
206 227 254
207 228 253
207 228 254
208 228 253
205 226 250
206 227 252
206 226 250
203 225 249
206 227 250
205 227 253
204 225 250
203 225 252
206 227 255
205 226 254
205 226 252
205 226 252
206 227 254
205 227 253
205 226 252
206 227 254
205 226 250
206 227 252
205 226 245
206 226 248
206 226 249
206 227 253
207 228 255
207 228 255
207 227 252
208 228 253
209 229 254
208 228 253
209 228 255
208 228 255
208 228 255
208 228 255
208 228 255
208 228 255
208 228 255
207 228 255
207 228 255
207 228 255
207 228 255
207 228 255
207 228 255
207 228 255
207 228 255
207 228 255
207 228 255
207 228 255
207 228 255
207 228 255
207 228 255
207 227 255
207 227 255
207 227 255
207 227 255
206 227 255
206 227 255
206 227 255
206 227 255
206 227 255
206 227 255
206 227 255
206 227 255
206 227 255
206 227 255
206 227 255
206 227 255
206 227 255
206 227 255
206 227 255
206 227 255
206 227 255
205 227 255
205 227 255
205 227 255
205 227 255
205 227 255
205 227 255
205 227 255
205 227 255
205 227 255
205 227 255
205 227 255
205 226 255
205 226 255
205 226 255
205 226 255
205 226 255
205 226 255
205 226 255
204 226 255
204 226 255
204 226 255
204 226 255
204 226 255
204 226 255
204 226 255
204 226 255
204 226 255
204 226 255
204 226 255
204 226 255
204 226 255
204 226 255
204 226 255
204 226 255
204 226 255
204 226 255
204 226 255
204 226 255
203 226 255
203 226 255
203 226 255
203 226 255
203 226 255
203 226 255
203 226 255
203 226 255
203 226 255
203 226 255
203 226 255
203 225 255
203 225 255
203 225 255
203 225 255
203 225 255
203 225 255
203 225 255
203 225 255
203 225 255
203 225 255
203 225 255
203 225 255
203 225 255
203 225 255
203 225 255
203 225 255
203 225 255
196 219 251
172 195 233
139 164 214
101 129 194
67 103 179
62 99 175
61 98 172
62 99 175
62 99 172
63 100 179
63 100 179
63 99 175
62 99 174
62 98 168
63 99 175
62 99 172
62 99 172
62 99 177
62 98 174
62 99 174
62 99 175
62 99 173
62 99 171
62 98 172
62 99 173
62 99 176
61 98 172
63 99 178
62 99 174
62 99 174
61 98 173
70 105 178
102 131 192
139 164 214
168 192 231
197 220 252
203 225 255
203 225 255
203 225 255
203 225 255
203 225 255
203 225 255
203 225 255
203 225 255
203 225 255
203 225 255
203 225 255
203 225 255
203 225 255
203 225 255
203 225 255
203 225 255
203 225 255
203 225 255
203 226 255
203 226 255
203 226 255
203 226 255
203 226 255
203 226 255
203 226 255
203 226 255
203 226 255
203 226 255
204 226 255
204 226 255
204 226 255
204 226 255
204 226 255
204 226 255
204 226 255
204 226 255
204 226 255
204 226 255
204 226 255
204 226 255
204 226 255
204 226 255
204 226 255
204 226 255
204 226 255
204 226 255
204 226 255
204 226 255
205 226 255
205 226 255
205 226 255
205 226 255
205 226 255
205 226 255
205 226 255
205 227 255
205 227 255
205 227 255
205 227 255
205 227 255
205 227 255
205 227 255
205 227 255
205 227 255
205 227 255
205 227 255
206 227 255
206 227 255
206 227 255
206 227 255
206 227 255
206 227 255
206 227 255
206 227 255
206 227 255
206 227 255
206 227 255
206 227 255
206 227 255
206 227 255
206 227 255
206 227 255
206 227 255
207 227 255
207 227 255
207 227 255
207 227 255
207 228 255
207 228 255
207 228 255
207 228 255
207 228 255
207 228 255
207 228 255
207 228 255
207 228 255
207 228 255
207 228 255
207 228 255
207 228 255
207 228 255
208 228 255
208 228 255
208 228 255
208 228 255
204 224 250
184 199 215
177 189 198
164 171 165
152 157 142
135 136 108
129 127 84
137 134 90
137 135 90
145 143 95
118 116 78
140 138 92
135 132 88
132 131 87
131 129 86
139 137 91
125 124 83
134 131 87
139 137 91
144 141 94
133 132 87
127 125 83
130 128 85
125 122 81
132 131 87
133 131 88
140 138 90
131 128 84
141 138 91
146 143 95
139 137 91
136 133 87
134 133 89
141 138 92
134 132 87
146 142 93
129 126 83
133 130 86
140 138 90
134 130 84
138 135 89
135 133 88
137 134 88
126 124 82
129 126 81
122 118 76
138 135 89
143 140 92
136 136 110
146 150 134
169 179 181
185 196 203
191 205 220
202 219 242
210 229 255
210 229 255
210 230 255
210 230 255
210 230 255
211 230 255
211 230 255
211 230 255
211 230 255
211 230 255
211 230 255
211 230 255
211 230 255
211 230 255
211 230 255
211 230 255
211 230 255
211 230 255
211 230 255
211 230 255
211 230 255
211 230 255
211 230 255
211 230 255
211 230 255
211 230 255
211 230 255
211 230 255
211 230 255
211 230 255
211 230 255
211 230 255
211 230 255
211 230 255
211 230 255
211 230 255
211 230 255
211 230 255
211 230 255
211 230 255
211 230 255
211 230 255
211 230 255
211 230 254
210 229 253
209 228 253
209 229 253
210 229 255
208 228 253
209 229 253
209 228 253
207 227 252
207 227 253
206 227 253
206 227 249
207 228 254
206 227 250
206 227 254
206 227 254
206 227 254
207 227 255
206 227 253
205 226 255
206 227 255
205 226 253
205 227 255
204 226 255
206 227 255
207 228 255
205 226 255
204 226 255
205 226 255
204 226 255
207 227 255
205 226 255
204 226 254
205 227 255
204 226 255
204 226 255
204 226 255
203 226 255
205 227 255
205 226 255
204 226 255
204 226 255
203 226 255
206 227 255
204 226 255
205 226 254
203 225 252
203 226 255
206 227 255
204 226 252
205 226 252
205 226 253
205 226 252
205 226 252
206 227 253
206 227 255
206 227 254
208 228 253
208 228 253
208 228 255
208 228 255
208 228 255
208 228 255
208 228 255
208 228 255
207 228 255
207 228 255
207 228 255
207 228 255
207 228 255
207 228 255
207 228 255
207 228 255
207 228 255
207 228 255
207 228 255
207 228 255
207 228 255
207 228 255
207 227 255
207 227 255
207 227 255
207 227 255
206 227 255
206 227 255
206 227 255
206 227 255
206 227 255
206 227 255
206 227 255
206 227 255
206 227 255
206 227 255
206 227 255
206 227 255
206 227 255
206 227 255
206 227 255
206 227 255
206 227 255
205 227 255
205 227 255
205 227 255
205 227 255
205 227 255
205 227 255
205 227 255
205 227 255
205 227 255
205 227 255
205 227 255
205 226 255
205 226 255
205 226 255
205 226 255
205 226 255
205 226 255
205 226 255
204 226 255
204 226 255
204 226 255
204 226 255
204 226 255
204 226 255
204 226 255
204 226 255
204 226 255
204 226 255
204 226 255
204 226 255
204 226 255
204 226 255
204 226 255
204 226 255
204 226 255
204 226 255
204 226 255
204 226 255
204 226 255
203 226 255
203 226 255
203 226 255
203 226 255
203 226 255
203 226 255
203 226 255
203 226 255
203 226 255
203 226 255
203 226 255
203 226 255
203 225 255
203 225 255
203 225 255
203 225 255
203 225 255
203 225 255
203 225 255
203 225 255
189 212 246
163 187 229
110 137 196
67 103 176
62 99 174
62 99 172
62 99 177
62 99 171
62 99 173
63 99 173
63 99 176
62 98 169
62 99 178
62 98 172
63 99 170
62 99 178
62 98 173
61 98 173
63 99 170
62 99 172
63 99 172
62 99 172
62 99 173
62 99 173
63 99 175
63 99 175
62 98 171
62 99 175
62 99 170
62 98 170
63 99 177
62 99 174
61 98 175
62 99 172
63 99 178
62 98 170
63 100 176
63 99 173
68 103 173
118 144 198
168 191 231
190 213 247
203 225 255
203 225 255
203 225 255
203 225 255
203 225 255
203 225 255
203 225 255
203 225 255
203 226 255
203 226 255
203 226 255
203 226 255
203 226 255
203 226 255
203 226 255
203 226 255
203 226 255
203 226 255
203 226 255
203 226 255
204 226 255
204 226 255
204 226 255
204 226 255
204 226 255
204 226 255
204 226 255
204 226 255
204 226 255
204 226 255
204 226 255
204 226 255
204 226 255
204 226 255
204 226 255
204 226 255
204 226 255
204 226 255
204 226 255
204 226 255
205 226 255
205 226 255
205 226 255
205 226 255
205 226 255
205 226 255
205 226 255
205 226 255
205 227 255
205 227 255
205 227 255
205 227 255
205 227 255
205 227 255
205 227 255
205 227 255
205 227 255
205 227 255
205 227 255
206 227 255
206 227 255
206 227 255
206 227 255
206 227 255
206 227 255
206 227 255
206 227 255
206 227 255
206 227 255
206 227 255
206 227 255
206 227 255
206 227 255
206 227 255
206 227 255
206 227 255
207 227 255
207 227 255
207 227 255
207 227 255
207 227 255
207 228 255
207 228 255
207 228 255
207 228 255
207 228 255
207 228 255
207 228 255
207 228 255
207 228 255
207 228 255
207 228 255
207 228 255
207 228 255
208 228 255
208 228 255
208 228 255
199 217 240
193 209 226
167 178 183
163 170 166
139 140 113
129 127 85
142 140 94
131 130 87
134 132 88
123 122 82
130 129 86
122 120 80
126 125 84
138 136 91
139 137 92
140 138 93
127 126 84
137 135 90
144 142 95
138 136 91
148 146 97
133 131 87
131 129 85
137 136 91
130 129 86
140 137 91
134 133 89
134 133 89
141 138 92
129 128 85
141 139 93
137 135 90
134 132 88
137 135 90
139 136 90
146 144 96
141 139 93
132 130 87
131 129 85
136 134 88
138 135 88
133 131 87
135 133 89
144 142 95
132 130 85
130 127 83
132 130 87
128 126 84
135 132 87
138 135 87
135 132 87
129 127 84
132 129 85
142 139 90
125 123 81
138 134 87
132 128 84
134 131 86
132 129 84
130 131 106
165 171 162
167 178 182
191 205 221
201 217 238
211 230 255
211 230 255
211 230 255
211 230 255
211 230 255
211 230 255
211 230 255
211 230 255
211 230 255
211 230 255
211 230 255
211 230 255
211 230 255
211 230 255
211 230 255
211 230 255
211 230 255
211 230 255
211 230 255
211 230 255
211 230 255
211 230 255
211 230 255
211 230 255
211 230 255
211 230 255
211 230 255
211 230 255
211 230 255
211 230 255
211 230 255
211 230 255
211 230 255
211 230 254
210 229 253
211 230 255
211 230 255
211 229 252
210 229 254
211 230 255
210 229 254
209 228 253
209 228 250
208 228 253
208 228 252
208 228 252
207 228 254
207 228 253
206 227 255
206 227 254
207 227 255
207 228 255
206 227 255
205 227 254
205 227 255
206 227 255
205 227 255
205 227 255
203 226 254
204 226 255
204 226 255
205 226 255
203 225 255
204 226 255
203 226 254
202 225 255
202 225 255
202 225 255
202 225 255
202 225 255
202 225 255
202 225 255
202 225 255
202 225 255
202 225 254
202 225 255
201 224 255
202 225 255
203 225 254
203 225 255
201 224 255
202 225 255
202 225 255
203 226 255
202 225 255
201 224 255
204 226 255
203 225 255
203 226 255
204 226 254
204 226 255
203 225 253
204 226 254
206 227 252
204 226 254
206 227 253
205 226 252
205 227 254
206 227 254
209 228 254
207 227 253
206 227 255
208 228 255
207 228 254
208 228 255
208 228 255
207 228 255
207 228 255
207 228 255
207 228 255
207 228 255
207 228 255
207 228 255
207 228 255
207 228 255
207 228 255
207 228 255
207 228 255
207 228 255
207 228 255
207 227 255
207 227 255
207 227 255
207 227 255
206 227 255
206 227 255
206 227 255
206 227 255
206 227 255
206 227 255
206 227 255
206 227 255
206 227 255
206 227 255
206 227 255
206 227 255
206 227 255
206 227 255
206 227 255
206 227 255
206 227 255
206 227 255
205 227 255
205 227 255
205 227 255
205 227 255
205 227 255
205 227 255
205 227 255
205 227 255
205 227 255
205 227 255
205 227 255
205 226 255
205 226 255
205 226 255
205 226 255
205 226 255
205 226 255
205 226 255
205 226 255
204 226 255
204 226 255
204 226 255
204 226 255
204 226 255
204 226 255
204 226 255
204 226 255
204 226 255
204 226 255
204 226 255
204 226 255
204 226 255
204 226 255
204 226 255
204 226 255
204 226 255
204 226 255
204 226 255
204 226 255
204 226 255
204 226 255
203 226 255
203 226 255
203 226 255
203 226 255
203 226 255
203 226 255
203 226 255
203 226 255
203 226 255
203 226 255
203 226 255
197 219 251
156 180 225
106 134 194
62 99 174
62 99 172
62 99 175
62 99 171
62 99 174
62 99 168
62 99 171
63 99 168
62 99 170
63 99 176
63 99 174
62 98 169
62 98 168
63 99 169
62 99 170
62 99 168
62 99 171
63 99 173
63 99 173
62 98 171
62 98 169
62 99 174
63 99 174
62 98 171
62 99 170
61 98 173
62 99 167
62 99 175
62 99 170
62 99 174
63 99 175
63 99 176
62 99 172
62 99 175
61 98 173
62 99 175
63 99 172
62 99 176
62 99 171
62 98 169
63 99 176
62 99 175
95 124 187
161 184 226
194 216 249
203 226 255
203 226 255
203 226 255
203 226 255
203 226 255
203 226 255
203 226 255
203 226 255
203 226 255
203 226 255
203 226 255
204 226 255
204 226 255
204 226 255
204 226 255
204 226 255
204 226 255
204 226 255
204 226 255
204 226 255
204 226 255
204 226 255
204 226 255
204 226 255
204 226 255
204 226 255
204 226 255
204 226 255
204 226 255
204 226 255
204 226 255
204 226 255
204 226 255
205 226 255
205 226 255
205 226 255
205 226 255
205 226 255
205 226 255
205 226 255
205 226 255
205 227 255
205 227 255
205 227 255
205 227 255
205 227 255
205 227 255
205 227 255
205 227 255
205 227 255
205 227 255
205 227 255
206 227 255
206 227 255
206 227 255
206 227 255
206 227 255
206 227 255
206 227 255
206 227 255
206 227 255
206 227 255
206 227 255
206 227 255
206 227 255
206 227 255
206 227 255
206 227 255
206 227 255
206 227 255
207 227 255
207 227 255
207 227 255
207 227 255
207 228 255
207 228 255
207 228 255
207 228 255
207 228 255
207 228 255
207 228 255
207 228 255
207 228 255
207 228 255
207 228 255
207 228 255
207 228 255
207 228 255
208 228 255
208 228 255
198 215 236
184 197 207
158 166 163
146 150 129
140 138 93
128 127 84
126 125 84
134 133 89
129 128 85
137 136 91
133 132 88
141 140 94
129 128 85
140 138 93
136 135 90
141 139 93
131 130 87
141 139 93
126 125 84
139 137 91
137 135 90
138 136 91
131 129 87
140 138 93
137 135 90
145 143 95
135 134 90
143 141 95
139 138 92
145 142 95
131 130 87
140 138 93
131 129 86
139 136 90
136 134 90
142 140 93
143 140 93
142 139 93
134 132 88
140 137 91
142 140 92
139 136 90
139 137 90
138 135 89
137 135 88
129 127 84
147 145 96
137 135 88
145 142 95
134 132 87
134 132 86
130 127 84
136 133 87
130 127 84
142 138 92
145 142 94
138 135 89
141 137 91
134 130 84
146 142 93
141 138 91
137 133 87
141 138 89
127 123 77
124 122 80
135 132 86
126 122 79
124 121 78
141 141 110
165 171 161
180 192 205
193 208 224
211 229 254
211 230 255
211 230 255
211 230 255
211 230 255
211 230 255
211 230 255
211 230 255
211 230 255
211 230 255
211 230 255
211 230 255
211 230 255
211 230 255
212 230 255
212 230 255
212 230 255
212 230 255
211 230 255
211 230 255
211 230 255
211 230 255
211 230 255
211 230 255
211 230 255
210 229 253
211 230 255
211 230 254
210 229 250
210 229 254
210 229 253
209 228 249
209 228 250
209 228 252
211 230 255
209 229 254
207 227 249
208 228 254
206 227 254
208 228 255
207 228 255
206 227 255
206 227 254
207 227 255
206 227 255
205 227 254
206 227 255
204 226 255
204 226 255
203 225 255
204 226 255
203 225 255
203 225 255
204 226 255
203 225 255
202 225 255
202 225 255
201 224 255
202 225 255
201 225 255
201 224 255
201 225 255
201 224 255
201 224 255
201 224 254
200 224 255
200 224 254
201 224 255
200 224 255
200 224 255
201 224 254
200 224 255
200 224 255
200 224 255
199 223 255
200 224 255
199 223 255
200 224 255
200 224 255
200 224 255
201 224 255
199 223 255
200 223 253
201 224 255
202 225 255
202 225 255
202 225 255
203 226 255
202 225 255
203 226 255
202 225 255
203 226 255
203 225 255
203 225 254
205 226 253
206 227 254
204 226 254
204 226 253
206 227 253
209 228 255
207 227 253
209 229 255
208 228 255
208 228 255
208 228 255
208 228 255
207 228 255
207 228 255
207 228 255
207 228 255
207 228 255
207 228 255
207 228 255
207 228 255
207 228 255
207 228 255
207 228 255
207 228 255
207 228 255
207 228 255
207 227 255
207 227 255
207 227 255
207 227 255
206 227 255
206 227 255
206 227 255
206 227 255
206 227 255
206 227 255
206 227 255
206 227 255
206 227 255
206 227 255
206 227 255
206 227 255
206 227 255
206 227 255
206 227 255
206 227 255
206 227 255
206 227 255
205 227 255
205 227 255
205 227 255
205 227 255
205 227 255
205 227 255
205 227 255
205 227 255
205 227 255
205 227 255
205 227 255
205 226 255
205 226 255
205 226 255
205 226 255
205 226 255
205 226 255
205 226 255
205 226 255
204 226 255
204 226 255
204 226 255
204 226 255
204 226 255
204 226 255
204 226 255
204 226 255
204 226 255
204 226 255
204 226 255
204 226 255
204 226 255
204 226 255
204 226 255
204 226 255
204 226 255
204 226 255
204 226 255
204 226 255
204 226 255
204 226 255
204 226 255
204 226 255
204 226 255
203 226 255
203 226 255
182 205 241
134 159 206
66 102 177
62 98 172
63 100 175
62 98 170
62 99 173
62 99 175
63 99 174
62 99 171
62 98 172
62 99 171
62 99 177
62 99 170
62 98 169
62 98 171
62 99 174
63 100 178
63 99 176
63 99 170
62 99 177
62 98 164
62 98 168
62 98 168
62 99 176
62 99 172
62 98 173
62 99 174
63 99 170
63 99 172
62 98 169
62 99 174
62 98 170
62 99 171
62 99 174
62 98 167
62 98 172
63 99 176
63 100 170
62 98 167
62 99 170
64 100 178
62 99 169
62 99 173
62 98 172
62 99 169
63 99 173
62 98 169
63 99 173
67 102 175
137 162 210
178 200 236
203 226 255
203 226 255
204 226 255
204 226 255
204 226 255
204 226 255
204 226 255
204 226 255
204 226 255
204 226 255
204 226 255
204 226 255
204 226 255
204 226 255
204 226 255
204 226 255
204 226 255
204 226 255
204 226 255
204 226 255
204 226 255
204 226 255
204 226 255
204 226 255
204 226 255
204 226 255
204 226 255
205 226 255
205 226 255
205 226 255
205 226 255
205 226 255
205 226 255
205 226 255
205 226 255
205 227 255
205 227 255
205 227 255
205 227 255
205 227 255
205 227 255
205 227 255
205 227 255
205 227 255
205 227 255
205 227 255
206 227 255
206 227 255
206 227 255
206 227 255
206 227 255
206 227 255
206 227 255
206 227 255
206 227 255
206 227 255
206 227 255
206 227 255
206 227 255
206 227 255
206 227 255
206 227 255
206 227 255
206 227 255
207 227 255
207 227 255
207 227 255
207 227 255
207 228 255
207 228 255
207 228 255
207 228 255
207 228 255
207 228 255
207 228 255
207 228 255
207 228 255
207 228 255
207 228 255
207 228 255
207 228 255
207 228 255
208 228 255
208 228 255
202 221 244
177 191 205
159 169 171
140 141 112
127 126 84
129 127 85
138 137 92
136 134 90
137 136 91
133 132 88
138 136 91
131 130 87
137 136 91
136 134 90
132 131 87
131 129 87
142 140 94
143 141 95
138 136 90
137 136 91
133 132 89
132 131 88
140 138 92
140 139 93
146 144 97
135 134 90
144 143 95
152 150 100
144 142 95
145 143 96
131 129 86
138 136 91
130 129 86
149 147 99
145 144 96
150 147 98
145 144 97
145 143 96
146 144 97
132 131 87
141 139 93
139 136 90
142 140 93
143 140 93
140 138 91
147 145 97
142 140 93
142 139 93
143 141 94
141 138 90
142 140 93
136 134 90
140 138 90
133 131 87
142 139 92
143 140 93
133 131 87
141 139 93
132 130 87
134 131 86
143 139 92
142 138 90
145 141 90
139 136 90
138 134 88
150 146 95
137 133 87
139 135 87
135 131 84
125 121 79
139 135 88
130 126 82
142 138 90
142 138 89
128 124 80
129 126 81
137 137 109
161 166 158
185 197 205
206 223 244
211 230 255
211 230 255
211 230 255
211 230 255
211 230 255
211 230 255
212 230 255
212 230 255
212 230 255
212 230 255
212 230 255
212 230 255
212 230 255
212 230 255
212 230 255
212 230 255
212 230 255
212 230 255
212 230 255
212 230 255
211 229 252
211 230 254
210 229 253
209 228 252
210 229 253
209 228 253
208 228 253
209 229 254
208 228 252
208 228 254
209 229 255
208 228 255
206 227 254
206 227 255
207 228 255
206 227 255
205 227 255
205 227 254
205 226 255
204 226 254
205 227 255
204 226 255
204 226 255
204 226 255
202 225 255
203 226 255
201 225 255
202 225 255
202 225 255
201 224 255
201 224 255
200 224 255
200 224 255
200 224 255
200 224 255
199 223 255
200 224 255
200 224 255
199 223 254
198 223 255
199 223 254
198 223 255
198 223 255
199 223 255
198 223 254
198 223 255
198 223 255
199 223 255
198 223 255
197 222 255
198 223 255
198 223 255
198 223 255
198 223 255
197 222 255
198 223 255
198 223 255
198 223 255
198 223 255
198 223 255
199 223 255
199 223 255
200 224 254
199 223 255
200 224 255
200 224 255
199 223 255
201 224 254
201 224 255
202 225 255
202 225 255
203 226 255
204 226 255
202 225 255
205 226 254
204 226 255
204 226 253
204 226 252
206 227 252
204 226 252
207 228 255
208 228 255
207 228 255
208 228 255
208 228 255
208 228 255
207 228 255
207 228 255
207 228 255
207 228 255
207 228 255
207 228 255
207 228 255
207 228 255
207 228 255
207 228 255
207 228 255
207 228 255
207 228 255
207 228 255
207 227 255
207 227 255
207 227 255
207 227 255
206 227 255
206 227 255
206 227 255
206 227 255
206 227 255
206 227 255
206 227 255
206 227 255
206 227 255
206 227 255
206 227 255
206 227 255
206 227 255
206 227 255
206 227 255
206 227 255
206 227 255
206 227 255
205 227 255
205 227 255
205 227 255
205 227 255
205 227 255
205 227 255
205 227 255
205 227 255
205 227 255
205 227 255
205 227 255
205 227 255
205 226 255
205 226 255
205 226 255
205 226 255
205 226 255
205 226 255
205 226 255
205 226 255
204 226 255
204 226 255
204 226 255
204 226 255
204 226 255
204 226 255
204 226 255
204 226 255
204 226 255
204 226 255
204 226 255
204 226 255
204 226 255
204 226 255
204 226 255
204 226 255
204 226 255
204 226 255
204 226 255
202 224 254
167 190 231
103 131 189
63 100 181
62 99 174
61 98 168
62 98 171
62 99 174
63 99 177
63 99 174
62 99 166
62 98 169
62 98 167
62 99 174
62 98 168
63 99 171
62 99 174
62 99 173
62 99 172
62 98 169
63 99 173
61 98 168
62 99 175
62 99 172
62 99 171
63 99 171
62 99 174
62 99 170
62 99 165
62 98 170
62 99 169
62 99 173
62 98 166
63 99 175
62 99 170
61 98 172
62 99 170
62 98 165
62 98 166
62 99 168
62 99 172
62 99 175
62 99 170
62 99 172
63 99 169
63 99 168
62 99 172
62 98 172
63 99 172
62 99 172
62 98 169
62 98 170
62 99 173
61 97 172
62 99 173
110 137 196
161 184 226
203 225 255
204 226 255
204 226 255
204 226 255
204 226 255
204 226 255
204 226 255
204 226 255
204 226 255
204 226 255
204 226 255
204 226 255
204 226 255
204 226 255
204 226 255
204 226 255
204 226 255
204 226 255
204 226 255
204 226 255
205 226 255
205 226 255
205 226 255
205 226 255
205 226 255
205 226 255
205 226 255
205 226 255
205 227 255
205 227 255
205 227 255
205 227 255
205 227 255
205 227 255
205 227 255
205 227 255
205 227 255
205 227 255
205 227 255
205 227 255
206 227 255
206 227 255
206 227 255
206 227 255
206 227 255
206 227 255
206 227 255
206 227 255
206 227 255
206 227 255
206 227 255
206 227 255
206 227 255
206 227 255
206 227 255
206 227 255
206 227 255
206 227 255
207 227 255
207 227 255
207 227 255
207 227 255
207 228 255
207 228 255
207 228 255
207 228 255
207 228 255
207 228 255
207 228 255
207 228 255
207 228 255
207 228 255
207 228 255
207 228 255
207 228 255
207 228 255
208 228 255
208 228 255
208 228 255
197 214 234
165 175 177
142 148 139
132 130 87
118 117 78
132 131 87
133 132 89
127 126 84
137 136 91
140 139 93
141 139 93
143 142 95
143 141 94
139 138 93
144 144 97
137 135 90
135 133 89
146 144 97
134 133 89
132 131 88
141 140 94
134 134 90
145 143 95
139 138 93
135 134 90
140 138 93
149 147 99
133 133 90
146 145 97
130 130 87
143 141 95
143 140 93
141 139 93
138 136 91
144 142 95
153 150 100
145 143 95
134 132 88
140 139 93
146 144 95
144 143 95
147 145 97
143 141 95
146 143 95
144 141 94
139 137 91
149 146 97
143 141 93
133 130 87
135 133 88
144 141 93
130 129 86
136 133 89
147 144 94
147 144 94
140 137 91
152 149 98
151 147 97
144 141 93
136 133 88
138 136 87
155 152 100
138 135 87
144 140 92
145 142 93
146 142 92
133 130 86
135 131 85
138 135 89
148 145 93
133 130 86
140 137 87
139 135 89
135 131 84
137 134 88
122 120 75
142 139 89
131 127 81
124 119 75
143 139 90
141 137 87
130 127 81
132 128 81
145 147 129
174 183 186
200 216 236
212 230 255
212 230 255
212 230 255
212 230 255
212 230 255
212 230 255
212 230 255
212 230 255
212 230 255
212 230 255
212 230 255
213 231 255
212 230 255
211 230 254
211 229 250
211 229 252
210 230 255
210 229 252
208 228 249
208 228 252
209 229 253
209 228 253
209 229 254
208 228 255
208 228 255
207 228 255
205 227 254
208 228 255
207 228 255
206 227 255
206 227 254
205 227 255
205 227 255
205 226 255
205 226 255
204 226 255
203 226 255
203 226 255
203 225 255
202 225 255
202 225 255
202 225 255
201 224 255
201 224 255
201 224 255
200 224 254
200 224 255
200 224 255
199 223 255
199 223 255
198 223 255
199 223 255
198 223 255
199 223 255
198 223 255
197 222 255
198 223 255
197 222 255
197 222 255
197 222 255
196 222 255
196 222 255
196 222 255
196 222 255
196 222 255
196 222 255
196 222 255
196 222 255
196 222 255
196 222 255
195 221 255
196 222 255
196 222 255
196 221 255
195 221 255
195 221 255
195 221 255
196 222 255
197 222 255
197 222 255
197 222 254
197 222 255
198 223 255
198 223 255
198 223 255
199 223 255
199 223 255
199 223 255
200 224 255
200 224 255
201 224 255
201 225 255
201 225 255
203 226 255
203 225 255
204 226 254
204 226 253
205 226 252
205 226 254
207 228 255
207 228 255
207 228 255
208 228 255
208 228 255
208 228 255
208 228 255
208 228 255
207 228 255
207 228 255
207 228 255
207 228 255
207 228 255
207 228 255
207 228 255
207 228 255
207 228 255
207 228 255
207 228 255
207 228 255
207 228 255
207 228 255
207 227 255
207 227 255
207 227 255
207 227 255
206 227 255
206 227 255
206 227 255
206 227 255
206 227 255
206 227 255
206 227 255
206 227 255
206 227 255
206 227 255
206 227 255
206 227 255
206 227 255
206 227 255
206 227 255
206 227 255
206 227 255
206 227 255
206 227 255
205 227 255
205 227 255
205 227 255
205 227 255
205 227 255
205 227 255
205 227 255
205 227 255
205 227 255
205 227 255
205 227 255
205 227 255
205 226 255
205 226 255
205 226 255
205 226 255
205 226 255
205 226 255
205 226 255
205 226 255
205 226 255
204 226 255
204 226 255
204 226 255
204 226 255
204 226 255
204 226 255
204 226 255
204 226 255
204 226 255
204 226 255
204 226 255
202 224 254
166 189 226
88 118 183
62 99 173
62 99 172
63 99 173
62 99 171
62 99 172
63 99 173
62 99 172
62 99 171
62 99 172
63 99 170
63 99 174
63 99 171
62 98 162
62 98 165
62 99 171
62 98 163
62 98 170
63 99 170
62 98 162
62 99 172
63 99 169
61 98 170
61 98 168
62 98 169
62 99 168
63 99 171
62 99 171
62 99 168
62 98 169
62 98 168
63 99 168
62 98 165
63 99 174
63 100 174
62 98 166
61 98 163
62 99 171
63 100 178
62 98 169
62 99 170
63 100 174
62 98 169
61 98 163
63 99 169
63 99 170
62 99 174
63 99 173
62 98 168
62 99 176
62 99 170
61 97 164
62 99 171
62 99 176
62 99 172
62 98 167
63 99 173
108 136 195
169 191 231
203 225 255
204 226 255
204 226 255
204 226 255
204 226 255
204 226 255
204 226 255
204 226 255
204 226 255
204 226 255
204 226 255
204 226 255
205 226 255
205 226 255
205 226 255
205 226 255
205 226 255
205 226 255
205 226 255
205 226 255
205 226 255
205 227 255
205 227 255
205 227 255
205 227 255
205 227 255
205 227 255
205 227 255
205 227 255
205 227 255
205 227 255
205 227 255
205 227 255
206 227 255
206 227 255
206 227 255
206 227 255
206 227 255
206 227 255
206 227 255
206 227 255
206 227 255
206 227 255
206 227 255
206 227 255
206 227 255
206 227 255
206 227 255
206 227 255
206 227 255
206 227 255
206 227 255
207 227 255
207 227 255
207 227 255
207 227 255
207 228 255
207 228 255
207 228 255
207 228 255
207 228 255
207 228 255
207 228 255
207 228 255
207 228 255
207 228 255
207 228 255
207 228 255
207 228 255
207 228 255
208 228 255
208 228 255
208 228 255
208 228 255
193 208 224
172 181 182
144 147 130
130 128 85
130 127 84
131 130 87
127 125 84
130 129 87
135 134 90
134 133 90
136 135 90
137 136 91
145 144 97
140 139 93
144 143 96
139 138 93
141 140 94
142 140 94
142 140 94
135 134 90
137 136 91
144 142 95
145 145 97
147 145 97
143 141 95
147 145 97
141 139 93
149 147 99
143 142 95
139 137 92
138 137 92
149 148 99
150 148 99
139 137 91
150 148 99
137 136 90
140 139 93
150 148 99
128 126 84
151 149 99
148 146 97
145 143 95
142 141 95
139 137 91
147 144 95
145 144 96
140 138 90
148 146 97
146 143 94
139 136 90
147 144 94
146 143 95
151 148 98
147 144 95
144 142 94
147 143 94
141 138 90
135 133 87
144 141 93
139 136 90
140 138 91
144 141 91
137 135 88
149 145 95
136 134 88
139 135 87
139 136 90
140 136 88
146 144 95
141 136 89
131 128 84
148 146 97
141 137 89
129 126 80
143 140 90
135 131 85
133 129 84
142 138 89
136 132 84
137 134 87
135 132 84
139 136 87
143 140 89
135 131 84
134 132 84
139 136 87
135 130 83
131 126 80
120 117 73
142 141 110
167 175 174
196 212 230
212 230 255
212 230 255
212 230 255
212 230 255
212 230 255
212 230 255
212 230 255
212 230 254
212 230 252
210 229 252
211 230 250
209 228 249
210 229 253
209 229 252
209 229 252
209 229 253
209 229 255
208 228 255
208 228 255
208 228 255
208 228 255
208 228 255
205 227 255
207 227 255
206 227 255
205 227 255
205 227 255
205 227 255
204 226 255
204 226 255
203 225 255
202 225 254
203 226 255
202 225 255
202 225 255
202 225 255
201 224 255
201 224 255
201 224 255
201 224 255
200 224 254
200 224 255
199 223 255
199 223 255
199 223 255
198 223 255
197 222 255
198 223 255
198 223 255
197 222 255
196 222 255
196 222 255
196 222 255
195 221 255
196 222 255
195 221 255
195 221 255
195 221 255
195 221 255
195 221 255
195 221 255
195 221 255
195 221 255
194 221 255
194 221 255
194 221 255
194 220 255
194 221 255
194 221 255
194 221 255
195 221 255
194 221 255
194 221 255
194 221 255
194 221 255
195 221 255
194 221 255
195 221 255
194 221 255
194 221 254
195 221 255
196 222 255
196 222 254
197 222 255
196 222 255
196 222 255
198 223 255
198 223 255
198 223 255
199 223 255
199 223 255
199 223 255
200 224 255
202 225 255
203 225 255
204 226 254
205 226 255
205 226 252
206 227 253
207 227 252
207 228 254
207 228 254
208 228 254
208 228 255
208 228 255
208 228 255
208 228 255
208 228 255
207 228 255
207 228 255
207 228 255
207 228 255
207 228 255
207 228 255
207 228 255
207 228 255
207 228 255
207 228 255
207 228 255
207 228 255
207 228 255
207 228 255
207 227 255
207 227 255
207 227 255
207 227 255
206 227 255
206 227 255
206 227 255
206 227 255
206 227 255
206 227 255
206 227 255
206 227 255
206 227 255
206 227 255
206 227 255
206 227 255
206 227 255
206 227 255
206 227 255
206 227 255
206 227 255
206 227 255
206 227 255
205 227 255
205 227 255
205 227 255
205 227 255
205 227 255
205 227 255
205 227 255
205 227 255
205 227 255
205 227 255
205 227 255
205 227 255
205 227 255
205 226 255
205 226 255
205 226 255
205 226 255
205 226 255
205 226 255
205 226 255
205 226 255
205 226 255
205 226 255
205 226 255
204 226 255
204 226 255
204 226 255
181 203 238
92 122 187
63 99 170
61 98 170
61 98 164
63 99 177
62 98 170
62 98 168
62 99 172
61 97 165
63 100 177
63 99 171
62 99 171
62 99 167
62 98 164
63 99 175
62 98 168
62 98 169
62 98 164
62 98 169
63 99 169
63 99 170
62 98 166
63 99 175
62 99 167
63 99 171
61 98 164
62 99 170
62 99 167
61 98 165
62 98 165
63 99 172
61 98 160
62 98 168
62 99 171
62 98 161
63 99 173
62 99 173
62 99 169
63 99 171
62 98 163
63 99 170
62 98 161
62 99 170
62 98 161
62 99 169
62 98 164
62 99 171
62 98 169
61 98 166
63 99 172
62 98 169
62 99 172
63 99 173
62 99 175
63 99 170
61 98 170
62 98 164
61 97 165
63 99 171
62 98 170
62 99 174
107 134 193
177 199 235
204 226 255
204 226 255
204 226 255
205 226 255
205 226 255
205 226 255
205 226 255
205 226 255
205 226 255
205 226 255
205 226 255
205 226 255
205 226 255
205 226 255
205 227 255
205 227 255
205 227 255
205 227 255
205 227 255
205 227 255
205 227 255
205 227 255
205 227 255
205 227 255
205 227 255
205 227 255
205 227 255
206 227 255
206 227 255
206 227 255
206 227 255
206 227 255
206 227 255
206 227 255
206 227 255
206 227 255
206 227 255
206 227 255
206 227 255
206 227 255
206 227 255
206 227 255
206 227 255
206 227 255
206 227 255
206 227 255
207 227 255
207 227 255
207 227 255
207 227 255
207 228 255
207 228 255
207 228 255
207 228 255
207 228 255
207 228 255
207 228 255
207 228 255
207 228 255
207 228 255
207 228 255
207 228 255
207 228 255
207 228 255
208 228 255
208 228 255
208 228 255
208 228 255
208 228 255
201 219 241
178 190 196
151 155 135
139 137 92
131 129 87
133 131 87
139 138 93
133 132 88
134 133 90
134 133 89
142 141 95
140 139 94
135 134 90
141 140 95
137 137 92
144 143 96
136 134 90
145 144 97
140 139 93
138 137 93
137 136 91
144 143 96
134 133 90
148 147 99
147 146 98
145 143 96
145 143 96
143 142 95
150 148 99
139 138 93
145 143 95
143 142 95
142 141 95
153 152 102
129 127 85
138 136 90
140 138 92
128 126 84
142 141 94
138 137 92
145 143 96
153 151 101
149 148 99
140 138 92
140 138 92
133 131 87
138 137 91
149 146 97
145 144 96
153 151 100
137 134 88
146 143 95
147 144 96
143 141 94
147 145 97
145 142 93
148 145 96
147 143 94
146 143 95
142 140 93
140 137 90
149 147 97
149 145 96
147 145 95
133 130 86
141 139 92
144 141 92
153 150 99
144 141 93
146 143 93
144 141 93
137 134 88
153 148 97
141 138 90
146 143 93
141 138 89
148 144 90
142 138 89
130 127 83
130 128 82
144 142 90
137 134 85
142 139 90
141 137 87
137 133 85
136 133 85
130 126 80
146 141 90
149 145 93
139 134 85
131 127 83
130 126 79
127 123 75
133 130 84
124 120 78
123 122 94
178 187 189
198 214 231
212 230 255
213 231 253
211 230 255
211 230 253
212 230 254
210 229 254
210 229 252
211 230 254
209 228 252
209 229 254
209 229 253
208 228 255
209 229 255
207 228 254
209 229 255
207 228 255
207 228 255
207 228 255
206 227 255
206 227 255
204 226 254
205 226 255
204 226 255
204 226 255
203 225 255
203 225 255
203 225 255
203 225 255
202 225 255
201 225 255
201 224 255
201 224 255
200 224 255
201 224 255
200 224 255
199 223 255
199 223 255
199 223 255
198 223 255
199 223 255
197 222 255
197 222 255
197 222 255
196 222 255
197 222 255
196 221 255
195 221 255
195 221 255
195 221 255
195 221 255
195 221 255
195 221 255
195 221 255
194 221 255
194 221 255
193 220 255
194 221 255
193 220 255
193 220 255
193 220 255
193 220 255
193 220 255
192 220 255
192 220 255
192 220 255
192 220 255
193 220 255
192 220 255
192 220 255
193 220 255
192 220 255
193 220 255
192 220 255
193 220 255
192 220 254
193 220 255
194 221 255
194 220 255
194 220 255
195 221 255
193 220 255
195 221 255
195 221 255
195 221 255
195 221 255
196 222 254
197 222 255
197 222 255
198 223 255
199 223 255
199 223 255
200 224 255
202 225 255
202 225 255
203 225 255
204 226 254
204 226 255
204 226 252
204 226 249
207 228 253
208 228 252
207 228 254
208 228 255
208 228 255
208 228 255
208 228 255
208 228 255
208 228 255
208 228 255
207 228 255
207 228 255
207 228 255
207 228 255
207 228 255
207 228 255
207 228 255
207 228 255
207 228 255
207 228 255
207 228 255
207 228 255
207 228 255
207 228 255
207 227 255
207 227 255
207 227 255
207 227 255
206 227 255
206 227 255
206 227 255
206 227 255
206 227 255
206 227 255
206 227 255
206 227 255
206 227 255
206 227 255
206 227 255
206 227 255
206 227 255
206 227 255
206 227 255
206 227 255
206 227 255
206 227 255
206 227 255
206 227 255
205 227 255
205 227 255
205 227 255
205 227 255
205 227 255
205 227 255
205 227 255
205 227 255
205 227 255
205 227 255
205 227 255
205 227 255
205 227 255
205 227 255
205 227 255
205 226 255
205 226 255
205 226 255
205 226 255
205 226 255
190 212 244
116 142 199
61 98 167
62 98 167
62 99 170
62 99 172
63 99 171
61 98 165
62 98 172
62 98 165
61 98 167
62 98 172
62 98 167
63 99 171
63 100 175
62 98 160
62 98 166
62 99 168
62 98 166
62 98 164
63 99 170
62 98 173
61 97 162
62 98 166
62 98 166
61 98 161
62 99 169
63 99 172
63 100 172
62 99 173
62 98 170
62 98 171
62 99 173
62 98 168
62 98 168
62 99 165
62 98 166
62 98 165
62 98 165
61 97 161
63 99 169
62 98 167
62 98 166
62 98 167
62 99 170
62 99 167
62 98 166
61 97 163
61 98 167
62 98 165
63 99 174
62 99 171
62 98 169
61 97 162
63 99 173
62 98 167
62 98 168
62 99 173
62 99 174
62 99 174
62 99 172
61 97 167
62 98 170
62 98 168
61 97 165
61 97 170
118 144 197
190 212 243
205 226 255
205 226 255
205 226 255
205 226 255
205 226 255
205 226 255
205 227 255
205 227 255
205 227 255
205 227 255
205 227 255
205 227 255
205 227 255
205 227 255
205 227 255
205 227 255
205 227 255
205 227 255
205 227 255
205 227 255
206 227 255
206 227 255
206 227 255
206 227 255
206 227 255
206 227 255
206 227 255
206 227 255
206 227 255
206 227 255
206 227 255
206 227 255
206 227 255
206 227 255
206 227 255
206 227 255
206 227 255
206 227 255
206 227 255
207 227 255
207 227 255
207 227 255
207 227 255
207 227 255
207 228 255
207 228 255
207 228 255
207 228 255
207 228 255
207 228 255
207 228 255
207 228 255
207 228 255
207 228 255
207 228 255
207 228 255
207 228 255
207 228 255
208 228 255
208 228 255
208 228 255
208 228 255
208 228 255
208 228 255
204 223 248
180 194 207
157 164 159
128 127 85
125 123 82
140 138 93
128 127 85
136 135 90
133 132 88
140 138 93
137 137 92
139 138 93
143 142 95
140 138 93
133 132 89
141 140 94
144 142 95
140 139 93
134 133 90
152 151 101
143 142 95
139 137 92
139 138 93
134 133 89
147 145 97
145 144 97
146 146 98
137 136 91
142 140 94
148 147 99
150 149 100
144 142 95
149 148 99
142 141 95
150 149 99
150 148 99
147 145 97
150 148 99
150 148 99
141 140 94
149 147 98
144 143 95
142 140 93
146 144 97
147 145 97
150 148 99
153 151 101
158 154 103
150 147 97
156 154 103
156 153 102
151 148 98
148 146 97
146 144 96
137 136 91
145 143 95
138 136 90
149 146 97
140 139 93
151 148 97
145 143 95
141 138 90
148 145 95
147 144 95
139 136 89
154 151 98
149 146 95
138 136 91
138 134 88
136 133 85
143 140 93
145 141 93
141 139 92
135 132 85
145 142 93
142 139 92
135 132 85
150 146 94
132 130 87
144 141 93
141 138 89
149 145 94
153 150 98
136 134 87
147 143 92
131 128 84
145 142 90
148 144 94
135 131 85
142 139 90
141 137 87
137 133 87
150 146 93
145 141 90
137 133 85
133 128 79
133 129 80
136 133 84
130 127 81
133 128 80
129 124 79
141 144 124
211 229 253
211 230 253
212 230 255
210 229 252
211 230 255
210 229 254
210 229 255
208 228 255
209 229 254
210 229 255
208 228 255
208 228 255
207 228 255
207 227 255
206 227 255
205 227 255
206 227 255
206 227 255
204 226 255
204 226 255
204 226 255
204 226 255
203 225 255
202 225 255
202 225 255
202 225 254
202 225 255
201 224 255
201 224 255
200 224 255
200 224 255
199 223 255
199 223 255
198 223 255
198 223 255
198 223 255
197 222 255
197 222 255
196 222 255
196 222 255
196 222 255
196 222 255
196 221 255
195 221 255
195 221 255
194 221 255
194 221 255
195 221 255
194 220 255
193 220 255
193 220 255
193 220 255
193 220 255
193 220 255
192 220 255
192 220 255
192 219 255
191 219 255
192 220 255
191 219 255
191 219 255
191 219 255
191 219 255
191 219 255
191 219 255
190 219 255
191 219 255
191 219 255
191 219 255
191 219 255
191 219 255
190 219 255
191 219 255
191 219 255
191 219 255
192 220 255
191 219 255
192 219 255
192 219 255
192 220 255
193 220 255
193 220 255
193 220 255
194 220 255
194 220 255
195 221 255
195 221 255
195 221 255
196 222 255
196 222 255
198 223 255
198 223 254
199 223 254
200 224 255
200 224 255
201 225 255
202 225 255
203 225 254
203 225 255
205 226 252
206 227 253
206 227 253
207 227 254
208 228 255
208 228 255
208 228 255
208 228 255
208 228 255
208 228 255
208 228 255
208 228 255
208 228 255
207 228 255
207 228 255
207 228 255
207 228 255
207 228 255
207 228 255
207 228 255
207 228 255
207 228 255
207 228 255
207 228 255
207 228 255
207 228 255
207 228 255
207 227 255
207 227 255
207 227 255
207 227 255
207 227 255
206 227 255
206 227 255
206 227 255
206 227 255
206 227 255
206 227 255
206 227 255
206 227 255
206 227 255
206 227 255
206 227 255
206 227 255
206 227 255
206 227 255
206 227 255
206 227 255
206 227 255
206 227 255
206 227 255
206 227 255
206 227 255
205 227 255
205 227 255
205 227 255
205 227 255
205 227 255
205 227 255
205 227 255
205 227 255
205 227 255
205 227 255
205 227 255
205 227 255
199 221 252
131 156 204
69 104 175
62 99 172
62 98 170
62 99 168
62 98 167
63 99 167
62 99 169
62 98 167
62 98 164
62 98 162
62 99 169
62 98 163
62 98 166
62 99 172
62 98 169
62 99 164
62 99 167
63 99 171
62 99 169
62 98 166
61 98 166
62 99 169
61 98 163
61 97 161
63 99 166
61 97 160
61 98 168
63 99 166
63 99 165
62 98 164
62 99 168
62 99 171
62 98 166
62 99 167
63 99 170
63 99 166
62 99 170
62 99 172
61 98 160
62 98 160
62 98 165
62 99 169
62 99 169
62 98 169
61 98 164
61 98 160
62 98 161
63 99 169
62 99 167
63 99 174
63 99 168
63 99 172
62 98 162
62 99 170
62 98 168
62 98 170
61 97 165
62 98 165
62 99 168
61 98 164
62 99 175
62 98 165
62 99 175
63 99 169
61 98 164
61 97 160
62 98 174
65 100 173
146 169 215
200 222 252
205 227 255
205 227 255
205 227 255
205 227 255
205 227 255
205 227 255
205 227 255
205 227 255
205 227 255
205 227 255
205 227 255
205 227 255
205 227 255
206 227 255
206 227 255
206 227 255
206 227 255
206 227 255
206 227 255
206 227 255
206 227 255
206 227 255
206 227 255
206 227 255
206 227 255
206 227 255
206 227 255
206 227 255
206 227 255
206 227 255
206 227 255
206 227 255
206 227 255
207 227 255
207 227 255
207 227 255
207 227 255
207 227 255
207 228 255
207 228 255
207 228 255
207 228 255
207 228 255
207 228 255
207 228 255
207 228 255
207 228 255
207 228 255
207 228 255
207 228 255
207 228 255
207 228 255
208 228 255
208 228 255
208 228 255
208 228 255
208 228 255
208 228 255
208 228 255
208 228 255
191 207 224
163 172 173
135 135 99
130 129 86
137 135 90
130 129 86
135 134 90
139 138 93
139 137 92
146 145 97
134 133 89
129 129 87
140 138 92
140 139 93
134 134 90
137 137 92
145 144 97
150 148 99
142 141 95
137 135 90
146 145 97
145 144 97
145 143 96
142 141 95
148 147 99
146 145 97
143 143 96
139 138 93
153 152 102
141 140 94
147 145 97
144 143 96
140 139 93
148 147 99
142 141 95
146 145 97
140 139 93
152 150 100
141 140 94
140 139 93
149 147 98
147 145 97
145 143 95
147 146 98
141 139 93
152 150 100
151 150 101
148 146 97
152 150 101
144 141 94
146 145 97
146 143 95
149 147 98
151 149 99
157 154 103
144 142 95
149 147 98
156 153 101
143 141 92
159 157 104
154 151 100
148 146 97
152 150 99
141 138 92
152 149 99
145 142 93
147 143 94
154 151 98
145 141 94
157 153 101
147 143 94
146 143 95
149 146 97
147 143 93
142 139 91
155 151 100
144 141 90
153 149 96
148 145 96
140 137 91
145 142 91
144 140 90
142 138 87
148 144 94
154 151 98
148 143 93
143 140 90
144 141 92
144 140 90
141 138 87
139 135 87
147 143 93
136 132 85
138 133 85
134 131 86
137 133 84
137 133 84
134 131 84
133 128 80
138 133 86
142 139 90
138 134 84
138 134 83
128 125 80
211 230 254
209 229 254
210 229 255
210 229 253
210 229 255
210 229 255
209 229 255
208 228 255
209 229 255
207 228 255
207 228 255
207 227 255
206 227 255
206 227 255
205 227 255
205 227 255
204 226 255
205 227 255
204 226 255
203 225 254
203 226 255
202 225 255
203 225 255
201 224 255
201 225 255
200 224 255
201 224 255
200 224 255
200 224 255
200 224 255
199 223 255
199 223 255
198 223 255
197 222 255
198 223 255
197 222 255
196 222 255
197 222 255
196 222 255
196 222 255
195 221 255
195 221 255
195 221 255
194 221 255
194 221 255
194 221 255
193 220 255
193 220 255
193 220 255
192 220 255
192 220 255
193 220 255
192 220 255
191 219 255
191 219 255
191 219 255
191 219 255
190 219 255
191 219 255
190 219 255
190 219 255
190 218 255
190 219 255
190 218 255
190 219 255
190 219 255
190 218 255
190 218 255
190 218 255
189 218 255
189 218 255
190 219 255
190 218 255
190 218 255
190 218 255
190 218 255
190 218 255
190 219 255
190 219 255
190 219 255
191 219 255
191 219 255
191 219 255
192 220 255
192 220 255
192 219 255
193 220 255
194 220 255
193 220 255
195 221 255
195 221 255
195 221 255
196 222 255
197 222 254
198 223 255
199 224 255
200 224 255
201 224 255
201 224 255
205 226 255
205 226 255
204 226 252
205 226 252
206 227 254
207 228 254
208 228 254
208 228 255
208 228 255
208 228 255
208 228 255
208 228 255
208 228 255
208 228 255
208 228 255
208 228 255
208 228 255
207 228 255
207 228 255
207 228 255
207 228 255
207 228 255
207 228 255
207 228 255
207 228 255
207 228 255
207 228 255
207 228 255
207 228 255
207 228 255
207 228 255
207 228 255
207 227 255
207 227 255
207 227 255
207 227 255
207 227 255
206 227 255
206 227 255
206 227 255
206 227 255
206 227 255
206 227 255
206 227 255
206 227 255
206 227 255
206 227 255
206 227 255
206 227 255
206 227 255
206 227 255
206 227 255
206 227 255
206 227 255
206 227 255
206 227 255
206 227 255
206 227 255
206 227 255
205 227 255
205 227 255
205 227 255
205 227 255
205 227 255
182 204 239
88 119 188
61 98 163
62 98 168
61 97 162
61 98 166
63 99 173
62 99 172
62 98 166
62 98 166
62 99 167
62 98 166
61 97 163
61 97 162
62 99 168
62 98 163
62 98 169
62 98 167
62 98 171
62 98 163
62 98 162
62 98 161
62 98 165
62 98 163
63 99 166
61 98 161
62 98 161
62 99 169
62 98 164
62 99 164
62 98 161
62 99 165
61 97 161
62 99 170
63 99 173
61 97 158
62 98 165
62 98 165
62 98 164
63 99 167
62 98 166
62 98 162
63 99 172
62 98 164
63 99 169
63 99 168
62 98 166
62 98 167
61 97 157
63 99 169
62 98 163
62 98 163
61 97 161
62 99 172
62 98 164
63 99 171
62 98 163
63 99 166
63 99 166
62 98 162
62 98 166
62 99 165
62 99 166
61 98 165
62 98 166
62 99 173
62 99 172
61 98 167
62 98 161
63 99 169
62 98 167
61 98 170
107 133 187
186 207 239
205 227 255
205 227 255
205 227 255
205 227 255
205 227 255
206 227 255
206 227 255
206 227 255
206 227 255
206 227 255
206 227 255
206 227 255
206 227 255
206 227 255
206 227 255
206 227 255
206 227 255
206 227 255
206 227 255
206 227 255
206 227 255
206 227 255
206 227 255
206 227 255
206 227 255
206 227 255
206 227 255
207 227 255
207 227 255
207 227 255
207 227 255
207 227 255
207 228 255
207 228 255
207 228 255
207 228 255
207 228 255
207 228 255
207 228 255
207 228 255
207 228 255
207 228 255
207 228 255
207 228 255
207 228 255
207 228 255
207 228 255
208 228 255
208 228 255
208 228 255
208 228 255
208 228 255
208 228 255
208 228 255
208 228 255
208 228 255
207 227 253
182 196 207
143 149 141
125 123 82
137 135 90
129 128 86
131 129 87
132 131 87
140 139 93
138 136 91
134 133 89
145 143 95
129 127 85
147 146 98
142 141 95
138 137 93
148 146 98
145 143 96
136 135 90
145 144 97
151 151 101
140 139 94
139 138 93
154 153 103
136 135 90
154 153 103
147 146 98
151 150 101
145 143 96
154 152 101
150 149 100
157 155 104
153 151 101
151 149 100
150 148 99
147 146 98
145 143 96
144 143 96
147 145 97
151 149 100
150 148 99
137 135 90
147 145 97
157 155 103
144 142 95
146 145 97
141 140 94
140 138 92
152 150 99
153 150 100
145 143 95
150 148 99
147 145 96
148 145 96
151 150 100
156 153 102
153 151 101
149 147 98
152 149 99
146 144 96
145 142 94
156 152 101
147 145 96
148 146 97
149 146 95
141 139 92
154 151 101
152 148 97
148 144 94
149 146 95
149 146 96
152 149 98
144 142 93
157 153 101
141 139 93
142 139 90
144 141 91
154 151 97
149 145 96
142 140 92
145 141 90
147 143 93
139 136 89
146 144 93
142 139 91
141 137 88
148 144 93
143 140 90
134 130 84
151 148 96
151 148 97
134 131 84
142 139 89
150 146 95
139 135 87
131 128 82
148 144 93
141 137 87
140 137 90
150 145 93
149 144 92
141 137 87
137 133 85
140 137 89
144 140 92
135 131 84
130 127 82
211 230 254
210 229 255
209 229 255
209 229 255
208 228 255
208 228 254
207 228 255
208 228 255
207 227 255
207 228 255
206 227 254
205 227 254
205 226 255
205 227 255
204 226 255
204 226 255
204 226 255
203 225 255
203 225 255
203 225 255
203 225 255
202 225 255
201 224 255
200 224 255
200 224 255
200 224 255
199 223 255
199 223 255
198 223 255
198 223 255
198 223 255
198 223 255
197 222 255
197 222 255
197 222 255
196 222 255
195 221 255
195 221 255
195 221 255
195 221 255
194 221 255
194 221 255
193 220 255
193 220 255
193 220 255
193 220 255
192 220 255
192 220 255
192 219 255
192 220 255
191 219 255
191 219 255
191 219 255
190 219 255
190 219 255
190 219 255
189 218 255
190 219 255
189 218 255
189 218 255
189 218 255
188 218 255
189 218 255
188 218 255
188 218 255
188 218 255
188 217 255
188 218 255
188 218 255
188 218 255
188 218 255
188 218 255
189 218 255
188 218 255
188 218 255
188 218 255
188 218 255
189 218 255
189 218 255
189 218 255
190 218 255
189 218 255
189 218 255
189 218 255
190 219 255
190 219 255
191 219 255
191 219 255
192 219 255
193 220 255
193 220 255
193 220 255
193 220 255
194 221 255
195 221 255
197 222 255
198 223 255
198 223 254
198 223 255
200 224 255
201 225 255
202 225 255
205 226 255
202 225 253
205 226 254
206 227 252
208 228 254
207 228 255
208 228 255
208 228 255
208 228 255
208 228 255
208 228 255
208 228 255
208 228 255
208 228 255
208 228 255
208 228 255
208 228 255
208 228 255
208 228 255
207 228 255
207 228 255
207 228 255
207 228 255
207 228 255
207 228 255
207 228 255
207 228 255
207 228 255
207 228 255
207 228 255
207 228 255
207 228 255
207 228 255
207 228 255
207 227 255
207 227 255
207 227 255
207 227 255
207 227 255
206 227 255
206 227 255
206 227 255
206 227 255
206 227 255
206 227 255
206 227 255
206 227 255
206 227 255
206 227 255
206 227 255
206 227 255
206 227 255
206 227 255
206 227 255
206 227 255
206 227 255
206 227 255
206 227 255
206 227 255
204 225 254
147 170 213
65 100 169
62 99 173
63 99 171
62 98 166
62 98 167
62 98 168
62 99 168
62 99 170
62 99 164
62 98 165
62 99 166
62 98 164
62 98 163
62 98 165
62 99 172
62 99 171
62 98 167
62 98 160
63 99 172
62 98 165
62 98 164
62 98 164
62 98 162
61 97 162
61 98 166
63 99 171
62 98 164
62 98 163
63 99 168
62 98 166
61 97 159
62 98 164
62 98 168
62 98 166
62 98 165
62 98 160
62 98 162
62 98 161
62 99 168
62 98 164
62 98 164
62 98 166
62 99 165
62 98 168
61 98 167
62 98 163
61 98 167
63 99 168
62 98 163
62 98 154
62 98 168
63 99 172
62 99 166
62 98 165
63 99 166
62 98 167
62 98 167
63 99 165
62 98 163
63 99 170
63 99 166
62 98 165
62 99 168
62 97 167
63 99 174
62 98 168
61 97 164
62 98 161
61 97 168
61 97 163
62 99 174
61 96 163
62 99 174
65 100 172
146 170 215
203 224 254
206 227 255
206 227 255
206 227 255
206 227 255
206 227 255
206 227 255
206 227 255
206 227 255
206 227 255
206 227 255
206 227 255
206 227 255
206 227 255
206 227 255
206 227 255
206 227 255
206 227 255
206 227 255
206 227 255
206 227 255
207 227 255
207 227 255
207 227 255
207 227 255
207 227 255
207 228 255
207 228 255
207 228 255
207 228 255
207 228 255
207 228 255
207 228 255
207 228 255
207 228 255
207 228 255
207 228 255
207 228 255
207 228 255
207 228 255
207 228 255
208 228 255
208 228 255
208 228 255
208 228 255
208 228 255
208 228 255
208 228 255
208 228 255
208 228 255
208 228 255
208 228 255
208 228 255
207 227 252
178 191 198
148 150 126
138 136 91
130 129 86
140 138 93
137 135 90
137 135 90
139 137 92
134 132 88
141 139 93
138 137 92
135 134 90
148 147 99
138 138 93
129 129 87
149 148 99
147 146 98
143 142 95
142 141 95
153 152 102
148 147 99
138 137 92
148 146 98
144 142 95
151 149 100
143 141 95
135 133 89
151 149 100
143 142 96
152 150 101
155 153 103
148 147 99
148 146 97
153 151 101
147 146 98
148 146 98
143 142 96
151 149 100
150 148 99
152 151 101
143 141 94
147 145 97
156 154 103
154 152 102
147 145 97
153 150 100
154 151 101
143 141 94
157 155 103
146 144 96
154 152 101
154 151 100
153 149 99
154 152 101
157 154 103
154 152 101
150 147 97
156 153 102
154 152 100
153 150 99
146 144 95
151 148 98
152 150 100
150 146 97
152 149 98
155 152 99
144 142 94
151 149 98
149 147 97
158 155 103
154 150 99
153 151 99
142 139 90
147 144 93
156 153 100
152 148 97
147 144 94
135 133 85
148 146 95
154 150 99
153 150 99
149 146 93
153 150 98
148 143 93
142 138 90
151 147 95
143 140 90
139 137 90
150 146 94
150 147 94
147 145 91
147 144 91
145 141 89
144 140 89
139 135 86
142 138 87
139 135 87
147 144 94
129 127 84
147 143 91
136 132 85
146 142 90
134 130 85
140 137 90
140 137 87
140 136 85
138 135 85
133 129 79
211 230 255
209 229 255
210 229 254
209 229 255
209 229 255
207 228 255
207 228 254
207 227 255
206 227 254
206 227 254
205 227 254
205 227 255
205 226 255
205 226 255
204 226 255
203 225 255
203 225 255
203 225 255
202 225 255
202 225 255
201 224 255
201 224 255
201 224 255
200 224 255
200 224 255
200 224 255
199 223 255
199 223 255
198 223 255
198 223 255
197 222 255
196 222 255
197 222 255
196 222 255
196 222 255
195 221 255
195 221 255
195 221 255
194 221 255
194 221 255
193 220 255
193 220 255
193 220 255
193 220 255
192 220 255
192 220 255
191 219 255
191 219 255
191 219 255
191 219 255
190 219 255
190 219 255
190 218 255
190 219 255
189 218 255
189 218 255
189 218 255
189 218 255
188 218 255
189 218 255
188 218 255
188 217 255
188 217 255
187 217 255
187 217 255
187 217 255
187 217 255
187 217 255
187 217 255
187 217 255
187 217 255
187 217 255
187 217 255
187 217 255
187 217 255
187 217 255
187 217 255
187 217 255
187 217 255
188 217 255
187 217 255
188 217 255
188 218 255
188 218 255
188 218 255
189 218 255
189 218 255
190 219 255
190 218 255
190 219 255
191 219 255
191 219 255
193 220 255
192 220 255
193 220 255
194 221 255
195 221 255
197 222 255
197 222 255
197 222 255
199 223 255
201 224 255
201 224 255
202 225 255
204 226 255
203 225 254
204 226 250
206 227 252
206 227 252
208 228 255
208 228 255
208 228 255
208 228 255
208 228 255
208 228 255
208 228 255
208 228 255
208 228 255
208 228 255
208 228 255
208 228 255
208 228 255
208 228 255
208 228 255
208 228 255
208 228 255
207 228 255
207 228 255
207 228 255
207 228 255
207 228 255
207 228 255
207 228 255
207 228 255
207 228 255
207 228 255
207 228 255
207 228 255
207 228 255
207 228 255
207 228 255
207 227 255
207 227 255
207 227 255
207 227 255
207 227 255
206 227 255
206 227 255
206 227 255
206 227 255
206 227 255
206 227 255
206 227 255
206 227 255
206 227 255
206 227 255
206 227 255
206 227 255
206 227 255
206 227 255
192 214 246
114 141 194
62 98 170
62 98 167
61 98 162
61 98 165
62 98 164
61 98 165
61 98 165
62 99 169
61 97 160
62 98 164
63 99 168
60 97 155
61 97 165
62 99 165
62 98 160
62 98 167
62 98 166
61 98 162
62 98 162
62 98 163
62 99 167
61 98 165
62 98 161
61 98 160
63 99 172
63 99 165
62 98 162
61 98 161
61 98 162
62 98 165
62 98 163
63 100 169
62 98 164
62 98 166
62 98 163
62 99 169
63 99 169
62 98 161
61 98 162
62 98 162
62 99 165
62 98 164
63 99 171
62 99 169
62 98 167
62 98 164
62 99 168
61 98 167
62 99 165
62 98 166
63 99 166
63 99 170
61 97 159
61 97 158
61 97 159
61 97 157
63 99 164
61 97 164
62 98 164
62 98 163
62 99 173
63 99 168
62 98 164
63 99 165
63 99 169
61 97 167
62 98 167
62 98 165
62 98 167
62 98 163
62 98 166
61 97 163
62 98 168
62 98 164
61 98 171
61 97 170
106 133 183
199 220 250
206 227 255
206 227 255
206 227 255
206 227 255
206 227 255
206 227 255
206 227 255
206 227 255
206 227 255
206 227 255
206 227 255
206 227 255
206 227 255
206 227 255
207 227 255
207 227 255
207 227 255
207 227 255
207 227 255
207 228 255
207 228 255
207 228 255
207 228 255
207 228 255
207 228 255
207 228 255
207 228 255
207 228 255
207 228 255
207 228 255
207 228 255
207 228 255
207 228 255
207 228 255
207 228 255
208 228 255
208 228 255
208 228 255
208 228 255
208 228 255
208 228 255
208 228 255
208 228 255
208 228 255
208 228 255
208 228 255
208 228 255
208 228 255
208 228 255
206 226 251
175 187 193
130 130 104
131 129 86
132 130 87
138 137 92
136 135 90
137 135 90
134 133 89
145 143 96
139 138 93
152 151 102
147 146 98
138 136 91
142 141 95
147 145 97
142 141 94
145 143 96
148 146 98
147 145 97
145 144 97
149 149 100
144 143 96
155 154 103
148 147 99
145 145 97
155 153 102
144 144 97
159 158 106
151 149 100
145 143 95
143 143 96
150 150 101
148 147 99
149 147 99
148 146 98
152 151 101
146 145 97
158 157 106
152 150 100
153 151 101
152 150 101
156 155 104
143 142 95
148 146 97
154 152 101
156 154 103
155 152 101
149 147 98
159 157 105
154 151 100
149 146 96
156 153 101
152 150 100
155 152 101
146 144 95
151 148 99
145 144 97
151 149 99
159 157 104
145 143 95
153 150 100
150 148 98
149 146 97
159 156 103
147 144 95
149 146 96
155 153 102
154 151 99
156 153 101
155 152 101
156 154 100
152 148 97
150 147 96
155 152 100
148 145 93
150 148 97
154 150 97
155 151 99
150 147 97
143 139 92
143 139 91
148 144 95
148 145 93
150 146 91
148 145 93
149 146 95
147 143 93
150 147 95
144 141 91
147 142 90
151 147 96
137 134 86
151 146 95
148 144 91
147 142 89
148 145 95
138 134 86
147 143 94
144 141 89
140 136 87
148 145 91
148 143 93
144 139 90
150 145 93
143 139 90
140 136 86
142 138 88
141 138 87
133 130 84
145 141 91
209 229 255
209 229 255
209 229 255
208 228 255
207 227 253
207 228 255
207 228 255
206 227 254
207 227 255
205 226 254
205 227 255
205 226 255
204 226 254
204 226 255
204 226 255
203 225 255
202 225 255
202 225 255
201 225 255
201 225 255
201 224 255
200 224 255
200 224 255
200 224 255
199 223 255
198 223 255
198 223 255
198 223 255
197 222 255
197 222 255
197 222 255
196 222 255
196 222 255
196 222 255
195 221 255
195 221 255
194 221 255
194 221 255
193 220 255
193 220 255
193 220 255
193 220 255
193 220 255
192 219 255
192 219 255
191 219 255
191 219 255
191 219 255
190 219 255
190 219 255
190 218 255
189 218 255
189 218 255
189 218 255
188 218 255
188 218 255
188 218 255
188 217 255
187 217 255
188 217 255
187 217 255
187 217 255
187 217 255
187 217 255
186 217 255
187 217 255
186 217 255
186 217 255
186 216 255
186 217 255
186 216 255
186 217 255
186 216 255
186 216 255
186 216 255
186 217 255
186 216 255
186 217 255
186 217 255
186 217 255
186 217 255
186 216 255
187 217 255
187 217 255
187 217 255
187 217 255
188 218 255
188 218 255
188 217 255
189 218 255
189 218 255
189 218 255
190 218 255
191 219 255
191 219 255
193 220 255
193 220 255
193 220 255
195 221 255
196 222 254
196 222 255
197 222 255
198 223 255
200 224 255
200 224 255
201 225 255
202 225 255
204 226 255
205 226 255
208 228 254
207 227 253
208 228 255
208 228 255
208 228 255
208 228 255
208 228 255
208 228 255
208 228 255
208 228 255
208 228 255
208 228 255
208 228 255
208 228 255
208 228 255
208 228 255
208 228 255
208 228 255
208 228 255
208 228 255
208 228 255
207 228 255
207 228 255
207 228 255
207 228 255
207 228 255
207 228 255
207 228 255
207 228 255
207 228 255
207 228 255
207 228 255
207 228 255
207 228 255
207 228 255
207 228 255
207 228 255
207 227 255
207 227 255
207 227 255
207 227 255
207 227 255
207 227 255
206 227 255
206 227 255
206 227 255
206 227 255
206 227 255
206 227 255
206 227 255
177 199 232
78 110 174
62 99 168
62 99 169
62 98 169
62 98 165
62 98 163
62 99 165
61 97 163
62 98 169
63 100 175
62 98 167
62 98 164
63 99 169
63 99 168
62 98 164
63 100 169
62 99 167
63 99 170
62 97 157
61 97 158
62 99 174
63 99 162
62 99 169
63 99 166
61 98 165
62 99 169
62 98 163
62 98 159
61 97 160
63 99 163
63 99 166
61 97 164
62 98 160
62 98 161
63 99 165
62 98 166
62 98 165
61 97 154
62 98 161
63 99 162
61 97 159
62 99 172
62 99 167
63 99 171
62 98 165
62 98 160
62 99 165
62 99 168
62 98 164
62 98 164
62 99 166
62 99 167
62 98 165
62 97 164
61 97 159
62 99 169
62 98 167
61 97 161
62 98 167
62 98 162
62 98 165
63 99 167
61 98 165
62 98 165
62 99 169
61 97 160
62 98 160
62 98 165
61 97 160
62 98 166
61 98 161
61 97 163
62 98 166
62 98 171
61 97 165
62 97 162
61 97 160
61 97 159
62 98 170
71 103 165
187 209 241
206 227 255
206 227 255
206 227 255
206 227 255
206 227 255
206 227 255
206 227 255
207 227 255
207 227 255
207 227 255
207 227 255
207 227 255
207 227 255
207 228 255
207 228 255
207 228 255
207 228 255
207 228 255
207 228 255
207 228 255
207 228 255
207 228 255
207 228 255
207 228 255
207 228 255
207 228 255
207 228 255
207 228 255
207 228 255
208 228 255
208 228 255
208 228 255
208 228 255
208 228 255
208 228 255
208 228 255
208 228 255
208 228 255
208 228 255
208 228 255
208 228 255
208 228 255
208 228 255
208 228 255
208 228 255
208 228 255
205 225 250
163 174 180
141 142 113
135 133 88
137 134 89
137 135 90
130 129 86
147 145 97
143 141 95
131 129 87
141 140 94
146 144 96
141 140 94
142 140 94
143 142 95
148 146 98
142 141 95
141 140 94
136 135 91
147 146 98
148 146 98
151 149 100
146 145 97
151 149 99
140 139 93
151 150 101
150 148 99
155 154 103
151 150 101
145 144 97
152 151 101
153 152 102
143 142 95
148 146 97
149 147 98
151 150 101
151 150 101
151 149 100
142 140 94
149 147 98
156 154 103
149 147 99
158 155 103
149 147 99
154 152 101
156 154 103
155 152 101
157 156 104
154 151 101
146 144 97
157 155 103
165 162 108
162 159 106
155 153 102
155 152 101
150 147 98
152 149 99
148 146 98
158 155 103
148 146 96
151 149 100
151 149 99
157 155 103
156 153 101
155 152 101
150 147 96
148 146 97
158 154 102
149 146 97
141 140 91
155 152 100
154 151 100
150 147 97
159 155 101
155 151 99
153 150 99
156 153 101
144 140 93
155 151 99
151 148 97
149 147 96
156 153 99
156 153 101
150 147 96
157 153 100
148 145 94
149 144 93
149 144 91
147 144 94
146 143 90
146 143 92
151 148 95
153 149 97
151 146 94
154 149 97
140 136 87
149 146 93
145 141 91
143 139 87
153 149 93
147 143 93
150 145 91
136 134 86
145 141 87
144 140 88
148 144 91
138 134 84
148 143 93
145 140 86
139 136 87
147 142 90
138 134 86
131 127 76
208 228 255
209 229 255
208 228 255
208 228 255
208 228 255
207 227 255
206 227 253
205 227 255
205 227 255
205 226 255
204 226 255
205 226 255
204 226 255
203 226 255
203 225 255
202 225 255
202 225 255
201 225 255
201 224 255
200 224 255
200 224 255
200 224 255
199 223 255
199 223 255
198 223 255
198 223 255
197 222 255
197 222 255
197 222 255
197 222 255
196 222 255
196 221 255
195 221 255
195 221 255
195 221 255
194 221 255
194 221 255
194 221 255
193 220 255
193 220 255
192 220 255
192 220 255
192 219 255
192 219 255
191 219 255
191 219 255
190 219 255
190 219 255
190 218 255
189 218 255
189 218 255
189 218 255
188 218 255
188 218 255
188 217 255
188 217 255
187 217 255
187 217 255
187 217 255
187 217 255
186 217 255
187 217 255
186 217 255
186 216 255
186 216 255
186 217 255
186 216 255
185 216 255
185 216 255
185 216 255
185 216 255
185 216 255
185 216 255
185 216 255
185 216 255
185 216 255
185 216 255
185 216 255
185 216 255
185 216 255
185 216 255
185 216 255
185 216 255
185 216 255
186 216 255
186 217 255
187 217 255
187 217 255
187 217 255
187 217 255
187 217 255
188 217 255
188 218 255
189 218 255
189 218 255
190 219 255
191 219 255
191 219 255
192 220 255
193 220 255
193 220 255
195 221 255
195 221 255
197 222 255
198 223 254
199 223 255
200 224 255
202 225 255
203 225 255
204 226 255
205 226 252
205 226 248
207 227 252
210 229 255
208 228 255
208 228 255
208 228 255
208 228 255
208 228 255
208 228 255
208 228 255
208 228 255
208 228 255
208 228 255
208 228 255
208 228 255
208 228 255
208 228 255
208 228 255
208 228 255
208 228 255
208 228 255
208 228 255
208 228 255
208 228 255
207 228 255
207 228 255
207 228 255
207 228 255
207 228 255
207 228 255
207 228 255
207 228 255
207 228 255
207 228 255
207 228 255
207 228 255
207 228 255
207 228 255
207 228 255
207 228 255
207 228 255
207 227 255
207 227 255
207 227 255
207 227 255
207 227 255
207 227 255
159 181 223
68 102 170
62 98 168
63 99 167
61 97 161
62 98 164
62 98 166
61 98 161
62 99 166
62 99 165
61 98 161
63 100 171
62 98 166
63 99 168
62 98 162
62 98 161
62 99 168
62 98 163
62 99 170
62 98 160
62 98 162
62 98 158
63 99 166
62 98 162
62 99 166
62 98 165
62 98 161
61 97 160
62 98 161
62 98 158
61 97 157
63 99 167
62 98 164
62 98 159
62 98 165
62 98 164
63 99 166
62 98 160
62 98 164
61 97 161
62 98 165
62 98 163
62 99 170
63 99 165
63 99 164
63 99 161
62 98 158
62 98 162
62 97 159
62 99 166
62 98 163
62 98 164
62 98 167
62 99 171
62 98 163
61 97 162
61 97 155
62 99 167
63 99 168
62 98 169
62 98 160
62 98 166
61 97 158
63 99 164
62 98 161
62 98 166
62 99 167
61 97 167
62 98 164
62 99 173
62 98 162
62 98 167
61 97 161
62 98 165
62 98 163
62 97 159
62 97 166
63 99 166
61 97 164
62 98 165
61 97 163
61 97 169
61 97 162
163 185 222
207 227 255
207 227 255
207 227 255
207 227 255
207 227 255
207 227 255
207 228 255
207 228 255
207 228 255
207 228 255
207 228 255
207 228 255
207 228 255
207 228 255
207 228 255
207 228 255
207 228 255
207 228 255
207 228 255
207 228 255
207 228 255
207 228 255
207 228 255
208 228 255
208 228 255
208 228 255
208 228 255
208 228 255
208 228 255
208 228 255
208 228 255
208 228 255
208 228 255
208 228 255
208 228 255
208 228 255
208 228 255
208 228 255
208 228 255
208 228 255
208 228 255
208 228 255
208 228 255
208 228 254
171 181 185
137 137 109
133 131 87
139 137 91
135 133 89
144 142 95
133 131 88
144 143 96
151 150 101
143 142 96
145 144 97
137 135 91
148 147 99
148 147 99
149 148 99
145 143 96
148 146 98
142 142 95
143 141 95
149 147 99
151 150 100
146 144 97
150 148 99
146 145 97
148 146 97
157 156 104
145 144 97
157 156 104
152 151 101
150 148 99
149 147 98
156 154 103
147 145 97
155 152 101
160 157 105
151 150 101
149 147 99
159 158 106
153 151 101
161 159 106
154 152 101
146 144 97
153 151 101
151 149 99
150 148 99
161 159 106
151 149 99
151 149 99
156 153 103
163 160 107
153 150 100
154 151 101
160 158 105
151 148 99
153 151 101
153 151 101
154 151 101
147 145 97
150 148 99
160 157 105
153 149 99
162 159 104
152 150 100
159 156 103
152 149 98
154 152 101
157 153 101
155 151 97
151 147 97
157 153 102
150 146 96
146 144 96
151 148 95
160 155 101
151 149 98
151 148 98
153 149 98
148 146 97
151 149 98
151 149 98
150 147 97
149 146 97
157 154 102
150 147 95
152 150 99
138 135 87
153 149 98
155 152 99
153 150 97
155 152 98
151 147 96
146 143 95
152 149 97
148 143 90
156 152 98
148 145 93
150 145 92
151 148 96
150 147 95
149 146 95
148 144 90
155 151 95
156 153 99
149 145 90
146 142 93
149 145 90
138 135 84
151 146 94
143 139 86
151 147 93
142 139 89
150 145 92
146 140 90
145 140 87
209 229 255
208 228 255
207 228 255
207 227 254
206 227 255
206 227 255
205 227 255
205 227 255
205 227 255
204 226 255
204 226 255
203 226 255
203 225 255
202 225 255
202 225 255
202 225 255
201 224 255
201 224 255
200 224 255
200 224 255
199 224 255
199 223 255
198 223 255
199 223 255
198 223 255
197 222 255
198 223 255
197 222 255
196 222 255
196 222 255
196 221 255
195 221 255
195 221 255
195 221 255
194 221 255
194 220 255
193 220 255
193 220 255
192 220 255
192 220 255
192 219 255
192 220 255
191 219 255
191 219 255
190 219 255
190 219 255
189 218 255
189 218 255
189 218 255
189 218 255
189 218 255
188 218 255
188 218 255
188 217 255
188 217 255
188 218 255
188 217 255
187 217 254
189 218 254
189 217 252
190 218 254
191 219 253
189 217 249
192 219 250
191 219 252
190 218 249
190 217 248
191 219 254
188 217 254
191 219 253
190 218 252
188 217 254
187 217 255
187 217 254
186 217 255
185 216 254
183 215 254
184 215 255
184 215 255
184 215 255
184 215 255
184 215 255
184 215 255
184 215 255
185 216 255
185 216 255
184 216 255
185 216 255
185 216 255
186 216 255
186 216 255
187 217 255
187 217 255
187 217 255
188 217 255
188 218 255
189 218 255
189 218 255
191 219 255
190 219 255
192 219 255
193 220 255
194 221 255
194 221 255
196 222 255
196 222 255
197 222 255
199 224 255
200 224 255
203 225 255
203 225 255
204 226 255
206 227 255
206 227 254
207 228 253
209 229 255
209 229 255
209 229 255
209 228 255
208 228 255
208 228 255
208 228 255
208 228 255
208 228 255
208 228 255
208 228 255
208 228 255
208 228 255
208 228 255
208 228 255
208 228 255
208 228 255
208 228 255
208 228 255
208 228 255
208 228 255
208 228 255
208 228 255
208 228 255
208 228 255
208 228 255
207 228 255
207 228 255
207 228 255
207 228 255
207 228 255
207 228 255
207 228 255
207 228 255
207 228 255
207 228 255
207 228 255
207 228 255
207 228 255
207 228 255
207 228 255
203 224 253
137 161 209
63 99 166
63 99 171
63 99 173
62 98 164
62 98 161
62 98 163
62 98 158
62 98 159
62 99 165
62 99 170
61 97 156
61 97 161
62 98 167
62 98 164
61 97 162
63 99 163
63 99 168
61 97 159
62 99 166
62 98 162
62 98 169
62 98 161
62 98 162
62 98 166
62 98 161
62 98 161
62 98 163
62 98 164
61 98 164
62 98 159
62 97 158
62 98 162
62 97 159
62 98 163
61 97 158
62 98 160
62 98 162
62 98 163
62 98 161
62 97 155
62 98 166
63 99 169
62 98 157
61 98 158
62 99 165
61 97 158
63 99 166
62 99 165
62 99 166
62 98 163
62 98 162
61 97 159
62 98 163
63 99 166
61 97 155
62 98 164
63 99 161
62 99 167
62 98 162
62 97 161
62 98 168
62 98 164
61 97 162
61 97 165
62 98 163
61 97 158
61 98 166
63 99 166
62 98 161
61 97 162
62 98 159
62 98 161
62 98 160
62 98 165
62 98 165
60 95 155
62 98 164
62 98 170
62 97 160
62 98 169
61 96 156
60 96 159
62 99 174
62 98 169
146 169 211
204 225 254
207 228 255
207 228 255
207 228 255
207 228 255
207 228 255
207 228 255
207 228 255
207 228 255
207 228 255
207 228 255
207 228 255
207 228 255
207 228 255
207 228 255
207 228 255
208 228 255
208 228 255
208 228 255
208 228 255
208 228 255
208 228 255
208 228 255
208 228 255
208 228 255
208 228 255
208 228 255
208 228 255
208 228 255
208 228 255
208 228 255
208 228 255
208 228 255
208 228 255
208 228 255
208 228 255
208 228 255
209 228 255
209 228 255
209 229 255
209 229 255
193 209 228
147 150 129
129 127 84
136 135 90
135 133 89
139 137 91
132 131 88
138 136 91
138 137 92
141 139 93
146 144 97
144 142 95
145 143 96
149 147 99
146 145 98
147 145 97
148 146 98
147 146 98
156 154 103
144 143 97
147 146 98
149 147 99
155 153 102
140 140 94
146 144 97
150 148 99
150 149 100
152 150 100
146 145 97
149 148 99
157 156 105
154 152 102
157 155 104
159 157 106
155 153 103
150 148 99
151 149 100
155 153 102
158 156 105
163 160 107
155 153 103
155 152 102
157 155 104
147 145 97
157 154 103
159 157 104
149 146 97
150 148 99
160 157 105
154 153 103
154 151 101
161 158 104
157 154 102
154 152 101
160 158 106
152 150 100
155 152 101
148 146 97
148 146 97
156 154 101
154 151 101
158 154 102
154 151 99
155 152 101
147 144 95
150 147 97
152 150 99
154 151 99
152 149 98
156 152 99
153 151 99
162 159 105
149 147 97
157 155 103
152 149 97
155 151 99
155 151 98
159 156 101
144 140 91
155 152 101
153 149 99
145 142 93
155 152 97
147 144 94
150 146 95
154 151 100
153 150 97
150 145 92
157 153 98
154 150 97
149 145 93
146 142 91
152 148 94
153 149 96
149 146 93
154 150 97
151 147 93
149 146 95
141 137 87
153 150 98
142 138 89
150 147 94
146 142 89
151 147 95
154 150 95
151 147 95
150 145 93
160 156 98
146 142 87
145 142 90
150 146 91
148 145 92
146 141 89
132 127 80
150 145 92
145 140 89
209 228 255
207 228 255
207 227 255
206 227 255
207 227 255
206 227 255
205 227 255
205 226 255
205 226 255
204 226 255
203 226 255
203 225 255
202 225 255
202 225 255
201 225 255
201 225 255
201 224 255
201 224 255
200 224 255
199 223 255
199 224 255
199 223 255
198 223 255
198 223 255
198 223 255
197 222 255
197 222 255
196 222 255
196 222 255
195 221 255
195 221 255
195 221 255
194 221 255
194 221 255
194 221 255
193 220 255
193 220 255
192 220 255
192 220 255
192 220 255
192 219 255
191 219 255
191 219 255
190 219 255
190 219 255
190 218 255
190 218 255
188 217 254
190 219 255
192 220 255
192 219 252
192 219 253
194 220 253
193 220 250
196 221 252
196 221 252
194 220 245
195 221 252
196 221 250
195 220 245
196 220 246
195 220 246
197 222 249
196 221 252
195 221 249
196 221 248
193 220 249
195 221 252
194 220 246
194 221 254
197 222 250
194 220 249
194 220 246
195 220 248
195 220 250
195 221 252
195 220 248
195 221 250
192 219 250
191 218 249
190 218 252
188 218 254
185 216 253
184 215 253
184 215 255
184 215 255
184 215 255
184 215 255
184 216 255
185 216 255
185 216 255
185 216 255
186 216 255
186 216 255
186 217 255
187 217 255
188 217 255
188 217 255
188 218 255
190 218 255
189 218 255
190 219 255
192 219 255
192 220 255
193 220 255
194 221 255
195 221 255
198 223 255
198 223 255
199 223 255
201 224 255
202 225 255
204 226 255
204 226 253
207 228 255
207 228 255
208 228 254
209 229 255
209 229 255
209 229 255
209 229 255
209 229 255
209 229 255
209 228 255
208 228 255
208 228 255
208 228 255
208 228 255
208 228 255
208 228 255
208 228 255
208 228 255
208 228 255
208 228 255
208 228 255
208 228 255
208 228 255
208 228 255
208 228 255
208 228 255
208 228 255
208 228 255
208 228 255
208 228 255
208 228 255
208 228 255
207 228 255
207 228 255
207 228 255
207 228 255
207 228 255
207 228 255
207 228 255
207 228 255
207 228 255
204 225 253
145 168 211
62 98 164
62 99 164
62 99 170
62 98 168
61 98 165
62 98 162
62 98 165
62 98 170
62 98 165
62 98 164
61 97 162
63 99 166
62 98 161
61 97 158
62 98 163
63 99 165
63 99 167
62 98 165
62 98 166
61 98 162
62 99 164
62 98 160
62 99 167
62 98 158
62 98 160
61 98 162
63 99 164
62 99 167
61 98 160
62 98 159
62 98 158
62 98 163
61 97 157
63 99 163
62 98 164
62 98 169
61 97 158
61 97 154
63 99 174
62 97 153
62 98 162
62 98 163
62 98 160
62 98 163
62 98 162
61 98 164
62 98 163
62 99 164
61 98 164
62 98 161
62 98 161
63 99 163
62 98 160
61 97 163
62 97 160
61 97 159
63 99 166
63 99 164
62 98 161
62 98 157
62 98 160
63 98 159
63 99 167
63 99 170
61 98 167
62 98 162
62 97 159
62 97 159
62 97 161
62 98 162
62 98 160
61 97 161
62 97 168
62 98 167
61 97 159
62 98 164
63 99 161
62 98 167
61 97 160
62 98 163
62 98 164
61 97 161
61 96 165
61 97 162
61 96 165
62 98 166
121 145 195
204 225 254
207 228 255
207 228 255
207 228 255
207 228 255
207 228 255
207 228 255
207 228 255
207 228 255
207 228 255
208 228 255
208 228 255
208 228 255
208 228 255
208 228 255
208 228 255
208 228 255
208 228 255
208 228 255
208 228 255
208 228 255
208 228 255
208 228 255
208 228 255
208 228 255
208 228 255
208 228 255
208 228 255
208 228 255
208 228 255
208 228 255
208 228 255
209 228 255
209 229 255
209 229 255
209 229 255
209 229 255
209 229 255
200 218 240
160 166 156
138 135 89
137 135 90
135 133 89
134 131 87
135 132 88
139 137 91
145 142 95
140 140 94
149 147 99
140 139 93
151 149 100
143 142 95
140 139 93
143 141 95
145 144 97
147 146 98
148 147 98
155 153 103
149 149 100
145 144 96
145 144 97
155 153 102
146 146 99
149 147 98
150 149 100
151 149 100
145 143 96
147 146 97
159 157 105
154 152 102
153 151 101
152 150 100
154 151 101
160 157 105
146 145 97
153 151 101
150 149 100
148 146 98
153 151 101
158 156 104
154 152 102
157 155 103
151 149 99
155 153 101
159 157 104
162 159 106
158 156 104
154 152 101
154 151 101
158 156 104
155 152 101
160 157 104
154 152 100
155 152 101
160 158 104
154 151 100
154 151 101
154 151 99
156 154 103
149 146 97
155 153 101
162 160 106
162 159 106
155 152 101
155 152 100
154 150 99
148 147 96
159 156 102
159 155 102
160 155 101
159 155 101
155 152 99
144 142 95
151 148 96
155 152 99
154 151 99
148 145 95
155 152 99
147 143 91
162 158 104
156 154 99
153 149 96
156 151 99
138 135 86
152 150 98
157 153 97
160 155 99
154 150 97
146 143 93
164 160 105
153 149 97
154 150 97
153 150 96
158 154 98
146 142 88
141 138 89
151 148 96
154 150 97
147 145 95
143 139 87
151 147 92
151 147 93
152 148 94
152 148 97
143 139 90
147 144 93
149 146 90
143 139 90
147 143 89
146 143 89
142 138 87
147 144 94
145 141 90
134 130 83
146 142 92
141 137 89
207 228 255
206 227 255
206 227 255
206 227 255
205 227 255
205 227 255
204 226 255
204 226 255
204 226 255
203 226 255
203 225 255
202 225 255
202 225 255
202 225 255
201 225 255
201 224 255
200 224 255
200 224 255
200 224 255
199 224 255
199 223 255
199 223 255
198 223 255
197 222 255
197 222 255
197 222 255
197 222 255
196 222 255
196 222 255
195 221 255
195 221 255
194 221 255
194 221 255
193 220 255
194 220 255
193 220 255
193 220 255
192 220 255
192 220 255
191 219 255
191 219 255
191 219 255
190 219 255
191 219 255
193 219 250
193 220 252
195 221 252
195 221 250
197 222 249
197 221 245
195 221 246
196 221 250
196 221 248
199 223 252
197 222 246
198 222 252
197 222 250
198 222 253
196 221 245
195 220 242
195 220 246
198 223 255
196 220 242
196 221 250
196 220 241
196 221 249
196 221 248
199 223 250
196 221 244
194 220 246
195 220 242
194 220 252
197 222 252
194 220 248
195 221 248
195 221 246
193 219 242
193 220 248
194 220 248
193 220 248
196 222 252
193 219 245
194 220 248
191 218 245
193 219 248
192 219 253
189 218 254
186 216 249
186 216 255
184 215 255
184 215 255
184 216 255
184 216 255
184 216 255
185 216 255
186 216 255
186 217 255
187 217 255
187 217 255
188 217 255
188 218 255
189 218 255
190 218 255
190 219 255
192 219 255
192 219 255
194 221 255
195 221 255
196 221 254
197 222 255
198 223 255
198 223 255
201 224 255
202 225 255
204 226 255
205 226 254
207 227 252
207 228 253
209 229 255
209 229 255
209 229 255
209 229 255
209 229 255
209 229 255
209 229 255
209 229 255
209 229 255
209 229 255
209 228 255
209 228 255
208 228 255
208 228 255
208 228 255
208 228 255
208 228 255
208 228 255
208 228 255
208 228 255
208 228 255
208 228 255
208 228 255
208 228 255
208 228 255
208 228 255
208 228 255
208 228 255
208 228 255
208 228 255
208 228 255
208 228 255
208 228 255
208 228 255
208 228 255
207 228 255
203 223 252
106 133 185
63 99 167
63 99 167
61 97 160
62 98 164
62 98 158
62 99 167
62 98 162
62 98 163
62 99 165
62 98 164
62 98 163
61 98 166
62 98 164
62 99 167
62 98 165
62 98 163
63 99 172
62 98 157
62 98 162
62 98 161
62 98 165
62 98 163
62 98 160
61 97 154
62 98 155
61 97 154
61 97 154
63 99 163
63 99 166
62 97 156
61 97 156
61 97 157
63 99 166
62 98 162
61 97 154
62 98 160
61 97 155
62 98 164
62 98 161
62 98 161
63 99 162
62 98 161
61 97 164
62 97 159
62 98 164
62 98 162
62 98 163
61 97 157
61 97 158
61 97 154
62 98 164
62 98 161
62 98 164
62 97 156
61 97 154
62 98 160
62 98 162
62 98 161
62 98 160
61 97 158
63 99 164
61 97 160
61 96 152
63 99 167
62 99 167
61 97 156
62 98 159
62 98 161
61 97 161
60 96 148
61 97 159
61 98 165
62 98 159
63 98 161
62 98 164
62 98 166
61 98 165
61 97 160
61 97 160
62 98 160
62 98 169
61 97 161
61 97 160
61 98 172
62 98 163
62 97 166
62 97 166
62 97 165
113 138 189
203 223 252
207 228 255
208 228 255
208 228 255
208 228 255
208 228 255
208 228 255
208 228 255
208 228 255
208 228 255
208 228 255
208 228 255
208 228 255
208 228 255
208 228 255
208 228 255
208 228 255
208 228 255
208 228 255
208 228 255
208 228 255
208 228 255
208 228 255
208 228 255
208 228 255
208 228 255
209 228 255
209 229 255
209 229 255
209 229 255
209 229 255
209 229 255
209 229 255
209 229 255
209 229 255
207 226 251
179 191 199
130 130 98
130 128 85
134 131 87
143 141 94
139 138 93
143 141 94
142 140 94
146 144 96
146 144 97
150 148 99
144 142 95
143 141 95
142 140 94
150 149 100
137 136 92
151 150 100
149 148 100
150 148 100
144 143 97
149 148 100
151 149 100
155 153 103
150 149 100
157 155 104
153 151 102
159 157 105
148 146 98
155 154 104
151 149 99
153 152 102
152 150 101
153 151 101
158 156 104
156 154 103
150 148 99
150 147 98
161 159 107
154 152 102
154 153 103
156 153 102
160 158 106
156 154 103
164 161 107
156 152 101
161 159 106
161 158 105
160 158 104
156 154 103
149 147 98
155 153 102
151 149 100
156 154 103
161 158 105
155 153 102
163 159 105
160 157 104
154 151 101
149 148 99
156 153 101
162 158 104
159 155 103
157 154 101
165 161 105
157 154 101
156 153 99
153 150 99
163 160 106
157 155 103
158 154 101
154 151 101
152 149 98
161 158 104
164 159 103
152 149 97
152 149 99
161 158 103
156 153 101
154 151 99
157 153 99
157 154 101
162 158 101
141 138 90
160 156 101
154 150 97
155 150 97
152 148 95
156 152 98
160 156 103
156 153 100
152 148 96
153 149 97
149 145 93
157 153 99
150 145 90
147 144 92
152 147 95
148 143 91
146 142 92
162 156 99
158 154 99
157 153 96
156 151 95
147 143 90
144 141 89
148 145 90
151 147 94
155 150 95
151 146 93
144 141 92
140 138 87
142 137 84
143 138 87
144 141 88
146 142 90
140 135 80
142 138 87
152 148 93
139 135 84
207 228 255
206 227 255
206 227 255
205 227 255
205 226 255
205 227 255
204 226 255
204 226 255
203 226 255
203 225 255
202 225 255
202 225 255
202 225 255
201 225 255
201 224 255
200 224 255
200 224 255
199 224 255
199 223 255
199 223 255
199 223 255
198 223 255
198 223 255
197 222 255
197 222 255
197 222 255
196 222 255
196 222 255
195 221 255
195 221 255
194 221 255
194 221 255
194 221 255
194 220 255
193 220 255
193 220 255
192 220 255
192 220 255
192 219 255
192 220 254
194 221 254
197 222 253
197 221 249
199 223 253
197 221 246
198 222 245
197 222 245
197 222 250
196 220 245
198 222 250
199 223 249
198 222 249
198 222 246
198 222 245
197 221 245
196 221 249
195 220 242
197 222 246
196 221 245
198 222 246
197 221 246
196 220 241
196 221 244
195 221 245
197 221 245
195 220 244
197 221 246
197 221 246
198 222 249
196 221 250
195 220 241
197 222 250
195 220 245
198 222 250
196 221 246
197 222 250
196 221 242
196 221 246
195 220 246
195 220 246
196 221 249
195 221 250
195 220 246
194 220 245
195 220 248
194 220 246
193 219 242
193 219 246
193 219 242
192 219 248
190 218 252
188 217 252
185 216 254
184 215 255
184 216 255
185 216 255
185 216 255
186 216 255
186 216 255
186 216 255
187 217 255
187 217 255
188 218 255
188 218 255
190 218 255
191 219 255
191 219 255
192 220 255
193 220 255
194 221 255
195 221 255
197 222 255
197 222 255
200 224 255
201 224 255
203 225 255
204 226 255
206 226 249
207 227 253
209 228 253
210 229 255
209 229 255
209 229 255
209 229 255
209 229 255
209 229 255
209 229 255
209 229 255
209 229 255
209 229 255
209 229 255
209 229 255
209 229 255
209 229 255
209 228 255
208 228 255
208 228 255
208 228 255
208 228 255
208 228 255
208 228 255
208 228 255
208 228 255
208 228 255
208 228 255
208 228 255
208 228 255
208 228 255
208 228 255
208 228 255
208 228 255
208 228 255
208 228 255
204 224 252
110 136 190
62 98 166
61 97 159
62 98 167
62 98 162
62 98 161
62 98 160
62 98 163
62 98 165
62 98 163
62 98 168
61 98 162
61 97 162
61 98 159
63 99 165
63 99 161
61 98 161
62 99 166
62 98 165
62 98 163
63 99 172
60 96 155
62 98 158
61 98 163
62 98 155
62 98 158
61 98 166
61 97 158
63 99 170
62 98 161
62 98 162
62 98 164
62 98 163
62 97 156
63 99 165
62 99 166
62 99 165
62 98 164
61 97 158
62 98 161
62 98 156
62 98 159
62 98 165
62 99 166
63 99 169
61 96 156
62 98 162
61 97 152
62 99 165
62 98 163
62 97 159
62 99 164
62 98 160
61 97 151
62 97 161
61 97 154
62 98 162
61 97 158
62 98 159
62 98 160
63 99 163
61 97 160
62 97 161
62 98 166
62 98 162
62 98 159
61 97 162
62 99 168
61 97 160
62 98 165
61 97 157
63 99 167
62 98 162
62 98 163
62 98 162
61 97 161
60 96 154
62 98 160
63 99 167
61 97 162
63 99 166
62 98 164
61 96 153
62 98 164
61 97 164
62 97 161
61 96 159
61 96 156
61 97 167
61 97 163
60 95 157
111 137 183
203 223 252
208 228 255
208 228 255
208 228 255
208 228 255
208 228 255
208 228 255
208 228 255
208 228 255
208 228 255
208 228 255
208 228 255
208 228 255
208 228 255
208 228 255
208 228 255
208 228 255
208 228 255
208 228 255
209 228 255
209 228 255
209 229 255
209 229 255
209 229 255
209 229 255
209 229 255
209 229 255
209 229 255
209 229 255
209 229 255
209 229 255
209 229 255
209 229 255
184 198 213
154 158 142
133 131 87
137 135 89
137 134 89
141 140 94
132 130 87
136 133 89
151 148 99
136 134 90
138 137 92
146 144 97
140 139 94
150 148 100
143 141 95
142 140 93
147 145 97
146 145 98
152 151 101
142 141 94
156 155 104
153 152 102
151 150 101
156 155 105
144 142 96
150 148 100
151 149 100
145 143 96
136 136 91
154 152 102
154 152 102
150 148 99
156 155 104
152 149 99
157 155 104
152 150 100
154 152 102
154 151 101
144 142 95
164 162 108
152 150 100
162 160 107
160 157 104
158 155 103
162 158 105
158 155 104
161 158 105
156 154 103
162 158 104
153 151 100
157 154 102
167 164 109
158 156 103
155 152 101
159 157 105
156 153 101
163 160 105
157 153 101
158 155 103
157 155 103
163 160 104
155 152 101
163 159 105
160 157 103
157 153 101
152 149 99
162 158 104
159 156 103
156 153 100
160 156 103
163 159 104
164 160 104
159 156 103
163 159 103
165 161 105
157 153 99
155 151 98
152 149 99
147 143 94
165 160 103
154 151 97
157 154 99
161 157 103
158 154 100
158 154 100
156 152 98
158 154 99
152 148 93
156 152 97
156 153 101
156 153 101
152 149 97
159 155 99
161 157 103
153 149 95
156 152 99
147 143 93
151 147 95
156 152 97
142 139 90
151 148 95
150 146 91
143 140 90
156 152 94
153 149 96
149 145 93
153 149 97
142 138 85
154 150 94
148 145 93
146 143 89
149 145 95
150 146 97
147 143 92
155 150 95
142 138 85
138 135 84
139 135 84
149 144 87
146 141 86
148 144 88
206 227 255
206 227 255
206 227 255
205 227 255
204 226 255
204 226 255
204 226 255
204 226 255
203 226 255
203 225 255
202 225 255
202 225 255
202 225 255
201 224 255
200 224 255
200 224 255
200 224 255
199 223 255
199 223 255
198 223 255
198 223 255
198 223 255
198 223 255
197 222 255
197 222 255
196 222 255
196 222 255
196 221 255
195 221 255
195 221 255
194 221 255
194 221 255
194 220 255
193 220 255
193 220 255
193 220 255
194 220 252
196 221 252
196 220 245
200 223 252
198 222 248
199 223 250
199 223 249
199 223 252
198 222 248
199 222 244
200 223 252
198 222 248
200 223 248
200 224 254
197 221 244
197 221 246
197 221 244
198 222 241
198 221 242
199 222 245
199 222 245
198 222 244
199 223 248
199 223 249
200 223 250
196 221 248
200 223 248
199 223 250
200 224 253
197 221 244
198 222 249
199 223 246
198 222 250
197 222 249
197 221 245
198 222 250
196 221 244
199 222 248
197 222 249
196 221 246
198 223 253
198 222 249
196 221 248
196 221 248
195 221 248
196 221 252
195 220 246
195 221 249
196 221 249
194 220 248
193 220 246
195 221 252
195 221 249
194 219 241
194 220 248
192 219 246
194 220 253
190 218 250
189 218 252
185 215 250
184 215 254
184 216 255
185 216 255
185 216 255
186 216 255
186 217 255
187 217 255
188 218 255
188 218 255
189 218 255
190 219 255
191 219 255
191 219 255
192 220 255
194 221 255
194 221 255
196 222 255
197 222 255
199 223 254
201 224 255
203 225 255
203 226 254
206 227 255
206 227 255
208 228 253
209 229 255
209 229 255
209 229 255
209 229 255
209 229 255
209 229 255
209 229 255
209 229 255
209 229 255
209 229 255
209 229 255
209 229 255
209 229 255
209 229 255
209 229 255
209 229 255
209 229 255
209 229 255
209 228 255
209 228 255
208 228 255
208 228 255
208 228 255
208 228 255
208 228 255
208 228 255
208 228 255
208 228 255
208 228 255
208 228 255
208 228 255
203 224 252
112 137 182
62 99 170
62 98 165
61 97 157
63 99 167
63 99 170
62 98 162
62 98 164
61 97 161
61 97 153
63 99 172
62 99 167
61 97 156
61 97 158
63 99 169
62 98 161
63 99 159
62 98 160
61 98 163
62 98 160
62 98 162
63 99 164
62 98 163
62 98 162
62 99 168
62 98 163
62 98 163
61 98 159
62 98 162
61 97 156
62 98 163
62 99 168
62 98 157
62 98 162
62 99 165
63 99 165
62 98 162
62 98 164
62 97 157
61 97 157
62 98 159
62 99 167
62 98 159
62 98 163
61 97 162
62 98 158
62 98 159
62 98 160
62 99 164
61 98 163
62 98 158
62 98 163
62 98 160
63 99 162
62 98 161
61 98 162
63 99 162
61 97 154
62 98 159
61 98 160
63 98 161
61 98 161
62 97 155
62 97 159
62 98 162
61 97 157
62 98 161
61 97 153
61 97 155
62 98 158
62 98 163
62 98 165
62 97 158
61 97 155
61 97 160
61 97 159
62 98 164
62 97 158
62 98 163
62 97 158
62 98 165
61 97 156
61 97 161
62 98 168
60 96 160
62 97 157
62 97 163
62 97 162
62 98 166
61 97 158
61 97 166
61 97 162
61 97 163
98 125 179
200 221 248
208 228 255
208 228 255
208 228 255
208 228 255
208 228 255
208 228 255
208 228 255
208 228 255
208 228 255
208 228 255
208 228 255
209 228 255
209 228 255
209 229 255
209 229 255
209 229 255
209 229 255
209 229 255
209 229 255
209 229 255
209 229 255
209 229 255
209 229 255
209 229 255
209 229 255
209 229 255
209 229 255
209 229 255
209 229 255
208 227 253
168 178 184
133 132 94
127 125 83
145 143 94
143 141 94
136 134 89
139 136 91
139 137 91
137 136 91
146 145 96
140 140 95
138 136 91
148 147 99
151 148 99
140 140 94
140 139 94
141 140 94
147 146 98
142 142 95
147 146 98
148 147 98
153 151 102
156 154 103
151 150 101
157 155 103
148 147 99
145 144 97
151 150 101
151 149 100
159 157 105
153 152 103
149 147 98
159 156 104
155 153 102
153 152 102
157 155 104
156 154 103
150 147 98
162 159 106
157 155 104
158 156 104
160 157 105
150 147 98
160 158 105
160 158 106
162 160 107
156 154 103
162 160 106
153 150 100
161 158 106
162 158 105
160 157 105
161 158 105
157 154 101
153 151 100
161 157 104
160 157 105
158 156 104
160 157 104
164 160 105
157 154 102
159 156 103
153 150 99
155 152 100
160 157 104
161 158 104
161 158 104
159 155 102
163 158 102
156 152 100
163 159 104
151 148 99
159 156 103
162 158 104
163 158 102
148 145 95
164 159 104
159 155 101
162 159 103
148 145 94
158 154 101
156 152 99
153 150 96
155 153 100
156 153 99
155 152 99
148 144 93
165 160 104
162 158 103
162 157 101
156 152 97
155 152 97
152 149 95
157 154 98
154 150 97
153 149 95
158 153 99
160 156 101
153 148 93
158 153 98
165 160 103
159 155 99
154 151 97
153 148 95
154 151 95
155 151 96
152 149 97
158 153 100
153 149 97
158 153 97
154 148 93
143 139 87
147 143 90
146 142 87
148 144 91
152 147 93
145 141 88
145 141 90
146 141 88
138 134 84
150 145 90
149 146 91
206 227 255
206 227 255
205 227 255
205 226 255
205 227 255
204 226 255
204 226 255
203 226 255
203 226 255
202 225 255
202 225 255
202 225 255
201 225 255
201 224 255
201 224 255
200 224 255
200 224 255
200 224 255
199 223 255
199 223 255
198 223 255
198 223 255
198 223 255
197 222 255
197 222 255
196 222 255
196 222 255
195 221 255
195 221 255
195 221 255
194 221 255
194 221 255
194 221 255
195 221 252
197 222 252
198 222 248
200 223 245
200 223 252
199 222 248
201 224 250
201 224 249
199 223 246
198 221 242
199 223 248
198 222 245
200 223 249
199 223 252
201 224 253
200 223 252
200 224 252
200 223 250
200 223 248
199 223 252
200 224 252
199 222 245
201 224 249
199 222 246
198 222 249
198 221 241
197 221 240
197 221 240
197 221 245
195 220 236
194 219 236
194 219 233
194 219 237
196 220 241
195 219 233
193 218 233
194 219 231
196 220 242
196 220 237
194 219 240
195 220 238
195 220 241
195 220 240
193 218 234
197 221 245
195 220 244
195 220 237
196 221 246
195 220 244
196 220 242
197 221 248
198 222 252
198 222 249
196 221 248
196 221 249
197 222 250
197 221 248
194 220 245
194 220 245
196 222 253
193 219 245
192 219 246
194 220 250
193 220 249
193 220 249
188 217 252
185 216 254
185 216 255
185 216 255
186 216 255
187 217 255
187 217 255
187 217 255
189 218 255
189 218 255
190 219 255
192 219 255
192 219 255
193 220 255
194 221 255
195 221 255
197 222 255
198 223 254
200 224 254
201 225 255
204 226 255
205 227 255
207 227 253
206 227 252
208 228 253
209 229 255
209 229 255
209 229 255
209 229 255
209 229 255
209 229 255
209 229 255
209 229 255
209 229 255
209 229 255
209 229 255
209 229 255
209 229 255
209 229 255
209 229 255
209 229 255
209 229 255
209 229 255
209 229 255
209 229 255
209 229 255
209 229 255
209 228 255
209 228 255
208 228 255
208 228 255
208 228 255
208 228 255
207 227 255
119 144 197
62 98 166
62 98 167
63 99 165
62 98 164
61 97 161
62 98 160
62 99 164
63 99 164
61 97 159
62 98 163
62 98 161
63 98 158
62 97 152
62 98 158
62 98 161
62 98 162
63 99 161
61 97 148
63 99 164
62 99 168
62 98 159
63 99 165
61 97 158
61 97 156
62 98 155
62 98 166
62 98 161
61 97 152
61 97 155
63 99 165
62 97 156
62 97 158
62 98 162
63 99 161
62 98 163
62 98 159
61 97 161
62 98 159
63 99 164
62 98 162
62 98 162
62 98 158
63 99 161
62 98 159
61 97 160
61 97 158
61 97 152
63 99 167
62 98 160
61 97 157
63 99 165
61 97 156
63 98 162
61 97 151
62 98 157
61 97 152
62 98 164
62 98 158
62 98 161
62 97 162
60 96 151
61 96 160
63 99 165
60 96 149
61 97 149
61 97 160
62 98 160
61 97 155
61 96 149
62 98 162
62 98 163
63 99 170
61 97 161
62 98 163
60 96 161
61 97 158
61 97 161
62 97 163
61 97 164
61 97 158
62 98 161
62 98 163
62 97 156
61 96 154
62 98 166
63 99 164
61 96 160
62 97 157
62 97 160
61 97 159
61 97 162
61 96 164
62 98 169
62 97 165
117 141 188
203 223 251
208 228 255
208 228 255
208 228 255
208 228 255
209 228 255
209 229 255
209 229 255
209 229 255
209 229 255
209 229 255
209 229 255
209 229 255
209 229 255
209 229 255
209 229 255
209 229 255
209 229 255
209 229 255
209 229 255
209 229 255
209 229 255
209 229 255
209 229 255
209 229 255
209 229 255
209 229 255
209 229 255
194 211 230
147 148 119
132 129 86
140 137 91
134 131 88
146 144 95
136 134 90
140 138 92
141 139 93
143 142 95
143 142 95
147 146 98
140 138 93
145 143 96
147 145 97
150 148 99
142 141 95
152 151 101
140 139 93
151 149 100
149 148 100
152 150 101
150 148 99
154 153 104
149 148 100
146 144 97
146 144 97
159 158 106
152 150 101
154 154 103
149 147 99
158 156 104
149 147 99
154 152 102
156 155 104
158 156 104
148 146 98
156 154 103
154 152 101
156 154 103
157 155 103
155 153 102
159 157 105
159 157 105
160 157 104
162 158 105
163 159 105
158 156 104
161 158 105
161 158 105
164 161 106
157 154 103
161 158 104
164 160 105
158 156 103
164 162 108
157 155 103
164 161 106
160 157 104
166 163 108
153 150 100
168 165 108
161 158 104
165 161 106
162 158 104
161 157 102
159 155 101
160 157 104
164 160 102
160 156 102
163 159 103
164 161 105
166 162 106
150 148 99
155 152 101
160 156 101
164 159 103
160 156 102
158 154 98
156 153 100
153 150 98
154 151 99
157 152 97
159 155 101
155 151 97
156 152 97
156 152 97
163 159 103
157 155 99
151 145 93
158 154 98
160 156 100
156 152 99
149 145 94
156 151 95
159 155 103
159 154 98
155 150 93
153 149 96
157 153 100
154 150 97
152 148 96
151 146 93
150 145 90
158 154 99
153 148 95
158 153 96
158 153 96
154 150 95
155 151 98
152 148 95
151 146 93
150 146 94
149 145 93
151 147 93
147 142 91
162 158 102
151 147 93
145 140 87
146 141 86
146 141 87
150 145 90
140 136 84
151 147 93
206 227 255
205 227 255
205 227 255
205 226 255
204 226 255
204 226 255
203 226 255
203 225 255
202 225 255
202 225 255
202 225 255
202 225 255
201 224 255
201 224 255
200 224 255
200 224 255
200 224 255
199 223 255
199 223 255
198 223 255
198 223 255
197 222 255
197 222 255
197 222 255
196 222 255
196 222 255
196 222 255
195 221 255
195 221 255
195 221 255
196 222 253
198 222 249
201 224 250
201 224 249
201 224 249
199 222 248
200 223 249
201 224 250
200 223 245
201 224 252
201 224 249
201 224 246
200 223 252
199 222 244
199 222 245
200 223 246
201 224 250
201 224 249
198 221 244
201 224 249
202 224 252
199 222 245
199 222 241
199 222 244
197 220 237
197 221 238
196 220 237
195 219 231
195 219 234
196 220 236
197 220 237
197 221 240
196 220 240
195 220 240
195 219 227
196 219 236
195 219 231
196 220 242
197 221 244
195 220 240
196 220 240
196 221 246
195 219 231
196 220 240
196 221 245
195 220 238
196 220 238
197 221 248
195 219 236
195 220 238
196 221 246
195 220 241
195 220 241
193 218 234
194 219 240
195 220 240
196 221 244
194 220 244
198 222 248
198 222 248
197 222 249
196 221 248
196 221 248
197 222 252
196 221 250
193 219 242
194 220 248
195 221 249
197 222 249
194 221 253
191 219 252
188 217 254
185 216 255
185 216 255
186 217 255
187 217 255
187 217 255
188 218 255
189 218 255
189 218 255
191 219 255
192 219 255
193 220 255
195 221 255
196 222 255
196 222 255
198 223 255
199 223 255
201 224 255
203 226 255
204 226 255
207 228 255
207 228 253
208 228 253
210 229 255
210 229 255
210 229 255
210 229 255
210 229 255
210 229 255
209 229 255
209 229 255
209 229 255
209 229 255
209 229 255
209 229 255
209 229 255
209 229 255
209 229 255
209 229 255
209 229 255
209 229 255
209 229 255
209 229 255
209 229 255
209 229 255
209 229 255
209 229 255
209 229 255
209 229 255
209 229 255
117 143 194
62 98 163
61 98 164
62 98 162
62 98 163
61 98 160
63 99 165
62 98 161
62 98 164
62 98 161
63 99 165
62 97 158
61 97 158
62 98 165
63 99 168
62 98 158
61 97 157
62 98 163
62 98 165
62 98 159
63 98 158
62 99 167
61 97 158
62 97 157
63 99 166
62 98 163
62 98 158
63 99 162
62 98 155
62 98 156
61 96 151
61 97 155
60 96 151
62 98 159
61 97 157
61 97 157
61 97 155
62 98 158
62 98 159
62 97 154
62 98 158
62 98 158
63 99 163
61 97 154
62 98 163
62 98 162
62 98 160
62 98 158
61 97 156
62 98 158
62 98 161
63 99 163
62 98 158
61 97 153
63 99 164
61 97 154
62 98 162
62 97 157
62 98 162
62 98 158
61 97 157
62 98 157
63 98 160
62 98 159
62 98 160
61 97 156
61 98 158
61 97 160
61 97 150
61 97 152
62 98 165
62 98 159
61 97 160
62 98 160
62 98 158
62 98 162
61 97 156
61 96 149
61 96 159
63 98 165
62 98 165
61 97 152
61 97 158
61 96 160
61 97 161
61 97 152
61 97 161
62 98 159
61 96 154
62 97 158
61 97 157
61 96 152
62 98 167
61 97 167
61 96 165
60 95 159
61 96 158
129 153 199
207 227 254
209 229 255
209 229 255
209 229 255
209 229 255
209 229 255
209 229 255
209 229 255
209 229 255
209 229 255
209 229 255
209 229 255
209 229 255
209 229 255
209 229 255
209 229 255
209 229 255
209 229 255
209 229 255
209 229 255
209 229 255
210 229 255
210 229 255
210 229 255
210 229 255
210 229 255
187 202 217
130 129 89
138 135 90
132 129 85
133 131 88
144 140 92
136 134 90
143 142 95
146 143 96
140 139 93
150 149 100
142 142 96
139 138 94
143 142 96
146 145 97
152 151 101
150 148 99
146 145 98
148 146 98
150 149 100
149 148 99
148 147 99
156 154 103
150 150 101
149 148 99
158 155 104
152 150 101
155 153 103
147 146 99
155 153 103
155 153 103
163 160 107
156 154 103
159 158 106
158 155 104
159 156 104
155 153 102
157 154 102
153 151 101
156 154 103
154 152 101
160 158 106
156 153 102
154 151 100
165 161 106
158 156 104
164 161 107
162 160 106
154 152 102
161 158 106
167 164 108
161 159 106
160 157 103
162 159 106
159 156 102
164 160 106
161 159 106
166 162 107
160 157 104
159 155 103
155 152 101
158 155 101
163 159 104
160 157 103
155 152 101
162 159 105
163 159 103
164 161 106
156 153 99
164 160 104
155 151 99
163 159 106
158 155 101
158 155 101
157 153 97
157 154 99
160 157 103
160 155 99
162 157 103
155 152 99
166 163 107
158 155 101
155 152 99
165 160 101
150 146 95
159 155 101
157 152 97
156 153 99
154 151 97
150 147 95
159 155 99
160 155 101
163 159 101
158 154 97
159 155 101
163 159 101
155 151 97
162 158 100
153 149 96
157 153 97
154 150 97
149 147 96
155 151 98
141 137 87
155 150 95
152 148 93
156 153 97
154 149 97
158 154 99
150 146 90
153 149 96
159 155 99
151 147 94
149 144 90
145 141 88
142 138 88
149 144 93
152 148 92
152 148 93
156 151 93
152 147 91
147 142 89
149 145 91
145 140 87
150 146 94
206 227 255
206 227 255
205 226 255
204 226 255
204 226 255
204 226 255
203 226 255
203 225 255
203 225 255
202 225 255
202 225 255
201 225 255
201 224 255
200 224 255
200 224 255
200 224 255
199 224 255
199 223 255
199 223 255
198 223 255
198 223 255
197 222 255
197 222 255
197 222 255
196 222 255
196 222 255
196 222 255
196 222 255
199 223 255
200 223 245
202 224 252
201 224 248
200 223 249
202 225 254
199 222 244
201 224 253
202 224 246
200 223 248
202 224 246
199 223 246
200 223 248
202 224 249
201 223 245
201 223 244
200 224 252
203 225 248
201 224 246
201 224 248
199 223 246
198 221 237
198 222 241
196 220 233
197 221 238
197 221 237
196 220 241
198 221 238
199 222 241
198 221 240
198 221 242
198 221 238
198 222 244
199 222 244
198 221 236
198 222 244
199 223 248
198 221 238
197 221 240
198 222 245
197 220 237
198 221 242
197 221 240
199 222 246
198 221 244
197 221 240
198 222 241
197 221 245
198 222 245
196 220 240
197 221 241
195 219 237
196 220 240
197 221 241
196 220 237
196 220 240
194 219 240
195 220 244
196 221 244
193 217 227
195 220 241
193 218 236
194 220 242
197 221 248
195 220 241
198 222 248
197 221 244
196 221 245
195 220 246
196 220 240
197 221 246
196 221 249
196 221 245
193 219 248
196 221 253
191 219 248
186 216 254
185 216 255
186 217 255
187 217 255
188 217 255
188 218 255
189 218 255
190 219 255
191 219 255
192 220 255
193 220 255
195 221 255
195 221 255
197 222 255
199 223 255
201 224 255
202 225 254
205 227 255
206 227 255
207 227 254
208 228 252
210 229 254
210 229 255
210 229 255
210 229 255
210 229 255
210 229 255
210 229 255
210 229 255
210 229 255
210 229 255
210 229 255
209 229 255
209 229 255
209 229 255
209 229 255
209 229 255
209 229 255
209 229 255
209 229 255
209 229 255
209 229 255
209 229 255
209 229 255
209 229 255
209 229 255
140 163 207
62 97 155
62 98 164
62 97 157
62 98 160
62 98 157
63 99 165
62 98 161
61 97 159
61 97 158
62 98 163
62 98 163
63 99 162
61 97 156
61 97 161
62 98 162
61 97 153
62 98 160
63 99 167
61 97 153
62 98 158
62 98 164
62 98 164
62 98 157
63 99 161
62 98 157
61 97 159
61 97 153
60 96 149
62 98 158
63 99 160
61 97 156
62 98 166
62 98 157
62 98 156
62 98 161
62 98 159
63 99 159
61 97 155
61 97 158
61 97 153
62 98 160
62 97 154
61 96 153
62 98 159
62 97 157
62 98 161
61 97 156
62 98 161
63 98 156
62 98 157
62 98 154
61 97 157
61 97 156
62 98 158
62 98 163
62 98 162
62 99 163
62 97 152
62 98 155
61 97 157
62 98 158
61 97 156
61 97 153
62 99 168
62 98 161
62 98 159
61 97 155
61 97 157
62 97 156
61 97 160
61 97 158
62 97 155
61 97 157
61 97 158
61 97 152
62 98 161
61 97 153
62 97 160
61 97 164
62 98 161
62 98 159
62 98 158
61 96 158
61 97 158
61 96 157
61 97 158
61 97 158
62 97 159
60 95 154
63 99 165
61 97 160
61 96 156
61 97 160
62 98 164
62 98 163
61 96 163
62 97 165
61 96 160
155 177 214
209 229 255
209 229 255
209 229 255
209 229 255
209 229 255
209 229 255
209 229 255
209 229 255
209 229 255
209 229 255
209 229 255
209 229 255
209 229 255
209 229 255
209 229 255
210 229 255
210 229 255
210 229 255
210 229 255
210 229 255
210 229 255
210 229 255
210 229 255
205 224 249
157 163 159
134 130 83
128 127 85
133 132 88
144 142 94
144 141 94
140 138 93
141 139 93
133 132 89
133 133 91
137 136 93
151 150 100
131 130 88
146 144 97
148 147 99
146 145 97
145 144 97
135 135 91
148 147 99
142 142 95
151 150 101
153 152 102
155 153 102
151 149 100
156 154 104
151 150 102
157 155 104
157 155 105
154 152 102
145 144 97
158 156 104
152 150 101
150 149 100
149 148 100
152 151 101
150 148 99
157 155 103
161 159 107
160 157 105
155 154 103
162 159 106
156 153 102
157 154 102
156 152 101
166 163 108
156 154 103
155 152 101
155 152 101
163 159 106
164 161 106
168 165 110
166 162 107
160 157 103
168 165 109
159 155 102
162 159 104
154 152 101
163 159 106
164 161 106
164 161 106
163 159 104
160 155 101
160 156 104
156 154 102
159 155 101
159 155 101
155 151 99
160 157 104
165 161 104
162 159 104
165 161 104
165 160 103
161 157 102
161 157 103
166 162 105
164 159 104
155 151 97
166 161 106
154 150 97
166 162 106
156 153 99
157 152 99
156 153 98
159 154 101
164 159 103
159 155 99
164 160 103
161 157 101
157 153 97
161 157 101
158 155 100
162 158 99
147 143 93
151 147 95
158 154 97
152 148 95
156 153 99
155 150 96
158 154 101
156 152 99
163 159 102
156 151 95
159 154 95
162 158 101
157 153 97
157 152 99
156 151 97
155 150 93
154 150 94
149 146 91
154 149 93
154 149 97
155 150 93
155 151 95
158 152 96
151 146 93
155 150 93
147 144 93
154 149 95
142 138 83
146 141 86
157 152 96
140 136 87
151 146 92
152 149 94
147 142 87
205 227 255
205 227 255
205 226 255
204 226 255
204 226 255
204 226 255
203 226 255
203 225 255
202 225 255
202 225 255
202 225 255
201 224 255
201 224 255
200 224 255
200 224 255
200 224 255
199 224 255
199 223 255
199 223 255
198 223 255
198 223 255
198 223 255
197 222 255
197 222 255
196 222 255
197 222 255
200 224 250
200 223 246
201 224 252
200 223 248
202 224 249
201 224 245
201 224 245
201 223 245
200 223 246
201 224 250
203 225 250
203 225 253
203 225 253
203 225 249
203 225 253
202 224 249
201 223 250
202 225 253
201 223 248
200 222 246
195 218 230
197 220 233
197 221 234
198 222 241
200 223 246
197 220 238
199 222 240
200 223 245
199 222 241
200 223 245
200 223 242
198 221 240
198 221 237
200 223 248
198 221 244
199 222 240
198 221 244
197 221 245
199 222 244
198 221 241
198 221 238
197 221 237
199 222 244
200 223 246
200 223 244
199 222 242
199 223 248
199 222 238
199 222 245
198 222 241
199 222 240
198 222 244
198 221 244
198 222 248
197 221 242
198 221 242
196 221 240
197 221 244
197 221 245
197 221 245
198 222 246
195 219 234
195 219 231
196 221 242
197 221 245
195 220 240
196 221 246
196 221 248
194 218 233
195 220 244
196 220 237
198 222 249
197 222 252
197 222 250
195 221 248
196 221 244
195 221 250
195 221 248
194 219 242
193 220 248
187 217 253
186 216 255
187 217 255
187 217 255
188 218 255
189 218 255
190 218 255
190 219 255
192 219 255
193 220 255
195 221 255
195 221 255
196 222 255
198 223 255
199 223 255
201 225 255
203 225 255
205 227 255
208 228 255
208 228 254
210 229 254
210 229 255
210 229 255
210 229 255
210 229 255
210 229 255
210 229 255
210 229 255
210 229 255
210 229 255
210 229 255
210 229 255
210 229 255
210 229 255
210 229 255
210 229 255
209 229 255
209 229 255
209 229 255
209 229 255
209 229 255
209 229 255
209 229 255
178 199 233
61 97 161
62 98 158
61 97 160
62 97 154
62 97 158
61 97 158
63 99 162
62 98 162
62 98 160
61 98 161
62 98 160
63 99 165
62 98 158
61 98 163
61 97 157
61 98 165
61 97 154
62 98 158
61 97 155
61 97 157
62 98 162
62 99 165
61 97 156
62 98 160
61 96 154
62 98 158
63 99 169
61 97 152
62 98 156
63 99 163
62 98 164
62 98 160
62 97 155
62 98 159
61 97 152
62 97 152
63 99 161
61 97 157
63 98 159
61 97 155
62 98 161
61 97 155
61 97 158
61 96 154
61 98 160
62 98 161
62 97 156
62 98 161
63 99 161
62 98 154
62 98 163
61 97 159
63 99 170
62 98 163
63 98 162
62 98 160
61 97 155
62 98 156
62 98 164
62 98 160
62 98 160
62 97 159
62 97 154
61 96 149
62 98 161
63 99 162
63 98 161
63 99 165
62 98 162
61 96 154
63 99 166
62 98 160
61 97 152
61 97 153
61 97 153
62 98 159
62 98 159
61 96 157
62 97 159
63 98 160
62 99 167
62 97 160
61 96 155
61 96 158
61 97 160
62 97 157
61 97 159
62 98 164
61 96 154
62 97 159
63 99 165
62 98 169
60 95 152
61 96 155
61 97 160
62 98 162
61 96 160
61 97 160
61 96 160
60 95 155
170 191 224
209 229 255
209 229 255
209 229 255
209 229 255
209 229 255
209 229 255
209 229 255
210 229 255
210 229 255
210 229 255
210 229 255
210 229 255
210 229 255
210 229 255
210 229 255
210 229 255
210 229 255
210 229 255
210 229 255
210 229 255
210 229 255
204 222 245
146 150 134
133 130 85
140 137 89
133 131 87
135 133 89
140 138 93
138 137 92
138 136 91
144 143 97
145 144 97
149 147 99
143 141 96
150 148 100
142 141 96
148 147 100
145 145 99
146 146 99
147 146 99
151 150 101
142 142 97
154 153 103
152 150 101
151 149 100
147 145 98
147 145 97
154 153 103
152 150 101
152 150 100
150 149 100
159 158 106
156 154 104
158 155 104
151 150 101
154 153 103
161 159 106
162 160 107
161 159 106
152 149 100
159 157 105
159 157 105
158 155 103
160 157 104
169 166 110
158 156 104
161 158 106
164 159 105
160 158 105
161 159 106
163 159 106
157 153 101
161 159 107
165 161 106
172 168 111
164 161 107
163 160 105
160 158 103
165 163 108
166 161 104
159 156 103
164 160 105
162 159 105
166 162 106
164 160 105
161 157 103
170 165 108
168 164 106
161 157 102
159 156 102
163 159 104
161 158 102
169 165 109
165 161 102
160 156 101
159 155 101
165 160 104
160 156 101
163 159 104
162 158 103
161 157 101
159 155 100
163 158 102
157 154 99
158 155 100
156 152 98
163 159 104
157 152 99
167 162 104
162 158 104
164 160 104
162 159 101
162 157 103
158 154 98
156 152 99
162 157 101
162 156 99
162 157 99
151 147 93
151 147 94
153 149 95
160 156 99
163 158 100
157 152 96
159 154 98
157 152 98
155 151 94
153 149 95
157 153 98
152 148 93
155 151 97
153 149 95
162 156 101
153 148 92
153 149 93
155 150 95
155 151 93
154 149 91
158 152 93
153 148 90
146 142 87
144 139 87
156 152 96
153 149 95
152 148 90
156 151 95
146 141 90
141 136 83
145 140 82
205 227 255
205 227 255
205 226 255
204 226 255
204 226 255
204 226 255
203 225 255
203 225 255
202 225 255
202 225 255
202 225 255
201 225 255
201 224 255
200 224 255
200 224 255
200 224 255
199 224 255
199 223 255
199 223 255
198 223 255
198 223 255
197 222 255
197 222 255
199 223 255
202 225 254
202 224 248
203 225 252
201 224 248
202 224 248
202 224 246
202 225 253
201 223 250
202 224 244
203 225 253
204 226 252
204 226 252
202 224 246
201 223 244
203 225 252
205 226 250
203 225 248
199 221 241
198 221 236
200 222 241
199 221 238
200 223 242
200 223 245
197 220 227
199 222 240
198 221 240
198 221 234
202 224 248
198 221 237
199 222 244
201 223 245
201 224 246
201 223 244
199 222 238
199 222 241
200 223 248
200 223 248
201 224 248
199 222 242
200 223 245
201 224 250
199 221 240
200 223 246
198 221 240
201 223 246
198 221 234
199 222 237
200 223 246
200 223 245
201 224 249
200 223 245
198 222 245
199 222 242
200 223 245
200 223 248
198 222 246
199 222 246
198 222 244
200 223 249
199 223 248
197 221 240
199 222 246
197 221 245
198 221 241
197 221 244
198 222 242
196 221 244
196 220 240
196 220 240
196 221 248
197 222 246
195 220 237
193 219 240
193 218 234
195 220 238
197 221 245
196 221 252
196 221 250
198 222 245
193 218 236
195 221 249
194 220 248
196 221 254
192 219 253
189 217 254
186 217 255
187 217 255
188 217 255
189 218 255
189 218 255
191 219 255
192 220 255
193 220 255
194 221 255
194 221 255
196 222 255
198 223 255
200 224 255
201 224 254
204 226 255
205 226 255
207 227 255
208 228 253
210 229 253
210 229 254
210 229 255
210 229 255
210 229 255
210 229 255
210 229 255
210 229 255
210 229 255
210 229 255
210 229 255
210 229 255
210 229 255
210 229 255
210 229 255
210 229 255
210 229 255
210 229 255
210 229 255
210 229 255
210 229 255
192 212 242
77 109 172
62 98 158
62 98 160
61 97 159
62 98 162
62 98 164
61 98 162
61 97 154
62 98 161
61 97 155
61 97 159
62 99 165
61 97 156
62 98 160
62 98 160
61 97 158
61 97 156
61 97 155
61 97 157
63 98 161
62 98 159
61 97 156
63 99 162
61 96 150
62 97 158
62 97 155
61 97 155
62 98 159
62 97 154
61 97 158
63 99 162
62 97 152
62 97 156
63 99 161
62 97 153
61 97 157
61 97 155
62 97 157
61 97 158
61 97 154
62 98 162
61 97 155
62 98 159
63 98 157
61 97 152
62 97 157
61 97 159
63 98 158
62 98 158
62 98 161
61 97 154
62 98 164
62 98 155
63 98 160
62 98 164
61 97 147
61 96 149
62 99 166
63 99 162
62 97 155
62 97 155
63 99 160
62 98 161
62 98 157
60 96 151
61 97 154
62 97 153
62 98 163
62 98 159
62 97 159
62 98 157
62 98 153
62 98 159
61 97 154
62 98 164
61 97 161
62 98 160
62 97 156
62 97 156
60 96 150
61 96 154
61 97 161
61 97 159
60 96 155
62 97 156
61 97 154
61 97 150
61 96 156
61 97 155
62 97 161
61 97 160
61 97 154
62 98 164
62 98 160
61 96 155
61 95 155
61 96 156
60 95 152
61 96 158
61 96 163
60 95 153
73 104 162
192 211 242
210 229 255
210 229 255
210 229 255
210 229 255
210 229 255
210 229 255
210 229 255
210 229 255
210 229 255
210 229 255
210 229 255
210 229 255
210 229 255
210 229 255
210 229 255
210 229 255
210 229 255
210 229 255
210 229 255
192 208 226
133 133 103
130 127 83
136 134 90
144 142 95
136 134 89
133 131 88
140 138 92
133 133 90
150 149 101
149 148 100
137 137 92
147 145 97
146 145 99
144 143 97
153 151 101
142 141 97
151 149 101
146 145 98
148 146 98
144 143 96
148 147 98
142 141 95
159 158 106
154 153 103
151 150 101
150 149 101
149 147 99
152 151 102
162 159 106
158 156 104
162 158 105
155 154 104
155 153 103
153 151 101
158 155 103
157 155 104
156 154 103
159 156 104
162 158 105
156 154 103
159 156 103
165 162 108
164 162 107
161 158 105
163 160 106
164 161 107
163 159 106
160 156 103
165 161 106
158 154 101
158 155 103
160 156 103
167 164 109
159 155 103
162 158 104
165 161 106
158 155 101
165 161 106
164 161 107
164 160 104
169 165 109
165 161 105
165 161 105
155 153 99
153 151 100
165 161 105
167 163 107
164 159 102
156 153 101
158 155 101
161 156 100
164 159 103
164 160 103
156 152 99
161 156 101
157 153 99
166 162 106
162 158 102
158 155 100
164 159 102
163 158 101
171 166 106
164 159 99
161 156 100
163 159 103
164 159 102
162 157 101
166 161 104
158 153 97
164 159 101
159 154 98
161 156 99
158 154 98
162 157 101
161 155 99
166 160 103
156 153 99
162 156 99
155 153 97
153 148 95
156 152 94
157 153 97
156 152 98
154 151 95
155 151 99
155 150 93
160 155 95
163 159 101
150 146 91
150 146 91
158 152 96
156 152 97
159 154 96
156 152 91
155 151 97
152 148 90
161 155 95
155 148 94
156 152 93
156 150 95
153 149 93
160 155 95
150 145 90
156 151 95
149 144 91
148 143 91
141 138 87
150 147 94
205 227 255
205 226 255
204 226 255
204 226 255
204 226 255
203 226 255
203 225 255
203 225 255
202 225 255
202 225 255
202 225 255
201 225 255
201 224 255
201 224 255
200 224 255
200 224 255
199 224 255
199 223 255
199 223 255
198 223 255
198 223 255
198 222 250
199 222 250
204 226 254
203 225 253
202 225 252
201 223 245
203 224 245
202 224 249
202 224 246
204 226 252
205 226 253
202 224 245
204 225 249
201 223 242
205 226 252
204 225 249
202 224 248
202 224 246
200 222 237
200 223 244
200 222 242
200 222 234
200 223 241
201 223 245
200 222 238
199 221 238
200 222 237
200 222 238
200 222 240
202 224 248
201 223 242
200 222 241
201 223 241
200 222 242
200 223 244
201 223 242
201 223 245
201 224 249
201 223 246
198 221 240
200 222 237
202 225 250
202 224 246
200 223 245
202 224 248
200 223 240
199 222 246
200 223 245
200 223 244
201 223 245
200 223 241
201 223 246
202 224 252
201 223 245
200 222 240
197 221 237
199 223 245
201 224 250
198 221 237
200 223 244
199 222 238
199 222 244
197 221 241
198 222 242
200 223 249
197 220 231
199 222 242
197 221 234
199 222 246
196 220 240
198 222 244
197 221 245
197 221 242
196 220 244
196 220 234
197 221 245
198 223 253
197 221 246
195 220 241
194 218 230
196 221 246
198 222 246
196 221 244
199 223 250
195 220 242
196 221 246
196 221 245
197 221 244
191 218 246
190 218 254
187 217 255
188 217 255
189 218 255
189 218 255
190 219 255
191 219 255
192 220 255
194 221 255
195 221 255
196 222 255
198 223 255
199 223 255
200 224 254
202 225 255
204 226 255
206 227 255
207 228 254
209 228 254
210 229 255
210 230 255
210 230 255
210 230 255
210 229 255
210 229 255
210 229 255
210 229 255
210 229 255
210 229 255
210 229 255
210 229 255
210 229 255
210 229 255
210 229 255
210 229 255
210 229 255
210 229 255
203 223 250
78 110 170
61 98 163
62 98 159
61 98 160
62 98 159
61 97 159
62 98 160
62 98 155
63 99 164
62 98 161
62 98 161
61 97 154
62 98 154
62 98 158
62 98 162
61 97 156
61 97 155
61 96 150
63 99 165
61 97 160
61 97 152
63 99 164
62 97 156
61 96 153
62 98 157
62 98 157
62 98 162
63 98 159
62 98 160
62 98 157
61 97 152
62 98 163
62 98 162
62 97 158
62 98 156
62 98 155
62 98 159
61 97 155
62 98 161
62 97 153
61 97 153
62 98 159
62 98 165
62 98 161
62 98 156
62 97 152
61 97 155
62 98 159
61 98 162
62 97 154
63 99 163
62 98 158
61 97 153
62 97 154
62 97 150
63 98 161
61 96 152
62 98 161
62 97 149
61 96 150
62 98 160
61 97 156
61 97 150
62 98 163
62 97 152
62 98 160
62 98 162
62 98 159
62 98 160
62 98 156
61 97 151
61 96 148
62 97 161
61 97 160
61 97 158
62 98 158
62 98 164
61 97 161
61 97 153
62 98 161
62 97 156
61 97 155
60 95 148
62 97 152
61 97 152
61 96 145
62 97 156
61 97 153
62 98 164
63 98 164
62 98 159
61 96 154
62 98 164
63 98 162
62 98 167
61 97 154
62 97 161
61 96 155
61 97 161
61 96 163
62 98 167
60 96 162
61 96 156
88 117 170
205 224 252
210 229 255
210 229 255
210 229 255
210 229 255
210 229 255
210 229 255
210 229 255
210 229 255
210 229 255
210 229 255
210 229 255
210 229 255
210 229 255
210 229 255
210 230 255
210 230 255
210 230 255
186 198 205
130 129 91
131 129 84
145 140 91
130 128 85
131 129 86
139 137 92
143 140 94
145 143 96
139 136 91
145 142 96
147 144 95
145 144 97
146 144 97
149 147 99
149 147 100
142 141 96
141 140 95
148 147 100
146 145 98
148 147 99
155 154 104
149 147 99
154 152 102
156 154 104
153 150 101
150 149 101
158 156 105
151 149 100
146 144 97
148 146 99
151 150 102
163 161 108
154 153 102
161 159 107
156 154 102
161 158 105
157 155 103
163 160 107
160 157 105
146 145 97
162 159 106
158 155 103
163 161 107
158 155 104
159 156 103
159 158 105
161 158 104
161 158 105
167 164 108
166 162 108
153 150 100
160 157 103
165 162 108
161 156 102
168 164 108
160 156 103
163 159 104
165 161 106
159 155 102
166 163 107
166 163 107
162 159 105
167 163 105
163 159 104
160 157 104
167 162 105
171 166 109
168 163 107
168 163 106
166 162 104
155 150 99
166 161 106
163 160 104
176 171 111
161 158 102
156 152 97
163 158 103
163 159 100
161 157 102
164 159 103
170 166 107
170 165 104
161 158 103
163 159 101
161 157 103
161 157 100
161 157 96
171 166 107
161 156 99
170 164 105
164 159 101
158 153 95
159 155 99
158 154 97
160 155 99
161 158 99
160 155 97
162 156 100
165 160 104
163 157 96
160 156 99
169 165 105
158 153 98
164 159 101
160 156 101
159 154 98
152 148 95
159 154 95
162 157 101
160 155 97
149 145 90
158 154 97
157 153 97
161 157 100
156 152 95
151 147 90
157 153 96
155 151 92
155 150 94
158 153 95
153 149 95
153 148 91
158 154 95
153 148 92
154 150 93
156 150 95
152 147 93
147 141 85
143 138 84
205 227 255
205 226 255
205 226 255
204 226 255
204 226 255
203 226 255
203 226 255
203 225 255
202 225 255
202 225 255
202 225 255
201 225 255
201 224 255
201 224 255
200 224 255
200 224 255
199 224 255
199 223 255
199 223 255
200 224 255
202 225 253
204 226 253
203 224 248
203 225 248
202 224 246
204 226 253
203 225 249
203 225 252
205 226 252
202 224 246
205 226 252
202 224 244
202 224 244
204 225 248
205 226 249
205 226 254
202 224 240
200 223 241
201 223 242
201 223 242
201 223 238
201 223 238
201 223 240
202 224 241
202 224 248
201 223 238
203 225 249
201 223 238
200 222 238
201 223 240
203 225 248
201 223 242
201 224 244
200 222 241
202 224 250
201 223 242
201 223 248
202 224 248
201 223 244
203 224 246
203 225 253
202 224 242
201 223 238
201 223 244
200 222 238
201 223 244
202 224 244
201 224 245
202 224 248
201 223 244
201 223 246
201 223 242
203 225 248
202 224 248
202 225 252
200 222 244
200 223 245
201 224 246
200 223 252
201 224 248
201 223 249
201 223 244
201 223 245
200 223 242
200 223 244
200 223 246
201 223 245
201 223 244
199 223 246
201 224 250
200 223 244
197 220 236
199 223 245
198 221 240
197 221 240
198 221 241
200 223 245
196 220 240
196 221 240
196 220 240
196 220 241
194 219 236
195 219 237
196 220 240
197 221 246
198 222 245
196 221 242
197 222 246
197 222 250
196 221 246
196 220 242
193 220 253
188 217 254
188 218 255
189 218 255
190 218 255
191 219 255
192 219 255
192 220 255
194 221 255
195 221 255
196 222 255
197 222 255
199 223 255
201 224 255
202 225 255
205 226 255
207 227 255
208 228 255
209 228 253
210 229 254
211 230 255
211 230 255
211 230 255
211 230 255
211 230 255
211 230 255
210 230 255
210 230 255
210 230 255
210 229 255
210 229 255
210 229 255
210 229 255
210 229 255
210 229 255
210 229 255
125 149 194
62 99 165
61 97 159
62 98 159
62 98 160
62 98 159
63 98 158
61 97 162
62 98 157
62 98 159
61 97 158
62 98 156
62 98 157
61 97 158
62 97 154
62 98 160
62 98 158
62 98 165
62 98 160
61 97 157
61 97 155
61 97 153
61 97 153
62 97 155
61 96 151
62 98 159
61 97 156
62 98 163
61 97 157
62 98 157
61 97 155
62 98 159
61 97 157
62 98 156
62 98 157
62 97 152
61 97 159
61 97 153
62 98 160
61 97 154
61 97 157
62 98 157
63 98 160
62 98 161
61 97 152
62 97 153
62 98 161
61 97 155
61 97 156
61 97 157
62 98 158
61 97 150
62 98 160
62 98 163
61 97 158
62 97 156
62 97 155
62 98 160
61 97 148
62 97 153
62 98 162
62 97 156
62 98 158
62 98 160
61 96 150
61 97 152
61 97 153
61 97 154
61 97 153
62 98 157
62 97 155
61 96 154
62 98 158
62 98 158
63 99 165
61 96 150
60 95 150
62 97 152
62 97 149
63 98 164
61 97 152
62 98 163
62 97 156
61 96 159
61 96 152
61 97 156
61 97 153
61 97 151
62 97 155
62 97 157
63 98 164
62 98 161
62 97 163
61 96 153
61 97 159
62 98 159
61 96 160
61 96 156
60 96 152
61 97 163
62 96 155
61 96 159
60 96 163
61 95 156
59 92 152
119 142 182
210 229 255
210 229 255
210 229 255
210 229 255
210 229 255
210 229 255
210 229 255
210 230 255
210 230 255
210 230 255
211 230 255
211 230 255
211 230 255
211 230 255
211 230 255
211 230 255
178 189 194
135 132 85
133 128 83
131 129 86
138 135 90
133 130 86
141 139 92
133 131 88
145 143 96
137 136 92
142 140 93
135 134 90
142 141 95
142 142 96
150 149 101
146 145 98
147 145 97
147 146 99
147 146 99
148 147 100
147 146 99
148 147 99
156 154 104
158 157 105
154 152 102
142 142 96
157 155 104
146 145 98
151 149 100
156 153 103
154 151 101
155 153 103
159 156 104
158 156 105
160 158 105
153 151 102
161 159 106
163 160 107
154 153 103
161 159 106
158 156 105
160 157 104
165 161 107
158 155 103
162 159 105
158 156 104
161 157 103
163 161 108
163 161 107
159 156 104
156 154 102
167 163 109
166 163 109
164 161 107
163 159 103
167 163 108
164 161 106
162 158 103
167 162 105
163 159 104
165 161 105
162 158 103
165 161 105
167 163 106
162 159 104
165 161 105
166 162 106
170 164 106
161 157 101
170 165 106
160 156 103
174 168 108
170 164 106
159 155 100
166 163 104
162 157 102
164 161 103
167 162 105
164 160 106
163 159 101
164 159 101
159 155 99
163 158 103
166 160 101
162 158 103
165 160 103
166 160 101
165 160 101
166 161 103
164 159 101
161 156 100
162 158 101
163 159 101
166 161 102
161 156 99
161 157 100
163 158 101
163 158 100
159 154 99
153 149 97
162 157 101
163 158 101
162 157 96
158 153 95
158 153 97
165 161 103
162 156 98
150 146 90
154 150 93
154 150 92
161 156 97
160 155 95
160 156 101
162 158 100
158 154 97
162 156 97
159 154 92
154 151 95
158 153 96
164 158 97
158 153 97
160 154 94
149 144 90
159 154 95
143 139 85
160 154 97
153 147 90
150 146 86
155 150 93
161 155 93
154 149 91
205 227 255
205 226 255
204 226 255
204 226 255
204 226 255
204 226 255
203 226 255
203 225 255
203 225 255
202 225 255
202 225 255
202 225 255
201 224 255
201 224 255
201 224 255
200 224 255
200 224 255
200 224 255
199 222 246
204 226 252
204 225 249
203 225 245
204 225 249
205 226 252
203 224 245
205 226 252
206 227 252
204 225 250
204 225 246
204 225 246
205 226 250
206 227 252
204 226 249
205 225 246
202 223 240
200 223 244
201 223 242
201 223 241
200 222 237
201 223 242
201 223 241
200 222 238
202 224 241
201 223 238
202 224 242
202 224 245
203 225 249
203 224 246
201 223 240
204 225 249
202 223 244
204 225 250
202 223 245
201 223 238
202 224 241
202 224 244
203 225 252
203 224 245
203 225 249
201 223 248
205 226 253
203 225 249
201 223 241
201 223 241
201 223 242
202 224 245
201 223 242
203 225 248
201 223 241
201 222 240
202 224 245
202 224 246
201 223 242
202 224 248
200 222 241
202 225 250
203 224 242
201 223 245
203 225 250
201 223 244
201 224 246
200 222 242
201 223 246
201 223 244
201 223 246
201 223 245
200 223 246
201 223 248
200 223 246
197 221 237
200 222 244
199 222 242
201 223 246
199 222 238
202 225 252
199 223 249
199 222 246
197 221 240
198 222 244
198 222 245
199 223 249
198 222 242
197 222 248
195 220 241
196 220 242
196 220 236
197 221 241
198 222 248
198 222 245
197 221 246
197 222 249
196 221 245
196 221 245
191 218 249
189 218 254
189 218 255
190 218 255
190 219 255
191 219 255
193 220 255
194 220 255
195 221 255
196 222 255
198 223 255
198 223 255
200 224 255
202 225 255
204 226 254
207 227 255
209 229 255
210 229 253
210 229 253
211 230 255
211 230 255
211 230 255
211 230 255
211 230 255
211 230 255
211 230 255
211 230 255
211 230 255
211 230 255
211 230 255
211 230 255
210 230 255
210 230 255
160 181 220
62 98 163
61 97 157
62 98 161
62 98 159
62 98 164
61 96 150
62 98 158
62 98 161
60 96 156
62 99 164
61 97 154
61 97 157
61 97 155
62 97 154
63 98 160
61 97 154
62 98 157
62 98 159
61 97 154
62 98 159
62 98 162
62 98 154
62 98 156
62 98 168
62 98 157
62 98 155
62 97 155
61 97 153
60 96 150
62 98 163
61 97 150
62 98 159
63 99 163
62 97 154
61 97 154
61 97 161
61 96 149
62 98 162
61 97 153
62 98 155
62 98 159
62 98 160
62 98 160
62 97 153
61 97 155
63 99 160
62 97 160
61 97 154
61 97 157
61 97 153
61 97 153
62 97 155
62 97 157
62 97 154
62 97 158
61 97 154
61 96 152
62 97 153
63 99 161
62 98 160
62 98 161
62 98 159
61 97 154
61 97 152
61 97 154
62 98 157
62 98 161
62 98 163
62 98 155
63 99 164
62 97 155
62 98 159
61 96 149
62 98 163
61 97 154
62 98 160
61 97 156
62 97 154
61 97 153
61 97 153
62 98 160
62 98 163
62 98 160
61 96 149
62 98 163
62 98 160
61 97 158
60 96 156
62 98 156
61 97 152
60 96 158
62 97 155
63 98 156
61 97 152
61 97 157
62 98 159
62 98 162
62 97 161
60 94 148
61 96 158
60 95 155
62 97 157
61 95 155
61 96 159
59 92 144
61 95 157
171 190 223
210 230 255
210 230 255
211 230 255
211 230 255
211 230 255
211 230 255
211 230 255
211 230 255
211 230 255
211 230 255
211 230 255
211 230 255
211 230 255
210 229 254
169 178 180
132 129 83
131 127 84
137 134 87
145 142 95
131 129 86
141 139 93
130 129 87
139 138 92
141 140 95
134 134 90
146 144 97
140 139 94
153 152 103
143 143 97
148 147 100
142 141 96
142 142 97
145 144 99
148 146 99
151 151 102
140 139 94
150 150 102
142 141 96
153 153 104
161 159 105
149 148 100
153 152 103
153 150 101
154 152 102
152 150 101
146 145 98
160 158 106
160 157 106
152 151 102
160 156 104
154 152 102
156 154 103
156 154 102
162 159 106
162 159 106
160 156 104
161 158 104
165 163 108
167 163 108
158 155 102
158 155 103
161 158 104
161 159 105
157 154 101
161 157 103
167 162 106
164 161 107
163 160 104
167 164 109
168 164 106
165 161 105
166 162 106
169 165 108
165 162 106
164 161 106
165 161 103
163 158 103
165 160 102
167 164 105
168 164 107
162 158 101
161 157 101
165 161 106
163 159 103
167 162 105
167 162 104
167 163 106
171 166 106
163 159 101
162 158 99
162 158 100
167 162 105
171 165 106
158 154 100
161 155 99
163 160 105
160 156 97
168 162 103
160 156 98
165 161 103
172 166 104
164 159 101
158 153 99
162 157 101
162 157 101
163 158 101
165 161 103
165 161 104
165 160 105
163 158 101
167 162 104
167 162 101
166 161 103
165 160 99
155 150 93
166 161 103
159 154 99
154 150 94
162 159 101
158 153 97
162 158 97
158 153 96
160 157 101
162 157 99
156 152 95
157 151 94
163 158 99
162 157 101
156 152 95
159 155 96
164 159 100
150 145 87
156 151 95
161 157 98
163 159 100
157 151 95
161 157 97
154 148 88
154 148 92
153 149 92
155 150 94
157 153 94
155 149 92
153 148 93
149 144 87
154 148 93
205 227 255
205 227 255
205 226 255
204 226 255
204 226 255
204 226 255
203 226 255
203 225 255
203 225 255
202 225 255
202 225 255
202 225 255
201 225 255
201 224 255
201 224 255
200 224 255
202 225 255
202 224 248
203 225 246
205 226 250
203 224 245
205 226 250
204 226 250
206 227 249
204 226 250
206 227 253
204 225 244
205 226 250
205 226 250
205 225 245
206 226 249
205 226 249
202 223 241
200 222 237
202 224 245
203 224 245
203 225 246
202 224 241
201 222 237
201 222 238
202 223 242
201 222 234
201 222 234
203 224 245
202 224 245
202 223 241
202 224 245
203 224 246
203 224 245
203 225 246
203 225 245
202 224 242
202 224 244
201 222 237
203 224 244
202 223 245
204 225 245
202 223 242
201 222 238
205 226 253
203 224 248
201 222 240
202 224 244
204 225 246
202 224 245
202 224 246
204 225 250
204 225 246
203 225 248
200 222 238
203 225 248
201 222 242
204 225 248
201 223 238
203 225 246
205 226 252
202 224 245
204 226 252
202 224 248
203 225 250
202 224 245
202 224 246
203 225 249
201 223 244
200 223 240
201 224 244
202 223 242
202 224 246
200 222 238
201 223 244
202 224 242
200 222 241
200 223 244
197 220 244
201 223 244
201 223 246
200 223 246
199 222 246
200 223 248
199 222 241
198 222 249
198 221 244
197 221 240
196 220 238
197 221 237
196 220 238
195 219 236
197 220 238
197 221 246
198 222 245
198 222 249
198 222 249
197 221 244
198 222 253
198 222 250
191 219 250
188 217 254
190 218 255
191 219 255
192 219 255
193 220 255
194 221 255
195 221 255
197 222 255
198 223 255
199 223 255
201 224 255
203 225 254
204 226 255
206 227 255
208 228 255
210 229 254
210 229 253
211 230 255
211 230 255
211 230 255
211 230 255
211 230 255
211 230 255
211 230 255
211 230 255
211 230 255
211 230 255
211 230 255
211 230 255
199 218 244
76 108 167
62 98 160
61 97 158
62 98 161
61 97 155
61 96 154
62 98 163
62 98 158
61 97 154
62 98 157
63 98 161
62 98 159
61 97 151
61 96 154
62 98 157
61 97 154
61 97 154
61 96 149
61 97 147
61 97 154
61 97 152
62 98 159
62 98 162
62 98 158
62 98 154
62 98 160
62 98 157
61 97 145
61 97 151
62 97 160
61 97 155
62 97 153
62 98 157
64 100 168
61 96 148
63 99 164
62 98 156
62 99 166
62 97 154
62 98 159
62 98 157
61 97 155
62 98 160
62 98 159
61 97 151
61 97 153
62 98 160
62 98 161
62 97 149
62 98 156
61 97 153
62 98 157
62 98 155
61 97 152
62 98 158
62 97 150
63 98 158
62 98 156
62 98 155
62 98 156
61 97 150
62 97 157
61 97 152
61 97 153
62 98 152
62 97 159
61 96 148
62 98 164
61 97 152
61 97 149
60 96 151
62 98 156
61 97 157
62 97 151
61 97 158
62 98 156
61 97 156
62 97 155
61 96 152
60 96 148
60 96 144
61 96 155
62 98 159
61 96 152
61 97 156
60 96 157
62 98 156
61 96 152
62 97 155
61 97 156
61 96 150
63 98 159
62 97 156
62 97 157
61 96 147
62 98 163
61 96 150
61 96 148
60 95 150
62 98 163
61 96 151
61 97 159
61 96 154
61 95 154
61 96 155
59 94 155
61 96 157
85 112 161
201 220 247
211 230 255
211 230 255
211 230 255
211 230 255
211 230 255
211 230 255
211 230 255
211 230 255
211 230 255
211 230 255
211 230 255
211 230 255
171 179 176
129 127 82
138 135 89
130 128 85
134 133 88
147 144 95
136 135 91
142 140 94
143 142 95
148 146 99
147 145 98
136 136 95
146 145 97
151 150 101
141 141 97
144 142 95
143 141 96
145 144 97
146 145 98
137 137 93
147 146 99
144 144 98
151 149 101
144 143 98
149 148 100
146 145 98
147 144 97
148 147 100
153 152 103
156 154 103
159 156 105
154 152 103
153 151 102
162 159 107
164 161 108
159 157 106
159 157 105
150 148 97
158 155 104
152 150 101
166 162 107
157 154 102
160 158 104
160 157 105
163 161 107
162 159 105
161 158 105
164 160 104
166 163 106
161 158 106
170 165 106
167 163 107
165 162 105
163 159 103
162 158 103
170 166 109
162 159 102
162 160 105
169 165 109
171 167 110
168 164 108
164 160 103
167 163 104
165 162 105
166 162 104
167 162 103
167 162 104
168 163 104
172 166 108
164 160 105
167 162 105
167 162 104
169 165 107
161 156 100
163 158 100
170 166 106
165 161 104
164 158 100
167 163 103
162 157 103
167 163 106
169 164 105
167 163 104
169 165 106
164 159 103
170 164 106
163 157 100
161 158 102
156 153 97
164 159 100
161 158 99
164 159 101
164 158 97
160 156 98
164 159 99
161 157 99
165 159 100
165 160 101
161 157 99
161 156 97
166 162 103
155 152 97
165 161 103
161 156 97
162 157 100
156 150 95
165 160 99
157 153 98
158 154 95
165 160 101
154 148 93
164 160 101
160 155 98
163 158 94
159 155 95
163 157 95
152 148 90
150 146 92
148 145 89
153 147 90
162 156 95
154 150 94
157 151 94
155 152 94
158 153 92
154 149 93
148 143 86
150 146 89
155 150 93
160 154 94
152 147 92
151 146 89
157 152 95
205 227 255
205 227 255
205 226 255
204 226 255
204 226 255
204 226 255
203 226 255
203 225 255
203 225 255
202 225 255
202 225 255
202 225 255
201 225 255
201 224 255
201 224 254
203 225 253
205 226 249
206 227 253
204 226 248
205 226 250
204 226 250
206 227 253
205 226 248
206 226 251
206 227 252
205 225 242
204 224 241
205 226 248
205 226 245
206 227 250
202 223 237
202 224 241
202 223 238
201 223 240
202 224 241
202 223 238
202 223 238
202 224 241
202 224 242
202 223 238
203 224 244
204 225 248
203 225 244
203 224 241
203 224 242
203 224 241
203 224 244
204 225 246
203 224 241
204 225 245
204 225 245
205 226 250
204 225 248
203 224 246
205 226 249
202 224 244
204 225 244
202 223 242
202 224 242
202 224 241
202 224 241
204 226 249
204 225 248
205 226 250
204 225 248
203 225 246
201 222 237
203 225 246
203 224 242
202 224 248
203 224 245
205 226 249
204 225 246
204 225 246
204 225 246
203 224 244
202 224 245
203 224 245
204 225 249
204 225 248
201 223 242
202 224 245
202 224 245
202 224 245
203 225 248
203 225 248
200 222 238
200 222 240
202 224 250
202 225 249
204 225 252
202 224 246
199 222 242
203 225 249
200 222 238
200 223 242
200 223 242
201 224 249
199 222 245
199 222 242
201 224 248
202 224 250
199 222 241
198 222 244
198 222 241
198 221 238
196 220 234
198 222 245
198 222 244
196 220 240
198 222 244
201 224 249
200 223 246
197 222 246
198 222 249
198 223 252
197 222 252
191 219 254
190 219 255
191 219 255
192 219 255
193 220 255
194 221 255
195 221 255
197 222 255
199 223 255
199 224 255
201 225 255
202 225 255
205 227 255
206 227 255
208 228 255
210 229 253
210 229 253
211 230 255
211 230 255
211 230 255
211 230 255
211 230 255
211 230 255
211 230 255
211 230 255
211 230 255
211 230 255
210 229 255
129 152 189
62 99 166
63 99 162
62 98 163
61 97 155
62 98 162
62 98 159
62 98 154
61 96 150
61 97 157
61 98 161
62 98 159
62 97 155
62 98 163
62 98 161
61 97 151
62 97 152
61 97 151
62 98 158
62 98 157
62 98 157
62 98 155
61 97 158
61 97 155
61 97 152
61 97 153
63 99 167
62 98 154
62 97 151
62 98 154
62 98 153
61 97 152
63 99 163
60 96 148
62 97 151
62 98 163
61 97 151
62 98 155
61 96 149
62 98 162
61 97 153
62 98 156
61 97 154
62 98 159
62 98 153
61 96 151
62 97 155
62 98 158
62 97 150
62 99 162
62 97 155
61 97 154
61 96 152
61 97 157
61 96 147
62 98 162
62 97 151
62 97 151
61 97 155
62 98 153
61 96 152
62 97 151
62 98 157
62 97 155
61 96 151
62 98 163
61 97 151
61 96 145
62 98 162
61 96 156
63 98 155
61 96 149
61 97 151
61 97 156
62 97 156
63 98 162
61 97 152
62 97 157
61 96 152
62 97 154
61 97 152
62 98 162
61 96 144
60 96 148
61 96 147
61 96 148
61 96 146
60 96 152
61 97 155
60 96 155
61 96 153
61 96 150
61 96 153
62 98 162
62 98 162
60 96 156
63 99 164
62 97 155
61 97 158
61 97 162
61 97 155
62 98 161
60 94 153
61 96 159
59 93 142
61 96 158
61 95 157
60 94 144
60 93 146
128 151 192
211 230 255
211 230 255
211 230 255
211 230 255
211 230 255
211 230 255
211 230 255
211 230 255
211 230 255
211 230 255
211 230 255
166 176 179
125 123 81
135 133 86
138 136 89
132 131 88
143 141 94
131 129 87
135 133 90
142 140 93
137 136 91
147 145 98
143 142 95
133 133 92
130 130 89
147 146 99
140 139 95
139 138 95
149 148 100
147 145 99
146 145 99
141 140 96
143 143 97
142 142 96
144 143 97
150 148 100
153 152 103
141 139 94
153 151 102
158 157 105
154 152 103
151 149 100
151 149 100
159 156 104
160 157 104
155 153 103
156 154 103
154 152 102
158 155 104
152 150 100
150 149 100
158 156 105
155 152 98
154 152 102
163 159 105
162 160 105
162 159 105
162 158 103
165 161 107
162 159 107
157 153 100
168 163 106
165 161 104
167 163 107
166 162 106
162 158 102
165 160 105
166 162 105
166 162 105
166 162 105
168 164 106
165 160 104
164 160 104
170 165 107
166 162 104
166 161 103
166 163 106
169 164 106
161 156 100
165 160 105
165 161 103
170 165 108
160 157 102
162 158 99
165 160 103
162 158 99
166 161 102
164 159 99
163 159 102
166 162 104
171 165 106
168 163 105
166 161 104
169 164 104
165 160 100
164 160 102
168 164 103
166 162 101
167 162 102
170 165 107
166 161 102
163 159 100
165 161 104
161 158 99
160 155 98
166 162 103
161 158 97
165 160 99
161 156 98
169 163 102
150 145 90
161 157 99
156 151 94
164 158 98
158 153 95
158 153 97
168 163 104
165 160 97
159 155 95
163 159 98
154 148 93
162 158 97
156 151 96
159 155 96
157 151 91
158 152 94
156 151 94
161 157 97
155 151 89
159 154 97
163 157 97
159 154 97
162 157 96
140 136 82
147 142 89
160 155 97
152 147 93
160 154 97
149 144 90
163 158 99
148 145 89
154 150 90
153 148 93
155 150 93
146 142 85
206 227 255
205 227 255
205 226 255
205 226 255
204 226 255
204 226 255
204 226 255
203 226 255
203 225 255
203 225 255
202 225 255
202 225 255
202 225 255
202 225 254
205 226 250
207 227 252
204 225 245
206 227 249
205 225 246
207 227 253
205 226 246
205 226 248
205 226 245
206 226 246
207 227 248
207 227 253
205 225 249
206 226 249
206 227 249
203 224 241
202 223 236
203 224 242
203 224 237
203 224 242
203 224 242
203 224 240
203 224 238
204 225 244
203 224 241
201 222 241
203 224 244
201 222 234
202 223 234
206 226 249
204 225 246
203 224 242
204 225 246
203 224 240
203 224 241
204 225 245
204 225 246
202 224 240
205 226 248
204 224 245
206 226 248
204 226 248
203 224 238
203 224 244
203 224 242
206 226 253
204 225 248
204 225 246
205 226 249
205 226 248
205 226 250
204 225 249
206 227 252
204 225 246
205 226 249
202 224 245
200 222 238
204 225 248
201 223 240
204 225 248
204 225 246
203 224 240
204 226 249
204 225 248
203 225 245
205 225 245
202 223 238
202 224 245
202 224 248
203 225 246
204 225 249
204 225 249
204 225 250
202 224 244
203 224 245
202 223 242
204 225 248
201 222 240
202 224 244
201 224 246
203 225 250
202 224 245
202 224 245
202 225 252
201 223 242
201 224 248
200 223 244
201 223 245
201 224 249
200 223 248
198 221 237
200 223 244
197 221 240
200 223 244
197 220 237
198 222 241
195 219 230
198 221 238
199 223 245
200 223 245
198 222 244
200 223 246
198 222 241
197 222 252
195 221 254
191 219 255
191 219 255
193 220 255
193 220 255
194 221 255
196 222 255
197 222 255
198 223 255
200 224 255
201 225 255
203 225 255
205 226 254
207 228 255
209 228 254
209 228 254
212 230 254
212 230 255
212 230 255
212 230 255
212 230 255
211 230 255
211 230 255
211 230 255
211 230 255
211 230 255
173 193 228
62 98 159
62 98 163
61 97 151
62 98 159
62 98 159
61 97 156
63 99 162
62 98 163
61 96 158
62 97 160
62 98 157
62 98 159
61 97 157
61 97 156
62 98 156
60 96 144
62 98 155
62 97 158
61 97 154
62 98 157
60 95 147
62 97 153
62 98 158
61 96 151
62 98 157
62 99 165
61 97 150
62 98 158
61 97 153
62 98 157
61 97 155
62 97 153
61 97 148
61 96 148
61 96 149
61 97 153
62 98 156
62 97 151
62 97 156
62 98 161
62 98 158
62 98 159
62 98 159
62 98 155
61 97 155
62 98 160
61 97 156
63 98 160
61 97 158
63 99 168
61 97 149
62 97 154
64 99 162
61 96 145
61 96 149
62 97 149
61 97 158
62 97 152
62 98 154
62 98 154
62 98 160
62 97 150
61 97 156
62 97 154
62 98 158
62 98 161
62 98 162
61 96 148
61 97 149
62 97 155
61 97 154
62 98 158
62 98 160
61 97 155
62 98 159
62 98 156
61 97 155
61 97 157
62 97 155
62 97 151
61 97 155
62 97 154
61 97 155
63 98 154
62 98 162
61 96 156
61 96 149
61 97 153
61 97 151
62 98 159
61 96 152
62 97 158
62 97 157
61 97 151
61 96 154
61 96 152
62 98 160
61 96 152
60 95 149
62 97 159
60 96 155
61 96 150
61 96 157
61 96 158
61 96 150
61 96 153
61 96 154
59 93 149
60 94 154
60 94 148
169 189 224
211 230 255
211 230 255
211 230 255
211 230 255
211 230 255
212 230 255
212 230 255
212 230 255
212 230 255
169 180 186
137 133 87
136 132 84
128 125 81
137 135 90
140 138 93
132 131 88
143 141 94
138 137 93
140 140 96
135 134 92
133 131 88
136 136 93
136 135 92
129 129 89
140 139 95
139 139 95
147 145 98
150 148 100
143 142 97
141 140 97
138 138 94
137 137 94
143 143 98
146 145 99
156 155 105
144 144 99
149 147 99
154 152 102
150 147 98
156 154 103
152 151 103
160 159 106
157 156 104
153 150 100
157 155 103
160 157 104
153 151 101
162 158 105
160 158 105
160 156 104
159 157 105
163 160 106
160 158 104
161 158 104
156 154 102
161 157 103
163 160 106
154 151 101
166 162 106
170 165 107
165 161 106
167 164 106
160 157 103
167 163 104
163 159 104
161 158 105
165 161 104
165 160 103
162 158 104
161 157 103
164 160 103
161 157 103
175 170 110
172 167 109
173 168 108
165 160 101
170 165 108
171 167 107
166 162 104
165 160 101
166 162 103
169 165 107
165 160 104
165 160 101
167 164 104
163 159 103
175 169 108
164 161 104
163 159 99
169 163 103
164 160 102
166 161 103
163 159 101
160 156 99
167 161 103
166 162 102
166 161 100
168 162 104
164 158 101
165 160 101
168 163 100
160 156 98
163 158 98
161 157 98
162 158 96
167 163 102
164 159 101
159 155 94
159 155 99
159 155 96
160 154 96
164 159 98
168 162 102
162 158 99
163 158 97
160 156 98
165 161 103
164 159 99
159 154 95
164 159 98
158 154 95
156 153 96
160 155 96
155 150 90
158 154 97
158 153 93
163 159 99
166 160 101
159 154 97
161 156 95
145 141 84
158 153 94
160 156 97
155 150 93
145 141 90
138 135 79
159 154 90
155 149 94
158 153 94
155 151 91
153 148 89
149 144 90
156 151 90
159 154 95
206 227 255
205 227 255
205 227 255
205 226 255
204 226 255
204 226 255
204 226 255
204 226 255
203 226 255
203 225 255
203 225 255
202 225 255
204 226 250
206 227 253
206 227 250
206 226 250
205 226 249
206 226 249
204 225 246
206 227 249
206 226 245
205 226 245
206 226 246
207 227 252
206 227 249
206 227 250
207 227 252
203 224 241
204 225 242
202 224 238
202 223 234
204 225 241
204 225 242
204 225 245
204 225 241
206 226 250
205 226 249
204 224 238
205 226 248
205 226 248
207 227 253
203 224 240
206 226 246
205 225 244
205 226 249
207 227 249
205 226 245
206 226 249
205 226 245
204 225 240
207 227 250
207 228 253
205 226 249
204 225 245
205 226 246
205 225 244
205 225 242
204 225 242
204 225 245
204 224 242
204 225 246
203 224 244
205 226 250
204 225 245
204 225 246
204 225 240
206 227 252
204 225 245
204 225 241
204 224 246
203 224 242
204 225 244
203 224 241
205 225 248
206 226 248
204 225 241
203 225 244
204 225 246
205 225 244
206 227 250
205 226 248
206 226 250
205 226 248
203 224 244
200 222 238
203 225 246
202 223 238
204 225 248
203 225 244
204 225 248
203 225 248
204 225 252
203 224 246
203 225 249
201 224 245
202 224 249
203 225 248
202 224 248
203 224 246
202 223 244
200 222 238
202 224 248
201 223 244
201 223 245
201 223 246
202 224 248
200 222 242
201 223 244
199 222 241
201 223 246
198 221 240
199 223 246
198 222 244
198 221 237
202 224 252
199 223 248
199 223 250
199 223 253
199 223 253
197 222 254
192 220 255
191 219 255
193 220 255
193 220 255
195 221 255
196 222 255
198 223 255
199 223 255
200 224 255
202 225 254
203 225 255
205 227 255
208 228 255
210 229 255
211 230 254
212 230 255
212 230 255
212 230 255
212 230 255
212 230 255
212 230 255
212 230 255
212 230 255
210 228 254
91 120 178
61 97 159
61 98 163
60 96 149
61 97 152
61 97 155
61 97 154
61 97 157
63 99 164
61 97 156
62 97 155
62 98 159
61 97 154
61 97 147
61 97 153
62 98 160
62 98 154
62 98 163
62 98 157
62 98 155
62 97 151
60 96 149
62 98 156
62 98 154
62 98 161
61 97 151
61 97 153
62 98 157
61 97 153
61 97 155
62 98 157
63 98 151
61 97 153
62 97 153
61 97 158
62 97 156
62 98 156
61 97 148
62 97 157
62 97 154
62 97 152
62 98 161
62 98 157
60 96 150
61 97 155
61 96 152
61 97 152
62 98 159
61 97 151
62 97 149
61 97 150
62 97 152
62 97 155
61 97 156
62 98 159
61 97 147
62 98 157
62 98 157
61 97 151
61 97 153
61 96 153
62 97 152
61 96 148
62 97 158
61 96 148
62 98 159
62 97 155
60 95 144
62 98 152
62 98 156
61 96 150
62 97 153
61 97 154
61 96 152
62 97 155
62 98 159
61 97 151
62 98 157
61 97 153
60 96 143
62 97 154
61 97 156
61 97 152
61 97 153
62 97 149
62 97 152
61 97 151
61 96 151
62 97 159
61 97 155
61 96 149
62 98 160
62 98 162
62 97 156
61 98 164
61 96 151
61 97 159
61 96 159
61 96 147
61 97 153
59 94 140
60 96 152
62 97 155
60 95 148
62 97 161
60 95 150
62 96 158
60 94 146
61 96 158
58 92 150
59 92 142
92 117 166
209 227 253
212 230 255
212 230 255
212 230 255
212 230 255
212 230 255
212 230 255
212 230 255
178 190 199
141 137 87
129 128 86
144 141 91
140 137 90
138 136 90
139 137 93
142 140 93
146 145 97
131 130 88
140 139 94
140 139 95
135 135 93
140 141 97
135 134 91
133 134 92
137 137 93
132 131 89
139 139 95
141 141 96
141 141 97
144 144 99
139 138 94
140 139 95
144 143 98
144 143 97
152 151 103
148 147 100
150 149 102
153 151 101
153 152 103
154 152 102
154 152 102
152 151 102
159 157 105
156 154 103
157 154 103
157 154 103
149 148 99
160 157 105
165 161 105
163 160 106
165 162 108
154 151 97
155 153 101
163 160 106
161 158 105
163 160 103
164 161 107
167 164 106
162 159 100
161 158 102
165 161 104
161 158 104
169 165 107
166 162 103
167 164 108
168 164 106
161 158 105
168 164 106
166 161 103
169 164 107
167 163 105
166 162 103
162 159 103
170 166 105
169 165 108
172 167 109
164 159 101
163 159 103
165 161 103
172 167 104
168 165 106
168 164 105
168 162 103
163 159 102
173 167 108
168 163 102
172 167 107
167 162 103
170 165 106
167 162 101
169 164 106
170 165 104
164 159 99
169 164 101
170 164 106
163 158 99
166 161 104
167 163 103
173 168 106
161 157 99
165 159 100
165 161 100
163 159 101
167 161 101
160 155 97
165 159 101
163 158 101
166 161 99
165 160 99
165 159 100
158 154 97
159 154 97
157 153 96
157 152 97
161 156 95
167 162 101
154 149 93
159 154 95
159 154 96
150 147 90
162 157 96
161 156 98
156 150 93
159 154 98
163 157 95
157 152 94
161 156 95
156 152 95
157 152 95
167 161 99
155 150 93
163 157 95
155 151 92
153 149 94
161 155 98
157 153 92
157 152 90
153 147 88
155 151 92
158 152 95
151 147 90
154 148 87
149 144 89
160 154 96
206 227 255
206 227 255
205 227 255
205 227 255
205 226 255
204 226 255
204 226 255
204 226 255
203 226 255
203 226 255
204 226 255
206 227 252
206 227 250
206 227 253
207 227 248
206 226 249
206 226 249
206 226 246
207 227 252
206 226 248
207 227 250
207 227 249
207 227 250
208 228 252
207 227 252
205 225 241
204 224 237
202 223 233
204 225 241
204 225 241
206 226 248
205 225 246
205 226 246
205 225 242
203 224 238
205 226 245
203 224 234
204 224 240
206 227 248
206 227 248
205 225 242
203 224 238
206 226 248
205 225 244
205 225 246
205 226 245
205 226 249
204 225 242
205 225 241
204 225 245
205 226 245
205 225 244
205 226 249
203 224 245
206 226 248
203 224 240
206 226 249
206 227 249
205 226 246
205 225 245
208 228 254
205 226 245
204 225 245
205 225 246
206 226 249
205 226 246
205 225 245
203 224 237
205 226 246
206 227 253
206 226 246
203 223 242
204 225 244
205 226 250
205 225 245
207 227 252
204 225 246
205 225 248
206 227 250
205 226 248
204 225 248
203 224 244
203 224 244
204 224 246
205 226 249
205 226 249
203 225 248
202 223 242
205 225 242
203 225 248
204 225 246
203 224 241
205 226 253
203 224 245
204 225 249
204 225 248
203 224 244
204 226 250
203 224 241
201 223 244
203 225 249
202 223 238
202 224 246
201 223 245
201 223 241
201 223 242
198 221 237
199 221 238
200 223 241
201 224 246
199 222 238
201 223 246
198 221 240
198 221 238
198 222 246
201 223 244
201 224 249
202 224 250
198 222 245
199 223 249
197 222 252
193 220 253
192 220 255
193 220 255
194 221 255
196 221 255
197 222 255
198 223 255
199 223 255
201 224 255
202 225 255
204 226 255
205 227 255
207 228 255
210 230 255
211 229 253
212 230 255
212 230 255
212 230 255
212 230 255
212 230 255
212 230 255
212 230 255
158 179 215
61 97 156
62 98 163
61 97 157
61 97 155
61 97 155
62 98 159
61 97 153
62 98 157
61 97 156
62 98 163
63 98 156
62 98 156
63 98 154
61 96 154
60 95 148
62 97 155
60 96 150
62 97 156
60 95 145
61 96 148
61 97 160
62 98 158
61 96 145
62 98 160
62 98 155
61 96 144
62 98 155
61 97 151
61 96 148
62 98 158
61 97 149
62 98 160
61 97 149
62 97 153
61 97 150
61 97 155
62 98 155
62 98 159
61 97 153
61 97 150
60 96 149
61 96 154
62 98 158
61 96 144
61 96 149
62 97 152
62 98 155
63 99 161
62 98 157
61 97 155
61 97 155
61 97 152
61 97 153
61 96 147
62 97 160
61 97 153
61 97 156
61 96 145
61 97 155
60 96 145
61 97 149
61 96 147
62 97 156
60 95 141
62 98 156
61 96 152
61 96 151
62 98 159
60 96 151
62 98 156
62 98 158
62 98 158
62 97 151
60 95 141
62 97 152
61 97 153
61 96 158
62 98 160
62 98 156
62 97 158
61 97 150
63 99 159
63 99 165
62 97 155
61 96 150
60 95 149
62 97 153
61 96 151
61 97 155
62 98 159
62 97 156
61 97 163
61 96 153
62 98 155
61 97 156
62 97 159
60 96 151
61 96 156
60 94 148
61 96 152
61 96 148
62 97 155
61 96 152
61 96 154
60 95 149
61 96 162
61 96 156
61 96 156
60 94 154
60 94 156
59 93 140
60 93 145
145 166 205
212 230 255
212 230 255
212 230 255
212 230 255
212 230 255
212 230 255
188 201 215
139 135 88
142 138 91
137 135 87
137 134 83
126 125 84
138 136 91
136 135 91
132 132 91
127 127 86
139 138 93
136 135 92
135 134 91
149 148 101
137 137 93
138 138 94
137 137 94
142 142 97
131 131 91
138 138 94
143 141 96
146 145 98
140 140 97
142 141 95
149 147 99
148 147 101
140 139 94
145 145 99
139 139 95
150 148 98
154 153 104
144 142 97
152 151 102
153 151 103
152 149 99
153 151 101
156 155 104
157 155 105
154 153 102
163 159 104
161 159 106
166 162 106
152 150 101
165 162 107
161 159 106
166 163 106
156 154 102
169 165 108
163 159 105
166 161 106
163 160 105
161 157 102
167 163 107
160 157 101
163 159 103
163 160 103
161 157 102
161 159 103
167 163 104
174 169 110
170 165 107
168 164 106
167 162 105
167 163 106
165 160 103
168 164 105
164 161 104
168 164 105
167 162 104
168 163 103
170 164 107
168 163 104
164 161 103
160 156 99
169 164 106
166 162 104
171 166 108
169 164 103
168 164 105
170 165 106
170 165 101
163 159 100
170 165 103
169 164 104
164 160 103
168 163 103
171 165 106
163 158 99
172 166 106
163 158 99
166 162 100
167 162 100
163 159 97
165 160 102
168 164 102
167 162 99
162 158 101
165 160 100
164 159 99
167 162 102
163 159 100
164 159 100
162 157 99
160 155 95
166 160 101
165 160 102
162 157 95
164 158 99
166 161 98
162 157 99
160 155 98
164 159 99
162 157 94
158 153 93
152 148 89
161 157 99
156 151 94
160 155 97
160 155 95
160 155 95
161 156 97
148 145 89
164 158 97
159 153 93
161 156 94
159 154 96
152 147 87
156 151 95
162 156 96
163 157 97
161 156 96
157 152 93
158 153 93
151 147 90
155 151 90
152 147 88
159 154 93
206 227 255
206 227 255
206 227 255
205 227 255
205 227 255
205 226 255
204 226 255
204 226 255
204 226 255
205 226 254
207 226 250
207 227 252
207 228 253
206 227 249
207 227 250
207 227 252
206 226 245
207 227 250
208 228 253
205 225 244
207 227 246
207 227 245
208 227 249
207 227 249
205 225 241
204 224 240
204 224 237
203 223 234
205 226 244
205 226 244
205 226 246
203 224 240
206 226 245
204 225 244
206 226 245
206 226 246
206 226 245
207 227 246
206 226 246
207 227 250
206 226 245
206 227 249
208 228 250
205 225 244
207 227 248
207 228 253
206 227 249
206 226 246
204 225 245
208 228 250
204 225 244
207 227 246
204 225 244
207 227 250
205 225 246
206 226 244
206 226 244
206 227 249
206 227 249
205 225 244
204 224 242
205 225 248
204 225 244
204 224 245
206 226 245
203 224 246
206 227 250
206 227 248
206 227 250
206 226 244
206 226 246
205 225 246
203 223 242
207 227 249
204 224 242
205 225 245
207 227 249
203 224 245
205 226 248
206 227 250
206 226 248
204 225 241
205 225 244
204 225 250
205 226 245
204 225 248
206 226 248
206 226 248
203 224 241
204 225 244
204 225 246
204 225 246
205 226 249
205 226 248
203 225 249
202 224 238
203 225 245
203 225 244
205 226 250
204 225 252
202 224 244
203 225 246
203 225 246
201 222 234
205 226 253
201 223 242
199 221 241
203 225 249
201 223 244
203 225 249
200 223 241
200 223 242
200 223 242
199 222 240
199 222 242
199 222 242
197 221 237
201 224 250
202 224 249
201 224 249
200 223 249
199 222 246
196 222 255
193 220 255
194 221 255
195 221 255
196 222 255
197 222 255
198 223 255
200 224 255
201 224 255
202 225 255
204 226 255
207 227 255
209 229 255
211 230 255
210 229 254
212 230 255
212 231 255
212 231 255
212 231 255
212 231 255
203 222 248
68 101 151
62 98 159
62 98 165
61 97 156
62 98 161
61 97 153
61 97 155
62 97 158
62 98 156
62 98 157
61 97 151
61 96 142
61 97 155
62 98 159
62 97 155
62 98 158
61 97 151
62 97 150
63 99 163
61 97 153
60 95 141
61 97 148
62 98 157
62 98 160
62 98 160
61 97 151
61 97 150
61 97 154
61 97 155
62 98 158
62 98 154
60 96 140
60 96 148
61 97 154
62 98 157
62 97 151
61 97 149
62 98 158
61 96 148
62 98 156
61 97 148
61 96 147
61 97 150
61 97 151
63 98 154
60 96 148
61 96 144
60 95 145
62 97 152
61 96 149
61 97 150
62 97 162
60 95 147
61 97 151
60 96 141
62 98 160
62 97 152
61 97 147
62 97 153
62 97 157
62 97 149
62 97 157
61 97 154
62 97 158
62 98 159
62 98 153
62 97 159
61 97 153
62 97 147
61 96 147
62 98 161
60 95 144
61 96 155
61 97 156
61 96 148
62 97 151
62 97 155
60 96 148
61 97 151
61 97 148
62 98 158
60 96 149
62 98 159
62 97 150
62 98 158
60 96 150
61 97 151
62 98 153
60 96 152
62 97 153
61 97 152
60 96 147
60 95 140
61 96 147
61 96 145
62 98 159
61 96 149
62 97 151
62 98 167
62 97 153
61 96 145
61 96 155
61 95 147
62 98 161
60 95 153
60 95 151
61 96 151
60 95 152
61 96 154
61 95 149
61 96 161
61 96 156
60 94 150
65 95 144
200 219 247
212 231 255
212 231 255
212 231 255
212 231 255
196 209 220
134 132 90
135 131 83
132 131 87
136 133 88
130 128 87
124 124 85
145 143 97
134 132 88
129 128 87
134 133 91
137 137 94
143 142 97
126 126 87
138 138 94
134 134 91
137 137 93
144 144 99
140 139 95
129 130 90
148 147 100
138 139 96
138 137 93
143 143 98
145 145 98
150 149 101
140 140 97
143 143 96
147 146 98
151 150 101
153 151 100
153 150 101
157 156 105
149 148 100
156 154 103
160 157 103
153 150 99
157 155 103
150 148 99
154 151 100
156 153 101
154 151 99
156 154 103
155 152 101
162 159 104
158 156 102
163 160 103
161 159 103
157 154 103
160 157 103
161 159 105
162 158 103
168 163 106
162 159 104
162 158 100
160 156 103
167 162 105
166 163 107
166 161 102
169 166 109
165 160 104
165 162 106
167 163 104
168 163 105
168 162 103
168 164 105
165 160 103
169 165 105
164 161 102
168 164 105
170 163 105
167 162 102
169 164 104
168 163 102
168 163 106
171 166 105
173 167 106
172 166 103
168 164 102
168 164 102
171 166 104
166 161 101
170 164 103
170 164 101
169 164 104
166 161 103
163 158 99
159 154 94
170 164 103
166 161 101
171 166 104
174 168 104
165 160 100
164 159 100
168 163 102
163 159 99
165 160 100
166 161 101
165 160 99
167 163 103
165 159 99
163 159 98
165 160 98
169 164 104
166 161 99
160 156 97
160 155 93
158 152 92
160 155 95
168 163 97
157 152 94
167 161 101
155 151 94
160 155 93
164 159 96
158 153 96
163 158 98
155 151 93
159 155 96
162 157 94
158 153 90
165 160 97
156 150 92
160 155 96
160 155 95
161 155 96
158 153 94
156 151 90
161 156 96
159 153 90
158 153 88
162 157 99
155 149 88
164 159 95
162 157 95
148 144 85
147 142 85
150 144 87
206 227 255
206 227 255
206 227 255
205 227 255
205 227 255
205 226 255
205 226 255
204 226 255
206 227 254
209 229 254
207 227 252
207 227 249
207 227 246
208 228 252
207 227 248
206 226 244
209 228 254
209 228 250
207 227 249
208 228 250
206 226 242
207 227 245
208 228 250
205 225 241
204 224 238
203 224 234
207 227 245
205 225 240
207 227 248
202 223 236
204 224 238
205 226 244
205 225 244
207 227 248
207 227 246
206 226 242
207 227 245
206 226 245
206 227 246
207 227 248
207 226 242
206 226 246
206 226 246
206 226 248
203 223 237
208 227 250
206 226 249
208 228 253
206 226 244
205 225 240
207 227 249
205 225 241
207 227 248
207 226 246
206 226 242
208 228 252
207 227 246
207 227 249
205 225 242
207 227 250
207 227 248
206 226 248
208 228 249
205 225 242
205 225 241
206 226 245
207 227 250
206 226 245
208 228 254
206 226 246
207 227 249
205 225 245
206 226 245
208 228 250
207 227 250
206 226 246
205 225 245
207 227 248
206 226 245
206 226 246
206 227 249
206 226 249
201 222 236
205 226 248
206 226 250
204 224 237
203 223 238
206 226 245
205 226 246
206 226 248
204 225 245
206 226 249
205 226 246
204 225 244
204 225 249
205 225 246
206 226 248
205 226 246
205 226 248
204 225 248
206 226 250
203 224 244
203 224 245
202 224 242
203 224 242
203 225 249
205 226 249
203 225 248
202 224 244
203 225 248
201 224 245
201 223 244
202 224 244
200 222 238
198 221 236
198 221 236
200 223 242
195 219 227
201 224 244
201 224 249
200 223 248
200 223 244
199 223 245
198 222 254
194 221 255
195 221 255
196 222 255
197 222 255
198 223 255
199 223 255
201 224 255
202 225 255
203 226 255
205 227 255
207 228 255
209 228 255
210 229 255
212 231 255
213 231 255
213 231 255
213 231 255
213 231 255
132 155 199
61 97 152
62 98 156
62 98 160
61 97 155
61 97 159
62 98 155
61 97 152
61 97 154
60 96 147
61 97 150
60 96 147
61 97 154
63 98 157
61 96 147
61 96 152
61 97 155
61 97 152
62 97 152
61 97 151
61 97 154
61 96 145
62 97 154
61 97 149
62 97 152
61 97 153
60 96 152
61 97 152
61 97 150
62 97 150
61 96 152
62 97 149
63 99 160
62 97 153
62 98 158
62 97 153
62 98 159
61 96 149
62 98 152
60 95 149
61 97 149
61 97 152
62 97 152
62 98 157
62 98 153
61 97 147
62 98 159
61 97 152
61 96 151
62 97 148
62 97 160
62 97 150
61 97 156
61 96 143
61 96 145
63 98 158
61 96 150
62 97 155
61 97 155
61 96 144
61 97 147
61 97 149
61 97 152
61 97 154
62 97 158
61 96 149
62 97 153
62 98 158
62 98 154
62 98 159
62 97 153
61 96 148
63 98 154
61 97 148
62 97 148
62 98 155
62 97 153
62 98 160
59 94 143
61 97 150
61 97 151
62 97 150
63 98 158
61 96 149
61 97 155
61 97 156
62 98 157
62 97 159
60 96 150
62 97 153
60 96 148
61 96 148
61 96 151
61 96 153
62 97 156
61 96 145
61 96 151
62 97 152
61 96 152
61 95 149
60 95 146
61 96 150
60 95 150
60 95 154
62 97 155
60 95 148
61 95 151
61 96 156
60 95 151
61 95 149
60 93 150
60 94 146
60 94 149
60 94 154
59 92 144
149 170 206
213 231 255
213 231 255
213 231 255
203 219 240
136 136 109
130 126 82
132 129 85
143 141 93
132 130 86
127 125 84
140 138 93
133 131 90
135 133 90
136 135 91
127 127 88
142 141 97
131 131 90
143 143 97
128 129 90
122 123 86
132 132 91
135 136 94
137 137 93
129 131 92
141 140 95
140 140 96
147 146 99
146 146 99
145 144 97
141 141 96
150 148 100
154 153 104
151 149 101
153 151 102
146 145 98
142 141 95
147 145 97
143 142 95
156 154 103
154 151 101
143 142 96
151 149 101
155 154 103
154 152 101
155 153 103
152 150 101
160 156 101
154 152 102
161 158 105
159 156 102
162 160 105
155 153 100
168 164 106
165 161 104
165 160 103
166 162 107
166 162 106
154 151 97
165 161 104
167 163 106
164 160 103
170 165 105
170 166 108
171 166 108
170 165 106
171 165 104
162 157 102
161 157 99
165 162 104
166 162 103
161 158 102
168 165 104
163 159 102
167 162 99
162 159 100
171 165 104
168 163 103
172 167 107
167 162 102
172 166 105
171 167 102
169 165 104
175 169 106
169 164 103
163 159 99
171 166 107
172 167 105
167 163 102
168 163 104
169 164 103
169 164 103
164 160 100
169 165 101
164 159 96
169 164 103
166 162 100
165 161 101
168 163 102
161 156 97
167 161 101
168 163 103
158 154 93
166 161 96
164 159 99
172 167 103
166 161 99
159 154 98
167 162 99
168 163 103
164 159 97
167 162 99
161 156 95
164 159 96
155 150 91
159 154 97
151 146 89
165 161 102
163 157 97
157 152 91
162 157 95
167 162 101
155 150 92
160 154 93
163 159 99
161 155 97
158 153 92
157 151 90
158 154 93
159 154 93
162 156 94
153 148 87
154 149 84
156 151 90
151 146 87
163 157 95
155 149 90
150 146 90
154 148 85
160 154 93
150 146 88
154 150 89
158 154 96
207 227 255
206 227 255
206 227 255
206 227 255
206 227 255
205 227 255
205 227 255
206 227 250
208 228 250
207 227 246
209 228 252
207 227 249
209 228 252
210 229 254
208 228 249
209 228 249
207 226 244
209 228 250
208 227 248
209 228 249
210 230 255
209 229 255
206 226 241
204 224 236
205 225 237
205 225 242
206 226 240
205 225 240
206 226 242
206 226 241
205 225 241
205 225 241
207 227 248
208 228 252
208 227 249
208 227 249
207 227 245
206 225 244
207 227 246
208 228 250
207 227 245
208 228 250
208 227 246
207 227 245
209 229 253
207 227 248
207 226 244
207 227 248
208 227 249
207 227 246
208 228 249
207 226 245
208 227 253
207 227 249
205 224 241
207 227 250
206 226 245
204 224 241
208 228 249
206 225 241
206 226 245
207 227 248
205 225 244
206 226 249
206 226 248
206 226 242
205 224 240
208 227 248
205 225 244
208 227 250
207 227 249
208 227 250
208 228 253
205 226 245
206 226 245
207 227 252
208 227 248
206 226 244
206 226 244
205 226 246
206 227 249
208 228 252
206 226 245
206 226 248
206 226 245
204 225 245
207 227 246
204 225 245
207 227 249
206 227 249
205 226 249
207 227 252
205 225 245
206 227 252
205 226 249
205 225 242
206 226 248
205 226 244
203 224 245
205 226 245
203 224 242
204 225 242
205 226 250
205 226 250
203 224 240
204 225 245
203 224 244
204 226 252
202 223 242
203 224 248
203 225 246
201 222 240
203 225 250
203 225 249
203 225 249
199 221 233
201 223 242
199 222 238
202 224 246
200 223 245
202 224 245
203 225 248
200 223 248
201 224 249
198 222 249
195 221 255
195 221 255
196 222 255
197 222 255
198 223 255
200 224 255
201 224 255
203 225 255
204 226 255
206 227 254
209 228 255
210 229 255
210 229 249
213 231 254
213 231 255
213 231 255
196 215 242
61 97 158
61 97 155
62 98 162
62 98 158
60 96 150
62 97 155
62 98 159
62 98 159
62 98 155
62 97 154
61 96 145
61 97 156
62 97 149
60 96 148
61 96 144
62 97 156
62 97 155
62 98 158
61 97 155
60 96 143
62 98 157
61 96 150
62 98 156
61 97 145
62 97 157
61 97 153
61 96 147
61 96 148
61 97 152
62 98 152
62 97 150
61 96 147
62 98 155
62 97 154
61 96 151
62 98 152
61 96 148
61 97 150
62 97 152
60 96 145
60 95 136
62 98 155
62 98 156
60 96 140
62 97 153
61 97 152
61 97 150
61 97 152
63 99 162
62 98 164
61 96 145
61 97 152
61 97 147
62 97 150
62 98 158
61 97 157
63 98 157
62 97 151
62 97 153
61 97 147
61 97 145
61 97 152
60 96 141
62 98 158
61 97 148
61 96 152
61 97 156
61 97 153
61 97 158
61 97 151
59 94 143
61 97 158
62 98 161
62 98 153
62 97 147
61 97 156
62 98 153
61 96 152
62 97 152
62 98 157
60 96 145
61 96 150
62 97 149
61 96 145
62 98 154
61 96 148
61 96 155
61 96 153
61 97 153
61 96 148
62 97 160
60 95 148
60 96 140
61 96 150
61 97 151
62 97 157
61 96 148
62 97 152
61 96 145
62 97 151
62 97 155
60 95 148
61 96 148
61 96 156
60 95 146
60 95 153
61 96 149
60 94 146
60 95 151
60 94 140
60 96 152
61 95 154
59 93 144
61 95 151
60 95 155
66 97 146
200 218 246
213 231 255
211 229 253
159 166 159
133 130 86
124 120 76
124 122 81
130 129 86
131 132 90
138 136 92
133 132 88
127 126 86
127 126 85
135 133 91
129 128 87
130 130 89
133 134 93
134 134 93
138 139 96
138 138 94
137 137 95
141 141 97
139 139 95
140 141 97
140 141 96
139 139 96
136 137 95
143 143 98
148 145 97
140 140 96
146 144 97
141 141 96
148 146 98
145 144 98
153 150 99
150 149 101
147 147 101
151 149 101
149 147 98
153 152 102
151 149 100
153 151 102
152 151 102
156 154 102
155 153 102
147 146 98
162 158 104
161 158 102
159 157 104
155 154 102
166 164 109
166 162 106
164 160 103
164 159 103
164 161 104
171 166 107
160 157 100
168 164 107
166 161 105
166 161 102
165 160 101
167 162 104
170 165 106
166 163 104
167 163 104
170 165 105
167 162 103
167 162 103
170 166 105
166 162 103
169 164 104
171 165 105
172 167 106
168 163 103
175 169 107
163 159 101
172 167 105
171 165 103
163 158 101
166 163 104
172 166 104
163 158 97
170 165 104
163 158 100
171 165 102
172 166 104
169 163 99
169 164 101
167 162 103
171 166 105
166 162 102
166 160 100
166 161 99
166 162 101
169 164 99
166 161 101
170 164 99
165 160 98
168 163 99
166 161 96
162 157 97
166 161 100
166 161 97
170 164 104
158 154 95
171 165 103
166 161 99
161 156 99
161 157 97
163 158 99
161 156 94
166 160 98
162 157 96
167 161 98
160 156 93
160 155 95
171 165 101
161 155 94
167 161 99
168 163 99
163 158 95
162 156 94
163 159 96
154 149 87
162 156 95
161 155 96
159 154 93
156 150 91
157 152 95
155 151 95
157 152 93
162 156 97
155 149 92
157 151 93
151 147 84
152 147 93
157 152 90
158 153 93
155 151 91
165 159 97
160 155 95
150 146 84
207 228 255
207 227 255
206 227 255
206 227 255
206 227 255
206 227 255
206 226 250
209 228 252
209 228 250
208 228 249
209 229 250
209 228 248
208 227 245
209 229 254
210 229 250
209 228 248
209 228 249
208 227 245
209 229 253
208 227 248
210 229 250
206 226 241
206 226 244
207 227 245
205 225 237
206 226 242
205 225 237
205 225 240
209 228 250
206 226 240
207 227 245
207 227 246
207 227 245
208 228 248
206 226 244
204 224 244
207 227 242
207 226 244
207 226 244
208 228 250
206 225 241
207 227 242
204 223 244
208 227 249
209 228 252
206 226 242
209 228 249
207 226 246
206 226 242
207 226 244
207 227 248
210 229 254
206 226 242
207 227 244
207 227 245
207 227 249
209 228 250
207 227 245
207 227 244
208 228 249
207 226 245
206 226 246
209 228 250
206 226 244
207 227 245
208 227 245
206 226 248
207 227 248
207 226 244
206 226 242
205 225 245
205 225 241
207 227 246
206 226 245
207 227 250
206 226 248
208 228 250
208 227 249
207 227 249
207 227 249
207 227 250
207 227 248
208 227 250
207 227 248
208 227 249
207 227 249
209 228 252
205 225 244
208 227 248
207 226 244
206 226 245
207 227 245
205 225 246
205 226 245
207 227 250
206 226 246
207 226 245
205 225 248
205 225 241
205 225 242
203 224 241
206 226 249
205 226 250
204 225 241
205 226 248
204 225 244
202 223 240
204 225 245
204 225 246
203 225 245
205 226 246
204 225 245
203 224 244
204 225 246
203 225 248
202 224 242
202 224 244
201 224 244
200 222 240
197 220 228
201 223 242
203 225 252
202 225 249
203 225 253
200 223 244
200 224 254
196 222 255
196 222 255
197 222 255
198 223 255
200 224 255
201 224 255
202 225 255
204 226 255
205 227 255
207 227 254
209 229 255
210 229 254
211 229 250
213 231 253
213 231 255
140 161 194
62 98 161
62 98 164
61 97 152
62 98 161
61 96 157
63 99 165
61 96 150
61 97 152
61 97 149
61 97 152
61 96 154
61 97 149
63 99 162
62 97 149
62 98 155
61 97 156
61 96 150
61 97 149
61 97 156
62 98 159
62 98 157
61 97 145
61 97 151
62 98 153
62 97 147
62 97 154
60 95 141
61 96 148
61 97 149
61 97 145
62 98 154
62 98 156
63 99 160
61 97 151
61 96 145
60 95 144
62 97 150
62 98 155
60 95 141
63 98 155
61 97 150
62 98 154
60 95 144
61 97 148
60 96 144
61 97 156
62 98 156
62 98 154
63 98 155
61 96 150
62 98 156
61 96 152
62 97 149
62 97 150
61 97 151
60 96 140
61 96 149
62 98 161
62 97 152
62 98 160
61 96 145
62 97 149
61 96 153
61 96 149
62 97 147
61 96 152
61 96 151
61 97 150
61 96 144
61 97 154
60 96 150
61 97 145
60 95 147
61 96 145
61 97 159
61 96 144
61 97 148
61 96 151
61 97 152
62 97 147
61 96 148
61 96 151
62 98 159
61 97 153
62 97 156
63 99 160
62 98 159
60 96 148
61 97 148
61 96 147
61 97 148
60 96 149
61 97 154
61 97 149
60 95 152
61 96 149
61 97 149
61 96 148
61 96 151
61 97 155
59 94 143
61 96 151
62 97 155
60 95 142
61 96 152
60 95 150
61 96 155
61 96 157
60 95 150
61 96 154
58 92 145
60 94 142
61 96 154
60 93 150
59 92 149
59 93 145
146 166 198
213 231 255
178 188 191
125 123 78
134 132 88
128 126 84
129 127 84
128 127 84
137 135 90
136 136 92
132 131 90
128 127 86
120 120 84
124 126 87
135 135 93
124 126 88
131 131 92
128 128 89
128 128 89
131 132 92
137 136 92
142 142 97
137 137 93
135 136 93
143 143 98
139 138 95
142 142 96
138 137 93
142 140 95
138 137 93
145 145 99
145 145 100
138 138 94
146 145 96
149 149 101
143 142 96
151 150 98
157 154 103
153 150 99
156 153 100
159 156 101
155 153 100
153 150 98
161 158 105
162 158 103
151 150 98
155 151 99
155 152 100
158 155 102
162 159 104
158 154 101
165 161 102
161 157 99
159 155 100
166 162 105
164 161 106
165 161 105
167 163 105
162 158 99
166 162 103
166 162 106
168 164 107
168 163 105
166 162 102
172 166 105
166 162 105
166 162 102
169 164 102
165 161 102
170 165 104
169 164 105
173 168 108
165 162 102
169 164 106
171 166 106
169 164 103
169 164 104
168 163 103
165 160 101
169 165 103
173 166 103
170 165 104
170 164 103
168 162 98
171 165 106
167 162 99
168 163 103
167 162 103
166 161 100
170 165 101
166 161 97
168 163 99
166 161 97
170 165 103
169 163 100
170 165 103
165 160 97
164 159 97
164 159 99
166 160 99
168 162 102
164 158 93
159 154 93
161 157 95
166 161 100
165 160 99
163 158 94
165 159 96
165 159 94
173 167 103
157 153 90
158 152 93
163 158 93
164 158 98
166 160 98
159 155 89
160 154 90
162 157 95
163 158 97
164 159 96
162 157 99
164 158 95
160 154 93
158 152 93
164 158 99
162 157 99
157 152 90
168 162 101
165 158 93
154 149 89
165 159 94
154 149 87
160 154 94
158 152 90
153 147 88
156 151 92
162 156 91
157 151 91
157 151 90
161 156 93
157 152 90
159 153 92
207 228 255
207 228 255
207 227 255
207 227 255
206 227 255
207 226 249
209 228 252
208 227 246
210 229 253
209 228 250
209 228 248
208 228 248
205 225 240
209 229 253
211 230 255
209 228 250
207 226 244
208 227 245
209 228 249
206 225 242
206 226 241
207 227 244
206 226 240
206 225 237
206 226 241
207 227 242
206 226 240
206 226 241
207 227 242
208 227 245
209 228 248
208 227 245
207 226 242
208 228 248
209 228 250
210 229 250
207 227 245
206 226 245
208 228 249
209 229 252
207 227 248
207 226 240
209 228 248
208 227 249
210 229 252
208 228 248
207 227 246
206 225 244
206 226 242
208 227 244
209 228 250
206 225 245
209 228 248
209 228 248
207 226 249
207 226 244
206 225 242
208 228 250
209 228 250
208 227 246
209 228 248
207 226 245
208 227 248
206 226 245
208 227 246
207 226 244
208 227 246
207 226 244
209 228 248
210 229 253
202 222 241
208 227 245
209 228 246
208 227 245
208 228 250
208 227 246
208 227 248
208 228 250
207 226 245
206 226 250
207 227 246
209 228 250
207 226 244
207 227 246
205 225 241
209 229 253
205 225 242
206 226 242
207 227 248
205 225 241
207 227 250
208 228 250
206 225 248
207 227 246
205 225 244
207 227 252
207 227 249
207 227 246
205 226 248
205 225 244
206 226 246
205 226 245
205 226 246
207 228 253
205 225 245
203 224 242
204 225 246
207 227 250
204 225 246
204 225 244
204 225 248
204 225 245
202 224 244
204 225 245
204 226 252
203 224 248
203 225 248
202 223 241
203 224 245
200 223 238
200 223 240
202 223 240
203 225 249
202 224 248
202 224 249
202 224 252
200 224 252
196 222 255
197 222 255
198 223 255
199 223 255
201 224 255
201 224 255
203 225 255
205 226 255
206 227 255
208 228 255
210 229 255
212 230 255
213 231 253
204 222 246
67 101 159
61 97 160
62 98 155
62 98 157
62 97 153
63 98 158
61 97 153
61 97 149
61 97 155
62 97 154
61 97 158
62 97 153
61 97 151
62 97 155
61 97 153
61 97 155
61 97 153
61 96 149
61 96 141
62 97 149
62 98 156
61 97 152
62 98 157
61 96 148
60 96 140
62 98 152
61 96 143
62 97 156
62 98 154
60 95 142
61 96 152
62 97 153
62 98 154
61 96 147
63 98 158
62 98 157
61 97 147
61 97 153
61 97 152
60 96 147
61 96 147
62 97 152
62 97 155
61 96 149
62 98 161
61 96 145
62 97 158
61 96 147
62 97 153
62 98 156
61 97 157
62 97 153
61 96 145
61 96 149
61 96 145
62 97 156
61 97 150
63 98 157
61 97 152
60 96 140
61 96 151
61 97 152
61 96 143
61 96 142
61 97 155
61 96 145
62 98 155
61 97 147
61 96 150
62 97 149
61 96 147
61 96 147
63 98 158
61 96 147
61 97 150
60 96 147
62 98 155
61 97 147
62 97 152
61 96 145
61 97 152
61 95 142
60 94 141
61 97 151
61 97 153
61 96 154
62 97 152
62 98 162
62 97 148
62 98 158
61 96 153
61 96 152
61 96 146
61 96 148
60 94 146
60 95 145
61 96 149
61 95 146
61 96 150
61 97 155
60 94 142
62 97 155
61 96 147
61 97 155
60 94 142
61 96 151
61 95 145
59 94 142
61 96 149
61 96 154
62 96 155
60 95 147
61 96 158
59 93 143
60 93 146
61 95 154
59 93 145
72 102 161
184 198 216
135 132 88
129 126 81
121 119 78
126 123 80
135 134 88
131 130 89
123 121 82
131 130 88
133 133 90
121 121 84
126 127 89
137 137 94
128 129 88
134 134 94
128 129 91
128 130 90
128 128 90
136 136 93
129 129 89
125 127 90
134 134 91
135 135 93
134 135 93
130 130 90
149 148 100
141 140 96
145 144 97
148 146 98
136 137 94
136 135 91
141 141 95
154 153 101
146 145 96
153 151 102
149 147 99
150 149 99
164 160 107
144 143 96
156 154 101
154 151 98
152 150 97
153 150 97
154 152 103
157 155 102
163 159 100
160 157 101
153 151 99
156 153 97
156 153 100
164 161 101
164 160 101
161 158 102
162 158 101
167 163 105
166 162 99
159 155 99
168 164 104
167 162 105
165 162 104
166 162 100
166 162 103
173 168 105
162 158 99
172 167 108
170 166 106
168 163 102
169 164 103
168 164 103
164 160 105
169 164 103
165 160 100
167 162 100
169 165 105
171 164 104
173 167 103
169 164 103
171 165 104
168 163 101
170 165 103
170 165 102
172 166 104
165 162 100
166 161 98
171 165 103
169 164 103
166 161 102
169 165 100
171 166 104
167 162 100
170 165 104
172 167 104
160 155 93
170 163 101
168 162 99
169 163 101
168 162 100
165 160 98
167 162 100
170 164 103
171 165 102
172 166 103
162 156 95
159 154 98
162 156 95
160 156 92
159 154 94
163 158 95
169 164 100
170 163 99
170 164 100
167 161 97
160 156 93
160 155 97
159 154 92
156 151 89
165 158 97
165 159 98
162 157 97
162 158 96
167 161 100
165 160 90
160 155 92
162 157 99
157 152 91
160 154 96
153 149 87
157 151 90
165 159 95
163 157 94
160 154 93
156 151 91
158 152 91
160 155 96
158 152 90
157 152 90
148 144 87
161 156 96
159 153 92
162 155 95
156 152 90
208 228 255
207 228 255
207 228 255
207 228 255
207 227 250
209 228 252
209 228 249
210 229 253
209 228 249
210 229 253
210 229 252
209 228 245
211 230 252
208 227 245
209 228 248
210 228 252
210 229 248
210 229 252
210 228 249
207 226 241
205 225 237
207 226 237
206 225 244
207 226 244
207 226 240
208 227 246
207 226 244
207 226 245
209 228 248
206 225 236
208 227 247
208 227 246
209 228 246
211 230 254
205 224 241
207 226 244
208 227 242
207 226 242
209 228 248
210 228 248
205 224 242
209 228 246
208 227 246
209 227 246
208 228 250
208 227 248
208 227 245
207 226 245
209 228 252
209 228 246
209 228 249
208 227 246
209 228 248
208 227 244
208 227 248
208 227 246
208 227 244
207 226 246
206 225 237
209 228 248
210 228 249
209 228 250
208 228 248
207 226 245
208 227 249
209 228 250
205 224 240
207 227 246
206 225 245
209 228 248
209 228 250
206 225 242
208 227 245
207 226 242
208 227 246
208 228 249
208 227 245
208 228 246
205 225 241
209 228 250
209 228 248
209 228 249
206 226 244
205 226 242
209 228 250
207 227 248
208 228 252
207 226 244
207 226 242
207 227 250
206 226 245
207 227 246
208 228 250
207 226 244
208 228 254
207 227 246
207 226 250
208 228 250
207 226 249
206 226 246
207 227 248
208 228 250
207 227 249
206 226 248
206 226 249
206 227 248
204 225 242
205 226 246
204 225 244
205 226 245
205 225 245
206 226 246
203 224 240
203 224 240
205 226 246
205 226 245
204 225 246
205 226 249
203 225 244
203 225 246
201 223 238
202 224 245
201 223 241
204 225 248
204 225 249
203 225 250
203 225 248
200 224 253
197 222 255
198 223 255
199 223 255
200 224 255
201 224 255
202 225 255
204 226 255
205 226 255
207 227 255
209 229 255
209 229 255
211 230 255
147 168 203
61 96 155
61 97 153
62 97 154
62 97 157
61 96 147
61 97 153
61 96 149
62 98 154
61 96 153
60 95 143
62 98 155
62 98 160
62 97 154
62 97 150
61 96 150
61 96 152
62 97 149
61 97 154
62 97 151
62 98 159
61 96 148
63 98 157
61 97 151
59 94 140
60 95 142
61 96 147
62 97 153
61 96 147
62 97 156
62 97 151
62 97 158
61 96 148
62 97 150
61 96 147
61 96 150
61 96 152
62 97 151
61 96 145
61 96 141
62 97 148
62 97 149
61 97 151
62 97 151
61 96 151
61 96 142
62 97 150
61 96 150
61 97 149
60 95 145
61 96 144
62 97 154
62 98 156
62 97 150
61 97 152
62 97 150
62 98 157
62 97 153
61 96 142
62 98 160
61 96 152
62 97 154
62 97 147
60 95 142
63 98 156
62 97 152
62 97 151
62 97 152
61 96 148
62 97 151
59 94 143
61 96 145
61 97 150
62 97 151
62 98 154
61 97 153
61 96 145
61 96 152
60 96 141
61 96 152
61 96 147
61 97 153
62 97 150
61 97 151
61 97 151
61 96 150
62 97 153
60 95 143
62 97 155
61 96 148
61 96 145
61 97 150
61 96 148
61 97 155
60 95 141
62 97 157
60 96 144
61 96 140
62 97 149
61 96 151
62 97 154
60 94 141
63 98 157
62 97 155
61 95 150
61 97 155
61 97 155
60 95 144
59 93 141
61 95 146
60 95 148
61 96 152
60 94 146
61 95 155
59 93 140
62 96 152
60 94 149
58 91 136
58 90 142
93 106 129
137 133 84
129 127 84
124 123 80
128 126 85
133 130 87
119 119 82
108 110 78
129 130 89
121 122 86
120 121 83
120 121 86
136 137 94
127 128 89
117 118 82
119 121 84
119 120 83
132 132 91
130 130 90
140 141 97
132 132 91
130 131 91
133 133 91
140 141 97
129 131 91
141 141 95
147 145 97
136 136 93
145 144 97
130 131 90
142 141 97
147 146 98
147 146 99
149 147 97
150 148 98
154 151 101
149 147 100
145 144 98
150 149 99
158 155 102
156 154 101
156 153 99
151 149 96
159 156 103
159 155 101
155 152 101
158 154 98
158 155 98
161 157 102
155 152 100
164 160 104
169 164 103
161 158 103
161 158 102
159 155 100
165 161 105
158 155 97
166 161 103
169 164 104
171 166 107
165 162 102
167 163 101
171 166 104
167 163 105
168 163 104
169 165 102
166 161 101
166 162 102
172 166 105
169 164 106
173 167 103
172 167 105
171 165 99
168 161 98
171 165 105
171 166 102
171 165 99
173 167 104
166 161 101
170 165 102
170 165 100
171 166 102
172 166 104
166 162 99
171 166 101
174 168 105
169 163 101
169 163 99
172 166 103
168 162 99
169 164 101
166 161 99
172 166 100
171 166 103
167 162 101
167 162 99
169 164 99
167 162 98
168 163 96
170 165 103
165 159 99
159 155 95
170 164 103
170 164 97
170 163 97
167 162 97
175 168 102
168 163 97
167 162 98
166 161 97
166 159 98
164 158 97
165 159 97
161 156 95
161 157 94
164 158 97
165 159 94
164 158 94
165 159 95
165 159 93
160 154 93
163 157 91
172 165 99
168 163 97
159 154 92
160 154 88
163 158 97
162 155 96
158 153 91
165 159 94
159 154 95
156 152 89
151 145 90
160 155 90
153 148 87
152 147 90
154 147 89
158 153 91
153 148 90
162 156 97
154 148 83
208 228 255
208 228 255
207 228 255
209 229 255
210 229 254
210 229 250
211 230 254
210 229 249
210 229 252
210 229 252
210 229 252
210 229 249
210 229 252
210 229 249
211 230 253
210 229 249
210 228 248
208 227 244
207 226 238
206 225 236
206 225 240
208 227 242
206 225 238
207 226 238
206 225 236
208 227 244
209 228 249
206 226 241
209 228 246
207 226 244
204 224 236
209 228 244
209 227 246
208 227 245
210 228 248
208 227 245
206 225 243
209 228 248
207 226 238
207 226 238
207 226 247
208 227 245
209 228 246
210 229 253
209 227 248
208 227 244
209 228 246
209 227 246
208 227 246
209 228 250
208 227 248
207 226 242
206 226 237
208 227 244
208 227 249
210 229 252
207 226 244
206 225 240
209 228 253
208 227 244
209 227 244
209 228 250
209 228 248
208 227 248
209 228 249
210 229 252
209 228 248
209 227 249
208 227 244
209 228 249
208 228 249
207 226 245
206 225 238
207 226 248
209 227 242
206 225 244
210 229 253
207 226 246
209 228 248
209 228 248
209 228 248
206 225 242
209 228 246
208 227 248
206 225 241
208 227 246
209 228 252
208 227 248
206 226 244
209 228 252
206 226 244
209 228 249
209 228 250
207 227 248
207 227 248
208 227 245
208 227 242
208 227 248
208 227 249
206 225 245
208 227 246
209 228 250
208 227 249
207 227 246
208 227 249
206 226 248
208 228 254
206 226 245
204 225 238
207 227 246
206 226 246
206 226 245
204 225 241
206 226 249
204 225 241
205 226 246
206 226 248
204 225 245
204 226 248
203 224 242
204 225 248
203 225 245
200 222 237
202 224 244
203 224 238
204 226 250
203 224 246
204 226 250
200 223 252
198 223 255
199 223 255
200 224 255
201 224 255
202 225 255
204 226 255
205 227 255
206 227 255
207 228 255
209 229 254
203 222 249
70 103 157
62 98 160
62 97 150
61 97 157
62 98 157
62 97 155
62 98 161
62 98 157
61 97 152
61 97 148
61 96 137
62 98 157
61 96 142
63 98 157
61 97 149
61 96 149
61 96 145
61 96 144
60 95 145
61 96 148
61 96 147
61 97 151
61 97 152
61 97 152
59 94 142
60 96 144
61 96 156
61 96 154
62 97 155
60 96 143
62 97 150
61 97 150
62 98 150
61 97 143
63 98 155
60 96 151
61 97 150
62 97 153
60 95 141
60 95 149
63 98 159
61 96 140
61 96 151
61 97 154
61 96 145
61 96 151
60 96 143
62 97 148
61 97 155
61 96 139
61 96 144
61 96 142
61 96 147
62 97 147
61 96 143
62 97 149
61 97 148
61 96 150
62 97 150
61 96 153
62 97 152
61 96 141
62 97 153
62 98 155
61 96 144
61 96 144
60 95 147
60 96 147
61 97 147
60 95 142
61 97 151
61 97 152
61 96 143
62 98 161
60 95 150
61 97 154
62 98 160
61 97 152
62 98 156
62 97 154
60 95 142
60 96 145
61 97 151
61 97 145
62 98 155
62 97 153
62 97 149
63 98 155
62 97 154
62 97 151
61 97 154
60 95 147
61 97 152
62 97 147
61 96 146
61 96 151
60 95 148
62 97 156
61 96 146
61 97 152
61 96 147
60 94 144
61 95 148
61 96 147
60 94 141
59 94 137
60 94 140
60 94 145
59 93 142
61 96 147
62 97 155
60 94 147
61 96 149
61 95 153
60 95 154
62 96 154
60 94 146
59 93 145
60 94 143
66 93 131
129 127 88
134 131 87
130 128 83
127 125 82
124 124 85
128 128 88
123 124 85
119 119 82
113 115 80
113 115 81
122 122 84
127 128 88
125 126 89
117 119 83
122 123 86
136 136 94
127 127 88
119 121 86
126 127 88
124 125 88
127 128 88
121 123 87
142 141 96
126 127 89
134 134 92
131 131 90
135 136 92
130 130 90
140 140 94
147 147 100
141 142 97
139 139 94
153 151 99
149 147 98
150 148 97
144 144 98
154 152 102
158 155 103
157 154 100
149 147 97
155 152 99
159 157 103
158 156 101
163 160 107
154 151 98
157 154 99
160 157 104
158 154 99
165 160 102
165 161 103
157 153 95
158 154 96
158 155 100
163 159 102
164 160 102
165 161 103
167 163 104
167 163 105
161 158 99
168 163 99
168 164 102
165 161 98
166 162 102
173 168 102
163 159 98
172 168 104
161 157 95
169 164 103
174 168 104
170 165 101
170 165 101
169 163 101
166 162 101
167 161 100
170 164 100
170 165 101
169 165 101
164 159 98
174 169 107
166 162 100
173 167 100
171 165 101
164 159 95
171 166 99
171 165 102
171 166 104
170 164 97
166 161 99
170 164 99
169 165 102
164 158 97
174 168 103
170 164 102
173 167 103
162 156 93
172 165 100
166 162 97
168 162 97
171 166 103
164 159 95
166 161 90
163 157 97
164 159 95
171 165 100
163 157 99
161 156 93
169 163 100
170 164 95
165 159 99
169 163 100
162 156 92
161 156 96
161 156 89
162 157 94
166 161 95
168 162 99
165 159 93
163 158 95
165 159 95
165 159 97
157 151 89
163 157 95
168 161 95
165 159 97
166 161 97
167 162 101
162 157 96
152 147 83
163 157 92
157 152 93
153 148 87
161 155 96
163 156 95
153 148 90
154 148 85
160 154 93
163 157 94
146 140 80
149 144 84
154 148 87
208 228 255
208 228 255
208 228 254
208 227 248
211 229 250
210 229 250
208 227 246
211 230 253
212 230 253
210 229 248
210 229 249
210 229 248
210 228 246
210 228 248
211 230 252
210 229 249
211 229 249
208 227 241
207 226 237
208 227 242
209 228 246
208 227 246
209 228 246
207 226 241
208 227 240
209 228 248
207 226 241
211 229 252
207 226 246
209 228 246
210 228 248
208 226 241
211 230 254
208 227 244
209 228 246
209 228 248
207 226 244
211 230 253
210 229 249
211 230 250
207 226 245
207 226 241
209 228 244
210 228 250
206 225 240
211 230 252
209 228 248
211 229 250
209 228 249
208 227 246
207 226 245
210 228 246
209 228 244
210 228 248
208 227 245
210 229 248
211 229 249
211 229 252
209 228 245
208 227 242
208 227 246
208 227 248
209 227 248
209 228 246
208 227 248
208 227 248
211 230 253
210 228 246
210 228 246
210 229 252
209 227 246
205 224 242
210 229 252
206 225 233
210 228 248
207 226 241
209 228 246
209 228 250
209 228 250
210 229 250
208 228 248
209 228 249
207 226 248
210 229 252
207 227 245
209 228 249
205 225 238
208 228 249
209 228 250
211 229 254
207 227 246
207 226 245
208 228 248
207 227 244
209 228 249
209 228 248
211 229 254
207 227 245
210 229 252
209 228 248
208 228 252
209 228 249
207 226 244
208 227 249
207 227 245
208 228 249
207 227 246
207 227 248
208 228 249
208 228 250
206 226 244
206 226 248
208 228 250
208 228 252
207 227 248
206 226 245
205 226 249
202 224 240
203 224 240
204 225 246
205 225 245
203 224 242
203 224 242
201 223 233
202 224 241
204 226 252
204 226 249
202 224 240
205 226 250
199 223 253
199 223 255
200 224 255
201 224 255
202 225 255
203 225 255
204 226 255
206 227 255
207 228 255
208 228 255
167 188 221
61 97 145
60 96 149
61 96 151
61 97 149
61 97 152
62 98 154
61 97 151
61 96 145
62 97 152
60 96 145
61 97 150
61 96 151
62 98 155
61 97 149
61 97 155
62 98 154
61 96 150
61 97 148
61 96 152
61 97 150
60 95 143
61 97 151
62 97 147
62 98 159
62 97 152
61 97 153
61 96 145
61 96 144
62 98 162
61 96 143
62 97 148
61 96 149
60 95 145
61 96 143
61 97 150
61 97 153
61 96 143
62 97 151
62 97 153
61 96 145
63 99 161
61 96 144
61 97 152
62 97 151
62 98 153
60 95 143
62 97 152
62 97 147
61 97 150
62 97 151
61 96 136
61 96 147
62 97 153
61 96 152
62 98 150
61 97 147
60 96 142
60 96 147
62 98 155
60 95 148
60 96 152
62 97 151
62 97 152
62 98 155
61 96 144
62 97 151
61 97 144
61 96 150
61 96 150
61 97 153
61 96 145
61 96 153
62 97 153
62 98 150
60 95 136
60 95 139
62 97 153
60 96 148
62 97 149
61 96 141
60 96 151
62 97 157
60 95 153
62 97 150
59 94 131
60 96 142
62 97 155
61 97 152
61 96 145
61 96 147
61 97 150
62 96 155
60 95 147
61 96 148
62 97 155
61 96 147
61 96 144
62 97 154
60 94 136
60 95 149
61 97 153
61 96 147
62 97 153
61 96 150
60 95 144
59 94 141
61 96 151
61 96 152
61 97 152
61 96 153
60 95 147
61 95 150
59 93 138
60 94 142
60 94 143
60 94 147
60 94 152
59 92 144
59 92 142
57 89 141
103 108 101
132 130 84
123 122 81
121 121 80
121 120 82
130 130 89
121 122 84
107 110 78
122 122 84
120 120 84
113 116 83
124 126 88
124 125 87
124 126 88
128 129 90
125 126 88
121 123 85
132 133 92
133 133 93
130 130 90
128 130 91
134 134 93
126 128 90
131 131 90
133 133 90
144 143 95
142 141 95
144 143 97
138 138 92
139 139 93
142 140 95
143 143 96
153 152 101
146 144 98
147 145 97
155 152 101
141 140 95
142 141 93
157 154 100
149 147 95
148 147 96
158 154 100
153 150 98
163 157 101
160 157 102
157 154 101
160 156 100
159 154 98
164 161 106
158 155 99
160 157 101
160 157 102
162 158 102
161 158 101
166 163 103
164 160 102
170 165 106
164 160 102
160 156 98
164 160 102
163 157 96
166 162 102
168 163 102
170 165 103
169 164 102
167 162 103
165 160 95
170 165 103
169 163 101
173 168 105
172 166 102
170 165 104
173 167 105
168 162 100
169 164 102
169 162 99
168 163 97
170 165 102
169 164 102
173 167 101
171 167 101
171 164 100
172 167 105
168 163 99
167 162 97
171 165 104
169 164 101
171 166 102
166 160 92
168 163 99
171 165 100
162 157 94
169 164 101
172 166 101
165 160 97
166 160 100
165 160 95
167 162 100
164 159 98
166 160 96
164 159 97
166 160 97
166 162 94
169 162 98
167 161 98
164 158 97
166 160 98
168 163 100
159 154 93
162 157 93
172 166 96
164 158 97
167 161 94
164 158 95
171 165 99
159 154 87
162 158 94
164 159 95
163 158 95
164 158 92
157 152 88
160 155 92
161 156 92
164 158 93
157 151 93
162 156 94
162 155 90
162 156 95
154 149 90
158 153 94
160 154 87
154 149 87
158 151 90
154 149 86
160 154 89
161 155 93
159 153 91
149 144 84
159 152 91
154 148 84
209 229 255
209 229 255
210 228 250
211 229 250
212 230 253
211 229 252
211 230 250
210 229 248
212 230 249
210 229 250
213 231 255
213 231 254
211 229 249
211 229 249
209 227 242
210 229 246
212 230 253
204 224 230
206 225 234
205 224 234
208 227 240
207 226 238
208 227 244
208 227 241
206 225 241
208 227 244
208 226 241
210 229 248
209 228 244
211 229 248
208 226 244
209 227 244
210 228 245
209 227 245
210 228 246
208 226 242
207 226 244
207 225 244
209 228 244
209 227 250
209 227 246
212 230 252
210 228 248
209 228 245
210 228 245
210 228 248
210 228 246
209 228 246
206 225 245
207 226 241
208 227 241
210 228 246
209 227 244
208 227 244
208 226 245
209 228 244
210 229 246
210 229 248
211 230 253
210 228 249
210 229 250
210 228 245
208 226 242
211 229 249
209 228 249
209 227 242
207 225 245
210 228 248
209 228 242
208 226 242
207 225 245
207 226 244
210 229 248
209 228 249
209 227 249
207 226 241
207 226 240
209 228 246
208 227 244
210 229 252
208 226 245
210 229 250
209 228 249
209 228 248
210 229 249
207 226 244
207 226 244
209 227 245
208 228 250
209 228 248
207 226 241
207 225 240
208 227 245
207 226 240
207 226 246
209 228 248
209 228 249
208 227 248
209 228 249
208 227 248
208 227 248
207 227 248
207 226 245
208 227 246
207 226 248
207 226 245
208 227 245
206 226 240
207 227 245
208 228 248
208 227 249
206 226 245
206 226 245
206 226 241
204 225 242
207 228 252
207 226 246
204 224 238
206 226 248
206 227 249
204 225 240
205 226 249
205 226 249
204 225 244
204 225 245
204 225 241
206 226 250
203 224 242
203 225 246
203 224 244
200 224 254
200 224 255
201 224 255
202 225 255
203 225 255
204 226 255
205 227 255
207 227 255
208 228 255
116 141 185
61 96 147
61 97 155
61 96 155
62 97 152
61 97 149
61 96 156
60 96 145
61 96 148
61 96 153
60 95 139
61 97 152
60 96 144
62 98 152
61 97 147
61 96 142
60 96 149
63 98 158
61 97 149
60 95 142
60 96 142
60 95 140
59 94 144
61 96 151
61 97 148
61 97 151
61 96 147
62 97 150
60 96 145
61 96 148
61 96 144
62 97 147
61 96 148
61 97 150
60 95 141
62 97 152
61 96 148
62 97 150
60 96 141
61 96 148
62 97 154
62 98 156
63 98 157
61 97 152
61 96 143
60 95 142
61 97 149
60 95 141
62 97 152
61 97 155
61 96 148
62 97 145
61 96 140
61 96 144
60 95 145
61 96 144
61 96 145
61 96 143
60 95 142
60 95 145
62 97 157
62 97 149
61 96 151
61 96 141
62 97 154
61 97 148
60 96 141
61 97 151
61 96 148
61 96 142
60 95 142
61 96 146
62 97 153
62 97 150
61 97 155
61 97 148
62 97 150
60 95 144
61 96 143
61 97 155
62 97 155
62 97 152
61 97 154
59 94 134
61 95 142
60 96 143
60 95 147
60 96 147
62 98 153
61 95 142
62 97 156
59 94 142
61 96 151
60 95 142
62 97 151
62 97 153
60 94 140
61 96 142
62 97 156
61 96 151
61 96 147
62 97 155
62 97 154
61 97 153
60 95 149
61 97 146
61 96 154
59 93 147
61 96 148
62 97 159
61 95 149
60 95 146
59 93 143
61 96 149
60 95 149
60 94 145
61 96 148
59 92 144
59 92 139
59 92 147
59 93 151
76 98 118
125 123 83
114 113 73
125 124 84
122 122 85
126 126 87
118 119 83
124 124 87
117 119 83
123 124 88
113 114 80
121 122 85
118 120 85
126 127 89
123 125 87
119 121 85
131 132 92
127 127 89
124 125 88
123 124 86
129 130 90
126 128 89
126 127 87
130 131 89
135 135 93
141 142 98
149 148 99
130 130 88
147 146 95
144 143 94
145 145 99
134 134 90
139 139 95
143 142 96
148 146 95
154 151 97
153 152 100
152 150 100
155 151 99
144 143 94
151 149 99
155 152 99
153 150 100
152 150 97
156 153 97
156 154 98
156 153 100
161 158 100
166 162 103
154 152 96
165 161 101
164 160 104
164 161 102
165 161 100
166 162 104
166 162 101
166 161 100
161 158 101
164 160 102
168 163 98
166 163 100
169 163 99
171 166 102
166 161 99
169 163 100
172 166 104
171 165 99
169 163 100
171 165 103
169 164 100
168 163 101
168 164 100
167 163 101
162 157 97
167 162 98
170 164 102
171 166 104
170 164 98
171 165 99
170 164 98
171 164 101
171 165 101
170 164 99
172 167 106
176 170 105
176 170 103
170 165 99
169 164 101
167 163 100
170 165 100
169 163 97
167 161 98
170 165 101
172 166 101
167 162 93
174 168 101
171 165 101
168 163 98
169 163 97
169 164 100
168 162 97
163 158 94
163 158 92
168 162 101
165 160 99
169 162 99
170 164 101
165 159 96
165 160 98
166 160 95
167 162 97
167 162 97
160 155 93
164 157 93
163 157 93
164 159 95
157 151 87
169 163 99
162 156 91
159 153 88
165 159 97
153 148 84
160 155 92
159 154 88
168 161 98
156 150 85
161 156 94
156 150 89
156 151 88
159 153 90
162 156 94
157 152 90
164 157 96
162 157 95
157 152 89
151 147 86
164 157 90
147 142 84
157 153 91
153 148 84
209 229 255
210 229 254
211 229 250
211 230 252
211 229 250
211 229 249
213 231 253
212 230 250
211 229 246
213 231 254
212 230 252
212 230 252
213 231 255
212 230 252
211 230 250
211 229 246
210 229 249
209 228 244
209 228 244
210 228 246
210 228 245
210 228 246
207 226 237
210 228 248
208 227 240
209 227 244
209 228 245
211 230 250
211 229 249
212 231 254
211 229 248
211 229 249
209 228 246
210 228 248
208 226 243
208 227 245
206 224 238
212 230 252
208 226 246
208 226 241
211 230 252
209 228 244
209 227 245
211 229 250
209 228 242
209 227 242
209 228 244
209 228 244
210 228 245
209 227 244
208 226 241
208 227 245
209 227 246
212 230 253
208 226 246
210 229 249
210 228 245
210 228 245
208 227 241
209 228 246
209 228 244
211 229 249
208 227 246
208 226 246
210 228 248
209 228 248
207 226 241
210 228 249
210 228 249
209 227 248
210 229 250
209 227 248
207 226 241
210 228 250
210 228 248
209 227 246
209 228 248
210 229 252
211 230 252
209 227 248
207 226 249
208 227 242
210 228 250
210 229 250
208 227 244
211 229 249
209 227 245
208 227 241
209 228 248
208 227 244
210 229 250
208 226 242
209 228 250
209 228 249
208 227 245
209 228 245
208 227 249
210 229 248
206 226 244
206 225 241
209 228 249
207 227 244
209 228 252
208 226 245
208 227 246
209 228 246
209 228 248
209 228 249
209 228 250
207 226 241
208 227 248
204 224 233
208 228 249
208 227 248
208 227 248
206 226 244
206 225 240
208 227 248
208 227 248
206 226 242
206 226 245
204 224 244
205 225 248
204 224 247
201 222 242
203 224 245
201 221 246
204 224 250
202 223 249
206 226 248
204 225 250
201 224 254
201 224 255
202 225 255
203 225 255
204 226 255
205 227 255
206 227 255
198 218 245
63 98 142
61 96 153
61 96 143
62 97 149
60 96 143
61 97 151
62 98 160
62 97 156
62 98 159
61 97 149
60 96 148
61 96 150
62 97 152
61 96 143
60 95 139
61 96 145
61 96 145
61 96 145
61 97 150
62 98 153
61 96 142
61 96 143
61 96 148
60 95 144
60 95 140
63 98 151
61 97 145
60 95 140
61 96 142
61 96 147
61 96 149
62 97 145
61 97 144
61 96 140
60 96 140
61 97 148
62 97 151
61 97 148
61 96 145
62 97 149
62 97 157
61 96 149
61 97 152
63 99 160
61 96 141
60 95 144
60 96 147
60 95 134
62 97 149
61 96 145
62 97 152
62 97 154
62 97 153
60 96 147
61 97 152
60 95 142
61 96 144
62 97 150
61 97 148
60 96 141
62 97 151
62 98 153
61 97 152
61 96 148
63 98 154
61 96 140
60 95 145
61 95 142
62 98 155
61 96 145
63 98 155
62 98 157
62 97 152
61 96 141
61 97 153
61 97 150
61 96 149
61 97 155
60 95 141
61 97 149
61 96 149
61 96 151
62 97 155
60 95 148
60 95 139
60 96 144
61 96 148
60 95 147
61 96 148
61 96 147
61 96 143
61 97 151
60 95 143
61 96 144
60 95 140
61 96 142
61 97 153
61 96 150
61 96 148
61 96 153
61 96 148
60 95 140
60 95 148
60 95 144
60 94 145
60 95 152
61 95 142
58 92 139
60 94 145
61 95 148
61 95 150
59 94 143
62 97 158
60 94 146
60 93 136
59 94 138
62 97 155
60 94 145
58 91 141
59 93 148
59 91 139
57 88 134
112 114 94
119 119 81
115 115 77
116 116 80
98 101 72
101 104 75
120 121 84
118 119 82
117 119 84
109 111 79
111 113 81
119 121 84
112 116 83
125 126 87
122 123 85
127 127 88
126 126 87
125 126 88
139 138 94
134 134 91
131 131 89
123 125 86
143 143 97
131 131 90
136 136 90
139 138 93
139 139 94
130 131 90
140 139 94
133 132 87
142 141 93
138 137 92
152 150 99
146 145 93
161 157 102
156 153 97
146 144 93
145 143 93
155 153 100
150 148 96
150 147 96
150 147 95
160 156 98
153 150 95
157 153 98
154 152 97
157 155 98
157 153 96
163 159 100
160 156 99
160 157 98
162 159 98
165 161 102
163 159 101
163 159 102
160 157 98
166 162 99
171 166 104
161 156 97
164 160 98
170 165 102
170 164 102
162 158 96
168 163 101
170 165 100
165 161 101
167 162 101
172 166 102
171 165 103
166 161 100
171 166 101
166 161 97
171 165 99
173 166 103
168 162 98
167 161 100
170 165 101
171 165 103
170 165 99
172 166 103
170 165 99
169 163 97
167 162 95
174 168 106
168 162 97
169 164 95
168 162 102
167 163 99
166 160 95
171 164 97
166 161 95
172 165 99
171 165 101
171 166 102
165 161 96
166 160 95
168 163 97
166 161 99
167 162 95
167 161 98
163 158 91
166 160 95
169 164 101
162 156 97
168 163 96
168 162 97
170 164 95
164 159 94
161 156 90
169 162 98
168 162 96
165 160 92
164 158 92
168 162 95
171 164 98
162 156 95
162 157 96
158 153 90
164 158 93
163 158 92
156 150 84
168 162 96
156 151 90
164 158 95
165 158 96
162 157 93
163 157 93
164 158 92
159 153 90
160 155 93
155 150 83
164 158 91
162 155 91
159 153 89
160 155 87
161 156 91
156 151 87
160 154 91
157 151 84
210 229 253
211 229 249
211 230 250
212 230 252
213 231 254
214 231 253
212 230 253
211 229 249
213 230 249
212 230 250
211 229 249
212 230 249
211 229 248
212 230 253
211 230 250
211 229 248
209 228 242
209 227 241
210 229 246
209 227 241
211 229 248
208 227 238
210 228 244
210 228 246
210 228 242
208 226 240
212 230 252
209 227 244
210 229 246
210 228 245
213 230 253
210 228 246
210 228 245
209 227 242
211 229 249
212 229 251
210 228 248
208 226 242
208 227 241
211 229 250
211 229 249
212 230 250
212 230 250
210 228 246
212 230 250
209 227 241
210 228 245
211 229 246
212 230 250
210 229 246
213 231 255
208 226 241
210 228 245
211 229 248
212 230 252
210 229 248
209 227 244
211 229 249
211 229 252
211 229 248
210 228 246
209 227 246
211 229 250
207 225 241
210 228 248
210 228 249
209 228 244
213 231 255
206 224 240
208 226 246
210 228 246
208 226 241
210 228 244
209 227 245
209 227 245
210 228 245
211 230 252
209 228 246
210 229 250
207 225 242
210 229 248
210 229 246
211 229 253
212 230 253
212 230 253
208 227 245
211 229 250
207 226 245
209 228 246
209 227 244
211 230 250
208 227 245
207 226 236
207 226 242
210 228 246
209 228 245
211 229 252
209 227 249
209 228 246
209 228 244
210 229 249
208 227 245
209 228 250
209 228 250
209 228 250
209 228 246
208 227 242
210 229 252
208 227 249
209 228 246
210 229 254
210 229 254
210 229 253
207 227 245
207 226 241
206 226 244
206 226 246
208 228 254
208 227 250
204 223 240
206 226 240
203 223 240
202 222 243
205 225 244
199 220 231
202 223 240
200 220 238
207 226 245
203 223 238
202 222 244
202 223 244
201 223 251
201 224 255
202 225 255
203 226 255
204 226 255
205 227 255
206 227 255
161 182 217
62 98 158
62 97 147
61 97 150
61 96 151
61 97 150
60 95 136
61 96 151
61 97 153
61 96 149
60 95 142
60 95 143
61 97 154
61 97 147
61 97 152
61 96 149
62 97 150
60 95 141
61 97 148
61 97 153
61 96 136
61 96 144
62 98 155
61 96 141
60 96 145
61 96 149
62 97 151
63 98 154
61 96 148
61 97 148
61 95 134
60 95 143
61 96 145
62 97 148
60 95 141
61 96 143
60 95 140
62 97 140
61 96 141
61 96 143
60 96 144
61 96 144
61 97 145
61 97 152
63 99 157
61 96 150
60 96 151
61 96 141
60 95 140
60 96 148
61 97 149
60 95 141
61 96 147
62 97 150
60 95 139
61 96 143
60 96 150
60 94 139
62 97 152
61 97 148
61 96 149
61 96 142
61 96 145
60 95 137
60 95 141
62 97 153
61 96 145
61 96 145
60 96 137
61 96 147
62 97 152
62 97 144
59 94 136
61 97 150
59 94 134
61 97 150
60 95 143
61 96 152
61 96 147
62 97 151
61 96 145
62 97 147
62 97 156
60 95 145
61 96 151
60 95 142
61 96 143
62 97 150
60 95 145
61 96 143
61 95 142
61 96 145
62 97 151
60 94 140
62 97 154
61 95 148
61 96 153
61 96 147
60 95 146
61 96 147
59 94 142
61 96 150
59 93 139
61 95 145
62 98 158
60 95 146
60 94 149
61 96 143
61 96 153
61 96 147
61 96 148
60 95 138
60 94 147
59 93 142
60 94 145
59 93 144
61 96 146
60 93 144
59 93 150
59 93 147
60 95 145
59 92 139
58 90 140
93 104 114
117 118 82
114 114 79
123 123 84
114 116 83
111 112 77
114 116 81
117 119 83
116 118 82
106 108 76
120 121 84
121 123 86
118 121 85
112 114 81
118 120 84
110 113 79
117 117 81
114 116 80
125 127 89
130 131 89
128 129 88
130 131 90
125 126 86
130 131 87
133 133 89
135 136 95
139 138 93
143 142 93
140 138 90
135 134 89
146 144 95
152 149 97
148 147 96
148 146 95
145 144 94
148 146 95
148 146 95
155 151 97
149 147 94
147 146 95
151 149 95
160 157 98
157 153 95
155 153 99
160 157 98
151 149 96
159 156 102
160 157 100
157 154 95
162 159 99
162 157 99
154 151 94
164 160 98
166 162 102
166 161 100
165 160 101
163 160 100
172 167 107
169 165 101
167 163 101
167 163 104
169 165 104
166 161 100
167 162 100
171 165 103
165 160 96
170 165 100
172 166 100
169 165 105
166 160 97
167 162 96
173 167 102
170 164 97
169 163 99
171 165 97
171 165 98
166 161 97
171 164 101
172 166 105
171 166 101
170 165 103
169 163 100
172 166 97
171 165 100
173 167 101
172 166 100
167 162 94
171 165 99
171 165 99
172 166 101
171 165 99
168 162 95
171 165 97
171 165 101
170 163 99
167 161 93
165 160 92
170 164 103
167 161 95
166 160 92
171 164 98
167 160 91
160 155 93
167 162 93
159 154 88
174 168 103
168 161 93
166 160 97
165 159 91
164 158 93
163 157 90
173 167 100
167 161 96
163 158 94
160 156 92
166 160 96
169 162 97
160 154 88
162 157 92
158 153 90
165 159 91
162 157 96
161 155 90
163 157 92
165 159 94
158 152 91
161 155 91
164 159 93
167 161 94
160 155 95
156 151 86
153 148 87
150 145 84
155 149 86
159 153 91
152 147 81
151 146 87
158 152 86
153 146 81
212 230 252
212 230 249
212 229 249
212 230 249
212 230 249
210 228 242
212 230 252
211 229 248
212 230 249
213 231 252
209 228 244
212 230 250
211 229 244
213 230 252
210 228 246
211 229 248
211 229 249
210 228 246
210 229 246
211 229 249
210 229 245
210 229 245
207 225 238
210 228 249
211 229 246
210 228 242
211 229 245
211 229 246
211 229 244
210 228 245
211 228 246
211 229 249
212 230 249
211 228 248
209 227 242
211 229 244
210 229 245
211 229 246
213 230 252
212 229 246
210 228 247
209 227 245
212 230 252
207 225 244
212 230 248
208 227 244
212 229 250
213 230 249
208 226 244
211 229 249
211 229 248
211 229 244
211 228 246
211 229 249
212 229 248
212 230 249
211 229 248
211 228 248
210 228 246
208 227 245
211 229 248
211 229 250
208 226 242
210 228 249
211 230 253
211 229 250
207 225 244
210 228 246
209 227 246
207 225 241
205 223 240
209 228 244
213 231 254
210 228 245
210 228 249
207 225 245
207 226 242
211 229 248
210 228 246
207 226 241
209 227 244
211 229 249
209 228 250
211 229 249
213 231 254
211 229 250
210 228 246
210 228 244
212 230 253
210 229 246
209 227 245
211 229 252
211 229 249
210 229 248
211 229 249
207 226 241
209 228 246
211 229 248
209 227 245
211 229 250
209 228 246
210 228 248
209 228 248
210 228 249
210 228 248
209 228 246
209 227 248
210 229 249
209 228 250
210 229 250
209 228 245
210 229 249
209 228 246
209 228 248
207 226 244
206 225 246
199 219 236
208 227 246
202 221 236
208 227 246
207 227 250
204 224 241
202 222 244
201 221 237
204 224 243
201 221 238
199 219 237
203 223 240
200 220 242
200 220 246
199 220 242
202 221 246
201 223 252
197 220 250
202 225 254
204 226 255
205 227 255
206 227 255
99 126 159
59 95 131
62 98 154
60 95 139
61 97 148
62 97 148
61 96 149
60 95 141
60 96 147
62 97 148
61 97 153
62 97 154
61 97 150
60 95 135
61 96 147
62 97 152
61 96 149
61 97 147
62 97 156
61 96 144
61 96 143
61 96 150
61 96 140
61 96 143
61 96 148
61 97 156
62 98 151
60 95 133
62 97 153
62 97 152
61 96 144
61 96 148
60 96 150
62 97 142
61 96 142
61 96 145
61 96 134
61 96 150
60 96 148
62 97 150
61 97 148
60 95 135
61 96 144
62 97 145
61 96 141
61 97 153
62 97 150
61 97 149
60 95 141
62 97 154
60 95 141
60 94 141
60 95 139
61 96 140
60 96 149
61 96 145
61 97 145
61 97 150
61 97 147
61 97 151
61 96 143
60 94 136
60 94 141
61 95 145
60 95 137
61 96 147
61 96 148
62 98 157
61 96 148
61 96 141
60 96 137
61 97 148
61 97 150
60 96 144
61 97 149
61 96 147
61 97 145
61 96 143
61 96 143
62 97 152
62 97 155
60 96 144
60 95 137
61 95 143
62 97 149
61 96 145
61 95 148
60 95 139
61 97 147
61 96 148
60 96 141
60 95 139
60 95 145
60 95 141
60 95 142
60 94 140
59 94 141
60 95 137
60 95 148
60 95 139
62 97 148
60 95 141
61 96 149
62 97 153
60 95 148
62 97 152
61 96 154
59 93 137
60 94 148
59 93 143
61 95 153
60 94 144
60 94 139
61 95 137
60 95 146
60 94 141
59 92 136
61 95 148
59 93 148
59 93 139
60 93 141
58 91 132
58 91 136
69 92 129
99 101 73
103 104 72
108 109 76
114 115 79
107 108 76
109 111 78
102 106 75
117 119 83
108 110 78
92 96 71
106 108 77
112 114 81
112 115 78
109 112 80
119 120 83
117 119 84
117 119 83
130 132 91
131 131 91
122 123 86
139 139 94
141 141 96
135 136 93
139 139 93
136 136 90
138 138 94
144 143 95
140 139 93
141 140 93
146 145 94
135 134 88
139 139 88
152 150 97
142 141 91
146 144 96
150 148 96
147 145 93
150 148 95
144 142 91
156 153 98
150 149 96
153 150 95
157 154 99
160 157 101
158 153 94
159 156 98
161 158 101
162 158 98
160 156 94
167 163 102
162 158 97
164 159 98
162 158 97
163 159 100
158 155 97
161 157 101
170 164 103
163 158 97
166 162 101
164 160 94
170 165 103
166 162 98
171 166 102
175 169 102
165 161 95
167 161 96
169 164 99
171 165 98
171 166 104
168 162 96
171 166 97
171 165 100
171 165 100
169 163 97
163 158 91
171 165 100
168 163 96
173 167 98
171 165 95
175 169 104
166 161 95
167 162 95
173 167 101
171 164 97
169 163 99
171 164 95
165 160 94
171 165 99
168 163 94
164 158 88
170 164 104
170 164 94
167 161 98
170 163 95
166 160 94
173 166 97
165 160 89
161 157 93
164 158 93
164 159 93
169 163 99
162 157 89
166 161 95
168 162 95
167 161 92
170 164 96
161 156 92
166 161 95
167 162 95
161 154 91
167 161 95
160 154 93
172 165 98
165 159 91
168 162 94
164 160 94
155 150 86
164 159 94
159 154 87
165 159 94
158 152 87
163 158 93
165 159 93
163 156 93
159 154 92
159 153 92
160 155 93
160 154 88
164 158 90
157 150 88
160 154 92
161 155 93
164 157 89
160 154 88
162 156 91
156 151 90
159 152 89
160 154 92
212 230 248
213 231 252
212 230 250
213 230 252
212 230 248
213 231 253
213 230 252
212 230 246
213 231 252
213 231 250
213 230 249
212 230 248
213 231 250
212 230 249
213 231 252
207 225 230
207 226 236
209 228 241
210 228 244
210 228 242
211 229 245
212 230 249
208 226 241
209 227 243
211 229 244
210 228 245
210 228 246
210 228 246
209 226 244
212 230 248
209 227 248
208 226 241
210 228 241
211 229 245
210 228 244
212 230 252
212 230 252
211 229 248
210 228 242
211 228 242
213 230 250
211 228 248
212 229 248
211 229 248
211 228 250
212 230 250
210 228 245
211 229 248
211 229 245
211 229 246
209 227 241
210 228 245
210 228 248
209 227 245
211 229 245
211 228 248
208 226 245
207 225 244
211 229 248
212 230 252
211 229 248
211 229 249
212 230 250
209 227 241
211 228 246
211 229 248
209 227 245
208 226 242
210 228 246
210 228 249
210 228 248
211 228 244
211 229 252
210 228 246
209 226 242
210 228 248
209 227 246
209 226 246
210 228 246
209 227 249
212 230 249
210 228 246
209 227 246
212 230 250
211 229 248
209 228 241
209 227 242
209 227 245
211 230 253
210 228 248
210 228 248
210 228 245
212 230 250
210 228 245
209 227 245
208 227 242
212 230 252
211 229 248
211 229 249
209 227 244
209 227 244
209 227 242
210 229 248
211 229 249
210 229 249
211 229 249
209 228 242
210 228 246
210 229 249
211 229 250
209 228 246
209 228 248
211 229 252
209 228 245
206 225 244
201 220 240
205 224 244
201 220 237
206 225 244
205 224 243
206 225 241
205 225 236
203 222 237
205 225 240
202 222 235
203 222 240
205 225 244
200 220 231
202 222 243
204 224 246
201 221 240
205 225 250
199 219 244
197 219 249
200 222 253
202 224 253
205 226 255
195 216 246
64 99 150
62 98 154
60 96 146
62 98 148
61 97 148
61 97 149
63 98 159
61 96 142
61 97 149
61 96 144
61 96 149
61 96 147
59 94 141
60 96 142
61 96 145
62 97 148
62 97 152
60 95 139
60 95 144
61 96 151
60 96 144
61 96 148
62 97 151
62 97 149
62 98 152
60 95 137
61 96 136
62 97 151
60 96 149
61 96 147
61 96 140
62 98 153
60 96 150
61 96 142
62 97 145
61 96 142
61 96 140
60 95 145
62 98 153
62 97 150
62 98 158
62 97 150
61 97 148
61 96 141
60 95 137
62 98 152
62 98 150
61 97 152
61 97 147
61 97 150
60 94 140
61 97 144
62 97 145
61 96 139
62 97 149
62 97 147
61 95 139
61 97 150
62 98 152
61 96 144
62 98 153
61 97 149
61 97 148
61 96 143
60 95 143
61 96 140
62 97 151
61 96 141
61 97 148
60 95 147
62 97 156
61 96 143
61 96 150
61 96 147
61 96 148
60 95 140
62 97 148
59 95 136
60 95 142
60 95 145
59 94 135
60 96 147
61 97 154
61 96 150
62 97 150
61 97 150
61 97 144
61 96 143
61 96 148
61 96 148
60 96 143
61 97 151
60 95 139
60 95 145
61 97 148
60 95 147
61 97 144
60 95 144
61 96 146
61 96 148
60 95 144
60 95 149
60 95 141
61 96 147
61 97 156
61 96 147
59 93 139
61 96 151
61 96 152
59 93 139
59 92 136
61 96 149
60 94 138
60 94 140
60 95 145
60 94 144
59 93 145
61 95 150
59 93 142
60 93 142
60 93 146
59 94 146
58 90 139
57 89 138
99 103 82
110 112 77
107 109 75
101 103 73
105 107 74
89 92 67
112 114 80
98 102 73
120 121 84
108 111 79
116 119 85
103 106 75
111 114 82
115 117 82
114 116 80
119 121 85
117 119 84
122 124 86
127 128 90
128 129 88
118 120 85
124 125 86
125 127 88
135 135 91
139 138 93
141 140 94
149 147 95
143 142 94
136 136 92
145 143 94
147 146 98
141 140 95
144 142 95
141 139 91
153 150 98
148 146 93
152 149 94
161 157 97
147 146 94
153 151 96
156 153 100
159 155 99
153 151 95
153 150 93
158 156 96
159 156 100
158 155 92
160 157 98
160 156 99
162 157 98
162 158 94
163 158 100
165 160 94
166 161 102
165 161 99
162 157 97
166 162 101
169 165 104
170 164 102
164 160 97
171 166 102
169 163 97
170 165 100
170 164 98
168 162 103
167 163 98
174 168 104
166 161 98
169 163 98
168 164 97
169 164 96
171 165 96
171 166 99
170 164 96
173 168 101
173 168 102
168 163 96
174 168 103
168 163 95
171 165 98
170 165 99
164 159 94
167 161 94
170 165 99
165 159 93
172 165 99
167 163 95
170 165 99
168 162 88
170 164 97
170 164 98
168 163 97
168 162 97
169 164 95
170 164 99
167 161 98
167 161 93
172 165 100
170 164 98
170 163 99
163 158 90
172 166 99
165 159 93
171 165 98
167 162 90
167 161 95
172 165 102
165 159 91
166 161 94
164 159 95
161 156 90
165 160 95
165 158 90
165 159 93
158 153 90
163 156 90
161 156 91
161 155 91
164 159 90
165 158 90
153 148 81
162 156 94
158 152 90
158 153 84
160 154 88
159 153 85
165 159 95
165 160 92
156 150 84
162 156 91
157 151 90
159 153 89
154 149 84
160 154 87
161 155 87
161 155 89
154 148 85
155 150 85
214 231 253
213 231 250
212 230 248
212 229 245
212 230 249
213 230 250
214 231 253
213 230 252
214 231 253
213 231 250
212 230 248
213 231 250
214 231 250
214 231 252
210 228 240
211 229 242
209 228 240
211 229 246
211 228 242
210 228 240
210 228 241
211 229 245
209 226 240
209 227 241
212 230 249
211 229 244
211 229 246
208 226 238
210 228 244
212 230 248
213 230 249
213 230 250
212 230 246
211 229 248
210 228 245
211 228 248
211 229 245
213 230 249
212 229 249
211 229 246
212 229 244
212 230 248
214 231 252
209 227 242
212 229 245
211 228 246
210 228 241
211 228 246
212 230 249
212 230 249
212 229 248
211 229 244
212 229 245
211 229 246
210 228 241
210 228 246
210 227 246
212 230 248
210 227 242
211 229 246
211 229 245
212 230 250
211 229 249
211 228 246
213 230 252
211 229 252
208 226 241
210 228 246
211 229 248
209 226 244
210 227 245
210 228 245
209 227 246
209 227 245
207 225 242
212 229 249
212 229 250
210 228 246
212 229 250
211 229 245
212 230 252
211 229 246
212 229 246
208 226 246
210 228 248
210 228 244
213 230 252
209 228 244
209 227 244
211 229 246
209 227 246
209 228 248
210 228 246
210 228 246
211 229 246
210 228 240
212 230 250
212 230 249
212 230 250
211 229 249
212 230 252
209 228 244
209 228 244
209 228 244
211 229 248
211 230 252
212 230 252
210 229 248
210 228 246
211 229 250
210 229 250
211 230 252
211 229 250
206 225 244
200 218 239
208 226 247
202 220 238
199 218 236
206 225 238
204 223 245
202 221 240
206 224 247
205 224 246
201 221 238
205 225 244
206 225 244
206 225 242
202 222 239
202 222 238
208 228 246
205 224 245
204 224 244
205 225 249
200 221 246
198 220 250
203 225 254
202 223 252
162 184 218
61 96 140
63 99 159
61 96 147
61 96 151
61 96 145
61 96 144
60 95 144
61 96 149
61 97 148
61 96 145
62 97 151
62 97 149
60 96 140
61 97 148
62 97 151
61 96 142
62 98 154
60 95 133
60 95 139
59 94 136
60 95 144
62 97 149
60 96 149
60 95 134
61 96 143
61 97 148
60 95 148
62 97 154
60 96 143
61 96 144
61 96 142
62 97 149
61 95 141
60 96 142
61 97 147
61 97 145
61 96 148
61 96 141
61 97 144
62 97 150
60 95 134
59 95 133
60 96 139
61 97 145
61 96 149
62 97 148
60 95 136
61 96 149
61 96 151
61 96 149
61 97 142
61 96 147
61 96 147
62 97 149
61 96 141
61 96 145
61 96 147
61 96 144
61 96 137
61 97 154
61 96 147
61 96 135
61 96 149
61 95 144
61 96 143
59 94 136
61 96 145
61 96 154
61 96 150
61 97 148
61 95 143
62 97 149
60 95 141
60 96 144
61 97 147
61 96 147
60 95 149
61 96 144
61 95 140
60 94 139
61 96 145
60 95 142
61 96 139
61 96 142
61 96 148
61 96 146
61 96 147
60 96 148
61 96 145
60 95 140
62 97 150
61 96 145
61 96 152
60 94 141
60 95 142
61 96 143
61 96 145
60 94 139
62 97 150
60 95 148
60 94 141
60 95 145
59 94 132
61 96 143
61 96 144
60 95 147
60 95 145
59 93 137
61 95 141
61 96 147
60 94 142
60 95 140
59 92 131
60 94 139
60 94 147
59 93 141
60 94 139
59 93 143
60 95 144
59 92 133
58 91 145
58 91 141
58 90 137
57 88 135
81 95 105
110 110 75
95 97 69
99 102 72
101 104 73
101 103 74
113 116 82
104 107 75
104 107 76
99 103 74
111 113 80
107 109 79
112 114 81
117 119 84
115 116 81
112 114 80
119 120 82
112 114 80
123 123 81
116 119 85
123 125 86
132 132 87
131 132 87
130 130 91
122 122 81
140 138 90
127 127 86
137 137 88
139 138 91
144 142 93
140 140 93
145 143 92
144 143 94
143 141 92
145 144 94
148 147 97
141 140 90
151 149 95
150 149 91
154 152 95
152 150 97
154 151 96
161 157 100
164 159 102
161 157 101
152 150 96
157 154 93
157 154 93
152 149 90
159 155 94
164 160 99
166 161 100
166 161 100
169 164 100
168 163 102
169 165 101
167 162 100
169 164 101
169 163 99
174 169 105
169 164 97
170 165 102
167 163 97
170 165 97
165 160 93
164 160 98
174 169 103
169 165 101
170 164 96
168 162 101
168 163 95
168 163 98
170 164 99
165 160 94
172 166 103
171 166 99
174 168 101
173 166 100
167 161 96
171 165 99
168 162 95
172 166 95
173 167 102
168 163 97
162 156 90
172 166 101
174 167 99
174 167 99
166 160 97
166 160 92
167 161 94
168 162 94
170 163 95
167 161 96
169 162 100
167 161 93
165 160 95
169 163 95
163 158 91
168 163 95
164 158 90
168 162 95
170 163 95
165 159 92
173 167 99
170 163 95
168 161 89
169 163 97
166 160 90
168 163 95
167 160 93
154 148 89
159 153 89
165 159 89
165 158 95
159 154 86
164 158 93
163 157 91
163 157 94
158 152 90
166 160 97
160 153 88
160 155 90
164 158 94
163 157 90
160 154 86
167 162 93
154 148 82
165 159 95
150 145 80
158 153 87
162 155 87
156 152 90
155 151 84
157 151 85
151 146 86
154 149 84
157 152 85
213 231 252
214 231 253
214 231 253
215 232 253
213 230 249
215 232 254
215 232 253
214 231 250
213 230 248
211 229 245
213 230 248
214 231 248
212 230 252
212 230 249
210 228 238
212 230 246
210 228 244
212 229 245
210 228 240
211 229 242
211 228 244
211 228 244
210 228 240
210 227 243
212 229 246
214 231 250
210 228 240
212 229 245
210 228 241
211 228 240
212 229 245
211 228 246
213 230 248
211 228 244
212 229 248
210 228 243
212 229 246
213 230 248
214 231 250
213 230 249
212 229 244
210 228 244
213 230 249
214 231 252
214 231 252
212 229 246
212 230 249
210 228 240
211 229 244
215 232 253
209 227 244
210 228 244
209 227 245
211 228 248
214 231 250
212 229 250
212 229 250
211 229 245
210 228 245
213 230 249
209 226 244
210 228 248
213 230 252
207 225 238
213 230 252
211 228 248
209 227 245
211 228 249
209 227 244
211 228 245
212 230 248
211 229 248
213 230 249
208 225 242
212 229 250
210 228 246
209 227 238
213 231 252
213 231 250
209 227 246
209 227 246
210 228 244
210 228 249
211 228 242
212 230 250
210 228 248
212 230 252
211 229 246
211 228 249
206 225 240
211 229 246
211 230 250
211 229 249
213 230 252
211 229 246
212 229 246
212 230 250
209 228 244
213 231 253
211 228 242
210 228 245
213 230 252
210 228 248
209 227 244
210 228 244
208 227 244
210 229 244
210 229 246
211 229 250
211 229 248
213 231 254
206 225 239
206 224 240
206 225 242
202 220 246
202 221 242
205 223 244
202 220 240
205 224 240
199 218 237
206 224 244
200 219 239
199 218 232
197 216 233
204 223 241
199 218 234
204 223 240
199 218 238
201 221 239
206 225 245
205 224 246
204 223 242
205 225 246
201 221 245
200 221 250
199 220 250
203 224 252
129 153 197
60 96 141
61 96 149
61 96 152
60 96 153
62 97 153
59 94 134
61 97 149
62 97 149
60 95 136
61 97 147
61 97 152
61 97 143
62 97 155
61 97 151
62 97 150
60 95 145
60 95 141
60 96 137
60 95 145
60 95 139
61 97 152
62 97 150
61 97 147
60 95 131
61 96 143
61 96 147
61 96 148
62 97 151
60 95 136
61 96 148
61 96 137
62 97 149
60 95 142
60 96 141
62 97 149
60 96 141
61 96 140
61 97 143
60 96 143
61 96 143
60 96 141
61 97 141
61 96 141
61 96 143
60 95 135
61 95 137
62 97 150
62 96 147
61 97 145
60 95 142
61 97 150
61 96 145
62 97 148
61 96 141
60 95 139
62 98 153
61 96 144
60 96 144
60 95 139
61 96 147
61 96 142
59 94 139
61 96 145
62 97 155
61 96 142
61 96 148
61 96 151
60 96 143
62 97 154
61 96 149
61 96 149
62 97 150
62 97 148
61 96 145
60 95 136
60 96 142
61 96 144
61 97 148
60 95 140
62 97 148
61 96 144
61 96 139
61 96 149
60 95 140
60 95 140
61 96 142
62 98 152
61 96 142
61 96 150
60 95 143
60 95 134
62 97 147
61 96 142
62 97 149
61 96 144
61 96 147
61 95 147
62 96 148
60 94 136
60 94 142
61 96 140
62 97 156
60 95 136
61 96 145
60 95 144
60 94 134
59 93 139
60 94 137
60 94 138
60 95 145
61 96 148
60 94 139
60 94 145
60 95 147
60 94 142
60 93 138
60 94 141
60 93 138
59 92 134
61 94 145
59 92 135
60 94 139
58 90 137
58 90 138
78 97 124
82 84 59
98 99 70
101 104 74
93 95 67
95 98 69
98 101 73
93 97 71
99 103 74
110 112 78
101 105 74
104 108 77
110 112 80
112 114 80
116 118 83
114 115 80
124 125 87
120 122 84
121 122 82
113 115 80
117 118 83
130 130 86
117 118 76
127 128 86
131 132 87
136 136 90
137 136 92
145 143 91
139 138 90
137 136 88
144 143 93
145 145 93
147 145 92
140 138 91
146 143 90
145 144 92
157 153 96
153 150 99
151 149 96
155 152 97
159 155 98
156 154 97
161 157 94
155 152 93
161 157 97
152 148 92
162 158 97
162 158 99
154 151 92
164 159 95
162 158 95
168 163 98
166 162 100
168 163 98
163 158 93
166 161 96
169 163 101
171 166 102
168 163 99
158 154 94
163 159 91
165 160 94
170 164 98
170 165 98
168 163 97
169 165 101
166 161 96
172 166 102
172 165 99
162 158 92
172 165 99
172 166 101
171 165 98
165 159 93
169 164 99
173 167 98
167 162 93
172 166 100
175 168 104
174 168 99
167 162 100
170 163 90
174 167 98
169 163 98
167 162 94
165 159 91
169 163 98
172 166 97
171 165 97
167 161 90
171 165 95
166 161 95
164 159 93
168 161 92
173 166 95
165 159 90
164 159 90
169 162 91
173 166 99
170 163 97
168 162 95
167 161 93
172 165 99
168 161 94
168 161 93
170 163 90
168 162 90
171 164 98
163 157 95
170 163 95
162 156 89
165 159 89
168 162 94
163 157 92
161 155 88
162 157 93
166 161 96
169 161 91
161 155 85
159 154 86
164 158 87
155 150 86
161 156 87
163 157 87
164 159 93
164 158 89
170 163 97
154 150 82
158 152 84
163 158 90
164 157 88
159 153 92
167 160 94
151 147 81
163 157 90
156 150 86
162 156 89
153 147 84
215 232 254
211 229 245
215 232 253
214 231 252
215 232 253
214 231 252
214 231 254
214 231 249
214 231 252
213 230 248
215 232 253
213 230 249
213 230 246
211 228 246
210 228 242
212 229 242
208 226 231
210 228 238
213 230 248
212 230 245
210 228 237
213 230 249
212 229 247
214 231 249
213 230 250
212 229 245
210 227 242
213 230 249
209 226 241
211 228 246
213 231 250
213 230 250
210 227 246
214 231 250
211 228 246
213 230 246
213 230 250
213 230 250
211 229 246
210 227 241
212 230 246
213 230 249
212 229 246
213 230 248
212 229 244
212 229 246
210 228 241
212 229 246
212 229 248
210 227 244
212 229 248
210 227 244
213 230 248
208 226 240
211 228 242
210 227 246
212 230 245
212 229 248
209 226 242
209 226 246
211 229 244
212 229 246
213 230 249
212 229 249
212 230 248
211 228 250
206 224 240
210 227 246
212 230 252
213 230 250
209 227 244
212 229 250
210 228 248
208 226 242
213 231 252
212 229 246
212 229 248
212 229 249
209 227 244
210 227 246
211 229 248
210 227 248
210 228 242
208 225 241
212 229 248
212 230 248
212 229 248
213 230 250
212 230 248
210 228 246
210 228 245
213 231 253
209 227 246
212 230 246
212 230 248
210 228 241
213 230 252
211 228 244
211 229 242
213 231 253
211 229 244
210 227 245
213 230 249
209 227 240
210 228 244
211 229 245
213 230 252
211 229 248
211 229 248
208 226 243
204 222 241
203 221 242
201 219 240
205 223 239
205 223 236
203 221 244
208 226 247
207 225 247
200 219 231
202 220 238
205 224 244
201 220 232
204 223 236
204 222 242
197 216 235
202 221 234
199 218 232
200 219 237
198 217 230
201 221 238
204 223 246
202 222 240
203 222 243
201 220 245
205 225 247
201 222 251
199 220 250
77 108 155
62 97 147
60 96 136
61 96 142
60 95 136
60 95 146
60 95 139
62 97 152
61 96 147
61 96 149
62 97 153
62 97 148
61 96 144
60 95 140
61 96 140
61 95 143
61 96 142
61 97 145
61 96 148
62 97 155
60 95 141
61 97 150
61 96 142
61 96 150
61 96 141
61 96 149
60 95 141
61 96 149
61 96 141
61 96 142
62 97 148
60 95 139
62 97 149
60 95 143
60 95 144
62 97 148
61 97 152
60 95 136
61 97 148
62 97 145
62 97 147
61 96 141
61 96 141
61 95 143
61 96 142
60 96 145
61 96 144
61 96 145
60 95 140
61 96 140
62 96 145
60 96 139
60 95 136
60 94 137
61 96 147
59 93 135
61 96 140
60 96 140
60 96 137
62 97 147
61 97 148
60 95 145
61 96 147
60 94 135
59 94 133
61 96 137
60 95 140
60 95 140
61 96 143
60 95 147
61 97 143
60 94 141
62 97 147
61 96 136
60 95 142
62 97 156
62 97 152
61 96 143
61 96 141
59 94 141
61 95 149
62 97 150
62 97 150
61 96 142
62 97 153
61 96 150
61 96 142
61 96 143
60 95 147
62 97 144
60 95 143
61 96 145
60 95 142
61 96 145
60 94 143
60 94 137
60 95 143
60 94 136
62 97 153
61 96 145
62 97 149
60 95 143
60 94 135
59 94 142
60 93 126
61 96 148
60 94 142
60 94 138
61 95 142
61 96 149
60 94 137
61 96 149
60 94 137
60 95 149
59 94 145
61 95 149
60 94 148
60 94 143
60 95 145
59 93 143
60 94 143
61 94 151
57 88 123
60 92 144
60 93 144
62 92 138
95 98 73
93 96 69
90 92 66
89 92 66
96 101 74
100 104 74
95 99 72
100 103 71
89 92 65
102 105 74
99 103 73
107 110 77
109 111 79
114 116 81
101 105 74
122 123 86
119 121 82
112 115 79
123 124 84
122 123 84
107 111 77
130 131 87
132 132 88
130 130 88
130 128 84
140 139 90
138 137 90
133 133 88
145 145 95
137 136 90
146 144 93
141 140 92
146 145 90
152 149 92
156 153 96
145 143 91
147 145 88
151 148 93
157 154 97
164 160 99
152 150 95
159 154 96
154 152 97
159 155 95
164 159 95
154 151 96
162 158 96
163 158 99
157 153 97
163 159 94
158 154 95
163 159 93
164 159 95
158 156 92
163 159 95
164 160 95
166 160 97
165 160 95
164 159 88
167 162 95
166 162 98
169 164 100
170 165 99
171 165 97
166 161 94
167 162 92
171 166 102
175 169 99
168 163 93
171 164 100
166 160 96
169 163 95
172 165 99
170 165 95
169 163 95
170 164 95
174 168 98
172 166 97
166 160 87
167 162 92
165 159 93
167 162 92
168 162 96
171 165 98
174 167 99
168 163 93
170 164 91
166 161 95
166 161 91
166 161 97
170 164 95
167 161 90
166 160 93
167 161 97
164 159 93
169 163 95
169 163 92
172 165 94
173 166 99
170 165 95
169 163 96
166 161 93
169 162 94
168 163 97
167 161 94
168 162 92
171 163 94
164 159 95
167 161 96
163 156 90
158 153 87
168 161 96
163 157 93
157 153 87
166 160 91
166 159 95
158 152 87
170 163 92
164 157 90
155 148 82
164 157 93
161 155 87
167 161 93
165 159 92
162 156 85
162 156 91
154 149 87
152 147 81
156 151 84
162 156 84
163 157 95
161 156 84
152 146 80
161 155 86
156 150 87
161 156 87
154 147 85
216 232 254
216 232 255
215 232 253
216 232 254
214 231 253
215 231 250
216 233 255
216 232 254
215 231 250
213 230 245
213 230 248
214 231 250
213 230 248
213 230 246
211 229 241
212 229 242
211 228 240
211 228 237
211 229 244
213 230 246
211 228 244
213 230 248
213 231 248
214 231 250
214 231 250
212 229 246
212 229 247
211 228 241
212 230 245
213 230 246
214 231 250
213 230 245
214 231 250
213 230 248
213 230 246
212 230 246
212 229 244
212 229 242
211 229 244
213 230 248
212 230 244
215 231 252
210 228 242
213 230 246
214 231 250
214 231 252
212 229 241
212 229 244
213 230 250
213 230 253
213 230 248
211 228 246
210 227 242
210 227 241
213 230 252
208 225 240
212 229 249
210 227 245
212 229 248
212 229 248
213 230 252
213 230 248
215 232 253
211 228 249
214 231 253
211 228 248
212 229 249
208 226 242
213 230 250
209 226 244
214 231 252
210 228 245
214 231 249
214 231 252
213 230 252
211 228 245
214 231 248
211 228 242
208 225 242
212 230 249
212 230 249
212 229 248
213 230 248
212 229 250
212 229 248
213 230 250
211 229 248
211 228 248
213 230 249
212 229 246
209 226 245
211 229 244
212 230 246
211 228 246
210 228 241
213 230 249
214 231 252
210 228 242
212 230 249
212 229 248
212 230 248
213 231 252
212 229 246
213 230 250
212 230 249
211 229 248
212 230 249
211 229 246
211 229 248
211 228 248
208 225 248
199 217 238
207 224 243
203 221 242
206 223 243
205 223 244
200 219 238
203 221 235
201 219 232
209 227 252
204 222 240
203 221 238
205 223 239
202 220 231
195 214 228
202 221 237
202 220 236
202 221 237
199 218 233
198 217 234
202 221 237
206 224 245
206 225 248
206 225 243
203 222 245
204 224 251
183 204 236
61 97 144
61 96 152
61 97 154
61 97 150
60 96 145
61 96 148
60 95 135
61 97 150
60 96 144
60 95 142
61 96 144
61 96 147
61 96 137
60 95 137
61 96 142
61 96 143
61 96 148
61 97 150
61 96 145
62 97 151
61 96 147
61 96 150
61 96 142
61 96 149
59 94 134
62 97 145
60 95 143
60 95 147
61 96 145
61 96 150
61 96 144
61 97 149
60 95 143
61 96 141
61 97 147
61 96 147
60 95 142
60 95 135
61 96 149
61 97 151
60 95 147
62 97 147
61 96 144
62 97 151
61 96 141
60 95 140
60 95 142
61 96 145
62 97 151
61 96 140
61 97 150
61 97 150
61 97 144
62 97 147
60 95 137
60 94 139
61 96 148
59 94 144
61 96 149
61 97 152
62 98 153
60 95 145
61 96 144
61 96 145
61 96 144
61 97 155
61 96 145
60 95 143
61 96 142
61 96 149
60 95 141
60 95 141
60 95 137
61 97 143
59 93 134
60 96 142
61 96 144
60 96 148
62 97 152
62 98 151
60 95 145
61 97 150
61 96 147
61 96 149
61 96 140
60 95 135
59 94 133
60 95 141
60 96 148
60 95 145
62 97 147
61 96 144
59 94 144
59 94 134
61 96 149
61 96 144
61 96 143
61 96 147
59 93 139
60 95 140
60 95 142
60 94 141
59 93 135
61 95 140
59 93 134
60 94 141
61 96 146
60 94 142
59 94 139
60 94 141
60 95 134
60 94 140
60 95 148
61 95 149
59 93 128
59 94 143
60 94 142
59 93 142
60 94 143
61 95 151
59 91 135
58 91 140
59 92 137
57 89 135
58 90 141
58 89 131
83 91 82
80 84 62
90 93 65
100 102 73
86 90 68
100 101 72
101 105 74
98 102 74
92 95 68
102 105 75
97 102 75
106 108 76
110 113 80
108 110 77
111 113 78
115 118 83
110 112 78
124 127 86
119 121 83
125 127 84
125 125 86
116 117 82
126 127 87
131 131 85
126 125 84
127 127 81
138 137 90
136 135 89
135 135 88
136 135 89
141 140 90
135 134 83
146 144 93
149 146 93
147 145 89
150 147 92
152 149 93
148 146 93
151 148 88
157 154 99
153 150 90
157 154 97
166 162 102
162 158 97
157 153 94
155 152 93
162 157 95
158 155 97
158 154 95
161 157 97
156 153 92
166 161 95
155 151 90
167 162 91
161 157 93
164 159 94
168 162 99
164 159 94
171 165 98
160 156 91
170 165 98
167 163 97
166 162 98
173 167 99
170 164 95
174 168 103
166 161 95
170 165 98
168 163 94
167 162 93
168 162 93
165 159 91
164 159 91
167 161 95
168 164 96
172 166 99
171 165 97
171 166 96
172 166 96
167 162 93
173 167 103
171 166 95
171 165 96
170 164 99
174 167 99
171 165 95
168 162 95
169 164 93
167 160 90
169 163 93
167 161 88
172 166 97
168 162 91
169 162 92
170 164 95
173 166 100
165 159 90
171 165 93
167 161 93
163 158 91
163 157 86
171 165 94
165 160 93
169 163 93
165 159 94
171 165 94
168 162 93
168 162 95
162 156 87
165 158 94
161 155 89
160 154 90
169 163 97
164 158 90
165 160 90
158 153 84
161 155 87
166 160 93
159 154 87
162 156 90
160 155 86
164 158 89
166 159 90
164 159 86
162 156 87
164 158 88
162 155 88
167 161 92
153 148 80
158 152 90
158 153 85
153 147 83
154 148 84
147 142 81
161 154 90
159 153 83
155 150 83
215 232 252
216 232 254
215 231 250
215 232 252
214 231 250
215 231 250
215 232 250
216 232 254
214 231 249
216 232 253
214 230 246
216 232 252
215 231 249
215 232 250
211 228 240
212 229 242
211 228 241
212 229 240
213 230 245
211 228 238
214 231 248
213 230 244
210 228 240
212 229 244
214 230 248
213 230 247
214 231 249
213 230 242
212 229 241
213 230 248
213 230 249
212 230 245
214 231 248
213 230 246
214 231 248
214 230 246
213 230 249
211 228 243
213 230 245
213 230 245
212 229 246
213 229 249
213 230 246
213 230 245
215 231 252
213 230 245
213 230 249
215 232 252
214 231 248
210 227 237
213 230 246
212 229 248
215 232 252
214 231 249
211 229 245
214 231 250
213 230 248
214 231 249
209 226 241
213 230 246
212 229 248
211 227 249
206 223 240
214 231 250
212 229 245
212 229 249
209 226 242
213 230 250
213 230 246
212 229 250
212 228 248
209 226 244
214 231 252
211 227 248
214 231 253
209 226 246
212 229 250
212 229 249
212 229 248
213 230 252
214 231 253
207 224 240
214 230 250
211 228 248
212 229 246
213 230 249
208 225 241
210 227 245
210 228 241
211 229 241
211 228 248
215 232 253
214 231 250
211 229 244
210 228 242
211 228 242
212 229 245
209 227 241
213 230 249
212 230 249
212 230 248
212 230 246
211 228 240
211 228 244
211 228 244
212 229 245
209 227 242
209 227 243
205 222 240
207 224 239
203 220 234
205 223 244
206 224 244
204 222 240
203 221 237
206 224 242
206 223 242
198 216 233
206 223 245
206 224 242
201 219 234
203 221 234
204 222 242
206 224 244
204 223 241
198 217 225
202 221 238
197 216 235
203 222 236
195 214 226
204 222 239
201 220 232
208 226 248
207 225 243
210 229 251
206 225 248
166 187 215
61 96 144
59 94 136
61 96 144
60 95 142
61 96 136
61 97 151
60 95 148
60 95 140
62 97 151
62 97 144
61 97 145
61 96 148
61 96 144
61 95 142
62 97 150
60 95 137
61 97 152
62 97 148
60 95 136
60 96 142
60 95 134
61 96 143
61 96 144
60 95 137
61 96 139
61 96 141
60 96 143
62 97 154
61 96 140
61 97 150
62 98 155
60 95 136
62 98 152
61 96 141
60 94 139
63 98 159
61 96 135
61 96 140
61 97 141
62 97 149
61 97 149
59 93 128
60 95 135
61 96 142
61 96 140
60 95 144
61 96 143
60 95 136
61 96 136
60 95 135
61 95 139
60 95 143
60 95 133
61 97 151
61 96 148
61 97 152
61 96 144
61 96 141
61 96 141
61 96 145
61 97 143
60 95 139
61 96 147
62 97 148
60 95 144
60 95 139
61 96 147
62 98 153
62 97 151
60 95 136
60 95 137
61 96 147
60 95 140
60 95 148
60 94 138
60 95 142
61 97 148
61 96 140
61 96 143
60 95 130
60 95 137
62 98 151
61 96 145
60 95 141
60 95 140
62 97 150
62 97 150
61 96 147
61 96 140
61 96 142
61 96 145
61 97 151
61 96 148
59 93 134
61 96 144
62 97 150
60 95 155
59 94 136
60 94 136
60 94 136
60 95 134
60 94 139
60 94 139
60 95 142
61 95 140
61 96 139
60 94 136
61 95 141
60 94 137
60 94 146
61 95 140
59 93 138
60 94 146
61 96 149
59 93 144
59 93 133
59 93 133
58 92 134
58 91 139
60 94 137
58 91 140
58 91 134
60 94 151
58 91 136
58 90 137
56 86 120
70 81 91
77 82 61
88 91 66
87 91 63
102 104 74
83 89 64
95 99 73
80 87 65
97 101 73
99 102 72
103 107 76
103 105 71
108 110 75
109 111 77
111 112 78
108 111 77
113 115 81
122 123 83
110 112 76
126 126 85
131 131 88
121 123 81
116 118 79
120 122 84
124 125 85
124 125 82
133 132 88
130 130 82
132 131 85
133 133 87
137 136 86
146 144 91
142 141 90
152 149 96
145 143 86
143 140 85
148 145 92
150 147 90
153 149 89
151 148 89
158 154 97
157 154 98
151 148 90
159 155 95
158 155 93
165 161 94
158 155 94
154 151 94
157 154 94
162 157 98
167 162 97
161 157 95
166 161 98
163 159 94
159 154 92
166 161 97
166 161 95
165 161 97
166 162 95
168 163 97
167 161 95
170 165 95
165 160 87
167 162 94
167 162 97
168 162 98
167 162 94
168 163 93
167 161 95
165 160 90
165 160 90
166 161 93
171 165 96
170 165 94
168 163 89
169 163 97
167 162 90
167 162 90
171 166 97
172 165 97
173 166 98
170 164 95
172 166 94
169 164 95
169 163 95
167 162 96
172 165 96
171 165 94
166 160 92
170 164 96
166 160 90
163 157 93
173 167 97
164 158 88
161 156 87
167 161 91
170 164 93
168 161 91
168 162 90
166 161 92
169 163 95
162 157 90
166 161 92
168 162 90
170 164 93
168 160 94
168 162 93
163 158 91
165 158 89
164 157 86
164 158 84
165 158 86
167 160 87
166 159 91
165 159 94
170 163 93
155 150 80
158 152 84
157 152 84
166 160 90
161 156 90
164 158 92
163 156 87
162 156 89
160 154 93
159 153 87
162 156 91
160 155 90
165 158 90
152 147 77
163 157 89
159 153 90
166 160 92
161 154 86
160 154 91
159 153 89
154 148 87
217 233 255
215 231 249
215 232 252
215 231 250
215 231 250
216 232 253
216 233 254
216 233 254
216 232 253
214 231 250
215 231 249
215 231 250
216 232 253
214 230 245
211 228 238
213 230 245
211 228 240
213 230 246
212 229 242
212 229 242
212 229 243
212 229 242
216 232 253
213 230 244
214 231 246
212 229 244
212 229 244
213 230 245
212 229 242
213 230 244
213 230 242
215 231 250
212 229 244
212 229 245
213 230 245
213 230 244
213 229 245
213 230 242
212 229 241
214 230 246
214 231 249
214 231 250
212 229 244
214 230 249
211 228 241
212 229 242
214 231 252
213 230 250
213 230 249
212 230 245
214 231 250
210 228 237
214 231 250
214 231 249
210 227 244
213 230 245
209 225 245
215 231 253
211 228 242
211 228 246
212 229 249
211 228 245
210 226 245
211 228 249
208 225 238
209 225 242
210 227 244
211 228 248
206 223 238
210 227 246
210 227 242
212 229 250
213 230 249
211 228 242
208 225 244
213 230 248
212 228 244
215 231 253
213 230 244
210 227 246
210 227 244
212 229 246
210 227 245
215 232 253
212 229 246
212 230 248
212 229 245
210 228 241
211 228 241
212 229 248
211 228 244
213 230 248
212 230 246
211 229 244
212 229 246
212 229 244
210 227 244
214 231 249
213 230 248
213 230 250
210 227 242
212 230 246
212 229 248
211 228 242
213 231 252
214 231 252
208 226 236
208 225 247
208 226 240
202 219 241
208 225 244
201 219 236
200 218 233
208 225 239
206 223 244
204 222 241
209 226 246
206 223 241
205 222 244
206 224 240
206 224 240
207 224 249
201 219 242
204 221 237
205 223 242
206 224 244
206 225 236
206 224 238
202 221 240
203 221 235
198 217 228
199 217 236
208 226 247
204 222 241
209 227 246
210 228 252
126 149 187
60 95 141
60 96 147
60 96 151
60 95 143
61 96 144
60 95 135
61 97 148
61 97 145
61 96 147
60 95 134
61 97 151
60 95 142
61 96 140
62 97 151
60 95 134
61 96 148
60 95 139
61 96 142
60 95 143
62 97 149
61 96 145
60 95 141
60 96 143
61 95 143
61 96 148
61 96 137
61 96 139
60 95 144
61 96 147
61 96 134
61 97 147
61 96 143
60 94 130
60 95 133
61 96 140
62 97 144
61 96 147
61 96 141
61 96 141
60 95 136
61 96 149
60 95 141
61 97 144
61 96 144
61 96 137
61 97 150
60 95 141
62 97 148
60 95 140
62 97 147
61 96 144
60 95 148
60 95 140
61 96 140
61 96 141
60 95 141
60 95 141
61 96 143
60 95 140
61 96 143
62 98 151
61 96 143
61 96 139
60 95 137
61 96 148
60 96 144
61 96 145
61 96 144
60 95 147
60 95 142
60 95 137
60 95 136
61 96 140
61 96 144
60 95 142
61 96 144
61 96 144
60 94 134
61 96 141
62 97 150
61 96 150
60 95 137
60 95 144
62 97 146
62 97 145
60 96 139
60 95 137
61 95 140
60 96 142
60 95 137
60 95 135
62 96 143
60 95 135
60 94 136
61 96 145
60 95 137
61 96 151
61 97 148
61 96 144
61 96 147
60 95 143
61 96 150
60 95 145
60 95 140
60 95 144
59 93 130
60 94 142
60 95 145
58 92 128
61 95 142
61 96 140
59 92 134
60 94 148
60 94 138
61 96 139
59 92 137
62 96 143
59 91 140
57 90 132
60 95 149
61 95 149
61 95 153
59 93 144
58 91 138
57 89 132
57 89 133
69 87 104
76 80 58
75 79 58
76 79 56
74 79 59
88 92 69
91 95 69
98 102 74
89 93 69
87 91 64
97 100 71
95 99 70
94 98 70
96 99 70
109 112 77
106 109 76
98 101 70
110 111 75
119 121 78
125 126 83
117 118 80
128 128 83
122 123 82
127 127 82
129 129 82
129 128 85
139 138 89
143 141 91
140 138 90
143 141 88
139 138 89
139 138 85
146 144 90
137 136 86
149 146 89
147 144 88
140 139 87
143 142 87
147 145 90
149 146 90
146 144 87
148 146 89
160 155 95
151 148 88
159 156 96
156 153 94
169 164 100
161 156 99
169 164 98
162 157 92
154 151 90
162 158 94
164 159 94
167 162 100
162 157 92
161 157 92
168 163 95
165 160 89
169 163 98
168 162 93
168 164 95
169 163 93
168 162 99
169 163 96
166 161 95
171 165 95
165 160 92
171 165 97
170 164 96
170 164 93
167 161 89
166 160 90
168 163 88
168 162 92
167 161 91
169 162 95
173 167 95
170 165 97
172 166 100
168 162 90
168 162 92
171 165 94
165 159 89
172 167 99
170 163 97
176 169 99
167 161 90
170 163 94
168 163 92
168 162 92
173 166 94
163 158 90
172 165 97
169 162 93
166 160 90
173 166 99
164 159 90
167 160 93
162 157 82
171 164 93
167 161 92
165 159 84
164 158 90
167 161 88
165 159 85
166 159 91
167 161 87
164 158 90
165 159 91
170 163 93
167 160 90
162 156 87
167 161 88
165 158 88
162 156 83
168 162 91
164 159 90
168 162 93
168 162 91
166 160 87
169 161 95
164 158 92
163 157 87
165 159 90
162 156 88
166 159 90
159 154 88
163 156 89
160 154 86
161 156 91
160 154 88
155 150 84
156 151 85
149 145 82
158 153 83
145 140 77
156 149 84
217 233 254
216 232 252
215 232 250
216 232 252
216 232 253
215 231 248
217 233 253
215 232 249
215 231 250
215 232 252
216 232 252
214 231 249
216 232 253
213 230 246
213 230 244
214 231 245
213 230 242
214 230 246
213 230 247
214 231 246
214 231 251
215 232 252
214 231 248
213 230 246
214 231 248
213 229 244
214 231 249
215 231 251
211 227 247
215 232 252
212 229 242
214 231 249
215 231 249
215 231 248
216 232 253
214 231 246
215 232 250
212 229 241
214 231 248
214 231 250
215 231 249
214 231 245
214 230 248
214 230 248
214 231 246
214 230 248
214 230 248
214 231 248
213 230 248
215 231 250
214 231 248
214 231 246
213 230 246
210 227 241
215 231 252
212 228 244
211 228 246
213 230 250
210 226 246
213 230 249
211 228 244
211 228 248
211 227 245
209 225 241
213 230 252
211 227 248
210 226 245
213 229 248
212 229 249
211 227 248
207 224 244
209 226 245
210 227 246
212 229 248
212 229 248
209 226 244
214 230 253
211 227 244
207 223 240
211 227 248
212 229 246
213 230 246
212 230 246
211 228 246
213 230 248
214 231 249
211 228 244
214 230 250
210 227 241
213 230 246
211 228 240
211 228 245
214 231 249
214 230 248
209 227 240
215 231 250
215 231 250
214 231 249
214 230 250
214 231 249
213 230 249
213 230 246
213 230 248
213 230 245
213 231 250
213 230 250
211 227 247
208 225 242
202 219 239
203 220 240
201 218 233
205 223 236
201 219 234
204 221 241
205 222 236
205 222 241
205 222 238
199 217 233
206 223 241
206 223 243
212 229 248
196 213 233
204 222 242
205 223 239
202 219 236
211 228 249
209 226 250
201 219 241
199 217 236
202 221 236
200 218 225
204 222 239
201 219 240
204 222 242
205 222 246
212 230 250
96 123 167
60 95 137
61 96 142
61 96 147
61 96 144
61 96 145
61 97 148
62 98 152
61 97 148
61 97 149
62 97 151
62 97 151
61 96 140
60 95 137
61 96 147
62 97 147
60 95 136
61 96 140
61 96 140
61 96 141
62 96 145
60 96 143
59 94 135
61 96 147
61 97 150
61 96 149
60 95 135
60 96 140
61 96 144
61 96 141
60 95 137
60 96 150
61 97 150
62 97 153
60 95 141
61 96 144
60 94 129
59 94 139
60 96 142
62 97 150
61 96 145
60 94 136
60 95 135
61 96 141
61 96 145
61 96 147
61 96 145
62 97 149
61 97 143
61 96 144
62 98 155
61 95 139
62 97 151
59 94 141
60 94 133
62 97 145
59 94 136
60 96 148
62 97 144
61 97 144
61 96 145
61 96 144
61 96 143
60 94 139
61 96 145
60 95 144
61 96 136
61 96 145
60 95 135
61 96 144
61 96 141
60 95 140
60 95 141
60 95 143
61 96 140
61 96 143
59 94 139
60 95 134
61 96 137
60 95 143
61 96 140
61 95 141
60 96 136
59 94 139
61 97 148
61 95 136
60 95 140
61 96 149
61 96 149
60 95 144
60 95 142
61 96 144
61 95 139
59 94 136
60 94 140
59 94 135
61 96 142
61 95 146
59 93 139
62 97 156
60 95 140
59 93 129
61 95 139
60 95 141
61 96 140
60 93 140
60 95 141
60 95 134
59 93 130
59 94 139
60 94 137
59 93 142
60 95 147
61 95 144
61 96 147
58 91 126
58 92 128
60 95 138
59 93 146
59 93 143
60 94 142
58 91 131
59 93 139
58 91 123
59 92 140
59 91 132
57 89 128
62 88 126
75 79 56
78 83 60
68 75 58
76 81 57
69 74 56
88 93 68
81 85 62
70 77 59
100 103 73
92 95 65
111 114 80
96 98 69
95 98 69
109 111 74
106 109 75
105 108 75
91 96 64
112 114 76
120 121 81
125 125 80
126 126 82
121 122 77
110 112 76
134 133 87
139 138 89
131 130 84
134 134 83
130 130 84
148 146 92
142 141 89
148 146 94
134 133 84
137 137 84
146 143 91
141 140 86
148 146 92
149 147 90
144 143 84
159 155 99
150 148 85
153 150 93
148 145 88
157 153 94
154 151 88
149 147 89
152 149 89
167 162 98
166 161 94
163 158 95
162 157 96
161 156 97
158 154 93
164 160 97
165 160 95
164 159 85
166 161 94
163 159 94
164 160 93
165 160 93
166 161 95
169 164 97
165 160 90
165 160 89
171 166 96
169 164 93
173 167 97
165 160 91
163 158 89
176 169 99
171 165 95
168 162 97
167 161 87
166 161 87
169 163 96
174 168 101
173 166 100
171 164 93
171 165 95
167 161 89
171 165 93
171 165 94
172 165 93
168 162 91
168 162 90
169 163 92
165 160 86
167 161 88
171 164 95
172 165 96
173 166 100
175 168 95
165 160 87
164 158 82
166 159 92
164 158 90
167 161 88
166 161 88
167 162 90
169 162 90
168 162 89
171 165 95
166 160 87
165 159 89
170 163 95
164 158 93
170 164 95
163 157 90
162 157 90
169 163 92
166 160 97
166 159 88
163 157 87
165 158 90
163 157 87
164 158 88
161 155 86
166 159 91
161 156 84
163 157 83
161 155 84
164 157 90
165 158 90
164 158 88
160 154 86
163 157 90
159 153 84
156 150 85
156 150 77
156 150 83
145 140 76
167 161 94
154 148 78
153 147 83
148 143 80
165 159 88
149 144 78
217 233 254
217 233 255
217 233 255
217 233 254
216 232 252
216 232 252
217 233 254
217 233 254
217 233 254
215 231 249
214 230 246
215 231 250
215 232 249
217 233 253
214 231 249
216 232 252
211 228 238
215 231 248
213 230 244
212 229 244
212 229 242
216 232 250
214 231 248
213 230 241
215 232 249
213 229 240
213 229 244
214 230 242
214 231 246
216 232 252
213 230 241
215 231 248
213 230 241
212 228 244
215 231 248
214 231 246
214 231 245
214 231 245
215 232 249
213 230 248
214 231 245
215 231 246
215 231 249
216 232 250
214 231 248
208 225 237
214 230 248
215 231 250
215 231 250
215 231 252
215 231 250
211 227 241
214 231 249
213 229 248
215 231 250
211 228 244
214 230 249
211 227 241
209 225 246
214 230 246
214 231 249
207 223 238
213 229 249
213 229 246
214 230 250
216 232 253
214 230 250
206 222 240
210 226 248
210 226 248
211 227 248
211 227 244
212 228 248
211 227 245
214 230 252
209 225 244
210 226 246
212 229 248
212 228 246
216 232 252
211 228 248
212 229 246
214 230 250
214 231 246
215 232 249
214 231 248
212 229 246
213 230 245
212 228 248
215 232 250
212 229 242
210 227 241
211 228 242
214 231 252
214 231 248
214 231 248
213 230 242
213 229 245
214 231 249
214 230 249
210 228 242
213 230 245
215 231 249
214 231 246
214 231 249
211 228 249
211 228 248
204 221 235
207 223 244
206 223 244
206 223 243
205 222 240
207 225 238
208 225 244
205 222 244
203 220 240
206 223 242
210 227 246
205 222 241
203 220 241
206 223 243
201 218 236
205 223 242
202 219 234
206 223 238
207 225 236
203 221 238
205 222 236
203 221 228
204 222 242
206 224 241
200 218 233
202 219 240
208 225 248
206 224 242
205 222 246
59 93 129
61 97 148
61 96 144
60 95 142
61 96 144
59 94 125
60 95 140
60 95 135
61 96 141
61 96 142
61 96 141
61 96 143
61 96 143
61 96 143
61 96 139
61 96 147
60 95 142
60 96 142
61 96 144
61 96 141
61 96 141
61 96 143
61 96 148
61 96 139
60 94 140
61 96 143
61 96 144
60 95 140
61 97 147
61 96 142
61 96 142
61 96 143
61 96 141
60 94 133
60 95 139
61 97 144
62 97 143
60 95 134
62 97 153
60 95 143
60 95 137
60 95 131
62 97 143
61 96 144
62 97 150
61 96 141
62 97 149
62 97 144
61 97 152
62 97 149
61 96 137
62 97 145
62 97 139
60 95 137
60 96 141
61 96 139
59 94 128
61 96 143
60 95 133
61 96 147
62 97 148
61 97 144
61 96 144
60 95 137
60 95 133
60 95 137
61 96 139
60 95 141
61 96 140
61 95 137
60 95 137
61 96 135
61 97 148
61 95 145
61 96 144
60 95 140
60 94 140
60 94 128
60 95 137
61 96 147
61 96 142
60 95 137
61 95 143
62 97 148
59 94 137
61 96 140
60 95 142
60 95 141
61 95 135
61 97 154
60 95 135
60 95 139
60 94 132
60 95 137
60 95 139
62 96 146
60 94 135
61 96 139
62 96 143
60 94 134
62 97 145
60 95 139
61 96 151
59 93 143
60 95 142
60 95 137
61 95 142
59 92 123
60 95 135
62 97 148
60 94 143
61 96 147
59 93 139
61 95 145
60 95 146
60 93 137
59 93 131
60 94 143
59 92 136
58 92 139
58 91 128
60 94 139
59 92 140
59 93 143
59 93 143
58 91 136
58 90 133
56 85 120
71 75 56
63 68 49
68 73 51
79 83 60
70 76 56
75 80 58
83 87 60
85 89 62
85 89 63
98 102 73
87 90 61
91 95 66
101 105 70
96 98 66
111 112 74
108 111 73
107 109 72
122 124 82
112 113 76
117 119 80
128 128 85
110 112 72
125 126 85
134 133 87
129 129 82
134 132 81
131 130 80
131 131 84
130 129 80
146 144 89
139 138 86
147 145 92
148 145 90
144 142 88
151 148 87
151 149 88
156 152 93
145 142 90
146 144 85
150 147 88
151 149 90
153 151 92
157 154 92
151 147 86
157 153 92
156 152 91
164 159 95
163 159 95
160 154 91
163 158 91
165 161 97
155 153 92
159 155 91
163 158 90
165 161 93
164 159 94
166 161 98
166 161 93
169 163 95
162 158 92
166 161 91
165 160 96
170 164 96
164 159 91
176 169 103
167 161 89
165 161 91
165 160 93
166 161 96
167 161 95
164 159 87
170 163 93
170 165 97
171 165 97
167 161 91
170 165 93
167 162 94
174 168 96
171 165 94
169 162 93
170 165 99
170 165 95
169 162 90
166 159 88
169 162 95
167 161 87
171 164 90
168 162 87
170 164 90
168 162 94
170 163 89
170 163 90
168 162 90
174 167 99
169 162 87
164 158 88
165 159 89
163 159 87
171 164 97
172 164 93
169 162 95
164 158 86
168 162 85
169 162 90
164 157 87
168 162 95
164 158 86
164 158 90
167 160 93
164 158 93
163 158 84
167 161 90
165 158 93
165 159 88
157 151 79
169 163 91
168 161 93
166 160 88
161 156 85
159 153 79
167 160 93
160 153 86
156 150 79
167 160 87
162 156 87
163 156 90
156 151 81
160 154 90
154 149 86
156 150 84
157 150 81
163 157 92
162 155 87
162 157 87
157 150 84
147 142 76
217 233 253
216 232 250
217 233 254
216 232 249
215 231 248
217 233 254
218 233 254
218 234 255
218 233 254
217 233 253
216 232 252
216 232 252
215 231 245
216 231 248
217 233 254
216 232 250
213 229 242
215 231 248
214 231 244
214 230 248
212 229 238
213 230 241
215 231 246
216 232 249
214 231 248
214 230 246
211 227 239
213 229 242
215 231 248
214 230 242
214 230 244
212 229 245
215 231 248
215 231 247
216 232 249
214 230 242
216 232 249
214 230 248
215 231 246
214 230 246
213 229 245
212 229 238
214 230 242
215 231 249
214 230 242
214 231 248
213 230 241
215 232 249
214 230 244
213 229 245
212 228 248
215 231 246
213 230 248
213 229 246
211 227 246
215 231 250
213 229 246
212 228 246
211 227 244
215 231 250
212 228 245
212 228 249
209 225 246
215 231 249
211 227 246
214 231 252
210 225 246
213 229 249
211 227 246
214 230 250
209 225 244
213 229 250
213 229 249
214 230 250
212 228 246
209 226 245
213 229 248
213 230 245
212 228 248
211 227 245
213 229 246
212 228 245
212 229 246
214 230 245
216 232 252
214 231 246
215 231 249
213 230 248
214 230 246
212 228 245
215 231 250
215 231 248
215 231 248
214 231 246
214 230 245
214 230 244
211 228 242
211 228 240
212 229 244
213 230 245
214 231 248
215 231 249
214 230 244
214 230 246
212 229 247
210 227 246
208 225 240
203 220 236
205 222 238
208 225 240
206 223 238
207 223 239
207 224 239
205 222 240
208 225 243
200 217 231
204 221 239
206 223 242
201 219 232
202 219 236
209 226 242
201 218 229
206 223 238
210 227 247
205 222 237
205 222 242
203 221 234
202 220 237
206 223 234
203 221 232
201 219 233
203 220 233
202 220 238
210 227 248
200 218 236
195 213 236
60 96 144
61 96 151
61 96 145
60 96 147
61 97 143
62 97 153
62 96 148
60 95 140
60 95 135
61 95 143
60 96 150
59 94 130
60 95 147
61 95 139
61 96 144
63 98 153
60 95 145
61 96 147
61 96 139
60 95 136
62 97 149
61 95 142
61 96 139
61 96 143
61 96 149
60 96 141
60 95 136
59 94 131
61 96 141
61 96 143
61 95 137
61 96 143
60 95 140
60 94 144
59 93 122
61 96 142
60 95 143
60 95 136
60 95 139
60 95 134
61 96 147
60 95 143
60 95 142
61 96 140
60 94 141
61 96 144
61 96 149
60 95 141
60 95 137
61 96 142
60 95 142
61 96 151
60 95 140
61 96 144
62 97 151
62 97 145
60 94 139
61 96 139
60 95 139
61 96 137
59 94 128
61 96 140
61 96 142
61 96 151
60 94 134
60 95 139
60 94 129
62 97 148
60 95 133
61 96 133
60 95 144
60 96 151
61 96 141
61 96 145
61 96 135
59 93 129
60 95 141
60 95 137
60 96 142
60 95 141
60 95 139
60 95 131
61 96 144
60 94 136
61 96 135
61 96 148
61 96 139
62 97 149
62 98 151
61 96 147
61 96 147
62 97 152
61 96 145
61 96 144
60 95 140
61 95 136
61 95 135
60 95 139
59 93 135
61 96 141
60 95 143
60 95 138
61 96 143
59 94 136
60 94 141
60 95 144
59 94 134
62 98 151
60 94 138
62 96 150
60 95 140
61 95 142
60 95 142
59 92 129
61 95 152
60 95 140
60 94 141
60 94 135
60 93 146
58 91 132
58 91 135
60 94 142
59 93 141
57 89 134
59 91 132
59 92 138
57 89 127
57 88 130
75 83 78
72 77 56
74 79 55
60 67 52
71 76 57
85 89 62
94 97 66
94 98 69
88 92 67
97 100 71
103 105 72
111 113 73
97 100 71
99 102 69
100 102 68
104 108 73
112 113 75
107 110 74
107 110 75
126 126 83
123 122 78
127 127 84
116 117 76
137 136 87
128 128 79
137 135 88
132 131 84
134 133 84
133 132 83
146 143 90
138 136 84
138 138 87
145 143 92
145 143 87
147 145 85
152 150 92
146 143 88
147 144 86
157 153 94
155 151 88
152 149 87
159 154 92
155 151 87
157 153 90
162 158 94
157 153 90
156 152 92
154 151 90
163 159 93
160 156 92
163 159 96
158 154 87
163 159 94
171 165 93
162 157 89
167 162 98
165 160 93
168 163 97
167 161 93
163 158 90
169 163 94
163 158 88
168 163 93
170 165 97
168 163 93
166 160 93
169 163 95
173 166 95
168 163 94
165 159 88
175 168 98
170 164 91
171 165 93
176 168 97
172 165 90
167 161 90
166 161 91
169 164 87
167 162 91
168 162 93
162 157 83
171 164 93
169 164 93
171 165 93
171 164 94
167 161 91
171 165 89
166 161 90
174 166 96
166 161 87
162 156 85
162 157 88
166 160 90
169 163 90
171 165 95
166 160 89
168 162 90
162 157 87
164 159 92
161 155 82
158 154 80
166 160 91
169 163 87
169 162 89
172 164 93
170 163 93
168 161 89
169 162 88
163 157 86
164 158 84
164 159 90
169 163 92
163 157 91
164 158 88
167 160 90
158 153 80
164 157 89
161 156 87
163 157 87
156 151 80
162 156 85
159 153 85
162 156 87
166 160 93
161 154 87
162 155 88
162 156 87
163 157 87
165 159 90
159 151 83
163 157 85
157 150 81
156 149 85
156 151 84
163 156 87
158 152 79
218 233 254
218 234 254
217 233 253
217 232 250
217 232 250
217 233 253
217 233 253
217 233 252
218 234 254
218 234 254
218 234 255
217 233 253
215 231 246
216 232 248
217 233 252
217 233 252
213 230 242
215 231 248
214 230 246
214 231 247
212 228 236
215 231 246
216 232 250
215 231 247
216 232 250
216 232 250
215 231 249
215 231 245
213 229 241
215 231 246
215 231 245
213 230 240
216 232 250
213 229 241
214 231 244
216 232 249
214 231 244
214 230 244
215 231 246
215 231 245
216 232 250
217 233 253
214 230 245
214 230 248
213 229 240
216 232 248
216 232 249
212 228 241
213 229 238
216 232 252
215 230 249
212 228 244
214 230 244
216 232 250
213 229 246
215 231 249
214 230 249
209 225 240
210 226 241
213 229 246
211 227 246
210 226 246
211 227 248
215 231 251
212 227 248
212 228 250
206 221 241
209 225 246
211 227 248
209 225 246
208 224 244
211 227 248
210 226 247
211 227 246
214 230 251
214 229 248
213 229 248
209 225 240
215 231 250
212 228 245
215 231 249
213 229 245
212 228 245
213 230 244
209 226 236
213 229 246
217 233 252
214 230 246
215 231 249
213 229 248
212 228 241
215 231 246
216 232 252
212 229 241
212 229 240
215 231 246
212 229 241
214 230 246
216 232 250
215 231 252
215 232 249
215 231 246
215 232 249
213 229 244
211 228 241
214 231 246
211 227 244
204 220 238
206 222 238
196 213 229
206 223 239
204 221 241
212 228 246
205 222 238
211 227 245
206 223 237
206 223 242
206 223 236
203 220 242
204 221 233
205 222 241
204 221 240
209 226 239
205 222 240
206 223 237
206 223 245
208 225 245
208 225 242
206 223 240
203 220 242
204 221 238
203 221 239
208 225 242
203 220 239
207 224 243
183 201 225
61 96 149
61 96 137
61 96 142
62 97 145
60 96 149
61 96 145
61 96 145
59 94 139
60 95 143
61 96 137
60 94 139
62 97 149
60 95 135
60 96 145
60 94 130
60 95 137
61 96 142
61 96 143
61 96 136
60 95 135
61 95 142
59 94 130
60 94 141
60 95 131
60 95 142
59 94 134
61 96 141
60 96 142
60 95 136
60 96 142
60 95 142
62 97 153
60 95 142
60 95 134
60 95 145
60 95 139
61 96 147
61 96 144
60 95 144
60 94 141
61 96 144
61 96 142
60 95 137
61 97 144
62 97 153
62 97 147
60 95 134
60 95 140
61 95 141
60 95 141
61 96 142
59 93 130
62 97 149
61 96 143
61 96 139
59 94 140
60 95 134
59 94 122
60 95 145
60 95 142
60 95 134
60 96 145
61 96 140
61 95 142
60 94 134
61 97 149
60 94 135
61 96 143
61 96 141
61 96 142
60 95 135
61 96 147
60 95 134
61 96 144
60 95 139
62 96 143
61 96 146
61 96 142
61 96 145
60 95 140
60 95 137
60 94 141
60 96 144
61 96 142
60 95 136
61 96 141
61 96 145
60 95 142
61 96 143
61 96 143
60 95 145
60 94 137
61 96 142
61 96 142
61 96 139
61 96 144
59 93 132
61 96 139
60 95 140
61 96 144
60 94 146
62 97 148
61 95 148
59 93 136
61 96 148
61 95 141
61 95 140
61 96 148
61 95 155
60 94 140
59 93 135
61 96 149
60 94 136
59 92 132
60 94 147
60 94 137
60 95 142
60 95 142
60 94 146
58 92 139
59 92 132
58 91 143
59 93 140
59 92 130
58 90 125
57 88 128
57 89 129
55 86 120
62 74 76
68 72 51
73 78 56
64 70 52
57 63 46
75 80 58
78 82 57
77 81 58
86 90 65
88 92 66
99 101 69
90 94 66
95 97 63
90 94 64
95 98 66
103 105 72
106 109 70
110 113 75
123 123 77
126 125 82
128 128 81
124 124 76
120 121 80
126 126 81
134 134 88
130 131 82
130 130 82
138 136 83
137 135 84
142 140 88
145 143 86
143 140 85
149 146 88
145 143 89
141 139 81
146 143 83
150 146 85
142 141 87
151 148 87
147 144 87
152 149 91
145 144 88
157 153 89
155 151 88
163 158 92
166 160 95
163 158 97
162 157 95
162 159 94
155 151 90
159 155 82
166 160 92
163 159 86
162 157 91
166 161 93
166 160 87
164 160 92
158 154 88
165 160 90
168 162 94
165 160 86
168 162 87
166 161 95
167 161 94
175 168 99
172 166 93
168 162 95
166 161 91
165 159 84
171 165 95
174 168 101
169 163 91
172 166 93
166 160 91
170 164 93
175 168 96
169 163 93
172 165 95
173 166 92
167 161 86
170 164 87
169 162 92
171 165 95
168 163 89
170 164 93
171 165 94
169 162 89
167 161 87
174 167 93
172 165 97
173 166 93
172 166 95
167 160 90
167 161 87
166 160 87
162 157 82
168 162 94
168 163 91
164 159 85
164 158 87
171 165 95
170 163 90
163 158 86
159 153 85
171 165 95
164 158 84
166 160 87
161 155 87
162 156 87
163 157 86
166 159 91
167 161 92
164 158 82
157 151 84
160 154 85
162 157 82
164 157 87
159 153 84
162 156 82
167 161 92
160 154 84
162 156 87
166 159 87
151 145 76
156 151 84
164 157 86
160 154 85
162 155 82
158 153 85
159 154 84
151 146 80
165 158 84
160 155 81
165 158 90
160 155 87
160 154 85
218 234 255
218 234 254
218 234 254
219 234 255
218 233 253
218 233 253
218 234 254
217 233 252
219 234 255
217 233 253
218 234 255
218 233 252
217 232 250
216 232 248
214 230 246
216 232 249
217 233 250
215 231 244
216 232 248
214 230 242
215 231 245
211 228 236
213 229 247
214 230 244
217 232 250
215 231 244
216 232 248
217 233 252
212 229 238
213 229 246
216 232 248
214 230 241
215 231 244
214 230 246
218 234 254
216 232 249
215 231 246
214 230 245
216 232 248
217 233 252
215 231 249
216 232 248
214 230 245
216 232 249
214 230 245
215 231 245
215 231 246
217 232 250
216 232 248
213 229 245
216 231 252
217 233 252
217 232 250
215 231 249
213 229 244
215 231 248
215 231 252
212 227 248
210 226 242
212 228 246
211 227 247
216 232 253
205 220 240
211 227 248
205 221 242
215 231 253
214 229 250
216 232 253
213 229 250
212 228 248
209 225 247
215 230 252
213 229 250
207 223 242
207 223 242
215 231 252
208 224 240
214 230 249
214 229 248
213 229 245
212 227 245
214 230 248
214 230 245
209 225 240
215 230 246
212 229 242
215 231 246
214 230 246
215 231 248
216 232 249
216 232 250
216 232 253
214 230 246
216 232 250
214 230 246
216 232 250
214 231 245
216 232 253
215 231 248
217 233 253
213 229 244
214 231 244
215 231 245
214 230 244
211 228 242
209 226 238
210 226 240
208 225 242
211 227 238
212 228 244
203 220 233
206 222 242
202 219 232
209 225 245
208 225 239
204 221 237
203 220 236
209 225 240
206 223 236
204 221 242
202 219 226
204 220 237
205 221 234
207 224 241
205 222 242
206 223 239
206 223 240
204 221 238
206 223 237
200 217 231
204 221 239
209 226 240
205 222 244
203 220 238
212 229 246
158 177 200
62 97 145
61 97 149
61 96 141
61 96 141
60 95 141
61 96 148
61 96 148
61 97 144
60 95 140
61 97 144
61 96 149
60 95 136
61 96 143
60 94 134
60 95 141
59 94 126
61 97 147
61 96 141
61 95 142
60 95 129
61 95 137
61 96 139
61 96 134
61 96 140
62 97 152
59 94 133
61 97 145
60 95 131
61 95 139
60 96 142
59 94 124
60 95 143
62 97 145
60 95 141
59 94 128
61 96 140
60 95 137
61 96 142
62 98 154
61 97 145
61 96 140
61 96 141
61 96 142
61 97 144
61 96 148
60 95 139
61 96 140
60 95 139
62 97 150
61 96 142
60 95 139
59 93 126
59 94 134
60 94 134
61 96 144
60 95 140
59 93 130
61 97 149
60 95 139
59 94 135
61 96 147
59 94 124
61 95 139
61 97 149
60 95 131
60 94 142
59 94 135
58 92 122
61 96 148
59 94 129
60 95 142
61 96 147
60 95 139
60 94 130
61 96 144
60 95 140
61 95 142
60 95 143
60 94 130
61 96 143
61 97 142
61 95 139
61 96 147
60 95 137
61 96 144
60 95 144
61 96 142
60 94 142
60 95 142
61 96 143
60 94 134
61 96 148
61 96 141
60 94 139
60 94 141
59 94 136
60 95 129
60 95 139
60 95 141
61 96 140
62 97 141
59 94 141
60 94 138
60 94 137
61 96 143
58 92 129
59 94 130
60 95 139
60 94 139
60 94 129
58 92 128
60 95 136
59 92 134
60 94 143
60 94 135
58 91 129
59 92 129
61 95 145
60 94 140
59 91 122
59 92 139
58 90 135
59 92 139
59 92 135
57 89 126
59 92 139
56 87 131
56 86 132
58 74 86
63 69 50
68 72 50
62 68 50
62 68 49
69 73 51
70 76 55
78 84 62
79 84 58
92 96 67
87 91 61
89 94 65
104 106 69
100 102 67
100 102 66
102 105 69
108 110 74
118 118 70
113 114 76
104 106 68
118 118 76
129 128 82
122 123 76
124 124 80
124 124 77
130 129 79
124 124 76
135 134 83
137 137 83
137 135 86
141 139 82
143 140 84
145 142 86
141 140 83
150 146 83
153 150 87
149 146 87
149 146 87
152 148 90
146 143 88
153 149 89
153 149 83
152 149 88
163 159 93
151 147 87
155 151 87
162 157 92
159 155 89
166 161 97
156 152 87
156 152 90
166 160 87
163 158 88
162 157 92
161 157 92
165 158 86
163 158 89
162 158 91
163 158 92
165 160 89
158 153 87
167 161 89
172 166 95
167 161 89
171 164 94
169 164 89
172 166 97
168 162 85
166 161 88
172 165 92
173 167 98
173 167 96
171 164 93
171 165 93
169 164 88
171 164 90
170 165 88
173 167 98
166 160 88
169 162 85
174 167 95
170 164 90
166 161 87
169 163 89
170 164 94
168 162 88
175 167 95
169 163 91
167 160 87
171 163 96
171 165 93
163 157 87
165 159 92
170 163 90
170 163 91
168 161 87
163 157 85
171 164 92
162 156 86
169 162 84
167 161 89
170 164 92
171 164 92
168 161 93
164 159 84
169 163 93
164 157 88
165 159 85
167 161 87
159 154 87
165 158 88
167 159 93
161 154 86
159 153 84
165 159 87
166 160 84
159 153 82
164 158 83
161 156 83
161 155 87
161 155 83
167 159 89
165 158 87
160 153 82
164 158 88
155 149 80
161 155 87
153 148 75
167 160 88
156 150 82
145 140 75
164 157 84
155 149 81
166 159 87
156 150 84
159 152 87
219 234 255
217 233 250
219 234 255
217 233 254
219 234 255
219 234 255
218 234 253
216 232 252
218 234 254
218 233 252
218 234 253
219 234 255
219 234 255
219 234 255
217 232 248
218 233 252
218 234 253
217 233 250
218 233 253
218 233 252
214 230 243
216 232 246
216 232 248
216 232 248
215 231 245
217 232 249
213 229 240
213 229 246
217 233 250
216 231 248
217 233 250
216 232 251
216 232 245
216 232 249
216 231 245
216 232 248
215 231 245
216 232 248
214 231 242
216 232 248
217 232 249
216 232 250
215 231 245
214 230 241
215 231 244
215 231 245
214 231 242
215 231 245
217 232 250
216 231 248
216 232 250
216 231 248
215 231 249
216 232 250
217 232 252
214 230 247
214 229 246
216 231 252
216 232 252
207 223 244
212 228 250
215 231 252
207 222 242
216 232 253
211 227 248
210 226 248
215 231 253
214 230 252
204 220 240
210 226 246
210 226 246
212 228 250
215 231 252
207 223 244
211 227 247
211 227 247
216 232 253
211 227 246
214 230 248
216 231 250
217 233 253
215 231 248
216 232 250
214 230 246
216 232 252
214 230 245
213 229 240
214 230 241
216 232 249
216 232 249
213 229 244
215 230 245
214 230 245
215 231 245
215 231 244
215 231 246
214 230 241
215 232 249
215 231 244
216 232 249
215 231 248
215 231 246
213 229 242
213 229 248
210 226 243
212 228 242
209 226 244
208 225 236
210 226 244
211 227 246
208 224 241
207 223 244
206 223 238
204 221 238
209 225 243
209 225 240
212 228 245
212 228 242
209 226 245
208 224 238
206 223 239
210 226 246
204 220 240
206 223 239
201 218 223
208 224 241
201 218 235
208 225 237
207 224 241
201 217 232
210 226 243
205 221 241
208 224 241
211 227 247
214 230 251
141 161 188
60 95 138
61 96 141
61 96 144
61 96 137
60 95 141
61 96 142
61 96 144
61 96 139
61 95 145
60 96 147
61 96 143
60 95 147
62 97 142
61 96 140
60 95 137
61 96 147
62 97 144
60 95 135
61 96 137
60 95 141
61 96 139
61 96 144
61 96 148
61 96 145
61 96 137
60 94 137
60 95 136
60 96 139
61 96 148
60 94 134
60 95 136
61 97 148
60 95 139
60 95 140
62 97 150
60 95 139
61 95 147
61 96 137
61 96 139
60 95 141
58 93 129
60 94 128
60 94 136
62 98 151
60 95 139
60 95 136
60 95 137
60 95 140
60 95 133
60 95 139
60 95 139
61 95 137
61 96 140
61 97 150
60 95 143
60 95 137
61 97 144
60 96 143
61 96 149
60 94 143
59 93 125
60 95 139
60 95 140
59 94 124
61 96 152
60 95 141
61 96 147
60 95 139
61 96 145
59 94 136
59 94 131
59 94 131
60 96 145
61 96 143
60 95 141
60 95 142
61 96 143
61 95 142
59 94 133
61 95 137
60 95 144
60 95 134
61 96 147
59 94 135
60 94 136
59 93 135
61 95 141
60 94 140
62 97 151
61 96 143
60 94 138
60 95 134
60 94 140
61 95 142
58 92 131
60 95 140
60 95 139
59 94 135
60 94 136
61 95 142
61 95 139
60 94 135
59 94 139
61 96 145
60 94 136
60 94 141
61 95 145
61 96 147
60 95 144
60 94 141
60 94 141
60 95 139
59 93 139
60 94 141
60 94 143
59 92 139
60 94 139
59 92 136
60 94 141
58 91 130
59 92 145
59 93 139
57 90 135
59 92 140
58 90 128
56 87 123
58 91 137
55 86 122
55 77 100
50 56 40
55 60 45
58 63 46
60 67 52
65 70 50
70 76 56
77 81 56
73 78 55
85 88 59
73 79 58
88 92 61
87 90 61
93 97 64
96 100 67
103 104 68
104 106 66
110 113 69
122 123 79
116 117 71
113 114 71
122 121 73
119 120 72
129 127 82
128 127 77
130 129 79
127 127 81
125 125 75
138 137 84
143 140 87
134 133 84
144 141 85
138 136 80
150 147 88
142 139 82
150 147 83
148 145 83
142 140 81
158 154 88
151 148 90
147 144 82
152 148 87
159 154 91
152 149 89
160 155 89
155 152 89
156 152 89
153 149 84
148 145 84
161 156 87
162 158 93
165 159 91
163 157 88
158 153 84
164 159 89
163 158 90
162 158 94
156 153 85
160 155 86
165 160 91
164 158 89
167 161 91
165 161 90
167 162 90
166 161 86
168 162 89
161 156 84
171 164 90
169 163 94
169 163 93
165 160 88
169 164 94
171 164 90
170 164 89
174 167 99
164 158 89
167 162 89
168 162 89
168 162 91
165 159 89
168 161 85
171 165 89
170 164 87
163 158 86
171 165 91
167 161 87
167 161 90
168 163 87
170 164 94
166 159 86
168 162 89
167 160 90
168 162 86
168 161 87
162 157 84
164 158 81
171 165 93
166 160 84
166 159 88
167 161 95
166 160 87
168 161 87
166 160 87
164 158 85
163 157 81
166 160 84
162 157 87
168 161 89
170 163 94
163 157 78
157 152 80
155 150 82
162 156 83
162 155 80
166 159 88
160 154 84
156 150 84
165 159 85
165 160 90
163 157 84
160 154 81
165 158 86
155 148 79
161 156 87
160 155 83
163 158 81
158 151 77
162 155 87
154 149 83
154 148 78
158 152 84
159 154 89
159 153 83
153 147 82
157 152 81
158 152 86
219 234 255
219 234 255
219 234 255
219 234 255
219 234 255
219 234 253
219 234 254
218 234 255
217 233 252
219 234 254
219 234 254
219 234 254
219 235 255
219 234 255
219 234 255
219 234 254
218 234 253
219 234 253
218 233 254
219 234 253
218 233 250
218 234 253
215 231 242
216 232 246
214 229 242
216 231 246
217 232 248
217 232 249
214 230 240
213 229 239
217 233 252
216 232 248
217 233 252
216 232 246
216 232 248
215 231 242
217 233 250
216 232 246
216 232 245
216 232 245
217 232 248
216 232 246
215 231 242
215 231 242
215 231 246
216 232 248
217 233 249
214 230 240
215 231 244
218 233 252
218 234 253
217 232 248
217 232 248
217 233 249
213 229 247
216 231 252
213 228 246
213 229 242
214 229 250
207 223 245
212 228 248
216 231 252
210 225 246
211 226 246
212 227 248
212 227 249
212 227 249
212 227 249
215 230 250
211 226 247
214 229 251
213 228 249
212 227 247
212 227 249
208 223 242
211 226 247
214 229 250
209 225 244
211 227 247
217 232 250
216 232 250
215 231 245
214 230 245
216 232 249
216 231 248
215 231 245
214 230 246
217 233 252
216 232 248
215 231 245
217 232 249
216 232 248
217 232 249
216 232 246
214 230 242
215 231 245
216 232 248
216 232 246
216 232 249
216 232 249
214 230 244
215 232 246
214 230 248
216 231 247
210 226 242
213 229 245
209 225 238
213 229 243
212 228 243
207 223 240
206 223 232
214 230 245
203 219 234
207 223 240
216 231 251
203 219 235
206 222 239
205 221 234
206 222 235
207 223 238
205 222 237
212 228 243
209 226 242
201 218 237
207 223 240
210 227 244
205 222 236
204 221 238
206 223 239
206 222 235
210 226 246
202 219 238
214 230 247
211 227 250
212 228 248
137 157 186
61 96 136
59 94 136
61 96 142
59 94 125
60 95 128
60 95 137
60 94 139
60 95 140
60 95 131
60 95 145
59 94 140
60 94 139
60 95 137
60 95 141
60 94 136
61 95 136
60 95 137
61 96 142
60 95 136
60 95 133
61 96 140
60 95 128
61 95 141
60 95 142
60 95 136
59 93 126
61 96 144
60 94 134
61 96 148
59 94 126
61 96 142
61 96 149
59 94 129
60 95 135
60 95 135
60 95 139
58 93 120
60 95 141
61 96 144
61 97 140
61 96 139
61 96 145
60 95 143
60 94 142
60 95 140
62 97 143
60 95 136
59 93 130
60 95 140
61 96 136
59 94 133
61 97 147
61 96 139
60 95 134
60 95 134
60 95 140
60 95 139
60 95 139
61 96 148
61 96 144
60 95 141
60 95 136
61 96 141
60 95 137
59 94 126
60 95 135
60 95 140
61 96 139
60 95 142
61 96 139
59 93 126
60 94 142
60 95 137
60 96 144
60 94 133
60 95 144
59 93 130
59 93 131
61 96 144
61 95 142
60 95 136
61 96 137
60 95 142
59 93 133
60 95 134
59 93 133
60 95 136
60 94 135
60 95 140
60 95 141
61 96 150
60 94 138
61 96 139
61 96 138
60 95 136
60 95 135
61 96 140
59 93 135
60 95 131
60 95 134
60 95 139
60 94 141
59 93 125
61 95 148
62 97 151
59 94 139
60 94 135
60 94 136
60 94 138
59 94 133
60 94 135
60 94 138
59 92 129
59 92 135
60 95 140
60 94 142
58 91 131
60 93 139
59 93 138
59 92 131
58 92 137
58 92 130
57 89 129
60 92 142
58 91 134
60 93 138
59 91 131
58 89 132
57 80 107
54 59 40
63 69 52
52 58 42
57 64 49
62 66 46
68 73 51
73 79 57
72 77 55
83 87 58
80 85 60
91 95 62
97 99 65
91 93 60
97 100 65
115 116 76
91 94 60
100 103 66
107 108 68
102 105 69
105 107 69
117 118 74
122 122 74
119 120 74
121 123 77
120 121 75
127 125 73
130 129 75
123 123 77
138 137 80
141 138 82
123 123 76
136 134 73
146 144 87
142 139 79
143 141 85
149 144 83
153 149 87
150 147 85
157 153 91
150 147 89
153 149 82
153 150 85
153 149 81
158 153 94
156 153 92
159 156 92
153 150 85
163 158 88
164 159 89
155 150 85
167 161 92
154 151 85
164 159 90
162 157 89
168 162 94
159 154 88
164 159 83
168 161 92
162 157 89
163 158 89
170 163 89
169 163 93
172 166 91
166 162 95
166 161 88
168 162 92
164 159 85
171 164 94
170 164 89
166 159 88
169 163 90
170 163 92
174 167 95
164 159 84
171 164 91
167 162 87
168 162 89
168 161 89
168 162 83
162 158 75
170 164 90
169 163 88
171 165 90
173 166 90
168 161 87
166 160 87
169 163 91
166 160 86
167 161 89
169 162 90
171 163 92
163 158 80
169 163 87
165 160 88
166 160 88
169 163 90
161 155 79
171 164 91
162 156 85
166 160 82
167 161 92
165 159 82
160 153 82
162 155 81
164 159 82
162 156 84
167 161 89
164 157 87
163 157 85
160 154 83
162 156 84
160 154 79
162 157 80
166 158 86
163 157 87
163 157 84
167 160 87
164 158 85
165 158 90
159 153 84
164 157 84
160 155 80
158 151 84
161 155 86
159 153 79
162 156 85
159 153 76
160 153 85
162 156 85
162 155 84
160 154 80
157 151 80
153 148 78
157 152 82
154 148 82
220 235 255
220 235 255
219 235 255
219 235 255
220 235 255
220 235 255
220 235 255
220 235 255
220 235 255
219 234 254
220 235 255
220 235 255
220 235 255
219 234 254
220 235 255
220 235 254
220 235 255
219 234 254
220 235 255
220 235 255
218 233 254
220 235 255
220 235 255
218 234 252
218 234 252
217 232 250
216 232 245
217 232 248
215 231 246
216 232 248
215 231 242
216 231 246
216 231 246
219 234 253
217 233 249
217 232 248
217 232 246
217 232 246
218 234 252
218 233 250
218 234 252
216 232 244
216 231 245
218 234 252
216 232 245
216 232 245
216 232 248
216 232 246
213 229 237
217 232 248
216 232 245
214 230 238
217 233 249
214 229 244
215 230 248
216 231 250
216 231 250
208 223 243
213 228 248
205 221 241
209 224 246
214 229 250
213 228 249
210 225 245
211 226 248
210 225 245
212 227 247
213 228 248
214 229 249
214 229 250
209 224 244
215 230 250
212 227 248
216 231 252
212 227 248
213 228 249
216 231 252
212 228 247
214 229 250
213 229 247
216 232 246
212 228 241
217 233 252
218 233 253
216 231 248
217 233 250
216 232 250
215 231 242
214 230 242
217 233 250
215 231 244
214 230 242
217 233 248
219 234 254
214 230 241
218 233 252
216 232 246
217 232 248
215 231 244
217 232 248
215 231 242
216 232 246
216 231 247
212 228 241
209 225 240
210 226 244
212 228 242
209 225 242
208 223 238
217 233 249
204 220 238
205 221 237
206 223 238
210 226 242
213 229 244
207 223 237
200 216 231
208 224 238
212 228 244
207 223 237
204 220 237
207 223 242
213 229 242
210 226 244
209 224 244
207 224 241
207 223 238
211 227 242
204 220 233
208 224 238
209 224 244
201 218 237
210 225 248
212 228 246
209 225 245
124 146 174
61 96 145
59 94 137
61 97 148
60 95 137
60 95 140
60 95 136
61 96 136
60 95 139
59 93 134
61 96 144
61 95 142
61 96 143
60 96 141
60 95 136
61 96 144
61 96 136
61 96 135
60 95 140
60 95 142
61 96 140
60 95 140
61 96 147
60 95 135
60 95 134
61 95 140
60 95 139
61 97 142
61 96 140
60 94 129
60 95 139
60 95 133
60 94 130
60 94 140
60 94 139
61 96 139
60 95 133
59 94 135
61 96 136
60 95 136
61 97 142
60 95 133
61 96 140
60 95 139
60 94 133
60 95 136
60 94 126
60 95 145
61 96 151
59 94 136
60 95 134
61 96 143
60 94 135
58 93 121
60 95 136
60 95 137
62 97 143
58 93 134
60 95 139
61 96 143
59 93 128
59 94 130
59 93 135
59 93 130
59 93 130
61 97 153
61 96 143
60 95 134
61 96 142
60 95 137
59 94 133
61 95 139
61 95 139
61 96 148
59 94 141
61 97 149
62 97 149
60 95 142
60 95 135
61 96 140
61 96 151
60 95 133
60 94 130
60 94 135
61 96 143
61 96 147
61 96 144
61 97 154
59 93 131
62 97 151
60 94 136
62 96 149
60 95 136
60 94 135
61 96 148
60 95 142
59 93 131
60 95 140
61 96 143
60 95 143
60 94 140
59 94 124
60 94 137
61 96 140
60 94 134
61 95 146
61 95 141
59 93 134
60 94 141
60 94 132
60 94 138
60 95 139
59 93 133
60 94 136
59 92 131
59 92 124
58 92 132
60 94 137
59 92 134
60 95 141
59 93 137
59 92 131
58 91 133
60 94 134
59 92 133
56 88 121
56 88 124
58 90 130
58 89 137
51 79 106
47 54 41
46 52 38
51 60 47
58 65 49
65 72 51
68 74 52
69 73 54
79 82 54
88 91 58
84 88 59
81 86 58
90 94 60
100 103 66
89 94 62
92 95 58
99 102 62
103 106 67
108 109 67
99 101 65
105 107 69
117 117 72
123 122 80
118 119 70
122 122 74
129 127 75
128 128 77
132 131 79
141 139 84
130 130 77
142 140 84
138 135 80
146 143 85
151 147 91
147 144 84
155 151 88
146 142 84
144 142 80
148 146 85
156 153 90
148 146 88
156 153 89
150 146 79
152 149 83
147 144 81
159 155 87
153 149 80
158 153 85
151 148 86
159 154 87
161 157 86
160 156 82
168 163 94
161 157 90
161 157 82
159 154 80
166 160 91
162 158 91
159 154 87
168 162 93
166 160 86
168 162 90
168 162 91
167 161 90
169 163 89
166 160 90
168 163 86
167 162 92
169 163 86
169 162 92
166 160 82
166 161 88
170 163 89
168 162 94
169 163 88
175 168 97
170 164 93
168 163 90
172 165 93
166 160 84
166 161 84
170 164 91
171 164 89
167 161 86
166 160 84
168 162 92
169 161 87
170 162 90
167 161 92
167 160 90
170 164 90
165 160 84
165 160 84
167 161 90
166 159 86
163 158 81
167 161 90
169 162 94
166 160 89
160 154 79
168 161 84
166 160 90
164 159 85
168 162 87
164 158 84
164 157 81
168 161 91
164 159 88
160 154 82
165 159 84
171 164 89
159 153 82
157 152 76
167 161 81
151 145 75
165 159 92
163 157 82
162 156 82
161 155 87
166 159 84
156 151 79
163 156 86
158 152 79
158 152 80
166 161 86
160 154 79
160 154 77
165 159 83
159 152 80
158 152 80
154 147 80
155 149 80
160 153 79
158 152 83
162 154 83
159 153 87
219 234 255
220 235 255
220 235 255
219 234 255
220 235 255
220 235 255
220 235 255
220 235 255
220 235 255
220 235 255
220 235 255
220 235 255
220 235 255
220 235 255
220 235 255
219 234 255
220 235 255
219 234 254
220 235 255
220 235 255
220 235 255
220 235 255
220 235 255
219 234 255
219 234 254
218 233 253
219 234 255
219 234 254
219 234 252
220 235 254
219 234 252
218 233 250
217 232 250
217 233 246
218 233 250
219 234 253
216 232 245
218 233 250
218 233 249
218 233 249
216 232 245
217 233 248
217 232 246
217 233 248
216 231 245
218 233 250
216 232 245
218 233 249
216 231 242
217 233 248
217 232 246
218 233 250
215 231 242
215 230 250
217 232 252
215 231 249
209 224 244
215 230 251
217 233 254
212 228 248
209 224 244
210 225 246
211 227 246
211 227 248
210 225 245
214 229 250
215 230 250
213 229 249
212 228 250
214 229 250
216 231 252
206 221 241
210 225 244
210 225 245
215 231 252
215 230 250
214 229 250
213 229 250
208 223 244
213 228 248
217 233 250
215 231 242
218 233 250
217 233 248
217 232 248
215 231 242
217 232 246
216 232 245
215 231 242
216 231 242
217 233 248
215 231 242
217 232 246
216 231 246
216 232 246
217 232 248
216 231 242
217 233 249
216 232 245
216 232 245
216 231 245
215 231 246
211 227 245
206 221 241
213 228 242
211 227 240
206 223 233
208 224 236
209 225 238
210 226 242
211 227 243
206 222 236
212 228 246
213 229 246
209 224 242
206 222 239
210 225 239
216 231 248
204 220 231
211 227 243
210 226 244
208 224 236
210 226 244
209 225 240
208 224 238
210 226 237
211 227 244
208 224 233
212 228 245
208 224 240
215 230 248
208 223 245
209 224 245
205 221 243
212 228 248
104 128 164
61 96 143
61 96 140
62 98 149
59 94 133
61 96 141
59 94 134
61 96 142
61 97 144
61 96 140
59 93 137
60 95 136
60 95 134
59 93 133
61 95 133
59 93 128
60 95 137
60 95 133
60 95 143
60 95 133
61 95 135
61 96 141
60 95 139
60 95 135
59 93 125
61 96 143
61 96 145
60 95 129
61 96 140
59 94 130
61 96 140
61 96 133
60 95 142
61 96 139
59 94 135
61 96 140
60 95 136
60 95 125
60 94 136
60 95 140
60 95 135
60 95 139
60 95 142
60 95 133
61 96 141
60 95 134
60 95 136
61 97 145
61 96 139
59 94 131
60 94 142
59 93 133
61 96 144
60 94 141
59 94 141
61 97 148
61 96 148
61 96 145
61 96 139
60 95 137
61 96 142
62 97 144
59 94 126
60 95 141
61 96 140
61 96 137
60 95 137
59 94 134
61 95 137
59 94 128
60 95 140
61 96 143
60 95 134
60 95 141
61 96 145
62 97 150
59 93 133
61 96 141
59 94 135
60 95 133
60 95 139
60 95 140
60 95 128
60 95 134
60 95 137
62 96 150
59 93 137
61 96 144
60 94 137
59 93 126
59 93 131
59 93 125
59 93 129
61 96 144
59 93 128
61 95 140
60 94 134
58 92 130
60 95 131
61 96 143
59 93 133
60 94 136
61 95 144
61 95 140
61 96 148
58 92 130
59 93 120
60 95 141
60 94 140
61 95 140
61 95 140
59 93 134
59 94 138
60 94 137
59 93 133
59 93 129
59 93 133
58 91 135
61 96 140
59 91 131
58 91 125
58 91 126
56 88 122
57 89 128
59 93 133
59 92 135
60 93 138
58 90 128
57 88 135
54 81 112
49 54 37
53 60 43
48 54 37
54 59 38
57 64 46
64 69 44
75 79 50
71 76 48
78 82 53
83 87 59
91 93 58
96 99 64
98 101 66
94 98 66
102 104 67
129 128 79
105 108 67
111 112 70
110 111 67
122 122 80
109 110 67
120 120 71
121 121 72
131 130 83
129 127 76
135 133 74
127 126 74
137 135 81
126 126 68
128 128 80
137 135 80
135 134 77
138 135 73
146 143 80
149 146 83
141 138 75
146 143 80
145 142 82
148 145 82
153 149 80
154 150 84
146 143 80
148 145 78
158 153 88
156 152 84
152 150 83
154 150 84
155 151 83
160 155 84
162 157 90
156 152 87
159 155 86
160 155 87
150 147 78
158 153 84
161 157 86
167 161 90
163 159 90
167 162 89
162 157 86
164 159 91
166 160 86
164 158 89
163 158 87
166 160 86
172 166 88
164 158 85
169 163 87
164 159 87
164 158 84
165 159 88
165 159 86
167 161 84
169 164 87
167 161 88
168 163 84
170 163 87
170 163 90
168 162 90
166 160 88
166 160 86
169 162 89
169 163 87
165 159 84
167 161 87
168 162 84
164 159 84
167 161 80
170 164 91
166 160 84
167 161 84
163 158 81
162 157 85
162 156 81
161 155 84
164 157 84
167 160 87
172 164 95
168 162 89
163 157 86
162 156 81
162 157 80
167 160 84
161 156 80
162 156 82
165 159 81
171 164 92
158 152 79
163 157 79
160 154 81
162 155 85
163 158 85
162 156 86
158 153 79
164 158 89
163 157 79
165 159 85
168 161 87
160 153 80
163 158 86
162 155 82
156 150 78
162 156 89
157 152 80
165 158 82
162 156 82
164 157 84
160 154 87
161 156 84
161 155 83
154 149 75
153 148 75
159 152 83
155 149 74
157 150 78
220 235 255
220 235 255
220 235 255
220 235 255
220 235 255
220 235 255
219 234 254
220 235 255
220 235 255
219 234 255
220 235 255
220 235 255
220 235 255
219 234 254
220 235 255
220 235 255
220 235 255
220 235 255
220 235 255
221 235 255
220 235 255
220 235 255
220 235 255
220 235 255
220 235 255
219 234 254
218 233 253
220 235 255
220 235 255
220 235 255
219 233 254
219 234 254
219 234 255
220 235 255
220 235 255
220 235 255
220 235 255
219 234 252
219 234 253
220 235 255
219 234 252
219 234 252
217 232 245
219 234 250
219 234 250
218 233 248
218 233 248
219 234 252
219 234 250
217 233 246
218 233 248
216 231 243
216 232 249
215 229 248
218 233 251
217 232 250
214 229 249
213 228 249
212 227 246
215 230 250
213 228 248
213 228 249
211 226 247
218 233 254
208 223 242
217 232 252
209 224 246
207 223 243
212 227 247
211 226 247
213 228 250
211 226 246
216 231 252
208 223 244
214 229 249
214 229 250
210 225 244
210 226 248
214 229 249
216 231 252
213 228 248
217 232 249
217 233 248
216 231 242
215 231 240
217 233 246
217 232 246
217 232 245
217 232 246
216 232 244
218 233 250
219 234 252
217 233 248
217 232 245
217 233 248
217 232 245
215 230 238
219 234 253
217 233 248
216 232 245
218 233 248
218 233 251
213 228 246
213 228 246
212 227 245
213 228 247
214 229 250
209 224 240
210 226 240
211 226 242
207 223 241
208 224 240
211 226 241
209 225 239
211 226 239
216 231 248
208 224 240
213 228 244
210 225 242
210 225 241
211 226 246
204 220 235
212 228 247
212 227 244
212 228 244
213 228 248
213 228 246
211 226 246
205 221 243
212 227 248
217 232 254
214 229 251
212 227 248
208 224 247
209 225 246
87 113 149
61 97 144
60 95 131
59 94 140
58 93 118
61 96 135
61 97 143
60 95 133
60 95 136
61 96 140
60 95 142
61 96 147
61 96 142
60 95 129
60 95 135
59 94 129
61 96 140
61 97 148
62 97 142
61 96 143
61 96 136
61 96 134
61 96 143
60 96 135
58 93 125
59 94 136
59 94 134
60 94 133
61 95 135
60 95 144
59 93 134
60 94 130
61 96 147
60 95 141
60 95 135
61 96 140
60 95 131
60 95 140
61 96 142
61 96 143
60 95 143
59 94 136
59 94 121
60 94 133
60 94 143
60 94 133
60 95 134
60 96 144
59 93 131
60 95 131
59 94 128
60 94 136
59 94 126
60 94 135
60 94 136
61 96 143
61 96 134
61 95 142
61 97 149
59 93 135
60 95 130
61 96 144
59 94 140
60 95 141
61 96 135
60 95 137
60 95 133
61 96 140
60 94 140
60 95 143
60 94 130
60 94 128
60 95 134
60 95 140
61 96 144
60 94 134
61 96 144
61 96 143
60 95 140
60 94 139
61 95 135
60 94 133
60 95 145
60 95 140
60 94 135
60 95 139
60 94 133
60 95 138
60 95 135
61 96 143
61 96 141
61 96 148
61 96 145
61 96 143
61 95 142
60 95 126
60 95 136
60 95 135
61 96 141
59 93 136
61 96 136
61 96 138
59 94 135
61 96 138
60 94 137
60 94 136
58 92 126
60 94 138
59 92 117
61 95 146
60 95 140
60 95 140
61 95 137
58 92 134
60 94 137
59 93 132
59 92 132
60 93 133
59 93 126
60 94 141
59 91 130
59 93 131
58 90 128
57 88 122
59 94 145
59 92 128
57 90 131
58 91 128
55 86 127
52 80 110
42 49 35
49 55 41
50 56 43
43 50 36
58 63 44
67 70 43
68 73 50
76 81 54
71 76 51
73 78 53
76 80 58
86 90 59
79 84 55
101 102 61
88 90 59
99 102 62
106 108 69
107 109 67
107 108 66
106 108 68
125 124 76
128 127 74
115 116 68
120 120 73
125 125 73
119 118 70
128 127 76
131 130 72
130 129 81
132 131 74
126 126 72
133 132 78
134 132 81
132 129 72
140 137 78
148 145 85
146 143 81
146 143 81
144 142 85
150 145 80
156 151 87
151 146 87
152 147 84
150 147 81
154 150 85
155 152 83
162 157 90
158 153 84
157 152 81
156 152 80
154 151 77
163 157 87
162 157 87
155 152 69
160 155 83
162 157 85
163 159 94
162 157 84
169 163 94
165 160 86
165 159 89
163 158 84
164 159 90
159 154 81
165 160 88
168 162 90
171 164 88
168 162 87
167 161 82
169 163 89
167 160 85
168 162 88
174 166 95
166 159 86
168 163 89
167 161 86
165 158 86
167 161 85
172 165 90
166 160 83
167 161 84
168 162 85
165 160 84
169 161 88
163 158 84
174 166 90
170 163 86
166 160 84
167 161 91
172 165 93
165 160 83
167 161 84
165 159 84
171 164 89
164 157 84
167 161 88
168 162 87
171 165 88
164 157 82
158 153 78
165 159 85
168 160 91
165 159 86
162 155 81
165 159 84
163 156 83
167 160 85
163 157 83
162 155 84
160 154 80
155 150 75
164 157 84
169 162 89
163 157 88
164 157 89
154 149 81
162 156 86
160 154 80
164 158 81
157 151 82
168 160 86
159 154 81
160 154 79
161 155 78
158 152 84
157 151 80
158 153 78
151 145 72
162 155 84
156 150 80
161 156 84
156 150 76
157 150 82
162 155 87
154 149 80
221 235 255
221 235 255
221 235 255
220 234 255
221 235 255
221 235 255
221 235 255
221 235 255
221 235 255
221 235 255
221 235 255
221 235 255
221 235 255
221 235 255
221 235 255
221 235 255
221 235 255
221 235 255
221 235 255
221 235 255
221 235 255
219 234 254
219 233 254
221 235 255
221 235 255
220 234 254
221 235 255
221 235 255
221 235 255
219 233 253
220 234 254
221 235 255
220 234 254
221 235 255
221 235 255
221 235 255
221 235 255
221 235 255
221 235 255
221 235 255
221 235 255
221 235 255
221 235 255
221 235 255
221 235 255
221 235 255
221 235 255
221 235 255
221 235 255
221 235 255
221 235 255
220 234 254
221 235 255
216 231 250
218 233 254
208 223 244
214 229 250
210 225 244
215 230 250
210 225 245
214 229 250
213 228 248
217 232 253
210 225 248
208 223 242
211 226 247
213 228 248
207 222 242
211 226 244
216 231 251
212 226 246
216 231 252
217 232 251
212 227 247
212 227 247
215 230 250
216 231 252
208 222 242
212 227 248
217 232 253
218 233 252
218 233 250
219 234 250
218 233 249
219 233 249
219 234 252
218 233 248
217 233 246
219 234 252
218 233 248
219 234 253
218 233 249
217 233 246
220 234 253
219 234 252
220 234 253
218 233 248
218 233 248
220 235 254
219 234 253
220 234 253
218 233 250
209 225 240
211 227 244
211 226 244
211 226 241
212 226 246
215 229 248
210 225 244
209 224 240
210 226 244
207 222 242
209 224 237
207 222 241
208 223 247
212 227 245
214 229 248
216 231 252
210 225 247
215 229 251
212 227 248
211 226 246
210 225 248
205 220 241
217 231 253
208 223 243
217 232 253
213 228 248
215 230 251
215 230 250
206 221 243
210 225 247
215 230 250
211 226 248
210 225 245
84 112 142
61 96 142
60 95 140
60 95 135
60 95 137
61 96 141
61 96 136
60 95 128
60 95 136
60 95 144
61 96 148
61 96 141
60 95 136
60 95 133
61 95 136
61 96 143
60 95 134
59 94 128
61 96 144
59 94 135
60 96 141
60 95 141
60 95 142
59 93 129
61 96 142
60 95 134
60 94 133
59 93 129
59 94 134
60 95 136
61 95 139
61 96 135
59 93 131
60 95 134
60 95 136
61 96 145
60 95 135
59 93 122
59 94 135
60 95 135
60 95 142
60 95 135
59 94 122
61 96 136
60 95 137
62 97 141
60 95 136
61 96 142
60 95 133
60 94 125
60 94 130
60 95 135
61 96 144
60 95 142
60 94 133
61 96 140
60 95 142
62 97 143
60 95 135
60 95 140
59 94 136
59 93 130
61 95 137
59 94 131
61 96 142
60 94 135
60 95 136
60 95 133
60 95 137
60 95 135
60 95 129
60 95 134
61 96 145
61 97 143
60 95 136
60 95 136
61 95 140
61 95 147
59 93 130
60 95 143
60 95 136
62 97 152
60 94 131
61 95 143
61 95 137
61 96 140
59 94 131
61 96 145
60 95 137
60 94 143
60 95 134
60 95 140
61 95 140
60 95 137
60 94 134
60 94 137
59 93 133
61 95 137
61 95 137
60 94 134
57 89 124
61 96 142
60 94 136
59 93 135
60 95 131
60 94 134
61 95 141
60 93 138
60 94 139
61 95 142
59 93 130
59 93 133
58 91 124
60 95 144
57 91 124
59 94 133
59 94 137
59 93 140
58 92 135
59 92 128
59 92 134
58 91 128
57 89 120
58 90 127
59 92 136
56 89 124
59 91 136
58 90 139
56 87 128
54 83 112
32 40 31
42 49 34
45 51 34
54 59 40
57 63 43
57 63 44
68 73 51
67 72 50
72 77 48
94 95 63
80 85 55
95 98 55
93 96 60
97 100 66
96 98 63
90 94 60
115 116 70
103 105 65
119 119 68
105 107 68
117 117 73
117 117 67
125 124 73
116 117 70
117 118 64
131 129 79
133 132 77
122 121 72
143 140 75
133 131 70
135 133 75
135 133 77
135 133 77
142 139 78
148 145 78
142 140 82
152 148 85
145 141 77
148 145 75
147 144 81
147 143 78
148 145 80
152 149 79
149 146 83
152 148 81
154 149 83
148 144 80
156 152 80
161 156 86
163 158 83
156 152 85
157 153 76
160 156 86
161 157 86
162 156 82
161 156 78
160 155 84
166 160 86
159 155 84
161 156 83
166 160 88
164 159 87
166 161 90
172 166 96
165 159 82
165 160 78
157 153 77
167 161 87
166 161 84
165 160 84
169 162 84
164 159 82
171 165 92
169 163 91
166 161 87
169 162 83
165 160 82
168 163 84
170 164 86
166 160 86
172 165 89
171 165 90
171 165 90
171 163 88
171 165 94
172 165 91
161 156 74
164 157 80
168 161 87
163 156 80
168 161 91
163 157 85
165 159 77
167 161 85
164 157 80
165 160 79
166 160 89
162 156 79
163 157 86
169 162 85
168 162 86
165 159 87
160 153 75
162 156 84
165 159 77
161 155 76
164 158 85
166 158 84
162 155 80
160 154 77
160 154 78
164 158 86
157 150 77
163 156 82
156 151 79
164 156 83
160 153 79
165 158 86
160 155 82
157 152 80
164 157 85
155 150 78
162 156 80
154 148 78
153 147 75
152 146 76
161 154 82
157 152 82
158 152 80
163 156 83
153 147 75
155 149 81
157 150 83
151 146 75
162 156 86
220 234 255
221 235 255
221 235 255
221 235 255
221 235 255
221 235 255
220 234 255
221 235 255
221 235 255
221 235 255
221 235 255
221 235 255
220 234 255
221 235 255
221 235 255
221 235 255
221 235 255
220 234 254
221 235 255
219 233 254
221 235 255
220 234 255
221 235 255
219 233 254
221 235 255
221 235 255
221 235 255
221 235 255
220 234 255
221 235 255
220 234 255
221 235 255
220 234 254
220 234 255
221 235 255
221 235 255
221 235 255
221 235 255
221 235 255
221 235 255
221 235 255
221 235 255
221 235 255
221 235 255
221 235 255
221 235 255
221 235 255
221 235 255
221 235 255
221 235 255
221 235 255
217 231 252
220 234 255
217 231 251
217 231 252
212 226 248
216 230 252
210 225 245
216 230 251
211 226 246
209 224 245
211 226 246
212 227 248
216 230 250
215 230 249
212 227 248
217 231 251
211 226 246
213 228 248
215 229 250
213 228 249
217 231 252
213 228 248
216 230 252
213 228 249
212 227 248
216 230 250
214 229 250
215 229 251
215 229 249
215 229 251
220 234 254
221 235 255
221 235 255
221 235 255
221 235 255
221 235 255
221 235 255
221 235 255
221 235 255
221 235 255
221 235 255
221 235 255
221 235 255
221 235 255
221 235 255
221 235 255
221 235 255
221 235 255
221 235 255
221 235 255
219 233 254
217 231 252
215 229 250
216 231 249
214 229 250
215 229 250
213 227 249
217 231 252
218 232 252
209 224 243
215 229 248
210 225 246
215 229 251
212 226 246
210 225 246
216 230 250
214 228 248
206 221 239
211 226 248
217 231 251
217 231 252
209 224 245
212 227 248
217 231 251
217 231 252
215 229 250
212 226 249
213 227 248
210 225 247
208 223 245
218 232 252
212 226 247
208 222 243
217 231 252
83 111 154
60 94 135
60 95 134
59 93 126
59 93 131
61 95 139
61 96 143
60 95 135
60 95 142
59 94 129
60 95 135
60 95 135
60 95 134
62 98 151
60 95 131
61 96 142
60 95 126
60 95 136
60 95 140
61 96 144
60 95 131
60 95 142
60 95 137
58 92 118
60 94 142
60 95 133
62 97 149
61 96 145
60 95 135
61 96 140
61 96 141
61 96 141
60 94 135
60 94 131
61 96 142
60 95 137
59 93 118
58 93 121
60 94 139
60 95 139
61 95 136
62 97 147
59 94 133
59 94 139
60 95 135
60 95 135
60 95 133
60 94 135
60 95 134
59 93 134
60 95 139
60 94 133
60 95 139
60 96 147
61 95 130
60 95 131
61 96 136
60 94 134
62 97 141
60 94 124
63 98 153
60 95 130
61 95 143
60 95 134
58 93 130
60 95 136
60 95 148
61 95 136
62 97 147
61 95 135
60 94 142
59 93 128
61 96 144
60 95 135
60 95 133
60 95 133
60 96 142
61 96 148
61 96 137
58 92 128
60 94 131
59 94 130
61 96 149
59 93 129
60 94 133
60 95 136
60 95 141
60 95 143
60 95 142
61 95 141
60 95 136
59 94 126
61 96 143
60 96 145
59 93 135
61 95 145
58 93 125
60 94 134
59 94 135
60 94 133
58 91 128
60 95 135
59 94 135
59 94 137
60 94 138
60 94 133
60 94 138
59 93 136
61 96 142
59 94 139
58 92 126
58 93 129
59 93 133
59 94 130
58 92 128
60 94 137
57 89 122
58 91 136
61 95 135
59 92 130
60 94 135
58 90 133
59 91 131
59 92 140
58 92 133
57 89 126
58 90 126
57 88 127
56 87 125
52 80 108
46 50 33
51 56 36
44 51 33
48 54 38
49 56 38
56 63 43
59 65 39
67 71 47
74 79 49
74 79 53
87 91 57
94 97 63
92 95 54
83 86 51
96 99 59
107 110 64
106 106 64
114 115 71
106 106 61
110 111 62
109 110 56
124 123 70
119 118 66
129 128 69
119 120 68
123 123 66
125 124 72
124 124 68
134 132 74
131 129 72
137 136 75
143 140 74
138 136 75
136 134 75
149 145 85
141 138 75
145 141 81
146 143 71
147 144 75
148 145 78
151 147 76
149 147 81
151 147 77
156 151 85
147 143 79
149 146 82
154 150 84
157 153 81
158 153 87
146 143 82
161 155 85
161 157 85
160 155 86
155 151 82
165 159 90
163 158 82
164 159 87
166 160 86
159 155 82
161 157 81
167 161 90
164 158 80
167 160 88
161 156 78
166 161 86
163 157 87
160 155 81
167 161 82
168 162 84
169 163 88
163 158 83
164 158 86
164 157 79
165 158 84
165 159 83
168 161 85
166 160 86
166 160 84
170 163 90
167 161 84
167 161 84
170 164 87
167 161 86
167 161 80
170 164 87
167 160 79
167 161 85
167 160 80
168 161 90
169 162 87
166 158 82
168 162 86
170 163 88
168 161 84
168 162 87
165 159 82
159 153 74
166 160 83
167 160 87
163 156 82
166 159 86
164 157 80
161 155 79
166 159 86
159 153 80
163 156 82
162 156 80
165 159 86
165 159 84
165 159 87
167 160 82
163 157 81
166 160 87
158 153 77
162 156 86
162 156 84
165 159 89
162 156 80
165 157 84
165 158 84
161 156 79
162 156 78
166 159 87
156 151 75
156 150 81
163 157 79
160 154 83
163 157 80
160 155 76
163 156 84
160 154 78
160 152 77
160 153 77
160 153 79
160 154 81
221 236 255
221 236 255
221 236 255
221 236 255
221 236 255
221 236 255
221 236 255
221 236 255
220 234 254
221 236 255
220 235 255
221 236 255
221 236 255
221 236 255
221 236 255
221 236 255
221 236 255
221 236 255
221 236 255
220 235 255
220 235 255
221 236 255
219 233 253
221 236 255
221 236 255
220 234 254
220 234 254
221 236 255
219 233 253
218 232 253
221 236 255
221 236 255
221 236 255
221 236 255
221 236 255
221 236 255
221 236 255
221 236 255
221 236 255
221 236 255
221 236 255
221 236 255
221 236 255
221 236 255
221 236 255
221 236 255
221 236 255
221 236 255
221 236 255
221 236 255
221 236 255
221 236 255
217 232 253
219 233 254
218 233 254
218 233 254
213 228 249
213 227 246
213 227 248
216 231 250
215 230 250
218 233 253
214 228 248
214 229 248
216 230 250
216 230 250
214 228 249
218 233 253
213 227 246
216 230 249
211 226 246
214 228 248
213 228 249
214 229 249
214 229 249
214 229 250
213 227 246
212 226 248
210 224 244
214 228 248
211 225 246
220 235 255
221 236 255
220 235 255
221 236 255
221 236 255
221 236 255
221 236 255
221 236 255
221 236 255
221 236 255
221 236 255
221 236 255
221 236 255
221 236 255
221 236 255
221 235 255
221 236 255
221 236 255
221 235 255
221 236 255
218 233 253
216 231 252
219 234 254
218 233 254
217 232 252
213 228 249
207 222 244
209 223 246
212 227 248
212 226 246
211 225 245
211 225 246
215 229 249
209 223 244
217 231 251
213 228 248
215 230 250
208 223 244
213 227 249
215 229 249
214 229 250
218 233 253
214 229 249
214 228 248
212 227 248
212 226 247
211 225 246
216 230 251
212 226 247
212 227 248
211 226 246
212 227 246
214 228 247
207 222 242
79 107 146
61 95 141
60 95 135
59 94 141
61 96 149
60 95 140
61 96 139
60 95 130
59 94 134
61 95 134
60 95 140
60 95 137
60 94 135
60 95 141
60 94 135
58 93 124
60 95 134
60 95 137
59 94 131
60 95 133
60 95 133
59 94 135
58 92 126
61 96 142
60 95 135
60 95 136
61 96 144
60 95 131
60 95 135
61 96 143
59 93 133
59 94 130
60 95 133
60 95 135
60 95 131
60 95 135
59 93 130
59 94 125
60 95 139
61 95 139
60 94 130
59 94 129
60 95 130
61 96 139
60 95 139
61 95 136
61 97 145
60 95 140
60 95 139
59 94 135
61 96 140
60 95 137
61 96 134
59 93 122
60 95 135
60 95 133
61 95 141
61 95 134
60 95 141
59 93 136
60 95 129
60 95 135
59 94 124
60 95 133
61 96 139
61 96 145
59 93 131
60 95 139
60 95 135
59 94 129
60 94 135
60 94 141
59 93 134
60 95 135
60 94 140
61 96 139
59 93 129
61 96 141
58 92 122
61 96 147
61 95 136
61 95 139
59 94 133
61 97 142
60 94 140
61 96 140
60 95 133
60 95 146
59 93 125
62 97 153
60 94 134
60 95 136
60 94 140
59 93 131
60 95 133
60 95 135
61 96 144
58 92 128
61 95 134
59 93 134
61 95 136
59 94 134
60 95 139
59 93 131
59 93 132
60 94 134
59 93 133
59 93 132
61 95 137
58 92 129
59 93 129
59 92 125
59 93 133
58 91 133
58 92 131
59 93 134
60 94 136
59 93 132
59 93 121
59 93 137
58 91 138
59 92 127
58 92 135
59 92 127
57 89 127
59 93 135
55 86 116
57 89 125
55 84 114
51 78 103
34 42 32
39 46 29
42 50 35
45 52 35
49 55 37
44 52 38
67 71 43
68 73 47
66 71 51
73 77 49
82 85 53
60 67 41
84 87 54
93 95 57
94 96 54
101 103 60
105 106 68
101 103 60
111 111 62
105 107 61
128 126 70
120 119 72
121 121 71
122 122 66
126 125 73
123 122 69
134 132 77
128 126 71
132 131 75
133 131 77
124 124 75
133 132 75
142 139 80
134 132 70
144 141 80
144 141 79
146 144 75
152 148 83
146 142 77
144 141 76
145 141 81
151 147 77
147 144 77
151 148 82
146 143 76
147 144 77
158 153 82
151 148 78
160 154 84
159 154 83
163 157 83
163 157 85
159 154 86
157 152 82
161 155 89
161 156 84
161 155 83
161 156 85
162 157 86
164 158 87
163 158 85
166 160 80
168 162 84
167 161 87
156 152 80
168 161 85
163 158 77
170 164 90
167 161 83
171 164 89
172 165 88
166 160 86
167 161 87
163 157 83
165 159 84
169 162 91
162 157 80
160 155 80
164 158 84
165 159 84
166 160 81
169 162 83
163 157 82
164 158 84
171 164 87
165 158 86
166 160 86
170 163 87
165 158 81
158 152 78
171 165 87
167 160 84
162 156 78
163 158 73
165 158 84
170 162 84
167 159 85
164 158 75
170 163 92
165 159 80
166 159 87
167 160 85
166 159 81
166 161 82
166 160 86
160 155 75
168 161 82
163 157 80
167 160 87
169 162 84
162 156 84
163 157 81
165 158 82
160 154 74
163 157 83
165 158 85
167 160 83
158 153 78
154 148 79
159 154 82
158 151 81
152 146 76
153 147 83
156 151 76
152 146 75
159 153 81
151 146 75
164 158 81
160 153 80
154 149 83
159 153 79
149 142 70
158 151 78
152 146 73
159 152 78
222 236 255
221 236 255
222 236 255
222 236 255
222 236 255
221 236 255
221 236 255
222 236 255
221 236 255
221 236 255
222 236 255
221 236 255
221 236 255
222 236 255
222 236 255
222 236 255
221 236 255
220 235 255
222 236 255
220 235 255
221 236 255
221 235 254
222 236 255
220 234 254
222 236 255
222 236 255
220 235 254
221 236 255
221 236 255
222 236 255
221 235 255
221 236 255
219 233 253
221 236 255
222 236 255
221 236 255
222 236 255
221 236 255
222 236 255
222 236 255
221 236 255
221 236 255
221 236 255
221 236 255
221 236 255
221 236 255
222 236 255
221 236 255
222 236 255
221 236 255
222 236 255
220 235 255
218 233 253
214 229 250
213 228 248
214 229 248
208 222 242
216 231 251
216 231 250
213 228 248
213 228 248
219 234 254
216 231 250
214 229 248
214 228 249
215 229 249
220 234 254
217 232 252
211 226 246
221 235 255
212 226 246
212 227 246
215 230 250
215 230 249
217 232 252
218 233 254
217 232 252
220 234 253
211 226 246
216 230 250
220 234 254
218 233 253
221 236 255
221 236 255
222 236 255
222 236 255
221 235 254
221 236 255
221 235 254
221 236 255
221 236 255
222 236 255
222 236 255
221 235 254
221 235 254
221 236 255
222 236 255
222 236 255
221 236 255
221 235 254
221 236 255
219 234 253
220 235 255
219 234 254
215 230 250
213 227 246
211 226 247
214 229 250
213 228 249
213 228 246
216 231 250
214 229 249
213 227 247
212 227 248
212 226 246
207 221 243
213 227 248
218 233 254
213 227 247
209 224 247
214 229 249
205 220 240
213 228 248
215 230 250
215 229 248
214 229 250
212 226 246
217 232 251
215 230 250
215 230 250
213 228 248
213 227 246
211 225 244
216 230 250
214 228 248
70 101 142
60 95 139
60 95 139
60 95 131
60 94 134
60 95 139
60 94 125
61 96 139
60 94 124
60 95 140
60 94 135
59 93 135
60 94 137
61 96 140
61 96 145
60 94 135
60 95 141
60 95 131
61 95 136
61 95 139
60 95 141
59 93 125
60 95 134
60 95 128
60 95 137
61 95 136
60 95 141
61 96 137
60 94 137
61 96 139
59 93 124
60 95 139
60 95 140
59 93 130
60 94 136
59 94 133
59 94 128
60 94 133
59 94 129
59 94 136
60 95 139
60 94 131
59 93 130
60 94 136
60 95 128
60 95 133
61 96 134
61 96 140
61 95 136
61 95 135
61 96 141
60 95 126
60 95 135
61 96 145
60 95 135
60 95 139
60 95 135
59 94 131
61 95 134
62 97 144
61 95 141
60 94 131
60 94 140
60 95 137
59 94 135
60 94 126
60 96 143
59 94 131
60 94 133
59 94 128
60 95 134
60 95 136
60 94 131
61 96 145
59 93 137
60 95 141
59 94 135
61 95 141
60 95 134
60 95 135
59 94 136
60 94 135
60 95 137
61 96 135
58 92 124
59 93 125
61 96 139
58 92 126
59 92 126
58 92 121
60 95 136
59 93 129
61 95 141
60 94 135
60 94 135
58 92 118
59 93 129
59 93 133
59 93 133
59 93 126
59 94 128
61 96 140
60 95 136
59 94 136
60 95 132
59 94 137
59 93 132
60 94 138
60 93 131
60 95 137
58 91 126
58 92 135
60 93 129
58 91 121
59 92 133
58 92 133
58 90 121
59 94 130
60 93 135
59 91 128
58 91 131
58 91 123
59 93 140
57 88 113
59 92 135
57 89 128
57 89 122
57 88 114
56 86 123
53 82 112
36 44 27
40 46 30
33 42 30
51 58 37
58 63 36
64 69 45
58 64 43
69 74 40
63 69 40
68 74 47
75 79 48
83 88 51
77 83 51
92 94 56
96 99 61
90 94 57
106 108 58
105 107 63
106 107 58
108 109 60
108 110 62
120 120 65
125 125 70
117 118 66
117 117 67
127 125 68
126 126 70
127 126 70
128 127 68
131 129 75
133 131 71
137 133 72
140 137 80
144 141 69
132 131 70
138 136 73
143 140 78
137 135 72
137 134 70
144 141 79
151 147 79
145 141 76
160 155 81
154 149 80
158 154 80
154 150 81
154 149 82
159 154 86
153 148 83
161 156 84
157 152 80
159 154 84
158 153 77
157 153 80
159 154 79
160 156 82
159 155 77
156 151 80
165 158 82
162 157 86
170 163 85
159 154 76
168 162 88
164 157 86
165 158 80
160 156 81
171 164 84
166 160 81
164 158 78
168 161 82
167 160 80
166 160 85
167 161 84
165 159 81
162 157 82
165 158 83
162 157 78
170 163 87
165 160 81
164 159 82
168 162 86
166 159 88
166 160 80
167 160 84
169 163 86
169 162 84
163 157 76
169 162 85
166 159 76
169 162 82
165 159 84
163 157 79
166 160 78
167 160 79
163 156 80
160 155 75
162 156 74
171 164 85
170 163 86
165 159 84
160 155 79
164 157 81
162 157 80
162 156 79
164 158 73
163 157 84
167 161 81
160 154 75
167 160 84
158 152 81
158 152 79
167 159 87
155 149 79
162 155 80
162 156 78
159 153 77
157 151 77
157 152 74
159 152 80
157 151 79
152 147 71
151 145 70
162 154 83
157 151 80
158 151 77
164 158 84
157 151 80
151 145 70
148 143 69
167 161 88
161 154 84
155 149 76
156 150 75
154 148 76
155 148 75
222 236 255
222 236 255
222 236 255
221 235 254
222 236 255
222 236 255
222 236 255
221 235 254
222 236 255
222 236 255
222 236 255
222 236 255
222 236 255
222 236 255
222 236 255
221 235 255
221 235 254
221 235 255
222 236 255
219 233 252
222 236 255
222 236 255
221 235 254
222 236 255
222 236 255
222 236 255
222 236 255
221 235 255
222 236 255
222 236 255
222 236 255
222 236 255
221 235 255
222 236 255
222 236 255
222 236 255
222 236 255
222 236 255
222 236 255
222 236 255
222 236 255
222 236 255
222 236 255
222 236 255
222 236 255
222 236 255
222 236 255
222 236 255
222 236 255
222 236 255
222 236 255
222 236 255
219 233 253
215 230 250
220 234 254
216 230 250
214 228 249
214 228 247
215 229 250
216 230 250
215 229 250
212 227 248
218 232 252
214 228 248
217 231 249
217 231 252
219 233 254
218 232 252
214 229 248
216 230 249
214 228 249
212 227 246
217 232 250
213 227 246
218 232 253
217 231 251
212 227 248
216 230 251
216 230 250
218 232 253
216 230 251
219 233 254
222 236 255
221 235 254
221 235 254
222 236 255
222 236 255
221 235 254
222 236 255
221 236 254
222 236 255
222 236 255
222 236 255
222 236 255
221 235 253
222 236 255
222 236 255
221 235 254
221 235 253
221 235 252
221 236 254
220 234 253
218 232 252
220 234 253
214 229 248
213 228 247
212 227 246
211 225 246
218 232 253
213 228 248
216 231 250
210 224 245
207 222 244
212 227 247
217 231 252
210 225 244
215 229 249
220 234 254
217 232 252
212 227 246
216 230 250
213 228 247
217 231 250
216 230 250
212 227 246
214 229 250
220 234 254
209 224 244
213 228 248
209 224 245
215 229 248
211 226 243
213 227 246
211 226 246
210 225 244
83 111 155
59 93 130
59 93 131
60 94 134
60 95 140
61 95 139
61 96 142
60 95 131
60 95 134
60 95 141
61 95 136
59 94 141
59 94 140
59 93 126
61 96 140
60 94 135
59 94 136
59 94 133
59 94 130
60 95 133
60 94 124
59 93 122
60 94 131
60 95 134
61 96 135
60 93 131
60 95 136
59 93 129
60 95 130
60 95 140
61 96 139
62 97 151
59 93 126
60 95 142
60 94 131
60 95 139
61 96 136
59 94 121
59 94 125
60 95 135
60 95 144
62 97 145
61 95 141
60 95 137
61 95 131
60 95 140
60 94 134
60 95 131
61 96 140
61 96 142
60 95 135
61 95 139
61 96 136
61 96 140
59 93 130
61 95 134
61 95 142
60 95 136
59 93 131
59 93 128
58 92 118
61 96 139
61 96 137
60 94 141
61 95 136
60 95 133
60 94 137
59 93 136
59 93 124
60 95 135
59 94 129
60 94 129
59 93 131
59 93 129
60 95 135
59 94 129
60 95 130
60 95 142
59 93 126
58 93 128
59 93 130
59 94 130
59 94 128
59 94 135
60 94 130
60 95 136
60 94 126
60 95 136
59 93 128
59 93 136
61 97 143
60 94 132
61 95 142
59 93 133
60 94 143
60 94 140
59 94 132
59 93 126
58 91 122
59 94 139
59 93 128
59 93 133
58 93 130
59 94 130
59 93 125
61 95 134
59 94 133
58 91 130
60 95 136
58 91 126
59 93 132
58 91 129
60 94 140
59 93 134
59 93 131
59 92 131
58 91 130
58 91 128
59 92 121
58 92 133
60 94 139
57 91 123
60 93 125
57 89 124
58 91 133
58 90 130
57 89 127
57 88 117
55 86 112
50 78 102
27 34 21
36 44 30
46 52 27
43 51 31
52 57 30
59 64 41
63 68 44
61 68 39
70 76 48
68 74 44
81 84 48
83 87 52
91 92 52
79 84 49
98 99 56
92 95 56
99 100 52
94 96 52
91 95 54
108 109 64
108 110 65
110 110 60
114 114 65
125 124 65
120 119 66
113 114 68
126 124 68
138 136 69
130 128 68
137 135 70
142 138 70
132 130 67
135 133 68
143 140 70
136 133 71
148 144 77
147 144 79
142 139 75
147 143 79
149 146 81
147 143 82
146 142 77
153 149 83
144 141 70
151 147 80
155 151 80
147 143 78
159 154 84
153 149 81
151 148 78
151 147 77
160 155 81
162 157 82
162 157 81
157 152 77
159 154 80
158 153 78
165 158 88
164 158 84
165 159 84
159 154 79
161 156 80
156 151 84
161 155 76
165 160 84
167 161 78
166 159 84
163 158 74
162 156 73
165 158 87
164 157 75
167 161 86
162 156 78
167 161 83
171 164 82
162 156 80
163 157 83
166 160 80
167 160 83
163 157 79
169 162 89
165 159 85
161 155 82
168 161 85
172 165 86
159 153 72
167 161 83
170 164 87
165 159 83
164 158 83
168 162 78
168 161 88
168 161 80
168 163 84
170 163 83
162 156 76
162 157 81
160 154 79
164 158 80
166 159 82
161 155 78
160 153 75
162 156 78
160 155 81
163 157 86
164 157 83
167 160 91
165 158 84
162 156 78
160 154 82
165 158 79
160 153 79
160 153 83
163 157 80
163 156 81
159 153 81
166 158 81
156 150 68
157 152 80
163 157 83
161 155 77
157 151 75
152 147 68
156 149 77
151 145 72
154 148 67
153 147 74
161 154 80
147 142 81
156 150 80
154 148 73
153 147 74
147 141 69
156 150 78
159 152 85
222 236 255
222 236 255
222 236 255
222 236 255
222 236 255
222 236 255
221 235 255
222 236 255
222 236 255
222 236 255
222 236 255
222 236 255
222 236 255
222 236 255
222 236 255
222 236 255
222 236 255
219 233 253
222 236 255
222 236 255
220 234 254
221 235 255
221 235 254
221 235 254
219 233 253
221 235 255
222 236 255
222 236 255
221 235 254
222 236 255
222 236 255
222 236 255
220 234 254
221 235 255
222 236 255
222 236 255
222 236 255
222 236 255
222 236 255
222 236 255
222 236 255
222 236 255
222 236 255
222 236 255
222 236 255
222 236 255
222 236 255
222 236 255
222 236 255
222 236 255
222 236 255
221 236 254
219 233 254
219 233 253
214 228 249
218 232 250
219 233 252
216 230 246
217 231 249
218 232 251
214 228 248
218 232 251
210 225 244
213 228 248
216 230 250
219 233 252
213 227 246
214 229 247
214 228 247
215 229 248
216 230 250
216 230 245
214 228 246
217 231 249
213 227 246
211 225 244
214 229 244
215 229 249
213 227 242
214 228 247
214 229 244
220 234 250
219 234 248
220 235 252
220 235 250
221 235 252
220 235 250
219 234 248
221 236 254
220 234 250
219 234 248
220 234 250
221 235 253
220 234 249
221 235 252
220 234 248
220 235 252
220 234 250
220 234 249
221 235 254
220 234 250
216 231 244
213 228 242
215 230 249
217 231 245
211 225 244
215 229 248
211 225 246
212 227 248
217 231 250
211 226 245
216 230 249
210 225 246
217 231 252
216 230 250
211 226 246
218 232 251
217 231 250
207 222 242
210 225 244
213 227 247
214 228 248
212 226 248
211 226 245
217 231 251
217 231 251
216 230 248
208 223 242
215 229 248
216 230 250
219 233 253
211 225 244
214 228 246
217 231 252
209 223 242
100 124 159
60 95 139
60 95 136
60 95 137
60 94 129
59 93 128
60 95 129
61 96 143
58 92 110
60 95 133
58 92 121
59 93 135
60 95 135
58 92 118
60 95 136
61 95 128
59 93 129
60 95 131
59 94 128
60 94 129
59 93 122
60 95 143
61 96 141
61 96 137
59 94 136
60 95 139
59 93 126
60 95 133
61 96 137
60 94 126
59 94 126
60 95 134
60 95 131
60 95 134
61 96 136
60 94 130
59 94 133
60 94 131
59 94 140
60 95 133
60 95 135
60 94 129
60 94 135
61 95 142
59 93 134
61 96 135
60 94 129
60 95 136
59 93 126
61 96 142
61 96 139
59 93 131
61 96 137
61 96 141
60 95 140
60 95 134
61 96 139
59 94 134
59 94 128
61 95 140
61 96 144
59 94 131
60 94 136
60 95 134
60 95 131
60 95 135
61 96 139
61 96 140
60 94 133
62 97 141
60 94 134
60 95 139
59 94 129
61 96 142
62 97 150
60 94 135
60 95 134
59 93 125
62 97 149
59 94 129
60 94 140
61 96 145
59 93 130
59 93 133
59 93 122
59 92 118
61 96 147
59 93 124
59 94 126
58 93 128
60 95 139
61 95 137
59 94 131
60 94 135
59 93 127
60 95 133
60 94 141
59 93 136
61 95 141
61 96 141
61 96 143
59 93 132
58 92 126
58 91 123
59 94 130
59 92 130
59 93 130
59 94 134
59 94 132
58 92 128
59 94 125
59 92 121
59 92 127
60 94 138
58 92 132
58 91 126
59 93 122
57 90 123
58 92 130
59 93 131
59 92 134
58 90 128
59 92 127
58 91 127
56 87 120
57 89 117
57 88 117
55 85 117
56 86 124
51 79 110
42 45 24
30 37 19
39 47 30
43 49 29
52 58 34
52 57 33
57 63 33
62 66 37
66 70 41
83 86 54
77 80 48
79 81 46
82 86 51
79 83 50
85 89 54
89 90 52
101 103 54
95 98 56
95 98 56
101 103 59
112 112 59
111 111 57
109 111 66
116 116 64
117 117 62
116 115 64
125 124 65
119 119 61
138 136 73
131 129 70
132 130 66
122 122 64
127 127 70
139 136 74
138 136 73
129 127 62
144 139 80
141 138 71
141 139 71
148 144 74
145 142 73
151 146 82
148 144 77
145 142 74
148 145 74
152 147 78
145 141 75
153 148 72
156 151 78
159 154 75
156 151 80
151 147 78
151 147 76
161 155 80
153 148 76
163 157 80
156 151 77
163 157 85
160 154 82
159 154 82
171 164 88
162 157 78
167 160 84
166 160 82
161 156 79
162 156 77
162 157 78
163 157 78
167 161 85
168 161 83
167 160 82
162 157 77
163 157 79
156 152 70
167 161 82
164 159 82
166 161 84
168 161 87
159 153 72
164 159 78
164 158 78
168 161 84
166 159 82
165 159 76
166 159 81
163 157 81
170 164 83
170 163 86
163 158 78
159 154 77
162 157 75
162 156 77
166 159 84
166 159 84
158 152 78
160 155 75
163 156 76
166 159 80
162 155 74
161 154 81
156 151 75
164 157 86
165 159 81
158 153 76
159 154 69
162 156 82
163 156 78
160 155 82
165 158 83
160 154 75
161 156 78
159 153 77
156 151 75
160 153 78
154 148 74
157 151 75
156 150 75
158 152 75
157 151 70
161 155 79
169 161 87
163 156 82
156 150 75
152 147 67
156 150 76
158 151 75
154 148 72
158 152 76
156 150 74
155 150 76
157 152 82
160 153 76
163 156 80
151 145 70
159 153 77
223 236 255
223 236 255
223 236 255
223 236 255
222 236 255
222 236 255
222 236 255
222 236 255
222 236 255
222 236 255
222 235 255
222 236 255
222 236 255
222 236 255
223 236 255
223 236 255
222 236 255
222 236 255
222 236 255
221 235 255
221 235 255
221 235 255
221 235 255
222 236 255
222 236 255
222 236 255
221 235 254
222 236 255
222 236 255
222 236 255
221 235 254
220 234 254
221 235 255
220 234 253
222 236 255
222 236 255
221 235 254
221 235 253
222 236 255
222 236 255
221 235 253
221 235 253
221 235 253
222 236 255
221 235 252
221 235 253
222 236 255
220 235 250
220 234 249
222 236 254
220 234 248
221 235 253
221 235 253
217 231 243
218 233 248
215 230 240
211 225 242
212 227 242
212 226 242
214 228 241
211 226 238
214 228 245
209 224 240
212 227 242
214 229 244
208 223 233
207 222 231
219 233 250
217 231 244
213 228 234
210 224 238
212 226 241
213 227 240
214 228 240
211 226 237
212 226 241
212 226 240
210 224 231
216 231 242
211 226 241
218 232 246
216 231 238
218 233 245
218 233 244
218 233 244
220 234 249
218 233 242
217 232 242
219 233 245
221 235 252
220 235 252
220 234 248
219 233 245
218 233 242
219 234 248
218 233 244
219 233 245
220 234 248
219 233 245
217 231 238
220 234 249
217 232 246
214 228 245
216 231 247
215 230 242
216 230 248
212 226 244
212 227 248
216 230 250
207 221 242
208 223 243
215 229 249
218 232 251
213 227 248
211 225 246
216 230 250
214 228 249
217 231 250
211 225 244
212 226 244
215 229 249
217 231 250
215 229 250
212 226 246
216 230 248
212 226 246
212 226 246
214 228 248
214 228 248
215 229 249
214 228 248
211 225 244
219 232 250
214 227 247
217 231 250
92 117 142
57 91 118
59 94 128
58 92 128
60 94 134
59 93 135
60 94 126
60 94 136
61 96 136
59 94 129
60 94 130
60 95 131
60 95 135
61 95 136
60 95 134
61 95 136
60 94 137
60 94 129
60 95 130
58 92 122
59 94 129
61 95 133
61 95 137
58 93 124
61 96 144
62 97 147
61 96 139
60 95 139
59 94 133
60 95 133
60 95 139
58 92 128
60 94 133
60 94 135
59 94 130
59 93 122
60 95 134
58 92 117
60 94 120
59 94 130
61 96 139
61 96 139
60 95 137
61 96 140
60 94 134
59 93 129
61 96 140
60 94 133
59 93 129
60 95 134
61 95 141
59 94 130
59 94 128
60 95 133
59 94 135
60 94 130
60 94 130
60 94 130
60 94 134
59 94 131
59 93 133
59 94 135
59 93 129
60 94 131
60 94 136
59 94 124
60 94 137
60 94 133
61 95 134
60 94 133
62 97 144
60 95 140
59 93 124
60 94 131
60 95 135
59 93 131
60 95 139
59 94 133
59 93 126
59 93 120
59 93 140
60 95 135
61 95 147
61 96 142
59 94 129
59 94 132
60 94 134
60 94 133
60 94 138
59 94 125
60 95 142
59 92 135
59 93 128
58 92 126
60 94 134
60 95 135
59 93 133
60 95 139
59 94 134
60 93 130
58 91 128
60 94 136
60 95 135
60 94 134
58 91 126
57 91 115
59 93 131
58 92 129
60 94 137
60 95 140
60 94 137
60 94 139
58 92 124
59 94 134
59 93 131
59 93 135
59 92 125
61 95 133
58 91 131
59 93 131
58 91 120
59 91 131
58 91 133
57 89 123
57 88 118
56 88 123
58 91 131
56 86 121
54 84 112
52 80 106
23 30 18
49 55 30
37 42 27
46 50 22
54 60 36
39 47 28
72 74 43
56 62 39
64 70 43
65 69 35
74 79 43
82 85 50
95 96 50
83 87 49
94 95 52
94 96 51
106 106 56
92 94 51
100 101 55
98 100 56
109 108 59
104 106 52
117 117 68
130 128 76
122 121 68
125 123 65
121 120 62
126 124 67
129 128 66
132 130 71
123 123 67
126 124 70
131 128 67
130 128 69
135 133 67
139 136 71
144 141 68
135 133 73
141 138 70
134 132 64
153 148 76
145 142 75
147 144 74
150 145 72
147 143 76
152 147 75
160 156 81
164 159 85
157 151 77
156 152 71
152 147 73
156 150 74
156 152 76
157 151 74
157 152 76
157 153 81
160 154 72
158 153 83
165 159 86
159 154 75
157 152 75
165 159 82
156 152 67
161 155 76
159 155 76
162 157 79
162 155 81
158 153 75
166 160 80
161 155 79
167 161 84
164 158 79
159 153 72
167 160 85
168 162 84
170 163 81
168 162 84
170 163 85
168 161 83
168 161 82
166 160 80
162 156 76
164 158 75
160 154 75
166 159 80
164 158 80
167 161 82
165 159 73
165 159 84
169 162 87
155 151 65
165 159 79
168 161 83
165 158 83
170 163 86
163 157 79
162 156 83
163 157 75
165 158 82
165 158 80
162 157 78
158 151 73
161 156 76
165 159 80
162 155 82
164 157 81
163 156 75
162 155 82
160 155 75
159 153 75
162 155 76
158 153 79
162 155 78
154 149 74
165 159 76
163 157 78
160 154 75
161 154 74
161 154 82
152 148 71
160 153 83
151 146 71
162 156 74
157 151 74
159 151 79
165 157 84
162 155 80
153 147 78
152 146 72
157 151 80
158 151 76
157 151 78
152 145 72
153 148 78
160 153 81
223 236 255
223 236 255
223 236 255
223 236 255
223 236 255
223 236 255
222 235 255
223 236 255
223 236 255
223 236 255
223 236 255
223 236 255
221 235 254
223 236 255
223 236 255
222 236 254
222 236 254
223 236 255
223 236 255
223 236 255
222 236 254
220 234 252
222 236 254
222 236 255
222 236 254
222 236 253
220 234 250
220 234 248
220 234 248
221 235 252
220 234 252
219 233 250
218 232 244
220 234 248
216 231 240
220 234 248
218 233 242
219 234 246
220 234 248
218 232 242
220 234 246
219 234 246
221 235 250
221 235 252
220 234 249
217 232 241
218 233 244
219 234 248
221 235 252
218 232 241
218 233 242
221 235 252
219 234 248
214 229 235
213 228 236
213 228 242
214 228 239
211 226 243
216 230 244
210 224 239
214 228 242
217 231 244
211 226 238
217 231 248
215 229 242
217 231 244
214 229 242
212 227 240
210 225 236
213 228 237
210 225 237
214 229 235
214 228 240
211 226 238
213 227 242
213 227 242
214 228 237
214 228 241
212 226 239
214 229 241
218 233 242
220 234 248
218 233 244
217 231 240
220 234 248
218 233 242
219 233 245
218 233 244
221 235 250
218 233 245
218 233 244
220 234 248
217 232 238
220 234 248
220 234 249
220 235 250
219 233 244
218 233 241
218 232 244
219 234 249
219 233 245
216 231 240
218 232 248
219 233 249
216 230 244
212 227 242
214 229 248
211 226 242
214 228 249
217 231 252
211 225 245
214 228 246
217 231 250
217 231 250
213 227 247
216 230 248
210 224 244
210 225 242
215 230 250
210 224 245
218 231 250
216 230 251
215 229 249
216 230 250
212 226 244
211 225 244
216 230 250
213 227 247
210 224 245
214 228 247
217 230 250
216 229 248
212 225 245
215 229 247
214 228 242
99 123 140
59 93 128
59 94 126
58 93 129
59 93 125
59 93 122
59 93 121
61 96 140
59 93 131
59 94 125
59 94 129
60 95 142
60 95 135
59 93 122
60 94 131
60 95 135
61 96 134
61 96 147
59 93 131
60 94 136
61 95 137
60 95 134
60 95 133
59 93 126
60 95 134
60 95 134
59 94 128
59 93 128
59 94 124
59 93 133
61 95 135
60 95 133
61 96 142
59 93 131
60 95 134
60 95 136
59 94 126
60 94 133
61 96 145
58 92 126
60 95 136
60 94 134
59 94 134
60 94 131
60 95 139
60 95 139
60 95 134
60 94 135
60 95 135
61 96 141
60 94 126
59 94 136
61 95 136
60 96 135
59 93 128
60 95 142
58 92 120
61 96 139
61 96 135
60 94 136
59 93 122
60 95 142
60 95 126
61 95 150
60 94 133
59 93 125
60 95 142
59 93 124
60 95 141
58 93 130
59 94 129
58 93 117
59 94 135
60 95 139
60 95 133
59 94 125
60 94 128
58 92 120
62 96 143
59 94 137
59 94 133
59 93 128
60 94 139
59 93 136
61 96 143
59 94 142
60 94 136
60 95 133
58 92 133
61 96 139
58 92 121
59 93 124
57 90 122
59 93 134
61 96 141
60 94 133
61 96 140
59 93 133
59 94 130
60 94 129
60 94 139
60 94 131
59 93 127
60 95 134
58 92 129
58 92 126
59 92 125
59 93 133
59 93 131
60 93 134
59 93 134
58 91 126
57 89 126
60 95 136
59 92 122
59 93 121
58 92 125
58 91 129
59 92 130
56 89 133
58 89 126
57 90 124
57 88 119
58 90 121
57 89 124
59 91 127
57 88 122
56 88 126
55 85 114
49 76 99
38 40 18
40 47 26
55 62 38
46 54 30
58 64 33
62 66 39
57 62 34
67 72 44
68 74 41
70 75 43
70 75 41
78 80 42
82 84 42
90 93 48
80 83 44
86 88 51
93 95 56
101 102 47
102 101 58
109 110 56
104 105 58
115 114 58
113 113 55
117 116 62
116 116 62
110 110 56
120 119 57
134 132 65
133 131 69
131 129 58
128 126 63
130 129 70
132 130 68
130 127 67
142 139 72
141 138 68
130 128 67
139 136 65
139 136 62
137 134 71
139 136 66
147 143 78
147 144 71
157 151 79
146 143 70
154 149 76
152 147 79
148 144 73
157 152 83
153 148 74
152 148 72
156 150 83
157 152 78
160 155 77
159 154 72
160 154 79
162 156 82
157 153 77
164 158 79
167 160 80
163 157 82
163 157 80
161 156 80
165 158 80
158 153 77
167 160 82
163 158 83
165 159 80
157 153 70
166 159 82
163 158 82
161 155 78
163 157 77
164 158 83
160 153 73
167 161 85
167 160 80
163 158 76
167 161 79
161 156 80
167 160 84
167 160 80
167 161 79
166 160 79
169 162 87
168 162 82
166 159 76
163 156 78
167 160 77
164 159 79
161 155 77
166 159 77
167 159 83
163 156 79
165 159 78
160 155 75
166 159 80
167 160 78
161 155 77
163 157 79
159 153 77
168 161 84
158 151 75
166 159 80
163 157 80
160 153 78
159 153 75
165 158 80
156 150 67
161 155 75
161 154 78
152 147 69
154 149 74
160 153 78
161 155 78
159 153 75
164 156 80
159 153 77
156 150 75
159 152 77
158 152 75
154 147 74
160 153 80
162 156 80
157 151 75
162 155 78
156 150 71
158 153 73
160 153 78
153 147 69
151 144 73
150 144 74
159 152 82
158 152 77
156 150 75
223 237 255
222 236 254
223 237 255
223 237 255
222 236 253
222 236 254
222 236 253
222 236 252
220 234 252
220 234 246
222 235 252
221 235 252
220 234 246
220 234 248
220 234 249
218 233 242
219 233 245
219 234 245
221 235 249
216 230 238
219 233 245
217 231 241
217 232 238
218 232 243
221 235 250
220 234 246
221 235 250
220 234 248
216 231 237
221 234 251
218 232 246
221 235 252
219 234 246
220 234 249
221 235 250
218 233 244
219 233 244
220 234 246
221 235 249
219 233 244
220 234 246
220 234 248
216 231 237
220 234 248
220 234 248
217 232 241
220 234 246
220 234 246
219 234 248
220 234 246
216 231 238
219 233 245
217 232 241
217 231 240
216 231 243
216 231 246
216 231 241
217 232 238
209 224 233
217 231 245
214 228 246
212 227 237
217 231 244
213 227 238
213 228 237
211 226 234
216 230 242
212 226 240
214 229 239
212 227 238
214 229 242
216 231 246
212 226 240
214 228 245
208 223 234
215 229 241
212 227 240
210 225 236
218 232 243
219 233 245
219 234 246
217 232 241
217 231 241
218 232 241
218 233 245
217 232 242
218 233 241
218 233 241
218 233 245
218 232 245
218 232 244
217 231 238
219 234 248
218 233 244
219 233 242
219 233 244
219 233 245
219 233 245
218 232 242
217 232 241
219 233 244
216 230 238
216 230 246
215 230 246
217 231 245
218 232 248
214 228 247
211 226 244
216 230 249
213 227 246
216 230 248
210 224 241
211 225 245
217 231 249
214 227 245
214 228 248
213 227 245
215 229 249
217 231 251
215 229 245
213 226 244
215 229 248
216 230 249
214 227 245
217 230 249
215 229 247
217 231 251
215 229 248
216 230 248
215 228 246
213 227 235
205 221 215
191 209 180
184 205 141
177 198 104
115 139 133
59 93 129
60 95 133
60 94 128
60 95 139
60 94 125
61 95 131
58 92 118
59 93 117
60 95 139
59 94 128
59 94 134
61 95 142
58 93 124
60 94 129
58 92 121
60 95 137
61 97 148
59 94 131
59 93 124
61 95 137
60 94 135
60 94 133
61 95 137
59 94 131
60 95 142
59 93 133
60 95 131
59 94 131
59 94 130
59 94 126
60 95 134
59 93 118
61 96 137
59 92 125
61 96 144
59 94 126
59 94 133
61 96 143
60 95 131
60 96 140
60 95 134
61 95 139
62 97 144
59 94 121
60 95 135
59 93 126
59 93 130
59 93 129
59 94 128
59 94 128
59 93 128
60 95 133
60 94 129
60 94 128
60 95 137
59 93 122
59 93 131
59 94 122
60 95 139
60 94 134
60 95 141
60 94 134
59 94 133
59 94 128
61 96 148
60 94 141
60 95 139
61 95 134
59 93 125
60 94 133
60 94 134
60 95 134
60 95 135
60 95 131
58 92 131
60 94 139
60 95 139
59 92 128
59 93 128
60 95 136
60 94 133
60 94 136
59 94 126
58 92 128
59 94 124
60 93 126
61 96 142
59 93 128
58 91 115
61 95 131
58 92 115
61 95 135
59 94 133
60 94 130
60 94 139
58 93 124
58 92 128
60 94 134
59 93 129
59 93 129
59 93 128
61 95 140
59 93 125
59 93 133
60 93 134
59 94 134
59 93 127
59 93 130
58 92 116
58 91 119
58 91 121
58 91 126
59 93 133
57 89 120
59 93 128
60 94 142
57 90 116
59 93 135
59 91 133
58 90 120
57 89 124
58 90 127
59 91 116
57 90 128
57 88 124
55 86 109
56 87 129
55 84 110
51 75 105
40 47 24
44 50 25
39 45 23
54 57 25
57 62 30
60 65 25
65 68 36
56 62 28
49 55 28
76 79 44
75 79 43
75 78 36
78 82 44
77 82 43
90 94 54
101 102 50
93 95 51
98 99 57
108 108 57
109 108 56
107 107 50
105 106 51
108 109 57
114 114 54
104 106 54
125 123 65
121 121 67
125 124 63
127 125 66
125 122 60
120 120 59
127 125 63
124 123 64
136 133 70
135 132 67
135 132 69
144 141 71
137 134 61
140 137 71
143 139 74
146 142 65
146 141 73
142 138 69
155 150 74
152 148 73
154 150 80
152 148 70
153 149 69
152 148 68
154 148 65
156 151 71
159 153 79
155 150 69
163 157 85
156 151 72
156 151 73
161 155 75
156 152 76
157 151 76
164 158 81
159 154 72
160 154 71
158 153 76
163 158 76
148 145 69
164 159 81
162 157 77
164 157 74
164 158 75
160 154 76
163 157 78
160 155 78
163 157 73
170 163 84
166 159 81
166 159 79
164 157 76
163 157 77
166 159 77
162 156 76
161 155 75
161 155 77
163 157 79
157 152 72
160 156 74
158 152 76
166 159 80
167 160 82
163 156 77
165 158 74
162 156 75
162 157 77
165 158 79
164 157 83
169 162 86
159 152 75
163 157 76
164 158 82
166 159 81
158 153 73
163 156 80
164 157 80
160 154 82
165 158 77
158 151 80
164 157 78
166 159 81
160 154 75
151 146 66
159 153 68
157 151 76
161 154 75
160 154 73
170 163 84
158 151 83
159 153 80
163 156 81
151 147 68
161 155 83
161 154 76
159 151 82
161 155 79
156 151 73
152 146 70
155 150 69
153 147 74
160 153 81
160 155 80
162 156 77
154 148 72
149 144 71
155 149 69
156 150 75
157 150 75
151 146 71
220 234 245
222 236 252
221 235 248
219 233 242
219 233 244
220 234 246
218 233 241
219 233 242
219 233 242
219 233 245
219 233 245
220 234 246
218 233 241
218 233 241
221 235 249
219 233 242
221 235 248
221 235 249
219 233 246
219 233 242
221 235 252
216 231 236
220 234 246
220 234 246
220 234 248
221 235 249
221 234 251
220 234 246
216 230 238
218 232 241
221 235 250
220 234 246
218 232 240
218 232 241
218 233 242
218 233 242
217 232 242
219 233 244
218 232 241
220 234 246
220 234 246
218 232 245
219 234 245
218 232 242
219 233 242
219 233 244
218 233 242
220 235 249
217 231 237
219 234 246
218 233 242
220 234 246
220 234 249
217 231 237
217 231 244
218 232 248
218 232 245
216 231 239
219 233 250
212 227 239
212 227 239
216 230 242
210 224 240
214 228 236
219 233 247
212 227 236
209 224 235
217 232 246
207 222 228
211 225 243
215 229 243
215 229 244
209 224 234
212 226 239
210 224 237
217 231 241
213 228 236
213 227 233
218 232 244
220 234 246
220 234 245
219 233 245
219 234 246
218 232 244
220 234 248
219 233 244
219 233 242
217 231 241
219 234 246
221 235 250
218 233 242
220 234 246
216 231 241
217 232 242
220 234 246
215 229 240
219 234 246
219 233 248
219 234 248
220 234 248
219 233 245
217 232 240
213 227 238
216 230 247
218 232 250
213 228 243
215 229 250
211 226 244
212 227 246
217 231 250
211 225 243
216 230 248
217 231 251
214 227 246
213 227 247
215 229 249
213 227 246
213 227 246
212 225 244
216 230 248
218 231 250
217 231 250
215 228 246
215 229 248
214 228 238
204 220 213
204 220 213
194 213 175
184 204 149
174 196 85
176 199 78
175 197 97
175 197 97
176 198 103
174 196 88
120 143 129
59 93 131
60 94 128
60 94 133
59 93 128
59 94 130
58 92 110
59 93 124
59 94 126
60 95 133
60 95 133
61 96 140
61 96 137
60 95 141
60 94 129
58 92 122
60 95 129
60 94 125
59 93 122
61 96 135
61 96 134
61 96 134
59 93 126
60 94 130
59 94 129
60 94 133
59 94 131
59 92 129
59 93 130
59 93 126
59 94 134
58 92 125
59 94 140
60 95 133
58 92 124
61 96 140
60 95 131
60 94 125
60 94 129
61 95 136
59 94 134
61 96 134
60 94 134
60 94 142
59 94 129
59 94 129
58 92 128
60 94 130
60 95 134
59 94 131
60 95 136
59 94 136
60 95 135
59 94 129
60 94 136
60 95 140
60 94 128
60 94 129
59 93 122
60 95 131
60 95 136
60 94 139
59 93 120
60 94 133
60 94 134
59 93 130
61 95 137
59 93 133
60 94 130
59 93 131
60 95 130
59 93 125
58 93 126
60 95 136
61 95 139
58 92 125
59 93 141
60 95 139
59 93 124
60 94 134
60 94 133
60 95 136
59 94 130
60 94 128
58 92 126
60 95 136
58 92 120
60 94 129
61 95 144
59 93 125
59 93 131
60 93 131
59 93 131
60 95 131
60 94 136
59 94 133
59 94 132
60 93 129
60 94 130
60 94 132
61 95 136
59 93 120
60 94 129
60 94 132
60 94 129
59 93 122
60 94 129
60 94 130
59 92 133
58 91 117
56 89 117
59 94 129
57 91 129
57 89 120
59 93 120
58 90 123
60 93 133
58 90 127
59 93 125
57 89 113
58 91 118
57 90 117
57 89 119
58 91 135
57 89 123
56 86 119
56 89 118
56 87 119
55 86 110
46 65 76
35 41 20
38 45 24
41 48 29
53 59 29
50 55 24
53 58 37
55 61 31
60 63 26
72 75 38
77 80 40
78 81 40
86 87 34
91 93 40
87 88 49
92 93 47
103 103 54
99 99 51
102 103 53
109 108 54
108 109 56
115 113 53
111 111 51
114 114 58
98 100 46
108 108 56
119 119 58
116 116 58
120 119 57
119 118 62
122 120 61
123 122 60
133 129 61
140 137 75
144 139 73
138 135 70
132 130 51
130 128 60
136 133 67
141 138 70
151 146 74
143 138 72
148 144 75
144 140 68
144 140 68
143 140 67
147 143 67
158 152 81
149 144 72
150 145 71
149 145 75
139 136 65
156 150 74
162 155 81
155 149 74
157 151 72
155 150 77
154 149 73
157 151 75
158 153 84
154 148 71
159 152 70
163 157 78
160 155 76
159 154 78
158 153 73
163 157 77
165 160 77
164 158 81
166 159 76
162 156 76
169 162 82
164 158 78
164 158 78
165 159 77
159 153 74
160 155 74
159 154 72
160 155 71
160 155 69
164 157 76
159 154 71
166 159 78
164 158 77
161 155 68
167 160 85
159 153 76
164 157 81
168 161 78
163 157 74
167 160 86
162 156 73
155 149 71
158 152 66
160 153 74
163 156 78
169 163 84
163 157 73
161 155 75
159 153 75
157 152 71
161 155 79
162 155 78
161 155 75
161 155 76
158 152 75
154 147 73
159 152 79
160 154 74
158 153 73
159 153 71
156 150 72
157 150 73
156 150 75
158 152 71
160 153 72
152 146 69
160 152 75
160 153 79
159 152 75
160 154 75
152 146 72
154 148 73
161 154 77
156 150 66
157 151 74
153 146 74
156 149 76
153 147 72
155 149 75
165 158 83
151 146 65
159 152 76
155 149 79
151 145 78
153 147 69
223 236 253
217 231 236
219 233 244
222 235 250
219 233 242
220 234 244
221 235 248
222 235 250
219 233 241
220 234 245
220 234 245
220 234 242
222 235 249
220 234 245
219 233 244
219 233 245
221 235 248
219 233 242
221 235 248
221 235 249
221 235 249
218 232 242
221 235 249
220 234 246
217 232 238
219 233 245
216 231 234
218 232 244
218 233 242
218 232 243
219 233 244
218 232 241
219 233 241
218 232 244
220 234 246
219 234 245
219 233 244
217 232 240
220 234 245
221 235 249
219 233 242
219 233 244
220 234 245
219 233 244
219 233 242
216 231 234
219 234 245
218 232 244
218 232 242
221 235 248
219 234 246
220 234 249
219 233 242
219 234 246
221 235 249
218 233 242
216 230 243
216 230 241
214 228 244
214 229 240
217 231 241
213 227 238
207 221 235
216 230 240
214 228 238
213 228 240
212 226 240
219 233 248
214 228 241
212 226 244
217 231 246
213 228 240
215 229 244
211 225 240
215 229 246
211 226 235
218 233 244
219 233 245
220 234 246
218 232 242
221 235 250
218 232 238
218 232 241
218 233 244
218 233 244
220 234 244
220 234 245
221 234 248
216 231 240
219 233 244
219 232 244
220 234 245
219 234 246
220 234 248
216 230 236
218 232 242
219 233 245
214 229 236
220 234 248
217 231 240
220 234 246
220 234 248
220 234 249
220 233 249
214 228 244
214 228 242
208 223 242
211 225 242
216 230 248
214 227 246
212 226 245
215 228 246
213 227 244
215 229 246
216 230 248
211 226 244
204 219 225
205 221 217
201 218 197
190 208 179
188 206 165
187 206 150
179 201 120
177 199 120
171 194 51
168 191 80
177 199 97
174 197 102
172 195 76
176 198 84
177 198 107
173 196 88
171 192 88
169 193 76
177 199 102
134 157 121
60 94 125
59 94 128
60 95 131
60 94 135
59 93 124
60 95 134
59 93 126
60 94 128
60 95 134
59 93 128
60 95 129
60 95 140
60 95 129
60 95 134
60 94 133
61 96 142
59 94 130
59 93 126
58 92 121
60 94 139
60 95 125
60 95 126
59 93 133
59 93 121
60 95 134
60 94 128
60 95 128
60 94 131
59 93 125
59 93 128
61 95 134
60 95 128
60 95 139
58 92 107
60 95 141
60 94 126
59 93 122
59 93 122
61 95 137
58 92 124
58 92 120
60 94 131
60 94 137
58 92 130
59 94 131
61 96 142
59 94 125
59 94 130
60 95 139
59 93 129
61 96 135
59 94 131
59 93 125
59 93 134
59 94 130
60 95 135
61 96 137
59 94 131
59 94 135
60 94 139
59 94 135
58 92 124
60 94 131
59 93 128
60 94 134
59 94 120
61 95 135
59 94 129
60 94 122
59 94 134
59 94 134
59 93 129
61 96 140
59 93 121
61 96 140
60 94 130
59 92 122
59 93 130
59 94 128
61 96 133
60 94 129
61 96 137
60 94 136
60 94 134
59 93 124
60 95 130
60 94 135
61 96 141
59 93 128
60 95 136
60 95 135
60 94 131
59 94 124
58 92 130
59 93 132
58 92 125
60 94 133
59 92 128
60 94 135
60 94 133
59 92 128
60 93 134
59 93 129
58 92 126
59 93 142
58 92 118
59 93 126
59 93 128
60 94 138
59 92 121
58 91 128
61 95 135
60 94 129
58 91 127
57 90 122
58 91 134
58 90 123
58 92 128
57 89 123
58 90 125
60 93 134
58 90 121
58 91 124
57 89 122
57 89 121
55 85 117
56 87 114
57 89 132
45 64 70
38 43 19
46 49 21
37 43 19
52 56 22
65 67 24
60 66 34
58 61 27
71 72 32
77 77 42
67 71 31
71 75 39
81 84 42
79 81 39
83 85 41
97 99 42
90 92 44
94 96 50
101 102 47
107 106 51
104 105 63
110 111 52
108 108 50
112 112 50
118 116 55
109 109 55
128 126 60
115 114 62
120 121 60
134 130 63
118 117 54
132 128 68
120 119 59
137 135 65
131 129 61
130 128 64
132 129 60
138 135 64
138 134 64
142 138 72
137 134 67
136 134 65
149 144 74
142 140 73
149 144 70
146 142 68
150 146 71
144 141 73
137 134 62
144 140 69
147 143 71
155 150 77
157 151 74
156 151 72
151 145 74
153 149 74
161 155 71
155 150 76
158 152 80
157 152 75
160 154 75
158 153 73
167 161 84
163 156 78
153 147 72
158 153 75
156 151 72
166 160 82
164 157 82
162 156 75
164 157 75
163 157 77
164 158 77
165 160 77
156 151 74
163 156 76
166 159 77
160 154 68
162 156 73
163 157 73
164 158 68
164 158 73
163 157 73
161 154 75
165 158 76
164 158 72
161 156 74
165 158 81
167 160 82
162 156 76
169 162 84
165 160 74
166 159 79
168 160 84
165 159 82
162 156 81
165 157 80
159 152 78
164 158 73
159 153 72
166 159 80
156 151 67
161 156 76
160 154 71
160 154 73
159 153 71
162 156 79
158 153 72
158 151 76
164 158 78
160 153 75
161 155 74
164 157 75
166 158 84
157 151 73
161 154 74
151 146 73
161 156 70
160 153 71
157 150 75
157 150 74
155 149 77
155 149 75
164 157 77
154 148 70
154 148 71
162 154 83
157 151 73
163 157 80
163 156 82
152 146 79
155 150 69
150 145 69
159 153 75
159 152 83
151 145 65
215 230 228
220 234 244
220 233 241
222 235 249
221 235 249
219 233 241
220 234 244
221 235 246
219 233 242
220 233 242
221 234 247
221 235 248
220 234 244
222 236 250
220 234 244
221 235 248
222 235 250
220 234 248
217 231 239
220 234 245
220 234 245
222 236 250
222 235 250
219 233 246
218 233 243
223 236 253
221 235 248
219 233 244
221 234 246
221 235 249
219 233 242
218 232 238
215 230 236
219 233 246
221 235 249
220 234 246
221 235 248
221 235 248
221 235 249
220 234 246
222 235 248
220 235 249
220 234 245
220 234 246
220 234 246
220 234 246
220 234 249
219 233 242
222 235 252
220 234 245
220 234 250
220 234 245
220 234 248
218 233 241
219 233 245
219 233 245
218 233 244
219 233 244
217 231 242
214 229 236
217 231 239
220 234 247
215 229 239
216 230 238
211 226 238
211 225 237
215 229 244
212 227 239
207 222 234
211 226 237
211 226 238
210 224 232
214 229 240
216 230 247
219 233 246
219 234 248
219 234 245
219 233 245
221 235 248
220 234 246
220 234 244
220 233 246
218 232 245
219 233 244
218 232 240
219 233 245
218 232 240
219 233 242
219 233 245
218 233 241
221 235 248
221 235 249
220 234 246
219 233 245
218 233 242
220 233 245
220 234 248
219 233 246
216 230 241
222 235 249
218 232 242
220 234 248
219 233 246
219 233 247
213 228 233
212 226 230
206 221 217
196 213 195
196 213 190
197 215 188
185 205 160
182 203 134
185 206 147
178 200 111
172 195 60
173 197 74
173 196 76
171 195 70
172 195 65
172 195 88
170 194 67
168 191 78
170 192 87
166 189 68
173 195 99
169 192 65
174 197 62
175 198 78
175 198 92
177 199 99
174 197 62
172 195 76
173 195 97
180 202 113
176 197 111
147 168 137
59 93 120
59 94 129
60 95 134
60 94 133
59 93 131
59 94 126
61 95 135
60 95 130
59 93 115
60 94 133
59 94 122
59 93 135
61 96 136
61 95 135
60 95 135
59 94 131
60 94 131
60 95 135
61 96 143
60 94 136
59 93 126
58 93 135
59 93 126
59 93 121
60 94 130
59 93 121
60 95 142
60 94 140
59 94 129
59 94 129
59 93 122
59 93 131
59 93 128
60 95 128
59 93 120
59 93 125
59 93 128
61 96 140
60 95 139
59 94 125
59 93 129
59 94 130
60 95 139
60 95 128
60 94 129
59 93 129
58 93 131
60 94 131
61 96 134
60 94 137
58 92 129
60 94 133
59 93 121
60 94 135
59 93 128
60 94 126
59 93 131
59 94 129
61 95 136
60 94 139
60 95 134
59 93 125
60 94 128
59 93 126
61 96 133
58 92 130
59 94 125
58 92 121
59 93 130
59 94 125
60 94 135
59 93 124
60 94 125
59 94 128
60 94 128
59 93 124
60 95 131
60 95 131
60 94 128
61 96 143
60 95 136
59 94 129
60 95 131
60 95 139
57 90 117
60 95 136
60 94 134
59 93 129
60 95 133
57 91 117
59 93 128
57 91 122
57 89 115
60 95 134
59 93 133
60 95 132
58 92 128
59 93 129
59 93 133
59 94 128
59 92 128
59 93 130
60 94 137
60 95 134
59 93 132
61 95 137
59 92 133
58 92 121
59 92 125
58 90 130
60 94 128
58 92 121
56 88 121
58 92 118
58 90 118
59 93 126
57 90 130
58 92 118
58 91 128
58 90 128
55 86 118
58 90 130
56 88 117
58 90 126
56 89 123
55 85 112
55 85 111
56 88 116
53 66 67
37 44 17
36 42 21
45 48 14
48 51 20
67 69 30
58 63 27
70 74 33
63 67 28
68 70 27
67 71 27
79 82 33
79 81 46
93 94 44
83 86 36
83 85 37
89 91 41
85 86 40
87 89 45
108 108 52
101 101 54
105 105 55
107 107 63
111 110 58
117 117 55
107 107 54
119 119 63
113 112 49
125 123 64
129 126 63
123 121 57
129 126 67
131 129 67
141 137 69
124 122 64
140 137 61
139 136 66
139 136 63
140 136 58
141 137 68
139 136 62
135 132 60
145 141 73
146 142 68
146 142 71
148 144 68
150 145 70
148 143 73
150 145 75
143 139 66
155 150 75
152 147 72
153 149 73
157 152 73
153 148 71
156 151 75
156 150 75
160 153 78
156 152 73
155 150 71
158 153 74
157 151 68
165 159 85
155 150 71
156 151 68
159 154 70
162 156 78
161 155 74
161 154 74
164 157 75
168 161 82
162 156 73
166 159 81
157 151 77
159 153 71
163 157 72
163 156 71
157 151 72
164 158 75
160 154 75
163 157 78
167 160 84
167 160 79
160 154 69
160 154 72
163 157 76
157 151 67
164 157 80
164 159 71
163 156 77
166 159 82
169 162 83
156 150 69
167 160 80
163 157 66
162 156 71
164 157 82
165 158 77
160 154 75
164 157 82
155 149 71
161 155 78
165 158 75
162 155 78
170 162 82
162 156 72
158 153 74
162 155 80
165 158 83
168 160 81
157 150 72
162 157 78
157 151 74
160 153 70
159 152 75
163 156 75
163 156 78
159 153 74
161 154 74
158 152 77
156 149 76
160 154 72
163 157 76
153 148 68
156 150 70
159 152 78
154 148 76
154 147 77
148 142 64
159 152 78
158 152 75
164 157 80
156 150 70
156 150 71
156 149 74
153 148 70
188 209 136
187 208 125
192 212 151
194 214 159
198 216 171
201 219 188
207 223 206
213 228 220
216 231 231
219 233 242
222 236 250
218 232 236
221 234 245
221 235 246
221 235 248
220 234 242
220 234 244
220 234 246
219 233 241
221 234 248
221 235 250
219 233 243
217 232 237
220 234 244
219 232 244
220 234 245
218 233 241
220 233 244
218 232 243
218 232 242
219 233 242
218 232 240
219 233 242
220 234 244
221 234 245
219 233 244
221 235 249
219 233 241
219 234 245
220 234 248
221 235 248
219 233 240
222 236 252
220 235 250
221 234 246
220 234 246
217 232 237
219 233 244
220 234 246
219 233 240
216 231 236
220 234 246
217 231 237
221 235 246
222 235 248
219 233 244
218 233 240
220 234 249
221 235 248
220 234 244
219 233 247
218 232 246
217 231 242
217 231 244
217 231 240
218 232 241
215 229 240
213 228 236
217 231 242
215 229 244
211 225 233
219 233 246
220 234 250
220 234 244
221 235 248
219 233 244
217 231 236
219 233 246
221 235 248
219 233 245
221 235 248
222 236 250
220 234 245
219 234 245
221 235 248
222 235 250
216 230 236
217 231 241
210 226 218
213 228 226
209 224 217
207 224 207
208 224 206
202 219 191
205 221 194
196 215 169
194 213 165
189 209 140
194 214 163
183 204 114
181 202 102
179 202 84
174 197 57
172 196 40
173 196 54
173 195 84
171 194 70
162 186 82
172 195 86
173 196 80
174 197 72
175 199 90
170 192 76
171 194 74
169 192 84
174 197 74
175 198 67
168 192 94
166 190 57
170 193 76
169 192 80
174 198 80
173 196 102
173 196 82
174 197 60
174 197 90
173 195 90
174 197 72
175 198 99
169 192 74
171 194 92
173 195 91
173 195 94
176 198 111
175 197 111
167 188 134
58 93 121
58 91 118
59 93 130
59 94 131
60 94 130
58 91 120
59 93 128
59 93 129
60 95 126
59 93 122
61 95 140
58 92 129
60 94 131
59 94 122
60 95 134
59 93 133
58 92 122
60 94 130
60 94 131
59 93 126
60 95 133
60 95 136
58 92 126
59 93 130
60 94 136
60 94 125
60 95 137
61 95 139
60 95 136
60 94 135
60 94 133
60 94 134
60 94 126
59 93 125
60 95 133
59 94 120
61 97 143
61 96 136
60 94 129
59 94 129
59 93 126
59 94 131
60 94 125
58 92 128
60 94 128
59 93 122
60 94 136
60 95 133
60 94 139
59 94 130
59 93 122
60 95 129
59 93 129
59 94 133
60 95 133
59 93 125
59 93 125
61 96 137
60 94 129
58 91 120
60 95 130
59 94 134
61 95 139
61 95 137
58 93 124
60 95 131
57 91 118
60 95 137
59 93 129
58 92 129
59 93 115
60 94 129
61 96 136
60 95 141
60 95 135
60 94 133
60 94 129
59 94 126
60 94 137
59 93 124
58 91 120
58 92 124
59 94 133
60 94 128
59 94 129
60 95 133
59 93 121
59 93 134
58 92 121
60 94 126
60 94 128
58 92 124
61 96 144
59 93 131
61 96 139
59 92 134
58 92 126
61 95 134
57 90 124
59 93 130
60 93 124
59 93 129
59 92 128
58 91 129
59 93 129
59 92 129
59 93 134
59 93 128
58 90 124
59 92 130
59 92 124
57 89 125
58 92 124
58 91 125
58 90 120
58 91 124
59 92 128
58 91 124
57 89 128
57 90 122
57 89 119
56 88 119
57 90 117
57 88 113
56 88 113
57 89 120
56 86 117
54 83 109
41 54 55
38 45 25
46 51 19
57 61 20
40 46 23
52 57 18
49 56 30
64 69 31
65 69 29
54 58 24
56 60 28
84 85 46
85 85 40
70 73 37
94 94 40
81 85 45
89 91 51
100 101 50
100 101 48
92 93 47
100 101 53
107 108 53
103 103 43
112 112 50
112 111 50
115 114 55
110 109 53
109 109 53
120 119 58
108 107 48
111 112 58
133 129 57
128 127 61
128 126 58
133 130 59
137 133 67
127 125 59
134 131 66
136 133 65
134 130 63
139 136 63
138 135 59
149 145 64
146 142 68
134 132 60
142 139 63
145 140 66
145 141 63
150 145 66
151 146 71
147 142 70
153 148 73
144 140 62
156 150 71
156 150 74
159 154 73
158 151 74
157 152 72
157 151 69
155 150 74
155 150 73
157 152 69
156 150 71
158 152 75
162 156 78
159 153 72
167 160 80
156 151 70
167 161 77
164 156 72
158 152 74
162 156 73
162 155 78
159 154 78
160 153 75
165 157 78
161 154 78
165 158 81
157 153 71
160 154 72
162 155 78
163 157 77
159 154 67
161 155 75
161 155 71
160 154 76
165 158 77
162 156 69
159 153 68
154 148 73
163 157 72
164 157 78
162 156 73
164 158 74
160 154 73
163 155 80
162 156 73
165 158 74
158 151 70
168 160 82
161 155 75
166 159 78
159 153 75
166 159 78
161 153 76
153 147 63
157 151 71
162 155 77
154 149 68
158 151 75
164 158 80
160 153 75
162 154 80
165 159 77
162 155 77
160 154 75
156 150 73
159 153 74
157 150 75
155 149 74
159 153 71
159 153 74
159 153 75
161 154 70
151 145 69
155 150 72
149 144 69
153 148 74
157 151 74
157 150 70
157 152 73
145 138 66
152 146 72
155 149 77
153 147 70
152 146 68
183 204 115
183 205 108
185 206 120
182 203 92
182 203 100
181 202 80
178 201 72
179 201 67
180 202 82
180 202 88
180 202 80
184 205 108
192 212 151
194 213 155
195 214 159
195 214 163
200 218 179
200 217 173
207 223 204
208 224 207
208 224 207
211 227 222
208 224 207
206 223 203
214 229 229
214 229 231
220 234 244
217 231 236
219 233 243
219 233 242
220 234 245
221 234 246
220 234 244
219 233 242
219 234 245
220 234 246
219 233 246
221 234 245
218 233 240
219 233 241
223 236 252
219 233 242
217 231 236
219 233 242
218 232 240
221 235 250
218 232 241
219 233 242
223 236 250
220 234 245
219 233 242
221 235 246
221 235 249
220 234 245
221 235 248
220 234 246
221 234 250
221 235 249
219 233 242
219 233 241
217 232 237
219 233 240
217 231 234
215 229 231
217 232 237
213 229 226
207 223 207
210 226 214
210 226 217
208 224 211
206 223 204
201 219 188
200 218 179
203 220 193
196 215 169
203 220 193
196 214 173
192 212 153
194 213 159
188 209 140
189 209 140
184 205 120
184 205 117
182 204 108
177 200 72
176 199 76
175 198 57
176 199 67
174 198 57
174 198 57
174 197 62
176 199 67
174 198 36
177 200 67
173 197 62
174 197 72
177 200 99
178 201 72
174 198 67
175 198 72
173 197 51
173 197 62
172 196 72
177 199 72
171 194 44
170 192 54
173 196 72
171 194 72
173 197 72
172 195 65
168 191 65
169 193 94
172 195 78
170 192 88
172 196 74
170 193 65
170 194 70
168 191 67
171 195 78
170 194 65
168 192 76
173 196 67
173 195 94
168 190 76
174 198 78
173 196 92
173 196 88
169 193 47
170 193 92
165 188 72
175 197 70
166 188 67
166 188 97
175 197 90
176 197 125
180 200 117
60 94 122
59 93 124
57 91 113
59 93 128
58 91 121
60 94 128
58 92 124
59 94 135
58 92 125
59 94 134
58 92 115
59 93 129
58 93 122
60 94 134
61 96 139
60 94 130
58 92 118
60 95 128
60 94 129
59 93 129
60 94 125
59 94 133
60 94 129
60 94 128
58 92 122
59 93 124
60 94 133
58 92 114
61 96 134
59 93 121
58 93 124
59 94 139
60 95 134
58 92 124
58 93 122
59 93 120
59 93 125
58 92 120
60 94 131
60 95 135
58 92 129
60 94 131
59 94 122
60 95 130
58 92 122
60 94 130
61 95 131
59 93 125
60 95 139
60 95 130
59 93 121
60 94 129
59 94 126
59 93 122
60 94 128
59 93 126
60 95 133
60 95 141
60 94 136
60 94 130
59 94 122
59 93 121
61 95 128
59 94 134
59 93 129
60 94 131
59 94 130
58 91 129
60 94 129
60 93 122
58 91 126
59 94 130
60 94 134
59 93 131
60 95 135
59 93 129
60 95 139
58 91 126
59 93 120
59 93 124
59 94 129
60 94 130
59 93 128
60 94 134
61 95 132
58 93 125
59 93 131
59 93 126
59 93 126
59 93 131
59 94 134
60 94 139
59 93 129
59 94 126
59 93 127
60 94 126
59 93 124
58 91 129
58 91 117
60 94 139
59 93 129
60 94 134
59 94 136
58 92 126
59 93 126
60 93 130
60 94 131
58 92 126
59 93 127
59 92 126
58 92 118
60 94 131
59 93 134
60 93 132
58 92 130
60 94 126
59 92 127
57 90 123
58 91 122
59 92 127
56 88 113
57 90 119
56 87 120
56 87 114
58 90 128
56 87 119
55 86 117
55 85 113
57 60 16
45 46 10
40 48 24
58 59 14
63 66 17
53 57 17
66 68 29
52 56 25
65 69 32
66 69 31
73 76 33
74 78 29
72 73 35
80 84 40
84 85 43
94 94 40
89 90 43
83 85 43
107 107 58
103 103 45
99 99 39
100 99 47
113 113 54
111 111 59
110 110 41
115 113 60
117 116 48
119 118 52
126 123 60
131 129 61
120 119 59
119 117 54
133 130 59
120 120 53
132 129 70
122 120 52
138 134 67
132 129 57
134 131 62
135 132 60
142 139 63
142 138 65
153 147 67
136 134 62
151 146 69
147 142 70
142 139 68
146 143 62
146 142 65
148 143 69
154 147 71
152 147 64
147 144 56
146 142 56
157 151 78
155 149 70
142 138 60
156 150 73
155 150 74
158 152 75
158 153 68
155 150 71
159 153 71
156 150 70
161 154 76
158 152 75
157 152 72
163 157 78
159 154 70
165 158 78
156 150 64
163 156 69
165 158 75
167 160 80
156 150 71
163 156 72
164 158 75
165 158 76
160 153 76
157 152 70
164 158 75
166 160 77
161 155 71
168 162 80
161 154 70
163 156 72
160 155 75
160 155 72
163 157 75
166 158 83
156 150 64
160 155 71
162 156 78
162 155 75
158 152 76
164 157 79
159 153 69
160 154 72
158 152 70
161 156 71
161 155 77
158 152 66
162 156 71
157 150 69
158 152 72
163 156 73
163 156 77
159 152 81
162 154 80
159 153 79
163 156 80
159 153 75
165 158 77
158 151 69
160 153 69
158 151 69
156 150 70
165 159 77
161 155 75
153 148 71
149 143 69
157 150 76
159 152 69
157 152 75
156 149 73
152 145 67
153 147 72
150 145 65
154 148 71
155 148 68
152 145 73
150 143 71
158 152 69
158 151 69
146 141 67
156 149 72
189 210 142
186 207 125
186 207 128
181 203 99
182 204 105
178 201 76
183 205 108
181 203 84
179 202 92
183 205 111
183 205 114
179 201 76
181 203 99
177 200 67
177 201 80
178 201 76
182 204 102
177 200 82
179 202 88
177 200 72
179 201 80
177 200 51
177 200 62
176 200 62
174 198 62
175 198 36
177 200 72
179 202 99
177 200 74
178 201 72
176 199 44
179 201 105
179 201 86
181 203 99
183 205 111
186 207 120
183 204 111
186 207 125
185 205 122
184 205 108
183 204 111
185 206 117
184 206 117
184 206 117
183 204 102
184 205 105
182 204 102
183 205 108
183 204 102
183 205 102
183 205 108
182 203 95
183 205 108
179 202 76
180 202 88
179 202 80
179 202 95
176 199 62
175 199 62
176 200 67
173 197 36
178 202 92
175 198 57
177 200 76
177 200 72
177 200 62
172 196 25
176 199 44
174 198 44
176 200 76
176 199 62
175 199 44
177 200 67
176 199 51
177 200 72
176 199 51
176 199 72
176 199 67
175 199 67
177 200 51
175 199 72
178 201 76
176 199 67
174 198 62
174 198 72
176 199 67
176 199 67
173 197 72
176 200 76
176 199 57
178 200 67
178 201 76
177 200 72
176 200 67
174 197 57
175 198 36
173 197 51
174 197 44
174 198 72
176 199 95
172 196 57
174 198 51
174 197 44
174 197 76
175 198 62
173 197 72
171 195 62
172 195 78
168 192 88
170 194 90
170 194 51
172 196 92
169 193 76
171 194 65
168 192 70
169 192 74
175 197 97
172 195 67
167 190 57
169 192 67
172 195 84
168 191 82
165 188 40
170 193 79
170 193 54
175 198 60
170 193 78
175 197 94
173 195 84
168 191 70
175 198 102
173 196 82
176 198 105
173 194 113
172 194 107
176 198 84
93 119 122
60 94 126
60 94 117
61 95 136
57 90 124
58 92 120
60 94 129
59 94 126
59 93 122
57 90 113
58 93 125
60 95 139
59 93 130
59 94 134
60 94 126
60 94 135
58 93 121
59 93 128
59 93 130
58 92 124
61 96 129
58 92 124
59 94 136
60 95 133
61 95 140
59 94 135
58 92 122
58 93 124
59 94 120
59 93 125
59 94 128
59 93 115
59 93 129
59 93 120
59 93 125
60 95 133
59 93 130
59 93 124
60 95 134
60 95 134
59 94 130
59 93 125
59 92 121
61 96 131
59 94 131
59 94 130
61 95 136
60 94 133
60 95 131
60 94 133
59 93 131
58 92 117
58 92 117
60 95 136
59 92 125
59 94 130
59 93 130
59 93 133
59 92 130
59 94 133
59 93 120
58 92 128
60 95 133
60 94 133
59 94 129
60 95 134
59 93 124
58 92 117
60 94 140
59 93 126
59 93 125
60 95 135
58 92 125
61 95 136
60 95 135
58 92 120
58 92 120
57 91 118
60 94 133
59 92 124
57 90 115
60 94 130
59 93 126
59 93 128
59 92 125
59 94 128
58 92 124
59 93 128
60 95 129
59 93 121
59 93 128
60 95 138
60 94 125
59 92 121
59 92 128
59 93 134
60 94 122
59 93 136
59 93 124
59 93 134
59 92 130
59 93 128
59 92 129
58 92 133
59 93 124
58 91 113
59 93 134
57 90 125
58 92 119
55 87 104
58 91 122
57 90 120
56 89 116
59 92 130
60 95 137
58 91 126
58 92 117
57 90 123
58 91 123
56 87 117
54 86 104
56 88 120
57 90 125
56 88 118
56 88 111
55 86 113
54 84 105
54 82 118
44 48 20
48 49 21
65 67 3
44 49 21
41 47 18
47 53 21
59 63 22
69 71 25
69 70 25
67 71 32
73 73 28
75 78 36
72 75 31
74 77 33
87 86 40
90 92 35
98 98 44
85 88 38
93 94 40
101 102 39
103 104 49
98 98 38
104 104 46
107 106 46
120 118 57
123 122 53
106 107 45
105 105 47
125 122 58
118 117 52
128 126 55
126 123 58
125 123 52
123 121 56
116 116 56
134 132 65
129 125 57
138 135 67
131 128 54
141 137 65
140 137 65
143 139 65
147 143 62
145 140 62
145 141 61
139 136 54
147 142 60
149 144 69
157 151 69
145 141 65
138 134 47
144 140 67
152 147 65
149 144 68
158 152 68
154 149 68
151 146 67
164 157 74
161 155 70
157 150 73
159 152 71
151 146 63
155 150 67
156 151 57
157 151 70
160 154 74
161 155 74
154 149 65
152 147 64
163 158 71
160 154 71
162 156 78
158 152 70
155 150 69
161 154 70
161 155 73
161 155 72
161 154 75
161 155 74
163 156 75
154 149 72
162 156 75
160 154 72
163 155 75
166 159 80
163 156 74
161 155 75
161 154 75
157 151 74
163 156 78
158 152 67
154 147 69
165 158 79
162 155 70
158 152 69
162 155 73
158 152 66
165 158 82
160 154 73
169 162 84
157 151 79
163 156 71
152 145 68
165 158 80
159 152 73
161 156 72
155 149 67
157 151 71
162 155 72
160 154 72
164 158 82
162 155 76
165 157 76
156 150 73
155 149 76
156 150 65
155 149 66
155 148 72
151 145 63
157 150 72
159 152 72
152 147 71
156 150 73
152 146 69
158 151 75
156 150 70
153 149 69
159 152 74
154 148 66
152 146 66
152 145 72
161 153 81
142 136 59
155 149 68
158 152 80
149 143 64
187 207 125
187 208 133
180 202 94
183 205 111
182 204 102
184 205 111
184 205 111
178 200 86
182 204 99
179 201 67
180 203 95
180 202 84
178 201 76
180 202 92
178 201 76
180 202 84
176 199 76
178 200 72
180 202 80
179 202 76
177 200 72
175 198 62
178 200 80
179 201 67
178 201 82
175 199 70
175 198 60
179 201 72
176 199 62
176 200 67
176 199 51
178 201 76
179 201 67
176 200 57
175 198 60
175 198 80
178 201 72
174 198 60
177 200 76
176 199 44
175 199 51
179 201 76
177 200 62
177 200 62
178 201 76
176 200 62
178 201 84
178 201 84
176 200 80
178 201 84
176 200 67
176 199 72
178 200 51
176 200 76
175 199 51
176 200 76
176 199 67
176 199 72
176 200 72
178 201 76
175 199 67
178 201 88
175 199 51
176 200 88
177 200 67
177 199 51
174 198 44
175 198 62
177 200 62
175 199 62
176 199 57
177 201 80
178 201 84
174 198 67
176 199 62
176 199 62
175 199 67
175 199 67
175 199 57
179 202 99
175 198 72
177 200 80
174 198 44
175 198 67
178 201 72
175 199 67
175 198 36
178 201 76
175 199 80
174 198 36
178 200 62
173 197 44
174 197 67
176 199 84
174 198 44
174 198 67
174 197 44
176 199 84
172 196 67
174 197 84
176 199 84
174 197 76
173 197 57
169 193 51
176 199 88
172 195 51
173 197 80
175 198 51
172 195 47
169 193 60
167 191 78
173 196 54
168 192 78
169 192 70
170 193 76
170 193 90
172 196 70
168 191 36
170 194 86
174 197 74
168 191 65
173 195 70
174 197 70
172 195 76
173 195 86
171 195 82
173 195 78
168 191 65
169 192 70
172 195 97
172 195 94
173 196 102
174 196 86
176 197 121
173 195 105
174 195 95
112 137 113
59 93 128
59 93 120
59 93 134
60 95 128
59 93 126
59 93 125
60 95 135
59 94 125
59 93 122
58 91 110
58 92 115
59 93 128
59 94 118
59 93 126
61 95 134
58 92 128
58 92 124
59 93 126
59 93 125
60 94 131
59 94 125
59 94 118
59 93 129
60 94 135
58 92 117
59 93 130
60 94 129
61 96 144
59 93 120
58 92 121
60 94 142
61 96 136
60 94 128
59 93 122
59 93 124
59 94 133
59 93 124
58 91 121
59 93 117
59 93 118
59 93 115
61 95 133
61 96 137
59 93 126
61 96 137
59 93 130
59 93 130
59 93 129
59 94 131
59 94 120
59 93 125
59 93 126
59 94 126
60 94 128
58 92 120
58 92 117
59 94 131
60 95 135
58 92 133
60 94 131
59 93 125
60 94 126
60 94 130
59 93 122
60 94 136
58 92 118
59 93 131
60 94 130
59 93 130
59 92 124
60 94 128
60 95 131
59 94 130
59 93 124
59 93 120
59 94 129
59 92 124
60 95 135
59 93 125
58 91 124
60 94 136
60 95 139
59 93 131
59 93 128
59 93 136
60 93 122
59 93 129
60 94 133
60 95 137
60 94 141
59 94 130
59 94 131
60 94 139
59 93 128
59 92 120
59 93 126
59 93 134
57 90 121
59 92 133
59 93 128
59 93 135
59 93 123
58 92 118
58 92 120
57 90 122
59 93 128
58 92 125
59 93 130
60 93 133
58 91 120
59 93 126
59 92 128
56 89 122
59 92 128
57 89 118
58 90 121
58 91 122
57 89 124
58 90 120
56 89 123
57 90 124
57 89 123
56 87 114
56 88 115
56 87 110
55 86 110
52 73 86
59 60 9
63 65 21
57 60 16
50 54 13
47 52 18
62 64 23
66 68 16
73 74 14
65 67 22
77 79 30
73 76 20
82 84 24
78 80 38
76 79 34
85 87 34
83 85 39
91 93 44
107 107 43
104 104 50
98 97 48
104 103 46
99 100 43
98 99 45
114 114 53
109 109 54
116 114 47
118 115 51
111 110 51
128 126 53
116 114 53
119 118 53
129 127 51
127 125 51
125 123 59
129 126 61
123 120 57
125 124 60
136 133 58
132 128 53
137 133 64
148 143 69
135 131 65
135 133 55
152 146 64
143 138 57
145 140 63
148 143 63
148 143 60
139 137 59
149 145 68
146 143 65
153 147 71
148 143 62
144 141 59
147 143 65
145 141 56
150 145 65
152 146 64
162 156 74
155 149 71
157 151 69
152 148 74
155 150 67
157 152 73
159 153 68
147 144 67
157 151 63
151 145 61
157 151 71
159 153 67
153 147 71
154 148 70
163 157 73
160 154 69
158 152 68
160 153 71
164 157 75
159 153 71
161 156 73
161 155 79
161 155 67
162 155 70
156 150 63
163 156 75
159 155 62
164 157 70
166 159 75
163 156 72
164 158 76
162 156 75
157 152 62
156 150 65
153 147 72
161 154 76
160 153 75
164 157 67
153 148 67
164 156 73
154 148 65
160 154 70
163 156 74
156 150 73
155 150 67
165 158 72
157 151 67
160 153 75
156 150 66
162 156 71
157 150 72
159 153 72
160 154 76
158 152 68
161 155 75
152 147 70
153 148 68
157 152 74
150 145 66
155 149 69
151 146 73
152 146 67
163 156 80
159 153 79
158 152 69
158 152 75
152 146 68
157 150 69
151 144 69
151 145 72
145 139 61
153 148 69
154 149 68
157 150 74
150 145 63
156 150 72
156 150 71
148 142 67
191 210 142
188 208 128
187 208 125
183 205 117
183 205 111
180 202 84
180 203 92
180 203 95
184 205 114
179 202 92
181 203 102
179 201 67
179 201 72
178 201 72
179 201 84
176 199 57
177 200 72
177 200 72
177 200 62
181 203 97
177 200 57
178 200 95
178 200 67
177 200 67
176 199 65
176 200 57
176 199 57
177 200 57
178 200 67
175 199 57
178 201 72
177 200 67
176 200 67
175 198 76
176 200 67
177 200 82
178 201 88
175 198 57
176 199 67
178 201 72
179 202 80
177 200 72
176 199 51
177 200 51
176 199 57
177 200 84
176 200 72
178 201 80
178 200 80
176 200 84
176 200 67
177 200 80
177 200 67
177 200 84
175 198 44
176 199 72
176 200 67
177 200 67
175 199 51
178 202 92
178 201 80
175 199 57
172 196 36
175 199 67
178 201 88
176 199 57
176 199 72
178 201 76
176 199 92
176 199 72
176 200 76
175 198 44
173 198 62
175 199 72
176 199 72
177 200 72
175 199 62
175 199 72
176 199 57
174 197 51
174 198 67
176 199 76
174 198 62
174 199 80
177 200 76
176 199 72
174 198 44
174 198 51
174 198 57
173 197 72
176 199 80
174 198 57
175 199 62
175 199 84
175 198 62
174 197 62
172 196 72
177 200 76
175 198 62
175 199 51
175 198 62
169 193 57
174 197 67
174 197 62
172 196 57
174 197 57
177 200 99
171 194 44
175 198 88
170 193 54
171 194 67
167 190 51
173 196 74
170 193 84
172 195 95
174 197 76
169 193 62
170 193 36
167 190 76
175 198 67
172 195 78
162 186 78
171 194 82
171 194 102
174 197 82
169 193 88
174 197 103
171 194 67
171 194 90
167 190 86
173 196 88
173 195 76
173 196 74
172 193 97
170 190 90
169 191 82
131 154 88
58 91 118
58 92 121
59 93 125
59 94 124
59 93 114
58 92 111
59 94 134
59 93 125
59 94 128
60 95 130
58 92 119
60 95 128
59 93 122
60 94 139
59 93 118
60 94 129
61 95 133
59 93 134
59 93 130
59 93 128
58 91 121
59 94 125
58 92 122
60 94 125
59 93 129
60 94 129
60 94 137
59 92 125
58 92 124
59 93 124
59 93 135
60 95 131
60 93 133
58 92 121
60 95 128
60 95 131
60 95 139
58 92 120
60 95 130
60 94 131
60 95 128
59 93 124
59 93 118
60 94 131
59 93 126
61 95 133
60 95 128
59 93 121
60 95 130
59 93 125
59 93 126
59 93 128
58 92 117
59 93 121
59 94 134
60 94 128
58 92 124
58 92 128
60 95 130
60 94 125
59 93 118
58 92 124
59 93 125
60 94 129
59 94 130
60 95 137
60 94 126
59 93 122
59 92 126
59 93 131
59 93 121
58 92 117
60 94 134
61 96 134
59 92 129
58 93 124
60 94 137
59 93 125
59 93 128
59 92 124
59 93 122
60 94 124
59 93 118
58 92 128
59 93 134
59 94 121
59 93 124
60 94 141
58 91 113
60 95 135
58 92 122
60 94 139
59 93 128
58 92 120
59 93 124
59 93 125
58 92 125
59 92 120
58 92 125
59 93 127
61 95 137
58 92 121
60 94 133
59 93 133
60 94 126
56 88 117
58 91 114
57 90 115
58 91 108
58 90 117
58 92 125
58 92 133
58 90 121
56 88 110
57 90 115
57 90 132
56 89 120
58 90 123
60 93 127
54 86 107
57 88 122
58 91 124
54 85 114
56 87 117
55 86 108
57 88 128
43 60 59
50 54 10
59 61 17
57 59 18
58 62 13
53 58 21
39 47 21
65 68 25
78 79 22
68 70 17
56 63 27
82 81 31
81 83 30
60 65 30
65 71 31
78 80 28
93 94 31
99 99 42
99 98 46
93 93 37
104 105 47
100 100 39
89 92 37
112 110 52
114 114 48
111 110 44
123 122 55
117 115 46
118 115 50
117 115 47
118 117 54
130 127 48
114 113 42
132 129 62
129 126 50
125 123 53
119 117 48
137 132 60
124 122 50
129 126 58
139 136 56
140 136 62
142 137 60
134 132 53
137 134 56
151 146 58
147 142 68
145 140 62
148 142 65
145 141 56
149 143 70
145 141 63
150 144 69
150 144 65
152 147 71
151 146 63
153 148 63
149 145 56
153 148 67
157 151 71
153 147 67
155 149 73
154 149 75
164 157 78
159 153 72
157 152 71
160 153 71
150 145 67
160 153 75
156 151 69
154 148 65
152 148 57
159 153 58
156 151 61
161 155 72
158 152 69
157 151 64
156 150 74
156 151 70
163 156 73
157 150 69
157 151 73
159 152 62
158 153 70
156 151 64
161 155 64
162 156 69
167 159 78
163 156 75
161 154 72
162 157 76
160 154 69
163 156 73
153 148 59
157 151 67
155 150 61
157 152 64
160 155 70
155 149 67
156 151 75
161 154 74
158 152 71
155 150 65
152 147 63
159 153 66
156 150 69
161 154 76
158 152 70
160 154 74
161 155 73
146 141 61
153 147 73
155 149 64
159 152 74
151 145 64
156 150 72
155 149 69
156 149 66
158 152 68
157 150 70
158 152 70
154 148 70
160 153 74
158 151 71
156 150 63
161 155 75
156 150 63
146 140 69
149 142 70
147 141 67
153 146 70
151 146 68
149 143 62
149 143 69
154 148 69
149 144 64
146 140 64
188 208 128
184 206 120
182 204 102
186 207 120
186 207 125
188 209 133
185 206 120
183 205 108
178 201 76
181 203 80
182 203 92
178 201 95
176 199 57
177 200 74
180 202 88
180 203 88
178 200 67
177 200 76
177 201 76
180 202 90
178 201 76
177 200 51
179 201 76
178 201 82
176 199 51
177 200 70
177 200 74
178 201 62
177 200 78
175 198 74
175 198 58
178 201 80
176 200 62
177 200 72
178 201 67
175 198 54
176 199 72
175 198 60
176 199 65
176 199 51
176 199 62
179 202 84
175 198 51
177 201 84
177 200 67
176 200 67
175 199 62
176 200 76
176 200 76
177 201 76
176 199 62
174 198 36
177 200 67
176 199 62
177 201 84
177 201 80
178 201 67
176 199 62
177 200 67
176 199 62
175 198 67
176 200 76
174 198 72
176 199 76
176 200 76
176 200 80
176 200 72
176 199 67
174 198 36
175 199 67
175 199 72
174 197 51
175 199 84
175 198 57
175 199 67
177 200 76
176 199 72
175 198 25
174 198 57
176 199 67
176 200 72
176 199 80
175 199 80
176 200 67
175 199 62
176 200 76
176 200 76
174 198 67
175 198 72
174 197 76
175 199 72
174 197 44
174 198 67
174 198 51
174 198 57
176 199 76
174 197 67
175 198 92
172 196 62
173 196 51
177 199 80
175 198 72
173 197 51
175 198 72
172 195 57
173 196 67
171 195 62
173 197 76
171 194 62
173 196 74
172 196 54
169 193 62
168 193 86
169 192 60
164 187 72
168 191 80
170 193 67
172 196 60
167 191 86
167 191 76
171 194 70
169 193 57
168 191 82
172 196 76
172 196 72
170 193 51
173 196 80
170 193 82
173 197 86
175 198 100
170 192 80
173 195 90
177 199 114
173 195 90
173 196 84
155 177 31
148 172 44
57 91 113
56 90 105
59 93 120
60 95 125
59 94 128
59 93 130
59 93 122
59 94 128
58 92 126
59 93 117
59 93 118
58 92 120
59 94 128
60 95 126
58 92 124
59 93 130
59 93 129
59 93 131
58 92 115
61 96 137
59 93 128
58 93 128
59 93 122
59 94 133
61 96 139
60 95 140
61 96 135
59 94 130
60 94 131
59 93 131
60 95 136
58 92 118
61 95 134
57 91 114
61 95 139
60 94 128
60 94 134
60 94 128
59 93 118
60 95 131
60 94 128
60 94 130
61 95 137
59 94 129
59 93 134
59 93 124
58 92 124
60 95 131
57 91 114
59 93 126
60 94 134
59 94 133
61 96 145
59 93 124
57 91 111
60 95 128
60 95 133
60 94 129
60 94 133
59 93 121
61 95 131
58 91 125
61 95 135
62 97 136
59 93 118
57 90 111
60 93 131
59 93 130
60 94 130
60 95 135
56 89 102
60 94 124
60 94 134
59 93 130
61 96 140
60 94 129
58 92 120
60 94 129
60 94 136
58 92 125
58 92 118
58 92 118
60 94 134
60 94 137
59 93 128
60 95 135
60 95 131
59 93 131
59 93 124
58 92 120
59 94 129
61 95 131
59 94 118
58 92 124
59 93 123
58 91 118
58 91 126
60 94 133
59 93 125
60 93 126
59 93 122
57 90 117
58 91 130
59 93 132
59 92 130
60 94 137
59 93 126
58 92 121
57 89 111
58 91 129
58 91 121
58 91 117
58 91 124
58 92 123
58 90 129
57 90 116
58 90 122
58 90 125
56 87 108
56 87 110
54 85 111
56 88 115
55 86 115
54 84 113
54 84 107
52 82 101
59 66 42
60 62 15
60 62 13
65 66 17
55 56 20
55 56 18
71 74 15
62 66 25
62 65 22
70 72 27
70 72 25
72 74 24
84 85 28
82 85 32
73 75 33
79 80 28
90 89 36
102 102 38
100 99 50
92 93 43
106 105 40
103 102 32
92 92 36
99 100 47
101 101 44
105 105 39
111 110 53
108 106 51
120 118 54
117 116 41
126 122 49
120 117 56
122 119 54
118 115 52
129 125 57
124 122 40
122 120 51
124 123 56
135 132 58
142 139 63
134 131 50
131 129 50
132 129 54
142 138 56
139 136 62
130 127 56
145 141 57
140 137 54
148 143 64
144 140 57
149 144 68
147 142 60
141 137 57
152 146 63
146 142 66
143 138 58
144 140 62
154 149 63
154 150 66
151 146 64
152 147 69
158 152 72
154 148 68
155 149 70
157 151 68
155 150 70
159 153 63
157 152 63
153 148 65
156 150 67
154 149 63
149 144 62
151 146 66
159 152 71
159 153 69
162 156 74
161 155 72
161 153 75
162 155 70
163 158 75
162 155 74
163 156 74
158 152 63
154 149 67
159 154 67
162 155 74
159 153 67
161 154 70
160 154 69
152 146 60
161 155 70
160 154 66
162 155 75
161 156 67
164 156 70
164 157 80
161 155 64
162 156 67
153 148 63
161 154 69
159 153 70
162 155 76
153 148 62
158 151 69
155 149 67
155 149 75
159 154 73
160 153 67
152 146 69
155 150 65
163 157 69
148 142 62
161 154 74
158 153 73
155 149 72
155 148 66
158 151 73
151 145 60
150 144 61
159 151 72
155 150 70
144 139 56
158 153 66
156 150 70
149 144 63
158 152 71
145 140 61
156 149 64
148 141 60
149 143 68
145 139 64
152 146 66
156 149 68
154 147 72
155 149 72
152 147 65
154 147 68
180 202 80
186 207 120
191 211 147
187 207 122
186 206 117
184 205 111
181 203 95
184 205 111
180 202 88
179 202 92
179 202 88
181 203 115
181 203 92
181 203 99
180 202 76
178 201 72
174 198 36
178 201 67
178 201 67
178 201 94
178 201 72
178 201 72
180 202 84
180 202 92
178 201 88
177 200 67
179 202 80
176 199 67
176 199 78
176 199 74
176 199 72
177 200 78
176 199 65
177 200 76
175 198 72
177 200 76
179 202 94
176 200 67
175 198 31
176 199 57
175 199 51
175 198 51
175 199 60
175 199 62
176 200 72
175 199 62
177 200 76
174 198 51
176 198 44
177 200 72
177 200 80
177 200 72
174 197 44
176 200 80
176 199 76
176 199 36
176 199 72
174 199 67
176 200 76
178 201 67
177 200 84
175 199 36
177 200 72
177 200 67
175 199 51
176 199 44
177 200 80
177 201 92
176 200 95
174 197 36
176 199 62
175 199 92
176 199 62
177 201 84
174 198 57
176 199 62
177 200 72
175 199 72
175 198 57
175 197 62
176 198 57
173 197 76
176 200 80
174 198 57
176 199 67
174 198 57
174 197 36
176 199 51
174 199 76
175 199 67
176 199 76
174 198 67
174 198 84
172 196 62
172 196 76
173 197 72
174 198 76
175 198 51
174 198 84
176 198 76
173 195 57
170 194 76
174 197 62
171 194 44
172 196 62
172 195 57
174 198 80
172 196 57
172 196 72
174 197 76
172 196 54
166 189 72
168 191 65
172 195 74
167 190 70
171 195 57
170 194 76
174 196 80
171 194 82
165 189 57
169 192 60
168 191 67
166 189 82
168 190 70
169 193 74
166 189 65
170 193 103
168 191 103
167 190 90
169 192 76
170 193 78
175 197 107
176 198 122
171 193 84
166 189 70
156 179 36
159 181 18
66 98 115
59 93 122
59 93 126
60 95 131
59 92 122
58 92 115
58 91 122
60 95 130
59 93 130
58 92 115
59 94 128
60 94 128
59 94 125
59 92 118
59 93 126
58 92 114
57 91 125
60 94 125
60 94 124
59 93 121
58 92 124
60 94 129
59 94 128
59 93 129
58 92 114
58 91 115
59 93 128
59 93 128
57 90 113
59 94 124
59 93 129
60 95 130
59 93 130
61 96 135
59 94 125
60 95 126
60 94 126
60 94 133
59 94 124
60 94 128
59 93 128
60 94 128
60 95 133
60 94 128
58 92 115
59 94 126
59 94 128
60 94 130
59 94 134
59 93 121
58 93 121
60 95 129
59 93 129
60 95 134
58 92 114
59 93 126
58 92 113
59 92 128
60 94 129
57 89 117
59 93 135
59 93 134
58 91 122
58 92 113
60 95 129
58 93 120
59 93 128
60 94 134
58 91 115
59 93 121
57 91 118
58 91 126
59 93 126
58 91 118
60 95 137
58 92 118
58 92 120
58 93 124
60 94 130
59 93 134
59 93 128
59 93 128
58 92 122
59 93 124
59 93 128
60 94 135
60 94 131
59 93 124
59 93 124
59 93 128
60 94 135
59 92 129
59 93 125
58 91 113
58 92 119
59 93 128
58 91 118
59 92 128
56 89 113
59 92 118
59 93 132
56 88 97
57 90 114
58 92 124
58 92 121
59 92 121
58 92 124
56 89 113
58 91 125
59 92 134
57 90 123
59 92 125
59 92 125
55 86 113
58 90 122
57 89 111
57 88 124
56 87 117
57 89 124
57 88 122
54 85 115
57 88 119
53 84 113
55 85 110
56 86 108
52 75 84
57 57 13
51 53 11
72 73 12
66 68 15
57 58 15
61 63 13
58 60 25
65 68 21
70 70 17
75 77 29
65 67 16
71 76 31
76 77 23
82 83 34
75 75 23
91 90 28
75 77 33
91 91 33
78 81 27
92 92 38
91 93 38
98 97 42
100 100 38
106 106 40
105 105 44
108 108 35
108 108 49
109 109 48
110 109 42
123 120 51
114 114 52
125 122 42
134 130 54
132 128 59
121 119 50
130 127 51
128 125 51
127 125 50
136 131 54
127 125 53
130 125 46
142 138 66
135 132 55
145 140 62
144 140 61
136 133 55
151 146 63
139 135 62
143 139 57
141 136 64
144 140 55
147 142 64
144 139 56
149 144 61
157 150 72
151 145 65
153 148 67
152 146 63
151 146 68
157 150 69
148 144 60
151 146 66
155 148 63
153 147 62
152 146 56
149 144 58
155 150 63
152 147 61
155 149 71
156 151 62
154 150 61
159 153 71
151 146 63
159 153 68
160 154 72
159 153 72
163 157 68
154 148 69
157 151 66
157 151 59
162 155 72
155 149 63
156 151 66
159 152 67
157 151 64
154 147 63
159 153 68
152 146 60
158 152 63
156 150 64
159 154 64
163 156 74
160 153 65
158 153 66
160 153 65
160 154 70
159 152 70
158 151 66
160 154 74
157 151 63
160 154 68
159 154 67
151 146 61
154 148 63
161 155 70
160 154 69
157 153 61
156 149 66
157 151 72
154 148 65
149 143 61
154 148 69
161 155 74
147 141 62
161 155 74
157 152 68
159 153 69
157 151 69
155 150 67
157 150 75
150 144 64
155 149 72
160 152 70
154 148 64
159 152 70
153 147 67
151 144 65
154 148 72
152 147 69
159 152 67
156 150 69
156 150 68
154 148 69
143 138 69
142 135 63
152 146 67
152 146 66
182 204 105
182 204 102
189 209 135
187 208 130
182 204 110
182 204 108
184 205 105
181 203 102
180 203 92
182 204 102
181 203 95
180 202 100
182 204 105
183 205 114
180 202 84
179 201 80
179 202 88
177 200 57
178 201 72
177 200 67
177 200 72
175 199 76
179 201 84
176 199 67
174 197 65
175 199 62
178 201 80
177 200 57
177 200 72
178 201 94
176 199 62
176 199 74
175 198 60
174 198 57
176 200 67
177 201 88
174 197 62
176 199 70
175 199 62
175 199 51
176 199 67
178 201 67
175 199 44
176 199 74
179 202 84
177 200 67
179 201 76
176 199 57
175 199 62
177 200 67
177 200 57
176 200 84
175 198 57
177 200 67
175 199 72
175 199 62
173 196 51
174 198 51
176 199 67
175 199 44
175 199 76
174 198 57
178 201 76
175 198 51
177 200 84
176 199 51
177 200 72
177 200 67
176 199 76
176 199 80
172 196 57
177 200 67
173 197 51
176 199 72
176 199 67
176 200 62
174 198 72
174 198 67
176 199 62
175 198 62
174 198 67
175 198 57
173 197 57
173 198 57
174 198 62
174 198 67
176 199 72
170 195 72
175 199 80
173 197 57
173 196 57
174 197 62
176 200 95
174 198 76
173 197 51
175 198 72
176 199 76
175 199 72
172 195 44
173 197 88
173 196 62
173 196 51
174 197 67
174 197 62
170 194 44
170 193 44
174 197 76
174 197 62
171 194 44
168 192 44
167 192 67
171 194 70
170 194 47
171 194 76
163 187 57
172 195 65
167 191 51
164 187 80
174 197 88
165 188 60
171 194 62
168 190 57
169 192 72
170 194 62
172 195 82
174 197 78
174 197 84
172 195 88
174 197 97
173 195 100
173 195 99
170 192 107
171 192 99
167 189 97
162 185 47
160 183 22
161 184 0
108 134 84
58 92 111
60 94 128
60 94 126
59 93 139
59 93 122
59 93 124
60 94 126
59 93 115
60 94 126
58 93 117
59 93 135
59 94 121
58 93 120
58 92 125
59 93 131
59 93 115
60 94 134
60 94 137
57 90 122
59 93 117
58 92 111
58 92 128
61 96 135
60 95 130
58 93 125
60 95 130
58 92 118
57 90 113
59 94 129
59 93 130
60 95 135
58 91 115
60 95 125
59 93 124
58 92 126
59 93 118
60 94 128
60 94 131
60 94 131
59 93 124
57 91 125
61 95 129
59 94 126
59 93 134
59 93 133
57 90 108
56 90 100
60 94 131
60 94 126
59 93 117
60 94 133
59 94 133
58 91 125
59 93 126
58 93 126
60 95 128
60 94 130
60 94 133
59 93 125
58 92 118
57 91 114
58 92 115
58 91 115
61 95 137
60 94 129
59 93 126
58 92 122
59 93 124
58 92 122
59 93 125
57 91 126
58 92 134
60 95 133
60 94 133
59 93 122
57 91 110
58 92 121
58 92 124
58 92 122
59 93 120
60 94 133
57 90 124
59 92 122
58 91 122
61 96 141
60 94 129
59 92 128
59 94 121
59 93 125
58 92 125
60 94 134
60 93 131
59 93 122
60 94 135
59 92 125
57 91 124
59 94 131
58 92 125
55 87 101
60 94 138
59 93 124
57 89 113
59 92 121
58 91 123
57 90 121
57 90 110
60 94 133
57 90 114
55 87 104
58 91 123
56 87 117
56 88 114
57 89 116
57 90 123
57 89 117
57 89 120
58 90 120
58 90 125
57 90 121
56 88 121
53 83 105
55 86 104
54 85 105
57 88 113
72 87 81
55 56 9
64 65 12
61 63 16
62 62 16
62 64 18
59 62 14
54 57 17
67 69 17
72 73 17
69 72 26
74 76 22
79 81 28
67 69 17
77 79 21
78 80 22
92 92 36
84 86 36
88 89 35
87 88 37
90 90 22
98 100 36
100 101 42
104 102 38
95 97 30
110 109 41
110 110 51
114 113 43
106 108 40
99 97 38
115 113 49
119 117 40
115 113 44
127 124 54
131 128 50
118 116 42
117 114 44
120 118 46
128 126 48
132 128 50
120 119 50
131 128 58
138 133 61
131 129 51
137 133 53
139 135 59
135 132 60
142 138 56
142 139 57
142 136 59
147 142 62
145 142 61
152 147 66
152 144 65
146 141 65
151 145 68
141 137 52
156 150 76
151 146 65
151 145 61
148 142 65
153 148 62
150 145 58
154 148 62
151 146 66
158 151 68
147 144 53
154 148 63
157 152 73
155 150 67
157 152 62
153 147 66
157 151 68
153 147 63
153 147 64
160 154 70
157 150 66
155 149 62
151 144 64
155 148 70
155 149 64
159 153 72
159 154 68
154 149 64
161 155 67
158 152 67
163 156 75
156 149 62
159 152 73
153 148 57
156 151 64
158 152 65
160 153 73
164 158 73
157 151 68
158 151 67
156 149 65
155 148 64
159 153 65
154 148 66
151 145 59
161 155 74
165 156 75
155 149 66
157 151 65
152 146 65
160 152 72
154 148 68
159 152 67
156 149 63
151 145 60
159 153 72
158 151 65
164 158 67
156 151 65
160 154 78
154 147 65
154 147 70
157 151 69
149 144 60
150 144 63
152 146 70
158 152 75
157 150 72
159 152 67
152 146 69
152 146 63
153 148 70
155 148 68
149 142 68
151 146 63
146 141 61
153 147 63
149 143 66
144 138 62
152 145 70
146 140 65
142 138 58
188 208 130
178 201 67
182 204 99
187 208 130
182 204 102
183 205 99
177 200 72
183 205 105
182 204 105
180 202 80
180 202 92
178 200 80
179 202 99
182 204 99
180 202 84
179 201 84
176 199 62
181 203 92
179 201 92
175 198 25
175 199 70
177 200 76
178 200 74
178 201 76
177 200 67
178 201 74
175 199 70
179 202 94
179 201 80
178 201 84
176 199 57
177 200 70
174 198 51
177 200 62
179 201 92
176 200 72
177 199 51
179 202 84
178 200 70
178 201 88
176 200 78
179 201 80
178 201 80
177 199 65
176 200 67
177 200 62
175 199 62
175 199 62
175 199 62
177 201 80
176 199 67
175 199 62
176 199 51
177 200 72
175 199 57
174 199 62
174 198 57
176 200 62
177 199 62
178 202 92
176 199 67
175 199 57
176 200 62
176 199 62
176 199 51
177 200 80
176 200 72
174 198 57
174 198 62
173 198 72
176 200 72
175 199 72
175 199 57
174 198 72
174 198 72
174 197 57
172 196 62
174 198 84
174 198 67
175 199 57
175 199 80
174 198 51
173 197 25
172 197 76
174 199 80
175 198 67
172 196 72
173 197 51
174 197 57
177 201 88
175 199 92
173 196 62
170 194 44
174 197 51
171 196 67
176 200 84
170 194 67
173 196 51
174 197 51
172 197 67
174 198 76
171 195 67
175 199 72
174 197 72
173 196 67
170 193 25
173 196 76
174 197 88
170 194 80
172 195 62
175 199 72
169 193 72
173 196 70
172 195 65
169 193 57
170 193 54
171 194 74
170 193 70
170 193 62
167 190 65
170 194 76
164 186 92
175 197 86
170 194 72
166 189 67
166 190 67
173 196 72
171 193 72
167 190 72
171 194 51
175 197 117
175 196 92
170 193 95
163 185 74
157 179 36
157 180 0
159 182 18
135 159 62
59 93 122
58 92 117
57 90 114
58 91 113
58 92 122
58 92 114
58 92 122
57 90 111
59 93 126
59 93 129
58 92 117
58 91 126
58 91 126
58 92 121
58 92 117
59 94 125
60 95 129
58 91 115
59 92 133
60 94 136
59 93 130
58 93 121
59 93 135
60 94 133
57 90 107
58 92 122
58 93 125
59 94 130
59 94 133
60 95 129
59 94 128
60 95 128
59 94 124
59 93 125
58 92 124
58 92 115
59 94 125
58 92 118
58 92 117
59 94 124
59 93 120
60 94 129
59 93 129
57 91 113
60 95 133
60 94 130
60 95 135
58 91 108
60 94 134
60 95 135
58 91 120
58 92 125
58 92 122
59 94 134
57 91 108
58 92 114
60 95 126
60 94 131
59 92 125
60 95 139
59 93 124
58 92 120
59 93 125
60 94 124
59 93 129
59 93 117
60 94 126
59 93 122
57 91 121
61 95 140
58 92 124
58 92 114
58 91 121
58 93 128
60 94 135
58 92 121
59 94 130
58 92 121
59 93 126
58 91 118
57 91 110
60 94 129
59 93 122
59 93 124
59 93 130
59 92 126
57 90 113
59 93 124
57 91 117
58 91 115
59 93 126
59 94 128
57 91 113
56 89 113
59 92 128
60 94 122
59 92 125
61 95 143
59 92 123
57 91 114
60 94 122
58 92 121
54 86 83
58 92 131
58 92 118
58 91 118
55 87 105
56 89 117
57 90 124
57 90 113
58 91 128
57 89 110
55 87 99
58 91 123
56 87 116
56 89 125
54 86 106
55 86 111
57 89 121
56 88 104
56 87 112
51 80 95
55 86 112
53 83 105
64 76 60
81 79 18
51 53 9
77 76 16
60 61 11
68 70 12
62 64 22
50 52 18
64 68 19
79 80 24
72 74 22
77 77 23
59 63 19
77 78 18
82 83 23
70 72 24
75 76 18
88 88 30
100 98 30
91 92 34
99 99 35
93 92 36
96 96 28
105 104 41
109 107 41
96 97 37
114 113 35
114 113 41
111 110 45
112 110 41
118 115 47
115 114 48
122 120 52
119 118 43
132 127 52
123 121 50
123 121 46
132 129 50
130 128 55
132 128 57
134 131 60
130 129 55
134 130 58
136 132 60
136 133 59
135 131 51
132 129 48
134 131 56
140 137 57
133 130 49
143 139 57
138 133 58
141 137 56
143 138 57
145 140 59
138 135 59
147 141 61
146 141 56
145 141 56
147 142 47
153 147 58
154 149 63
149 144 61
155 149 58
154 147 66
151 146 64
157 151 65
146 141 57
154 149 66
152 146 64
156 150 64
154 148 61
154 150 62
151 146 63
154 148 67
154 148 65
157 150 66
155 148 65
144 138 52
158 152 62
160 154 66
160 153 72
154 148 64
157 150 60
158 152 67
159 153 66
158 152 68
162 155 72
157 152 67
153 147 66
154 148 66
152 147 64
160 152 73
153 147 64
161 154 66
159 152 76
158 152 65
156 150 65
160 154 68
159 152 65
153 147 63
157 152 66
161 155 69
153 147 63
151 145 66
156 150 64
164 157 80
155 148 68
149 143 60
161 154 69
153 148 60
157 150 63
156 149 70
153 147 65
157 151 69
157 150 69
155 149 65
158 152 73
160 154 73
151 145 59
148 142 61
154 147 65
148 143 58
155 149 62
156 149 63
159 152 77
155 149 69
160 153 76
152 147 58
149 143 65
155 149 73
147 141 58
147 141 62
145 139 65
148 143 59
152 145 66
150 144 60
149 143 61
179 201 80
183 204 99
181 203 88
181 203 88
190 210 141
186 207 117
188 209 135
185 206 124
183 205 111
182 204 99
180 202 99
182 203 105
180 202 92
181 203 88
181 204 105
180 202 95
180 202 88
180 203 95
180 202 88
177 200 67
179 202 95
179 202 84
179 202 92
176 199 67
178 201 72
179 201 80
177 201 90
179 202 84
179 202 100
175 198 74
176 199 74
177 200 97
176 199 62
175 198 67
178 201 84
178 201 80
174 198 51
178 201 82
179 201 76
177 200 76
178 201 72
176 200 72
174 198 51
177 200 78
177 200 80
175 199 80
177 200 62
178 201 76
176 200 67
174 197 57
176 200 76
177 201 92
176 199 72
175 199 72
174 197 57
177 200 67
177 200 72
177 200 76
176 199 76
176 199 62
176 199 57
176 199 72
176 199 67
173 197 51
175 199 57
175 198 51
174 198 57
173 197 57
176 199 67
175 199 80
177 200 76
175 199 72
174 198 80
175 199 72
174 198 80
174 199 76
174 198 72
176 199 51
177 200 72
175 199 72
175 199 76
176 200 76
173 197 36
174 198 80
175 198 62
174 198 51
171 195 57
173 197 84
174 198 57
175 198 51
173 196 57
175 198 57
174 197 57
176 199 67
174 199 62
172 195 72
169 193 51
173 197 76
173 198 84
173 197 62
171 195 67
174 199 88
174 199 92
170 194 57
175 197 67
170 193 36
171 194 67
167 190 51
172 196 80
169 192 51
167 191 76
169 194 72
168 192 67
173 197 76
169 192 67
168 191 51
172 195 72
169 193 60
168 191 80
169 192 54
166 190 65
171 194 72
168 191 57
172 195 92
168 191 88
173 196 76
168 191 72
173 196 67
171 193 95
174 196 102
176 196 108
166 189 86
165 187 74
147 168 36
156 179 18
155 179 0
163 187 0
152 175 40
57 91 113
58 91 122
57 91 108
58 92 115
58 92 122
59 92 125
58 92 120
59 93 117
59 93 128
59 94 128
59 93 129
59 93 124
58 92 121
59 93 126
58 92 120
59 94 126
58 92 118
60 94 129
59 94 124
58 92 122
59 94 122
59 94 125
61 95 136
59 93 128
57 91 115
59 93 125
58 92 120
58 91 114
60 94 129
60 94 133
58 91 122
57 90 111
58 92 124
60 94 131
60 95 130
58 92 125
60 95 131
60 94 129
60 94 129
59 93 128
59 93 125
61 95 139
59 93 130
58 91 121
59 93 134
59 93 121
59 93 126
60 94 128
58 92 120
57 90 122
59 93 126
57 90 114
60 94 130
59 93 120
58 92 120
59 93 121
61 95 139
60 94 130
59 93 134
59 93 126
58 92 122
57 90 121
60 95 135
58 93 121
58 91 126
58 93 129
59 93 125
58 92 126
58 92 121
60 93 125
59 93 131
58 92 126
59 94 130
58 91 118
58 93 125
57 90 122
58 92 121
59 94 122
58 93 122
59 93 128
58 92 122
60 94 129
58 91 120
59 92 124
60 95 133
57 91 117
57 91 115
57 90 118
59 93 120
59 92 126
59 93 121
58 91 118
60 94 128
58 92 126
58 92 116
58 91 124
59 93 121
58 92 133
58 92 133
59 93 126
59 92 124
57 90 119
57 91 108
56 88 113
57 90 114
57 89 117
58 91 120
56 88 117
58 91 120
57 90 118
57 89 119
57 89 124
56 88 118
56 88 117
58 91 119
54 84 95
59 92 126
56 89 113
57 89 116
56 88 113
55 85 116
56 86 104
55 84 93
53 82 99
83 85 42
88 86 14
62 63 11
61 62 7
74 72 10
69 67 12
57 58 10
75 75 20
69 70 17
63 65 23
78 78 24
73 74 20
81 81 18
85 86 23
78 80 25
76 78 19
85 85 23
93 93 31
95 95 37
96 95 26
88 88 30
84 84 39
110 109 38
102 101 34
111 109 40
108 108 46
107 106 31
101 102 38
120 117 47
113 111 39
107 106 35
110 108 44
123 120 48
116 115 42
121 119 46
119 118 45
129 127 53
121 119 52
131 128 50
124 121 47
129 126 53
138 133 57
128 125 45
135 131 47
133 130 47
132 129 52
138 132 53
133 130 47
143 138 56
138 134 55
139 135 56
144 140 62
150 146 65
137 134 54
145 139 61
149 143 58
142 138 54
151 145 66
148 144 59
154 150 60
150 145 64
148 142 58
135 132 44
147 142 55
157 152 64
146 141 58
153 147 59
144 139 56
155 149 63
154 148 66
142 138 55
153 147 62
153 147 57
149 143 54
150 145 60
154 148 72
156 150 61
153 147 64
159 153 70
162 155 67
157 151 64
156 150 65
160 154 61
161 153 69
156 149 68
154 147 63
154 149 62
157 150 66
153 147 56
155 148 68
162 155 67
156 151 60
157 150 65
153 148 64
162 155 67
153 146 63
156 151 64
159 153 66
160 155 69
153 147 61
150 144 59
156 149 69
155 149 63
152 146 65
161 154 73
156 149 61
159 152 73
159 152 67
157 152 63
157 151 64
150 144 63
152 145 63
155 150 62
157 151 63
160 153 74
149 144 61
154 149 64
160 154 67
156 149 73
153 147 64
150 144 58
154 148 62
149 144 61
158 151 70
148 142 63
148 143 66
162 156 70
145 140 60
149 144 63
148 142 68
160 153 73
152 145 68
148 142 66
145 140 59
148 142 61
152 146 66
149 143 66
148 142 67
183 204 105
179 202 84
183 204 99
179 201 76
183 205 105
186 206 117
182 204 102
184 205 111
183 205 102
180 202 76
184 205 111
178 201 84
179 201 80
177 200 74
180 203 95
180 202 92
180 202 95
179 202 92
178 201 88
179 201 72
178 201 80
180 203 95
178 201 88
175 199 82
176 199 57
176 200 67
175 198 62
176 200 78
176 198 57
178 201 72
175 198 60
178 201 76
174 197 62
175 199 57
175 198 88
174 198 57
176 199 65
177 200 62
177 200 76
175 199 80
176 200 88
177 200 84
176 200 76
177 200 76
177 200 76
177 201 80
174 198 62
176 199 76
175 199 62
176 199 67
175 199 67
176 199 51
175 198 62
174 199 72
177 200 72
176 199 67
177 201 88
174 198 62
177 200 67
175 199 76
176 199 62
174 198 62
177 201 88
173 197 62
175 198 67
172 196 36
175 199 62
174 198 57
176 200 84
176 198 51
175 199 62
176 199 51
176 200 76
176 199 62
175 199 80
175 199 76
174 198 72
174 198 72
175 199 76
175 198 62
173 197 67
174 198 80
175 198 67
174 198 76
174 198 72
173 197 72
175 199 76
173 197 76
174 197 51
175 198 44
172 196 67
174 198 51
176 199 72
175 199 99
173 197 76
170 194 51
173 196 80
173 196 51
174 198 57
173 197 62
172 196 67
175 198 62
171 193 51
172 196 51
173 197 72
172 196 57
171 195 67
174 197 84
171 195 80
171 194 57
171 194 57
172 196 84
170 193 57
170 193 62
171 194 62
175 198 62
170 194 78
164 187 72
169 192 82
168 192 90
170 194 67
168 192 78
168 191 78
164 188 92
171 194 72
171 194 97
173 196 86
167 191 95
172 193 103
174 196 113
170 191 86
166 188 68
148 171 72
158 181 18
159 182 0
156 179 0
158 181 0
164 187 0
100 125 92
59 94 128
57 91 113
57 90 107
57 91 120
58 92 115
56 90 105
57 91 107
57 90 115
58 91 120
59 93 117
58 92 110
60 94 125
59 93 121
59 93 124
57 90 121
58 92 117
59 93 126
58 91 115
58 92 124
58 93 113
59 94 125
58 92 110
59 93 121
58 92 115
58 91 128
60 94 126
58 91 114
61 96 137
60 94 129
59 93 125
59 93 117
61 96 131
58 92 122
59 93 121
58 92 115
59 93 121
59 93 130
58 92 124
59 93 131
59 93 126
58 92 121
58 92 121
56 90 111
59 93 130
58 92 121
59 94 129
57 91 113
59 93 122
60 94 121
60 94 126
59 93 118
59 93 121
59 92 124
58 92 117
59 93 121
60 94 133
61 96 141
60 94 129
57 90 122
59 93 124
59 93 124
58 92 125
60 94 130
60 94 130
58 92 122
59 93 126
58 92 120
58 92 130
59 93 118
59 93 120
58 92 126
59 94 121
58 91 122
60 94 125
58 93 115
58 92 121
57 91 114
57 90 110
59 93 128
58 91 122
59 93 131
58 92 120
60 94 133
60 94 137
57 89 121
58 92 120
59 94 126
59 94 131
60 94 120
59 93 129
60 94 134
59 93 132
58 91 118
56 89 117
59 93 131
58 91 122
59 93 132
57 90 119
57 89 111
57 90 111
58 92 115
59 93 135
58 91 120
58 91 116
56 88 111
59 92 125
58 92 120
57 90 118
57 90 120
55 88 111
56 89 124
57 89 121
57 89 122
57 90 115
56 88 110
57 89 116
53 84 100
58 91 124
56 87 113
56 86 110
53 83 94
53 82 98
55 75 82
74 73 28
62 61 24
71 71 12
69 70 18
65 66 12
81 80 20
69 70 17
70 73 8
73 75 18
62 65 25
84 83 19
81 80 21
76 78 24
81 81 26
89 88 28
78 79 24
80 81 22
72 75 28
94 94 26
95 96 34
91 90 30
93 94 31
99 98 33
108 106 39
101 101 37
112 111 37
103 101 39
109 107 37
109 107 40
111 109 37
108 107 37
120 116 43
122 119 38
112 112 39
126 123 50
128 125 48
125 122 48
117 116 47
134 129 48
122 119 41
125 122 52
119 117 39
119 117 42
142 137 58
130 128 48
136 132 49
143 137 54
146 141 60
139 135 54
136 132 50
137 133 59
137 133 51
137 133 45
152 147 60
145 141 56
150 144 62
141 137 57
145 140 54
141 137 55
149 144 65
149 145 57
148 142 60
152 146 65
154 147 63
154 148 60
159 152 74
154 148 66
154 148 63
152 146 59
155 149 57
144 138 52
159 152 67
156 149 65
160 154 62
146 141 59
158 152 63
156 150 61
156 149 59
150 144 66
155 149 66
156 150 64
148 143 51
155 148 65
153 149 53
162 156 68
156 150 67
158 152 58
159 153 70
158 151 70
151 145 62
154 149 60
154 149 54
154 149 60
162 154 77
166 158 78
158 152 57
146 141 57
154 147 69
152 147 63
152 145 64
157 150 68
155 149 65
157 150 63
156 150 66
158 153 63
152 147 69
150 144 63
153 147 56
153 146 65
162 155 75
158 151 66
154 148 63
157 151 66
147 141 65
156 147 67
152 146 63
161 155 73
154 148 66
150 144 59
153 147 61
158 152 75
152 146 64
150 144 66
151 144 66
150 143 68
155 149 67
154 147 69
149 143 57
161 155 68
147 139 67
153 146 68
147 142 60
150 144 71
148 143 66
151 145 67
151 146 65
153 146 66
155 148 69
178 201 67
179 202 88
182 204 95
183 204 102
182 204 102
180 203 92
188 208 133
183 205 108
182 204 114
184 205 108
181 203 92
181 203 95
181 203 95
180 202 92
178 201 76
177 200 76
180 202 95
178 201 72
177 200 76
175 198 67
179 202 92
177 200 67
177 200 72
180 202 84
177 200 84
178 200 67
181 203 80
175 199 76
174 197 76
176 200 67
177 200 76
176 199 72
177 199 78
176 199 57
176 200 72
178 200 78
176 199 65
175 199 76
178 201 76
175 199 67
175 198 57
177 200 78
172 197 67
176 199 57
175 198 65
174 198 51
176 200 72
178 201 72
173 197 57
178 201 76
175 199 76
176 199 51
174 198 51
177 200 67
175 199 76
175 199 72
174 198 51
176 200 99
176 199 57
175 199 67
176 199 57
174 198 67
173 197 51
173 197 51
172 196 67
175 198 51
176 198 36
173 197 51
172 197 51
172 197 62
175 199 80
175 198 72
175 198 62
172 196 72
175 198 62
169 193 67
172 196 62
175 200 84
174 198 84
174 198 57
173 198 62
174 197 80
176 199 76
173 198 84
172 196 67
176 198 67
174 197 51
173 197 62
174 198 67
172 196 62
172 197 76
172 196 67
175 199 80
174 198 76
174 198 62
174 198 72
172 195 51
169 194 80
173 197 62
174 198 72
175 198 72
168 191 62
171 195 51
169 194 76
171 194 44
170 194 84
172 197 80
176 199 67
174 198 95
170 193 62
169 193 57
167 190 67
175 199 88
169 192 76
171 193 51
173 196 67
169 193 80
165 189 67
171 194 67
166 190 67
171 195 74
170 193 78
175 197 84
174 197 84
167 191 67
169 192 74
164 187 88
172 193 117
167 189 84
167 189 92
167 190 67
159 181 51
148 171 0
152 174 0
161 183 0
159 182 0
160 183 0
166 188 36
126 151 84
59 93 124
58 92 118
59 93 118
56 90 97
58 91 114
58 92 121
60 94 131
59 93 120
57 90 114
58 92 115
57 90 113
58 93 120
58 92 111
59 93 125
59 93 120
58 91 117
58 92 120
58 92 118
59 93 120
56 90 110
59 92 120
57 91 114
58 92 124
60 95 130
59 93 122
57 91 115
58 92 111
59 93 121
58 92 125
59 93 122
56 89 113
58 92 117
60 94 133
58 92 114
57 91 110
59 94 133
58 92 121
57 90 108
59 94 133
59 93 126
58 92 121
60 95 131
59 93 124
59 93 124
58 91 126
56 89 110
57 91 115
58 93 121
59 93 122
60 94 133
58 93 117
60 94 124
58 91 118
57 91 115
60 94 122
59 92 122
59 93 135
60 94 126
59 93 126
57 91 117
58 92 122
58 93 120
60 94 135
60 94 133
59 93 124
58 92 114
59 93 122
59 93 125
59 93 121
59 93 125
57 91 117
59 93 128
59 93 131
59 93 125
61 95 128
60 95 131
58 92 125
59 93 120
59 93 131
59 92 121
59 93 118
59 93 128
58 91 120
59 93 136
59 93 130
57 90 115
59 93 133
56 90 111
58 91 124
57 89 120
57 90 116
58 92 125
59 93 118
59 93 120
60 94 131
59 92 122
57 91 122
57 89 108
55 87 105
57 90 111
58 91 115
59 93 129
60 93 130
56 89 111
56 89 113
57 90 115
58 90 120
56 88 98
56 88 108
56 88 115
57 89 117
57 90 118
57 91 120
58 91 132
55 87 106
57 89 118
57 88 122
57 89 122
57 89 116
54 85 112
55 86 110
53 82 102
64 76 54
75 75 16
72 69 17
78 76 22
80 79 6
90 87 26
73 72 8
68 70 14
77 76 13
68 70 14
83 82 8
78 79 17
77 77 16
78 76 18
75 75 18
76 79 23
69 71 21
86 86 20
85 86 30
80 81 27
85 86 23
97 97 28
90 92 32
106 105 32
100 99 31
104 103 26
105 104 32
96 96 38
117 115 36
108 107 31
113 111 32
107 106 36
125 122 45
113 112 39
116 113 46
117 116 46
122 117 42
119 117 39
115 114 43
126 123 49
128 125 47
124 120 42
119 117 42
136 132 55
134 131 52
135 131 47
127 125 44
141 137 51
135 132 48
140 135 53
141 136 59
138 135 47
136 132 45
143 139 46
134 129 49
139 136 48
146 141 52
148 143 57
148 143 64
145 140 53
149 143 61
151 145 63
157 151 57
151 145 61
143 138 60
148 144 45
150 145 58
156 150 61
152 146 54
143 139 54
156 149 69
145 140 62
151 145 56
160 154 63
152 147 60
155 148 64
148 143 56
155 148 64
148 143 54
153 148 52
151 144 63
153 147 66
151 145 59
158 151 68
150 143 63
155 149 63
155 147 66
156 149 62
152 146 58
151 146 63
154 147 70
151 146 54
160 153 68
160 153 66
152 147 65
154 149 56
154 149 48
152 147 60
156 149 61
151 145 60
153 146 67
150 144 68
154 148 65
157 150 66
154 147 66
153 148 59
156 149 68
156 148 62
148 142 58
149 144 59
155 149 66
154 148 68
154 148 65
155 148 68
153 147 61
154 148 70
151 145 61
156 149 70
158 151 72
146 140 58
148 142 58
155 149 61
147 142 61
155 150 68
150 144 64
147 141 60
150 145 59
151 144 62
146 140 62
159 152 67
149 142 64
154 147 67
152 146 69
152 146 64
149 142 64
152 145 65
144 139 60
148 142 60
153 147 66
176 198 0
177 199 65
181 203 88
182 204 108
178 201 88
177 200 76
186 207 117
182 203 102
183 205 117
183 204 102
181 203 95
185 206 114
186 207 117
182 204 102
180 203 102
183 204 105
178 201 88
176 199 57
177 201 76
178 201 84
179 202 92
177 200 67
177 200 80
178 200 80
177 200 72
177 200 62
177 200 65
177 200 67
179 201 80
176 200 76
177 200 72
176 200 67
173 197 47
174 197 54
177 200 88
174 197 54
174 198 47
174 198 72
172 196 62
175 199 62
177 200 76
174 198 44
176 199 57
173 196 51
176 200 76
175 199 67
176 200 76
176 200 80
176 200 72
176 200 67
175 199 57
176 200 80
174 198 62
174 198 62
176 199 57
175 199 62
172 196 44
174 199 62
174 198 57
175 199 62
177 200 76
174 198 76
175 198 44
175 199 88
174 198 62
175 199 67
173 197 62
177 200 84
174 198 57
174 198 57
174 198 57
175 198 67
174 198 84
176 200 76
175 198 25
173 197 72
174 198 62
175 198 51
174 199 84
173 197 44
174 198 51
173 197 67
172 196 62
172 196 51
175 199 84
175 198 102
173 197 67
175 199 80
173 198 84
171 195 57
173 197 72
170 194 62
173 197 80
173 198 72
172 197 80
170 193 51
169 193 57
170 194 62
174 197 51
173 198 84
175 199 92
173 197 72
171 196 80
171 195 62
174 198 88
173 197 72
168 192 57
174 198 51
170 194 76
172 195 51
169 193 57
170 193 67
170 194 84
173 196 62
171 194 62
171 194 44
170 194 80
167 190 67
170 193 80
170 193 80
168 191 80
165 189 76
170 193 94
166 189 92
169 191 88
176 198 102
172 194 114
173 195 117
171 193 111
164 186 62
169 190 84
152 174 0
157 179 0
155 177 25
155 178 0
160 184 0
159 182 0
162 185 0
148 172 31
56 89 113
60 94 120
57 90 114
58 92 117
57 91 124
58 93 118
58 92 125
60 95 129
58 92 120
59 93 124
58 92 131
58 92 115
59 93 128
56 90 110
60 94 128
59 93 115
59 93 121
58 91 114
59 93 121
59 93 125
57 90 111
59 93 115
58 92 114
56 89 99
58 92 120
59 93 121
58 92 118
58 92 111
59 93 122
58 92 115
59 93 124
57 90 111
59 93 113
58 92 108
59 94 129
58 92 129
59 93 129
56 90 120
58 92 121
57 91 113
58 92 121
59 92 120
59 93 120
57 91 113
60 94 137
59 94 130
59 93 124
58 93 122
58 93 125
57 91 110
58 91 121
59 93 128
59 94 124
59 93 128
58 91 122
58 92 118
60 94 129
59 92 130
59 93 128
58 92 110
60 94 126
59 93 121
57 91 105
60 94 126
60 94 131
59 92 129
60 95 133
58 91 124
58 92 118
58 92 121
58 93 126
59 93 129
58 93 124
57 91 114
58 92 122
59 93 125
58 92 126
59 93 121
59 93 129
58 92 120
58 92 125
59 93 122
59 94 130
58 91 118
59 93 126
58 91 111
58 92 121
57 90 120
57 90 113
58 91 124
59 92 122
57 90 115
57 90 117
57 90 117
55 87 108
58 91 125
58 92 124
57 90 115
61 95 134
58 91 121
58 91 117
58 91 118
55 87 111
58 91 124
58 91 117
56 89 111
58 91 122
58 92 120
58 91 124
56 87 109
55 88 114
56 89 116
55 87 113
58 92 125
56 88 113
55 85 108
56 88 113
57 89 123
54 85 112
56 87 105
54 84 102
51 79 85
83 84 40
79 78 28
92 88 25
85 84 17
69 68 12
76 73 20
66 67 8
76 74 14
77 79 18
65 68 21
65 66 12
59 62 13
79 80 18
78 80 15
74 75 21
72 75 20
94 93 23
82 82 23
91 90 24
90 89 23
89 88 24
98 98 29
98 96 25
95 95 33
99 96 28
89 90 30
102 101 29
112 111 45
110 108 31
106 105 29
118 115 31
118 116 39
116 113 39
118 117 43
117 114 42
120 117 43
128 125 42
119 117 44
124 120 51
126 123 50
132 129 48
129 125 52
135 130 48
134 130 51
130 126 48
130 127 44
137 133 46
134 130 51
129 126 43
147 141 55
133 129 56
144 138 51
137 132 46
124 121 45
145 140 57
145 141 55
148 143 56
143 138 49
146 141 59
139 135 50
142 138 51
148 142 58
139 135 51
146 141 59
142 138 49
148 142 64
149 143 54
147 141 53
145 139 56
156 150 57
157 150 63
150 144 65
150 145 61
159 154 48
150 145 58
149 143 58
148 143 57
152 146 59
153 147 57
150 145 59
152 146 56
156 151 61
159 152 65
153 146 64
153 148 59
157 149 63
155 149 60
154 147 60
154 148 63
156 148 66
154 147 58
155 149 61
151 145 53
153 147 63
150 145 54
155 149 65
158 149 65
150 145 52
158 152 64
154 149 59
151 146 59
154 147 59
154 147 71
154 147 64
153 146 57
159 153 64
154 149 62
157 151 61
157 150 62
155 148 68
156 148 70
149 144 56
153 147 63
149 143 60
150 144 61
151 144 68
151 144 61
155 148 61
145 139 59
153 147 61
159 152 66
138 134 47
152 146 60
151 145 65
155 148 63
144 139 57
152 146 68
150 144 67
148 141 61
147 142 69
148 142 64
149 144 61
150 144 59
147 141 64
147 141 65
151 144 70
137 132 45
150 143 63
146 140 61
174 198 0
173 196 36
182 203 102
180 203 92
179 202 92
182 204 102
177 200 62
184 205 111
184 205 111
183 204 114
183 204 114
184 206 117
180 202 84
182 203 99
182 204 108
178 201 84
178 201 76
179 202 95
177 200 62
176 199 94
176 200 72
178 200 82
179 201 80
180 202 84
177 200 76
177 200 51
177 200 88
177 200 72
178 201 67
176 199 62
178 201 97
178 201 76
174 197 76
180 202 95
177 200 67
176 199 54
175 198 51
174 197 72
177 200 57
176 199 51
175 198 57
174 198 57
178 201 92
176 199 44
174 199 62
176 200 67
174 197 62
177 200 76
176 199 67
176 200 72
177 201 84
174 199 76
176 199 67
176 200 67
174 199 62
173 196 44
173 197 57
175 198 44
174 198 62
177 200 72
175 198 67
175 199 76
174 198 80
175 199 76
175 199 95
176 200 92
175 199 72
176 200 84
174 198 72
174 199 84
175 198 57
175 199 62
174 197 57
174 198 62
175 199 67
174 197 44
169 194 76
172 196 51
172 196 76
173 197 72
171 194 67
173 197 62
176 199 62
172 196 76
169 194 62
172 196 51
173 197 51
176 199 67
172 196 80
173 196 51
170 193 57
174 197 62
173 198 80
171 195 44
171 195 62
173 198 72
170 194 67
169 192 51
171 195 44
172 196 67
173 197 25
173 197 57
172 196 72
170 194 36
172 196 57
170 194 76
171 194 80
170 194 67
167 190 51
171 195 80
169 193 72
169 193 67
168 191 44
168 191 67
168 191 67
167 190 36
172 195 76
170 194 72
163 186 67
173 197 80
168 191 67
168 191 84
159 181 25
169 191 72
171 193 102
166 189 76
169 191 88
173 195 95
162 184 44
163 186 67
153 175 36
153 175 0
146 169 0
155 177 0
153 177 0
165 187 0
163 186 0
170 194 0
166 189 0
88 115 107
58 92 115
57 90 115
58 92 111
59 94 120
57 91 114
56 89 102
57 90 110
58 92 111
57 90 114
57 91 122
58 92 120
60 95 137
59 93 124
57 91 120
57 91 117
58 92 102
58 92 131
59 93 110
57 90 117
59 93 122
59 93 120
59 93 129
58 93 126
58 92 113
59 93 120
59 93 129
59 93 125
57 91 120
57 91 111
57 91 111
60 94 130
56 89 107
60 95 131
58 92 124
61 95 129
60 94 126
57 91 114
56 89 107
58 92 124
58 92 110
59 93 129
59 92 121
59 94 118
58 91 115
58 92 121
59 94 130
58 91 122
59 94 130
58 92 122
59 93 129
59 93 121
57 91 105
61 95 134
58 92 120
58 91 108
60 95 130
59 93 125
58 92 114
56 89 113
58 92 122
59 93 124
58 92 117
60 94 121
59 92 121
58 91 113
59 94 130
58 91 117
59 93 121
58 92 120
58 91 114
60 95 136
59 93 124
58 92 124
61 95 136
57 90 115
58 92 124
58 92 126
57 90 122
57 89 110
58 91 121
57 91 108
58 91 115
58 92 124
58 92 124
57 90 111
57 91 121
58 92 108
57 90 117
58 91 119
57 89 117
57 90 120
59 92 120
57 90 113
59 93 129
59 93 124
59 92 133
57 90 120
59 93 123
57 89 111
57 90 110
58 91 124
57 90 117
57 90 116
57 89 113
57 89 122
58 91 127
57 90 117
55 87 112
57 90 124
57 91 111
57 91 117
56 89 113
56 87 115
57 90 125
56 88 113
53 84 104
57 90 115
54 83 109
54 84 110
54 84 94
74 88 86
88 86 25
79 78 22
79 78 25
94 90 28
84 82 23
75 74 22
85 83 14
83 81 12
73 74 8
82 81 11
84 83 11
74 73 18
80 80 12
79 80 16
85 83 27
74 73 18
78 78 22
91 90 30
97 96 26
82 83 27
86 87 16
84 84 25
97 96 24
102 99 33
101 100 36
94 94 39
112 110 34
102 102 33
102 98 37
109 106 38
122 120 50
114 111 42
109 107 36
115 112 43
114 113 37
121 120 48
122 118 43
114 113 43
123 120 38
121 119 47
133 129 56
125 123 45
124 121 48
125 122 48
130 126 43
125 120 51
135 131 45
128 123 37
130 127 48
126 123 40
144 139 52
141 137 53
144 137 54
133 130 45
141 136 45
144 139 56
136 132 51
143 138 47
143 138 54
142 137 53
145 140 53
150 144 51
144 138 51
149 144 54
149 144 57
140 136 49
146 140 51
147 142 60
153 147 54
150 144 56
147 142 60
156 150 60
152 145 61
158 152 64
151 145 48
149 144 53
152 145 61
147 141 48
154 149 57
151 146 53
152 147 53
153 147 57
156 149 68
150 146 58
157 151 63
148 143 58
153 147 56
161 154 66
156 150 59
154 147 59
147 142 49
152 146 59
154 149 56
157 152 67
156 149 57
150 144 60
160 153 60
148 142 56
149 143 53
154 147 65
151 145 51
161 154 68
153 146 59
156 149 67
152 145 68
146 140 53
155 148 63
145 140 56
150 144 62
151 147 60
149 142 58
149 142 62
154 148 67
158 152 66
151 147 64
152 146 70
148 142 63
155 148 70
149 143 60
148 141 63
142 137 58
147 141 57
157 149 60
152 147 56
152 147 60
154 147 67
150 145 58
147 141 63
153 147 61
149 143 62
150 143 67
145 139 56
146 141 61
145 140 60
152 146 65
148 141 62
147 141 52
153 146 65
144 138 58
173 196 0
174 198 0
177 200 62
182 204 99
179 201 76
182 204 102
180 202 92
179 202 88
179 201 80
186 207 125
185 206 120
183 204 102
179 201 95
181 203 88
180 202 80
176 199 67
177 200 88
178 201 57
178 201 84
175 198 67
178 201 84
178 201 99
177 200 76
177 200 76
177 200 84
177 201 80
178 201 80
177 200 67
176 199 57
177 201 97
175 199 72
176 200 72
177 200 76
177 200 62
176 200 67
177 200 67
176 199 72
174 198 57
174 198 70
174 197 51
174 197 44
173 197 60
173 197 62
175 198 47
174 198 72
173 197 25
176 200 80
174 198 70
175 199 62
175 199 62
175 198 44
173 197 51
174 199 62
174 198 76
177 200 72
177 200 72
174 198 62
175 199 36
173 197 57
175 199 72
173 197 80
174 197 62
174 198 44
174 198 67
173 197 36
175 199 84
174 197 62
174 197 36
175 198 44
174 197 25
175 199 67
173 196 51
175 199 76
176 199 72
174 197 51
175 199 67
175 199 51
172 196 76
172 196 57
172 196 57
172 196 51
172 197 80
172 196 36
173 196 44
172 195 51
168 194 84
169 194 62
172 196 67
173 197 57
170 194 51
171 195 72
173 197 51
171 194 57
171 195 44
169 193 62
172 195 51
170 195 84
168 191 51
172 195 51
171 194 57
171 196 80
169 193 44
170 193 67
170 194 72
170 193 51
168 192 67
169 193 44
171 196 67
171 195 57
171 195 76
172 195 92
170 194 62
171 195 84
174 198 92
171 195 80
172 195 88
172 196 80
171 194 72
166 191 76
166 189 72
171 194 72
171 194 76
171 194 92
173 194 84
166 187 67
170 191 84
169 190 95
164 186 80
171 193 80
154 176 57
154 176 0
145 166 0
148 171 0
154 177 0
160 182 0
157 180 0
160 184 0
166 190 0
171 195 25
136 159 60
58 91 117
58 92 117
58 92 113
56 90 100
57 91 113
58 91 121
57 91 114
58 92 114
58 92 121
57 91 115
60 94 126
57 90 117
58 92 118
57 91 120
58 92 121
58 92 118
59 92 121
58 92 125
59 93 124
57 91 117
59 93 114
58 92 126
58 91 121
60 94 131
59 93 125
60 94 122
58 92 122
59 93 129
58 91 110
59 93 121
60 94 130
59 93 125
58 92 117
59 93 118
57 91 118
59 93 126
58 92 122
58 92 118
57 90 110
58 92 117
59 93 114
58 92 129
58 91 113
57 90 113
59 93 121
60 94 125
58 92 115
58 91 118
57 91 115
57 91 122
57 91 115
58 92 122
58 92 115
59 92 126
58 92 122
58 92 111
58 92 118
61 95 124
60 94 125
59 93 117
58 92 117
59 92 120
57 91 110
57 91 115
59 93 122
59 93 130
60 94 125
59 94 133
60 95 136
58 91 133
60 94 134
59 93 122
59 93 125
58 91 118
56 89 103
59 93 124
57 91 117
59 93 118
60 93 135
56 89 113
58 92 118
58 92 120
59 92 115
59 92 118
58 91 125
60 94 125
59 92 120
55 87 115
59 92 121
57 89 113
58 91 125
59 92 129
58 91 117
59 92 125
59 93 128
59 93 129
59 93 125
59 93 126
56 88 113
58 92 122
57 89 120
58 92 125
58 91 120
58 91 122
55 87 99
56 88 111
57 90 116
58 90 117
57 89 119
55 88 103
57 89 117
56 88 118
56 88 117
57 89 114
56 89 114
53 83 100
53 82 101
53 83 101
55 86 110
53 81 102
91 94 59
103 99 32
82 81 24
80 79 23
80 78 8
72 71 12
78 78 12
80 79 14
72 70 11
81 81 14
81 79 18
82 81 9
79 78 9
88 87 15
68 71 14
84 81 16
76 76 24
91 90 28
87 89 18
84 82 15
79 80 19
93 93 19
98 99 29
89 90 30
85 86 20
103 103 31
96 97 33
107 105 28
105 105 38
101 99 26
112 109 40
111 107 23
111 110 31
116 112 34
105 104 29
115 113 31
119 117 38
121 117 38
132 127 43
125 122 45
125 122 49
134 130 49
124 122 34
128 123 48
117 114 45
132 127 46
130 126 39
135 130 49
133 130 37
136 133 38
138 133 56
141 137 45
136 132 53
145 140 52
140 136 53
137 134 45
137 134 47
138 133 51
144 139 50
142 138 57
143 138 50
137 131 47
145 140 59
145 140 54
149 143 54
146 141 47
145 140 57
144 139 54
149 143 58
152 147 60
150 143 57
145 140 55
154 148 61
155 149 63
144 139 57
152 147 60
145 140 57
154 148 62
150 145 62
145 139 49
146 141 56
148 143 59
149 143 53
157 150 68
156 150 60
152 145 63
147 141 56
149 143 61
148 143 58
151 145 59
152 146 53
149 144 52
146 141 47
157 151 66
152 147 60
151 145 63
153 146 64
157 151 67
156 150 56
151 146 53
153 148 58
154 148 66
154 148 54
153 146 57
151 146 56
151 145 65
155 148 62
151 145 60
149 143 54
156 149 61
156 149 71
155 147 70
150 145 53
154 146 62
149 144 58
148 140 66
153 147 62
153 147 59
153 146 66
147 142 54
148 142 59
151 144 61
146 141 57
155 147 64
146 141 54
142 135 60
152 145 64
153 146 61
148 143 56
141 136 57
142 135 57
137 132 53
154 147 63
136 131 53
147 141 61
143 137 53
158 152 58
150 144 61
146 140 59
143 138 54
173 197 0
173 197 0
174 198 0
177 200 62
178 201 72
178 201 76
179 202 80
182 204 105
176 200 76
179 202 95
189 209 142
180 202 92
181 203 99
183 205 111
179 202 88
182 204 105
180 203 105
179 201 76
176 199 67
180 203 102
181 203 95
174 198 72
177 201 76
176 199 72
177 200 76
175 199 76
178 201 80
177 200 76
179 202 92
178 201 76
177 200 62
178 201 72
177 201 92
176 199 60
177 200 72
177 201 76
177 200 67
176 199 62
176 200 67
176 200 82
174 197 25
177 200 62
176 200 76
173 197 72
174 198 57
173 197 62
175 199 70
175 199 67
175 199 67
174 198 76
177 201 92
175 199 72
176 199 67
175 198 67
177 200 72
175 199 62
176 199 57
173 197 76
176 200 76
172 196 62
175 198 51
174 197 62
176 200 62
175 198 67
173 197 72
175 199 72
175 199 57
173 197 57
174 197 44
173 196 62
174 197 44
174 198 51
173 198 62
175 199 57
176 200 84
174 197 44
174 198 62
172 197 72
171 195 36
174 198 72
175 199 72
171 195 36
173 197 51
174 197 51
175 198 84
172 197 88
173 197 76
174 199 84
173 196 67
172 197 62
171 195 44
175 199 72
174 198 84
173 197 67
173 198 67
172 196 62
167 191 62
172 196 67
175 199 62
172 197 67
173 198 51
172 196 51
170 195 76
170 194 76
174 198 80
172 195 51
168 192 57
171 194 57
167 191 72
170 192 62
169 193 62
174 198 72
173 197 80
171 194 84
165 188 67
163 187 67
170 193 62
169 192 76
168 191 62
169 191 88
170 193 44
169 191 84
166 189 80
165 187 88
173 195 102
171 192 92
173 194 88
170 192 99
160 182 51
149 172 0
148 171 0
155 178 0
154 176 0
157 180 0
155 178 0
166 189 0
168 190 0
167 190 0
168 190 44
169 191 47
76 105 111
58 92 111
56 89 102
57 91 120
57 90 110
59 93 118
58 91 117
60 95 134
57 90 114
57 91 108
57 90 111
58 92 117
58 92 114
56 89 105
58 92 118
59 93 120
59 93 122
58 92 115
57 90 111
59 92 120
58 92 120
59 93 126
56 89 103
58 92 113
59 93 114
58 92 122
58 92 121
60 94 128
57 91 114
58 91 115
58 92 118
59 93 131
56 89 110
58 92 117
59 92 114
57 91 114
59 93 124
60 93 129
58 92 118
60 94 135
60 95 133
60 94 133
58 93 120
60 94 135
58 92 122
58 92 111
59 93 121
58 91 117
55 88 100
59 93 128
58 91 117
59 93 125
58 91 114
56 90 111
59 93 130
58 92 126
57 90 114
57 90 120
60 94 131
58 91 113
58 92 128
59 92 128
56 89 103
57 91 117
60 95 133
58 92 114
60 94 122
58 91 108
59 93 128
56 89 94
58 91 113
58 91 120
58 92 121
58 92 122
59 93 125
58 92 115
57 90 115
58 92 118
57 90 113
58 91 120
59 93 125
60 94 135
58 92 122
58 91 123
57 90 118
58 91 121
56 88 108
58 92 122
58 92 120
57 91 114
57 91 115
59 92 125
57 91 118
58 90 116
56 89 108
58 92 115
57 89 113
55 88 99
58 90 114
58 91 120
55 86 107
56 88 113
55 86 109
56 89 108
58 92 128
58 90 124
56 88 102
57 88 114
57 90 114
57 89 120
58 90 128
55 85 107
54 85 94
58 90 123
56 87 106
54 84 101
52 81 78
55 85 111
51 80 91
64 86 98
96 94 37
107 103 35
86 84 21
90 88 21
89 85 32
86 85 16
83 81 16
82 80 16
89 87 19
83 83 12
83 83 21
87 85 16
84 84 14
85 83 14
82 81 8
81 81 19
76 76 19
90 88 12
80 80 20
88 86 20
91 90 24
88 87 24
89 89 19
98 98 28
93 91 25
105 104 29
98 97 23
110 107 33
90 89 26
93 92 23
113 110 31
114 111 34
115 112 40
111 110 27
123 119 39
121 118 38
120 117 39
112 111 24
118 116 38
113 111 35
114 113 35
117 115 40
123 120 39
130 126 47
121 117 40
128 125 39
133 129 40
133 130 45
126 122 48
133 130 37
131 127 44
132 129 46
137 133 51
137 135 46
141 137 56
134 130 51
136 132 48
135 131 38
142 138 47
139 135 47
133 129 45
145 140 54
135 131 52
144 139 50
146 140 49
147 142 52
145 140 50
147 142 53
147 141 53
146 141 51
147 141 57
149 143 56
151 145 57
150 144 61
150 145 60
141 137 41
147 142 54
156 149 63
150 143 61
143 138 53
155 148 67
155 149 57
149 141 54
148 143 51
153 148 51
152 146 56
147 143 52
155 149 57
148 143 51
155 150 56
147 142 51
151 145 58
148 142 60
153 148 54
154 148 66
151 144 59
161 154 66
146 140 58
153 145 66
142 137 52
154 147 59
147 141 60
157 150 66
149 144 53
160 153 66
150 144 53
154 149 60
153 147 61
150 144 59
155 147 67
150 142 56
144 138 56
151 144 64
149 143 64
152 146 65
147 142 58
155 149 68
145 139 57
155 148 67
152 146 59
153 147 62
146 141 53
155 148 72
152 146 61
153 147 59
153 146 61
154 148 63
150 143 54
154 146 69
145 141 56
154 147 63
145 139 57
153 146 64
140 136 51
150 144 57
149 142 61
144 139 56
151 144 64
148 142 65
139 134 54
173 196 0
172 196 0
173 197 0
170 194 0
177 200 67
181 202 92
180 202 95
182 204 99
177 199 74
177 200 80
179 201 88
185 205 114
181 203 99
179 202 80
182 204 99
182 204 108
180 202 88
180 202 95
178 201 84
182 204 114
178 200 86
180 203 99
178 200 95
179 202 88
178 201 84
175 199 76
178 201 88
178 200 67
176 199 76
179 201 80
178 201 92
176 199 67
175 199 51
175 199 57
174 198 67
175 198 72
175 198 47
177 200 67
176 199 80
175 199 67
174 198 74
175 198 36
174 198 60
175 199 67
174 198 57
173 196 65
175 198 54
172 196 57
175 198 36
175 199 51
174 198 78
176 200 62
174 198 72
175 199 67
176 200 80
171 196 36
175 199 95
174 198 67
174 198 44
174 198 76
173 198 57
173 197 44
172 196 51
171 195 44
173 198 62
174 198 84
172 196 57
174 197 36
173 198 76
176 199 57
173 197 67
173 197 51
174 198 72
171 195 62
172 197 76
171 195 72
171 196 44
172 197 62
172 197 57
172 195 57
176 199 62
169 194 76
169 194 62
173 197 62
175 198 72
173 198 57
172 197 80
172 196 62
171 196 80
174 198 57
171 196 51
170 194 36
172 196 57
172 195 57
175 199 92
170 194 88
172 197 84
172 196 67
173 196 62
169 192 44
172 195 36
168 192 51
169 193 80
173 197 80
172 195 76
174 198 57
168 192 67
169 194 67
169 192 62
169 192 72
169 193 57
167 191 62
170 194 76
169 193 76
166 190 76
169 193 57
171 195 76
169 192 44
166 189 76
174 196 92
170 192 88
168 191 72
169 192 99
167 188 95
166 188 84
170 193 84
164 185 92
162 184 67
148 169 0
154 177 0
157 180 0
162 185 0
151 174 0
159 182 0
162 184 0
157 179 0
161 184 0
169 192 44
167 190 25
172 196 25
119 142 115
55 87 99
56 89 113
57 91 111
57 90 110
57 91 114
58 92 121
57 90 115
58 91 120
57 90 114
57 90 113
57 91 107
57 91 118
59 92 118
59 93 118
58 92 110
58 92 120
58 92 120
57 91 124
60 94 128
58 91 126
59 93 122
58 92 111
57 90 110
57 90 113
57 90 115
58 92 115
58 92 118
59 94 125
58 91 120
58 92 124
59 93 130
58 92 125
57 91 111
60 94 125
60 94 129
58 92 110
58 92 126
57 91 113
57 91 114
59 93 118
58 92 124
59 92 120
58 92 113
60 94 124
58 92 118
59 92 120
60 94 121
60 94 130
60 94 133
59 93 125
57 91 108
60 95 129
57 90 105
57 90 105
57 91 114
58 91 113
58 92 118
57 90 110
60 94 122
58 91 120
59 93 118
60 94 125
57 91 108
60 94 128
58 92 121
57 90 120
59 93 125
56 89 120
57 90 114
59 93 126
57 90 107
58 91 113
58 91 121
58 91 121
59 93 118
58 92 121
57 91 117
58 91 125
58 91 117
56 89 113
58 92 125
59 92 121
58 91 118
56 89 102
56 89 115
57 90 115
59 93 128
59 93 125
57 91 108
57 90 108
56 89 110
58 92 117
55 87 113
58 90 118
58 91 124
59 93 129
57 89 116
56 88 104
57 89 116
53 84 99
59 92 127
57 89 116
58 90 123
56 89 111
57 90 122
56 89 117
56 89 106
56 88 114
54 86 108
55 87 109
55 86 104
56 89 115
54 84 102
53 84 92
56 88 116
53 82 104
53 83 107
50 79 87
90 95 75
109 105 44
106 101 39
88 86 22
91 87 30
86 84 24
79 76 11
78 76 21
79 77 16
85 84 20
81 78 19
82 82 21
69 69 13
84 83 12
75 73 20
90 87 18
76 76 17
85 84 16
72 71 14
86 86 16
76 78 20
85 85 25
96 92 18
85 85 23
93 93 27
91 91 17
98 97 28
97 96 29
102 100 23
106 103 30
97 98 27
110 109 24
113 111 38
107 104 30
110 107 31
117 113 44
117 114 32
109 108 34
112 110 33
113 111 33
123 121 38
120 117 33
133 128 49
123 119 33
134 130 46
119 115 37
121 118 30
123 119 39
127 123 38
134 130 39
122 120 21
130 127 34
140 135 52
140 135 48
137 133 45
137 132 50
134 129 39
140 135 50
139 132 47
139 134 45
139 134 50
138 133 47
134 129 44
148 142 51
138 132 52
145 139 53
141 136 45
146 141 39
142 138 49
143 137 51
147 141 62
143 137 47
144 138 52
149 142 58
147 142 53
151 145 57
149 144 61
155 148 63
148 143 53
152 146 51
150 145 57
151 145 58
148 143 51
149 143 56
151 145 58
155 150 61
143 137 45
153 146 63
150 144 58
150 144 54
152 147 58
153 146 53
154 147 63
148 142 58
146 140 56
149 143 59
153 147 62
153 147 49
148 142 56
154 147 61
156 149 57
152 147 57
152 146 56
150 144 56
143 136 54
155 149 59
155 149 66
153 146 61
152 145 52
154 147 58
153 147 58
147 142 52
140 136 39
152 146 59
149 143 51
149 142 54
149 143 56
146 140 56
144 139 53
149 144 52
151 145 57
150 143 59
151 144 65
150 143 65
146 140 59
153 147 64
153 147 70
145 140 60
151 146 58
151 145 63
146 140 57
155 148 65
138 132 51
155 148 64
150 144 60
143 136 56
150 144 65
145 139 54
155 149 62
140 133 53
146 141 63
171 195 0
174 198 0
176 199 0
174 198 0
171 195 0
177 200 72
177 200 82
178 201 80
180 202 92
180 203 92
179 201 80
179 201 76
181 204 105
180 203 95
175 198 88
181 202 95
180 203 99
184 205 117
178 201 88
174 198 72
179 201 80
177 200 84
179 201 88
179 201 76
179 202 88
178 201 92
177 200 72
178 200 80
176 200 76
176 200 80
176 199 62
176 199 72
176 200 84
177 200 76
175 199 51
175 199 57
178 201 80
175 199 76
176 199 76
179 202 99
174 199 80
177 201 88
176 200 82
173 197 72
175 198 67
173 197 54
175 198 70
175 198 57
175 198 44
177 200 62
173 196 51
174 198 62
173 197 62
175 198 51
175 199 67
177 201 76
175 199 88
173 197 57
174 198 67
174 198 57
174 199 76
175 198 67
175 199 72
175 198 67
172 196 51
172 197 67
174 197 36
170 194 57
173 197 57
173 196 36
174 198 67
174 198 62
171 196 80
169 194 51
172 197 51
176 199 44
174 198 67
173 197 62
174 198 51
174 199 84
173 197 36
171 196 72
173 196 67
170 194 44
171 196 67
174 197 57
169 193 57
174 199 80
174 197 72
171 196 84
173 197 72
170 195 67
175 198 36
170 194 36
171 195 84
171 195 72
172 196 62
173 197 62
169 194 80
169 192 36
170 194 62
171 194 67
171 195 67
175 198 80
169 193 72
171 194 62
170 194 72
170 193 51
170 193 67
171 195 76
169 192 84
171 194 84
171 195 57
164 187 57
172 196 72
170 193 80
166 189 57
169 192 80
170 193 76
172 194 88
168 191 84
173 195 92
167 188 88
174 195 102
164 186 67
159 181 92
162 184 57
152 174 0
158 180 0
157 180 0
155 177 0
148 170 0
154 177 0
162 184 0
164 187 0
164 187 0
163 186 36
171 194 57
167 189 36
180 201 105
165 187 88
64 95 105
56 89 108
57 91 102
56 89 100
58 91 114
58 91 114
58 91 118
58 92 102
59 93 118
59 93 121
58 92 110
59 93 125
57 90 111
58 91 108
58 92 122
59 93 125
58 92 114
57 90 108
59 93 128
59 93 113
58 92 115
58 91 115
59 93 125
57 90 117
59 93 125
58 92 128
59 92 113
57 91 108
59 93 121
58 91 115
59 93 113
58 92 124
59 93 118
58 92 121
57 90 115
58 92 115
58 93 114
58 92 124
57 91 115
58 92 117
58 92 122
58 92 121
59 93 122
58 91 120
57 90 115
58 92 111
58 92 118
59 93 120
58 92 122
60 94 133
59 93 114
57 91 113
57 91 108
56 90 110
59 93 125
59 93 121
59 93 120
58 93 125
57 90 99
58 91 118
58 92 125
58 92 120
59 93 125
58 91 113
60 94 135
58 92 126
59 93 121
57 91 113
58 92 121
58 91 113
58 92 118
57 90 108
57 91 113
57 89 114
59 93 125
59 93 126
58 91 111
58 91 125
58 91 118
58 92 120
59 93 121
59 93 125
58 91 121
58 91 117
57 91 117
58 92 126
58 92 124
59 93 129
57 90 118
57 91 128
57 89 113
58 91 117
58 91 121
57 90 114
58 91 117
60 93 125
57 91 120
56 88 110
57 90 116
58 92 113
56 89 115
57 90 121
58 90 117
57 90 117
56 88 108
57 89 112
57 90 120
57 89 121
54 85 102
57 89 117
59 91 127
55 86 113
57 89 118
53 83 98
53 83 96
54 84 110
55 85 106
53 82 105
150 166 40
100 96 39
97 94 38
99 95 28
91 88 32
83 81 21
92 89 24
80 78 12
77 76 27
73 73 0
86 84 22
71 71 14
71 72 17
75 74 16
92 90 3
84 83 24
83 82 14
85 84 14
99 94 16
89 88 14
85 85 19
84 83 11
90 88 14
91 90 8
96 95 26
103 101 27
99 97 20
97 95 22
89 88 19
106 104 33
102 100 18
107 107 30
95 93 32
98 97 24
116 113 33
110 108 31
113 110 38
124 121 28
125 123 40
121 117 40
115 112 29
122 118 34
123 120 40
123 120 38
128 123 40
128 123 41
125 121 40
131 126 49
128 125 42
132 128 41
135 130 45
135 130 49
128 125 40
127 122 37
138 134 45
133 127 51
143 138 45
143 138 47
139 134 51
139 136 49
140 135 50
139 135 48
146 140 60
143 139 46
142 137 52
146 139 51
144 139 42
146 140 49
147 141 47
141 136 47
139 134 48
147 141 44
142 137 51
149 144 50
154 147 57
144 138 54
149 144 49
142 137 45
149 143 51
146 140 54
149 143 58
150 142 54
146 141 48
152 145 57
145 139 53
150 144 58
152 146 54
152 146 57
153 145 56
154 149 48
150 144 54
147 143 49
149 143 53
144 138 54
147 142 51
143 138 45
146 141 49
146 140 54
148 141 48
152 146 60
146 141 47
147 141 60
155 149 65
154 147 60
146 139 54
151 144 56
148 142 54
138 133 52
154 147 60
150 145 58
153 146 60
150 144 61
155 148 67
148 141 59
150 142 59
146 140 48
142 138 49
141 135 44
154 148 64
148 141 63
151 145 64
149 143 63
149 143 65
141 136 51
150 143 58
145 140 52
152 144 57
145 141 53
145 140 53
154 147 59
152 146 62
152 146 63
150 144 61
142 137 59
146 140 61
142 136 53
145 139 58
141 136 58
137 131 52
148 142 62
149 143 62
172 196 0
172 196 0
173 197 0
172 196 0
173 197 0
175 198 0
174 197 57
174 197 44
177 200 72
183 205 108
181 203 108
179 201 80
176 199 67
181 202 95
180 202 84
182 203 108
182 204 105
181 203 102
180 202 92
180 203 95
181 204 105
178 201 88
181 203 99
179 201 80
178 200 84
175 199 80
179 202 95
177 200 86
177 200 72
175 199 62
175 198 70
175 198 57
176 199 76
175 198 72
179 202 95
178 201 84
175 198 57
176 199 80
175 199 51
175 199 88
177 199 51
176 199 51
176 199 67
175 199 51
173 197 72
176 199 62
176 199 72
175 199 82
175 198 76
174 198 57
175 199 76
176 199 57
173 196 67
174 198 72
174 198 62
174 198 76
173 196 44
176 198 62
175 199 62
175 199 76
174 198 57
174 197 44
174 199 62
173 196 57
173 198 57
175 199 80
174 198 67
175 200 92
176 199 57
175 198 67
175 199 57
172 196 57
177 200 67
174 198 72
175 198 62
173 197 72
174 198 44
173 198 51
172 195 36
172 195 36
174 198 72
174 198 72
171 196 67
171 195 57
171 195 57
173 197 67
169 193 62
172 197 67
174 198 57
172 196 80
172 196 62
171 196 67
172 197 72
174 198 80
172 196 51
170 194 44
169 193 67
165 190 76
170 194 62
170 193 44
166 190 57
173 197 88
172 196 62
176 200 88
170 194 80
168 192 62
173 196 84
168 192 44
169 193 76
170 193 51
171 194 76
169 192 67
165 188 76
172 196 99
172 195 84
172 194 88
168 190 67
169 191 80
168 191 95
174 196 84
166 188 62
170 192 88
169 190 95
171 193 95
167 189 80
163 185 80
153 174 0
151 173 25
148 170 0
152 174 0
149 170 0
156 178 0
157 179 0
166 188 0
159 182 0
167 190 36
167 191 44
166 189 57
176 198 72
177 199 88
171 195 0
114 138 94
57 90 115
56 89 105
57 91 102
58 91 114
58 92 120
56 89 115
58 91 120
57 90 113
56 89 108
57 90 114
58 92 105
58 91 115
57 90 108
57 91 120
58 92 117
58 91 114
58 92 113
59 93 129
58 91 102
59 94 120
57 89 108
57 91 111
58 92 121
56 89 113
58 92 110
55 87 105
58 91 117
59 94 133
57 90 113
58 91 118
58 92 113
56 89 107
59 93 121
57 90 108
58 92 118
58 92 125
58 92 115
59 94 125
58 91 115
58 92 117
56 89 102
59 92 120
59 92 124
58 91 117
60 95 126
57 90 107
59 93 121
58 91 120
59 93 129
59 92 126
58 92 117
58 91 117
58 91 120
58 92 122
59 93 126
58 92 120
58 91 110
59 93 126
56 89 107
58 91 117
57 90 110
59 93 125
58 92 118
57 90 113
59 92 124
56 89 111
59 93 124
58 91 111
58 91 117
58 91 113
59 93 121
57 90 117
57 90 118
58 92 120
59 93 125
58 92 118
59 93 117
57 90 117
58 92 114
59 93 125
57 91 118
58 90 113
59 92 121
57 91 108
58 92 110
59 93 125
58 92 121
57 90 115
58 92 121
58 90 123
58 91 117
57 90 116
57 90 104
56 89 100
57 89 121
56 89 110
59 92 120
58 91 119
56 89 104
56 88 117
56 88 108
57 90 113
57 89 124
56 89 108
57 89 110
57 89 116
54 85 101
57 89 114
55 86 102
55 87 106
54 84 103
53 83 105
52 82 103
54 85 101
52 82 96
52 81 93
115 138 81
168 188 0
144 156 33
107 102 39
105 100 34
92 89 25
105 100 35
89 85 19
88 86 24
85 83 19
88 87 14
89 88 0
82 80 16
90 87 12
89 86 18
83 81 3
81 80 14
89 87 12
100 96 18
78 77 16
84 84 18
81 81 22
94 95 19
87 87 22
89 86 23
85 83 11
100 98 16
93 91 11
99 97 29
99 96 21
103 101 25
107 105 25
112 109 24
104 103 30
104 102 26
114 111 31
115 112 25
114 111 32
116 111 36
111 109 34
119 116 29
111 108 36
121 118 30
125 123 37
125 120 40
130 127 39
125 123 43
129 126 32
128 126 30
128 125 33
127 123 41
142 136 51
126 122 30
133 129 37
131 126 42
130 126 41
137 132 54
141 135 47
132 127 43
138 133 48
146 140 49
136 131 42
138 135 42
140 133 52
136 131 47
144 139 50
144 137 45
138 133 49
145 138 51
146 141 44
147 142 51
144 138 51
148 141 54
149 143 54
144 138 58
139 135 49
145 139 51
141 135 49
149 143 49
154 148 56
152 145 52
139 134 44
147 141 49
155 149 53
138 134 44
146 140 47
150 145 51
140 133 48
156 148 60
149 143 52
150 144 56
150 145 52
142 137 49
146 141 47
141 135 54
139 133 59
146 141 52
149 143 58
154 148 52
146 141 47
151 146 57
145 139 44
150 144 58
153 147 57
150 143 60
154 148 58
146 141 52
148 143 47
144 138 54
146 140 56
148 142 56
150 144 54
142 136 53
147 141 52
142 137 53
152 145 52
151 145 58
149 144 53
147 141 56
137 132 45
139 134 60
144 138 53
156 149 59
150 144 61
145 139 52
158 152 59
155 148 65
145 140 56
150 144 57
149 144 54
144 137 58
148 142 53
138 132 54
149 143 58
151 145 64
148 141 60
142 136 53
147 139 60
144 139 61
142 136 62
140 134 56
134 129 49
173 197 0
171 195 0
174 197 0
174 197 0
172 196 0
172 196 0
172 195 0
177 200 72
180 202 92
177 200 76
179 201 88
179 202 76
177 200 84
177 200 72
182 204 95
186 207 133
182 204 102
180 202 108
179 201 88
182 204 111
179 202 88
177 200 88
176 199 80
177 200 99
179 202 102
174 198 62
179 202 114
176 200 86
177 200 72
176 200 76
179 201 105
176 199 72
179 201 88
177 201 80
178 200 80
180 202 88
172 196 57
177 201 80
176 199 76
174 198 67
177 201 92
175 199 80
174 199 72
176 199 54
177 200 76
175 199 76
174 197 51
174 198 57
177 201 92
175 198 62
173 197 84
176 199 67
177 200 67
176 199 57
175 198 76
174 199 72
175 198 62
175 199 72
173 197 72
176 200 80
173 198 88
174 198 57
173 198 76
173 198 72
174 198 62
174 198 57
173 197 80
174 199 76
171 196 88
172 196 72
172 196 51
173 197 88
174 198 72
174 197 51
171 196 72
172 195 44
174 198 62
171 195 67
173 197 62
173 197 72
172 196 51
172 197 62
172 196 51
169 194 67
171 196 62
172 195 62
169 193 72
169 194 67
172 196 51
173 197 62
171 195 67
172 196 62
172 195 67
172 196 76
170 193 62
171 195 80
170 194 76
172 195 51
174 198 80
169 193 76
171 194 72
170 194 84
173 197 84
172 196 72
171 194 67
171 194 72
173 197 72
168 190 44
170 193 88
171 194 72
171 194 92
168 192 76
165 188 57
165 188 67
174 197 76
170 193 72
170 193 62
169 192 102
170 191 95
169 190 105
169 189 120
172 193 84
162 184 76
164 186 72
159 181 57
155 176 0
155 177 0
158 179 0
160 181 0
145 167 0
154 177 0
155 178 0
154 176 0
160 183 0
162 185 0
163 186 25
172 194 57
169 192 44
178 199 108
168 192 0
166 189 0
155 179 51
61 93 110
57 90 105
57 91 108
57 90 113
55 87 99
57 89 102
57 90 117
58 92 117
58 91 111
56 90 103
56 90 105
58 92 111
59 93 125
58 92 111
55 88 99
59 92 111
59 93 124
55 88 111
59 92 122
58 91 113
59 93 111
57 90 115
57 90 107
58 92 114
55 88 110
58 91 115
59 92 121
57 90 117
58 92 121
56 90 108
59 93 118
59 93 121
58 92 124
59 92 120
60 95 137
58 92 117
58 91 114
56 89 108
58 92 121
57 90 111
58 92 118
58 92 120
57 91 103
60 94 130
58 91 128
56 89 110
58 92 115
58 91 117
57 90 121
57 91 110
56 88 120
57 90 115
58 91 113
60 94 131
58 92 115
59 92 121
59 92 118
59 93 128
57 90 103
57 91 120
58 92 115
58 92 114
58 92 118
57 91 110
57 90 124
57 90 108
58 92 120
57 90 107
59 93 122
58 91 115
59 92 126
56 89 118
58 92 115
58 91 113
57 91 113
58 91 118
56 89 100
57 90 118
56 90 110
57 90 117
59 93 115
57 90 110
56 89 100
57 90 107
59 92 118
56 89 103
56 89 107
58 91 120
56 88 116
59 93 128
55 88 107
56 89 100
56 89 115
58 91 118
57 90 111
58 91 119
59 92 113
57 90 107
57 89 115
58 91 116
56 88 110
56 88 109
57 89 124
56 88 115
54 85 100
54 86 95
57 88 116
53 84 101
53 83 93
56 88 103
54 86 92
55 86 105
54 83 99
54 84 98
53 83 110
57 85 103
153 175 48
168 189 0
172 195 0
116 122 22
95 92 35
91 88 16
95 91 23
85 81 19
90 87 25
87 84 22
92 90 21
82 80 8
84 81 22
73 73 16
81 79 16
86 85 14
79 78 16
84 84 8
91 89 20
83 81 21
82 80 11
98 96 16
101 99 24
106 104 16
86 85 24
97 96 16
94 92 21
98 96 18
95 95 22
104 102 21
105 102 28
110 108 28
112 108 31
96 96 23
95 94 24
103 101 24
104 101 24
112 110 24
116 112 28
112 110 21
108 105 32
115 112 29
126 122 38
113 110 31
120 117 28
119 116 25
128 122 37
127 123 29
123 120 30
125 121 33
129 125 37
131 126 43
135 130 41
130 125 34
135 130 46
130 125 41
130 126 32
130 126 33
140 133 47
137 132 41
143 137 55
141 136 45
135 131 41
138 133 42
138 132 42
143 138 53
139 133 54
133 130 37
138 133 53
142 136 50
148 141 57
147 141 42
152 146 56
156 150 57
147 141 51
146 142 48
145 140 49
145 139 52
151 144 54
150 144 58
154 149 49
149 142 45
143 137 48
150 143 58
150 145 50
147 141 45
144 139 51
148 143 45
144 139 45
149 144 44
152 146 58
144 139 49
144 138 45
150 145 51
149 144 51
147 141 54
146 141 54
153 147 54
150 145 47
147 142 53
146 140 48
153 148 53
151 145 54
147 141 59
153 148 57
151 145 60
148 142 61
147 141 57
142 136 57
140 135 49
150 143 57
147 142 52
145 140 51
152 147 54
143 138 52
150 144 61
143 138 51
147 141 49
156 150 61
149 141 52
149 142 65
144 138 52
146 141 51
154 148 63
143 139 56
140 134 53
143 137 39
153 146 66
141 134 56
140 134 59
144 138 52
149 142 57
136 131 54
143 136 58
142 136 53
140 133 57
145 139 57
150 143 63
141 135 58
148 141 61
146 139 56
148 142 57
172 196 0
174 197 0
173 196 0
171 195 0
173 197 0
170 194 0
172 196 0
172 195 0
175 198 62
180 203 92
174 197 57
180 202 92
180 202 99
174 198 72
178 201 76
179 201 84
186 207 128
183 205 114
180 202 92
182 204 102
181 202 102
179 201 84
178 201 80
177 200 72
179 202 88
178 201 76
177 200 80
180 202 95
177 199 72
176 199 76
175 199 57
176 199 72
178 200 88
174 198 72
178 200 80
175 199 72
177 200 88
176 199 62
176 200 92
175 199 62
176 200 62
174 199 72
174 197 57
176 199 62
173 197 72
175 198 72
175 199 80
173 197 44
177 201 92
173 198 67
171 194 25
173 198 76
173 198 76
175 198 84
174 197 36
177 200 67
175 199 80
173 197 62
173 196 76
176 199 67
171 195 72
176 199 57
175 199 51
174 199 80
172 195 62
176 200 80
174 198 72
175 198 62
173 197 72
176 199 51
175 199 67
175 198 62
173 198 80
170 195 76
172 196 67
173 197 72
171 195 62
173 198 67
171 195 72
172 196 51
170 195 62
173 197 51
172 196 51
169 194 72
172 196 62
175 198 67
170 194 62
172 196 62
169 194 62
175 199 44
173 197 62
171 194 25
173 197 92
173 196 62
172 195 84
174 198 80
172 196 76
170 194 76
171 195 84
168 191 62
169 191 25
169 193 57
169 193 76
171 195 80
170 194 67
170 194 67
172 195 62
170 193 62
169 193 57
171 195 88
169 192 62
168 191 67
172 195 80
166 189 51
170 192 88
165 188 76
168 189 80
171 193 102
171 193 76
172 193 120
170 193 88
166 187 76
162 184 67
157 178 67
143 165 0
153 175 0
157 178 0
149 172 0
154 176 0
157 180 0
153 175 25
160 182 0
164 187 0
160 183 0
166 189 57
174 196 72
171 194 36
175 197 99
169 192 44
168 192 0
172 194 0
173 196 0
117 141 76
57 90 105
57 91 111
58 92 115
57 90 108
57 91 108
56 89 103
57 91 110
57 91 121
56 88 103
57 90 107
57 91 115
59 92 117
59 93 118
57 90 108
57 90 118
59 93 121
57 91 120
58 92 122
57 90 117
58 92 110
58 92 114
58 92 114
58 91 125
57 90 105
56 89 99
59 93 125
58 92 114
58 91 115
56 88 105
59 93 125
58 92 118
57 91 113
59 92 115
57 91 114
57 90 102
57 91 117
57 90 111
56 89 103
58 91 118
58 91 108
57 91 124
59 92 120
58 91 120
58 92 130
58 92 118
57 90 118
57 90 114
57 90 120
58 92 117
59 93 118
58 91 117
56 90 111
58 92 118
57 91 113
58 91 107
56 89 103
57 90 115
60 94 129
58 92 115
55 87 114
59 93 125
58 92 115
57 90 113
57 90 118
57 89 117
58 92 120
57 90 102
57 90 111
57 90 108
56 90 113
60 94 126
58 92 111
57 90 115
57 89 121
58 91 121
58 91 114
58 91 121
58 91 110
57 91 115
57 90 115
57 90 114
58 92 115
58 92 129
57 91 113
56 88 107
57 90 113
58 91 113
57 90 118
58 91 110
58 91 122
57 90 105
58 92 126
57 91 113
57 90 121
56 88 110
58 91 113
57 90 113
56 88 110
58 91 121
57 89 113
55 86 103
57 88 116
56 88 116
56 87 113
55 87 115
56 88 110
56 88 108
56 88 105
54 84 111
56 88 110
53 82 95
54 83 102
51 80 93
53 83 95
123 144 62
166 186 0
169 190 0
164 185 0
162 182 0
113 109 44
97 94 21
109 104 32
107 102 35
83 80 28
83 81 16
92 89 18
85 82 2
88 85 19
81 78 18
96 92 24
85 81 5
77 76 8
90 88 14
74 74 21
86 84 5
86 84 18
84 81 12
94 93 18
100 97 3
99 96 24
87 85 20
91 90 19
97 95 27
100 97 21
99 96 13
88 88 24
116 114 21
114 109 37
108 105 23
102 100 30
108 105 29
112 109 33
121 118 25
108 105 27
122 120 33
112 108 25
115 113 37
125 122 32
120 117 24
125 121 37
124 120 40
121 118 28
131 125 41
124 120 36
118 115 30
122 118 31
136 132 35
135 130 43
120 117 32
129 125 45
141 136 39
126 122 29
128 123 38
136 131 39
134 130 38
137 133 37
140 134 46
135 129 31
138 132 39
137 132 51
136 130 49
144 138 44
144 138 51
143 139 52
144 139 46
142 137 37
141 136 45
143 137 47
144 138 44
147 142 45
150 145 49
141 135 51
137 131 45
153 144 53
145 139 52
139 134 45
144 139 36
144 138 53
140 135 41
142 136 59
141 135 44
140 134 39
148 142 48
147 141 44
148 143 52
147 142 49
149 144 52
148 141 52
153 147 52
140 134 45
149 143 52
146 139 54
143 137 53
155 148 58
149 142 58
143 138 53
150 143 54
154 149 57
150 144 56
151 144 61
141 137 48
145 138 56
144 140 41
153 146 54
145 139 54
139 133 45
153 146 62
140 134 42
149 143 59
145 139 61
148 142 49
141 135 49
145 141 45
148 141 61
145 138 49
149 144 48
145 139 53
147 142 52
154 147 61
141 136 47
148 142 52
142 137 58
145 140 52
152 147 60
147 141 60
145 140 54
145 141 53
148 141 56
145 137 56
147 140 61
152 145 64
149 143 61
141 136 42
142 135 60
149 143 62
144 139 60
145 138 62
173 196 0
174 197 0
175 198 0
174 197 0
172 196 0
172 195 0
171 195 0
173 196 0
174 198 0
175 198 57
179 201 76
179 201 92
176 199 80
180 202 99
177 199 72
178 200 72
178 200 95
181 203 99
184 205 120
180 202 102
187 208 130
182 203 108
177 200 76
181 203 99
179 202 99
180 202 95
180 203 95
176 199 51
180 202 88
177 199 76
177 199 76
175 198 76
175 198 76
176 200 86
176 199 88
174 197 62
176 199 76
176 199 57
177 200 72
175 199 62
174 197 72
176 199 57
174 198 67
175 199 67
174 198 72
176 199 67
174 198 57
174 198 62
173 197 57
176 200 76
176 200 72
175 198 57
176 199 72
174 198 51
177 200 62
175 199 84
176 199 80
176 200 88
175 199 76
176 199 72
173 197 88
171 196 72
173 197 62
174 198 80
173 197 51
174 198 51
172 197 67
171 195 62
171 195 57
173 197 67
170 195 88
172 195 51
172 197 67
177 200 84
173 197 76
175 198 84
172 196 57
174 197 57
175 198 57
173 198 76
174 198 67
173 197 72
171 194 62
169 194 62
171 194 44
171 194 51
173 196 62
170 194 57
169 193 67
173 198 84
172 195 57
171 195 62
172 195 57
171 195 62
173 197 67
171 194 72
172 195 44
170 194 84
170 194 62
168 191 72
172 195 62
170 193 44
166 189 57
168 191 76
169 192 25
171 194 62
165 188 72
168 191 51
170 193 99
168 190 62
168 190 80
167 190 67
169 191 67
166 188 84
165 186 84
174 196 80
165 187 80
169 190 99
170 192 111
165 186 62
169 190 92
159 181 80
159 180 62
148 170 0
156 178 0
150 172 0
152 173 0
161 183 0
159 181 0
161 183 0
158 180 0
157 180 0
159 182 0
164 187 36
167 191 0
169 192 36
176 199 84
168 190 51
167 192 0
168 192 0
171 194 0
168 192 0
162 186 25
70 99 102
56 90 105
56 89 111
53 85 97
56 89 108
57 90 110
57 91 107
56 89 107
59 93 126
56 89 108
58 92 108
58 92 115
58 92 118
56 89 106
57 91 110
56 88 100
59 93 115
59 93 124
58 91 114
58 92 114
58 91 110
57 90 108
60 95 122
56 89 113
57 90 118
58 92 113
58 92 117
59 93 122
58 91 115
58 92 120
57 91 103
57 91 120
58 91 111
57 90 105
58 92 118
56 89 107
58 91 107
57 91 108
57 90 110
56 90 99
56 89 115
56 90 102
58 92 117
57 90 114
57 90 111
55 87 103
57 91 110
57 91 117
58 92 121
57 90 114
58 91 115
59 93 111
58 92 110
55 88 107
57 91 120
57 91 113
57 90 107
59 93 124
58 91 115
58 91 113
59 92 121
58 92 120
56 89 110
58 91 120
58 91 118
58 92 118
58 91 108
58 92 115
58 91 107
56 89 118
58 91 113
58 92 118
57 90 113
58 91 113
59 93 118
57 90 113
57 91 118
55 88 107
57 90 117
57 90 111
57 90 108
57 89 116
57 90 114
57 90 111
56 89 111
57 90 113
58 91 117
56 89 111
59 92 125
57 89 111
58 91 108
57 90 111
58 90 111
57 90 121
58 92 129
57 89 115
59 92 123
56 88 111
56 89 105
56 88 114
56 88 110
55 86 97
54 85 94
56 89 104
55 87 115
55 86 114
54 84 101
55 86 102
55 85 109
56 88 108
54 83 101
53 83 80
53 82 87
52 80 86
158 179 36
165 186 0
160 182 0
167 187 0
163 184 0
152 170 11
97 93 30
94 90 31
83 80 21
98 94 31
86 83 24
88 85 30
94 90 22
85 82 29
81 80 12
86 83 16
85 83 18
69 68 14
93 90 8
86 83 0
94 93 14
86 85 11
91 89 14
91 89 11
80 80 18
93 91 8
84 82 14
97 94 21
95 93 24
95 93 18
104 102 12
100 98 16
95 93 24
108 104 14
99 97 20
107 105 28
105 104 0
108 105 22
119 116 24
116 113 34
106 104 27
103 101 22
123 119 24
103 101 25
115 110 27
118 115 31
126 122 32
133 129 39
127 121 42
117 114 11
128 122 29
131 127 37
122 119 37
124 119 37
129 125 37
128 125 35
141 136 46
130 126 31
131 127 33
129 125 38
137 132 49
135 130 47
137 133 39
141 135 52
136 131 43
138 133 39
134 130 36
141 136 47
143 138 39
141 136 45
148 143 49
135 130 44
141 135 49
139 135 37
138 133 42
134 129 39
136 132 42
141 136 47
145 139 48
146 141 49
148 142 54
140 136 50
145 138 45
151 144 57
144 139 56
152 146 57
146 142 41
141 135 52
139 134 45
146 140 47
140 136 48
138 133 41
146 140 51
148 142 47
148 142 49
147 140 57
150 144 56
147 141 48
158 151 66
139 134 45
154 147 61
141 137 45
143 139 37
144 139 47
145 139 44
150 144 53
141 136 49
145 138 60
145 139 49
146 140 52
152 146 59
143 136 51
140 134 51
149 143 56
153 146 56
148 142 51
143 137 48
150 143 58
152 146 56
148 142 45
148 142 53
151 143 59
151 144 53
147 141 57
146 140 60
140 134 47
150 144 57
151 146 56
150 144 57
143 137 49
141 136 48
145 139 56
147 140 56
149 142 60
143 136 56
151 144 60
138 132 51
139 133 58
145 140 59
144 137 59
140 134 49
144 137 54
147 142 60
173 196 0
173 196 0
174 198 0
173 196 0
174 197 0
170 194 25
174 197 0
176 198 0
174 197 0
172 196 0
172 196 25
172 195 76
177 200 67
177 200 67
182 204 108
180 203 95
176 200 67
177 200 72
181 203 92
181 203 99
182 203 105
179 201 111
179 202 84
177 199 92
181 203 95
179 201 80
182 203 99
175 199 72
173 197 57
177 199 99
179 202 99
179 202 92
175 199 67
180 202 95
176 199 67
177 199 51
174 197 67
177 200 62
179 202 95
176 199 44
176 199 67
177 200 76
174 198 76
177 200 80
175 199 62
175 198 67
174 198 57
174 198 57
176 200 99
174 197 51
175 198 72
177 200 80
175 200 88
174 198 67
178 201 76
176 199 76
170 195 84
176 199 67
174 198 57
173 198 76
175 198 51
172 196 62
172 197 80
174 198 62
174 197 44
174 197 72
173 196 67
172 196 51
173 197 80
173 197 62
174 198 67
174 196 57
175 199 92
171 196 67
172 197 67
172 196 62
174 197 62
172 196 67
176 198 67
171 194 44
172 196 44
170 193 62
175 199 88
176 200 76
175 200 80
169 194 62
171 195 76
170 195 72
171 195 72
172 197 88
171 194 36
173 196 67
169 193 80
175 198 72
170 193 72
174 196 67
173 197 80
171 194 76
171 195 76
173 196 72
171 193 72
171 194 51
165 189 62
170 194 44
165 188 72
170 193 62
173 196 57
173 196 76
172 195 84
169 192 80
168 190 62
167 190 76
170 191 72
170 192 84
171 193 80
168 189 95
169 189 108
166 187 88
170 192 92
166 188 76
162 183 84
148 170 36
150 171 0
159 179 0
156 178 0
152 174 0
148 170 0
153 175 0
156 178 0
154 176 0
157 179 0
160 183 0
164 186 25
163 186 44
168 191 36
172 194 72
168 191 57
170 194 0
169 192 0
170 193 0
171 194 0
170 195 0
168 191 0
119 143 72
53 85 90
57 91 105
58 91 110
58 92 120
56 88 94
58 91 111
55 87 107
57 91 107
57 90 115
59 92 118
55 88 97
56 90 113
57 90 113
57 91 114
58 91 118
58 92 126
57 91 111
58 91 118
57 90 103
58 92 120
57 90 108
56 89 110
59 93 120
58 92 108
57 90 113
56 89 102
57 90 111
57 90 110
58 92 120
59 93 120
56 89 118
57 91 111
56 89 107
59 93 118
58 91 113
57 91 117
59 93 121
56 88 95
55 87 100
59 93 122
59 93 121
58 92 114
58 91 110
58 91 114
57 90 113
58 91 113
57 91 114
58 92 108
57 91 105
57 90 115
58 91 124
56 88 110
58 92 124
58 90 128
57 90 114
58 92 121
57 91 113
57 90 110
57 90 110
58 91 118
59 93 121
58 92 117
58 92 121
57 90 120
58 92 130
59 93 124
59 93 121
57 90 102
58 92 117
57 91 111
59 93 128
59 93 125
57 90 110
57 91 108
58 91 121
58 90 125
56 88 105
57 89 113
57 90 108
58 92 114
55 86 111
56 89 111
58 91 116
56 89 104
58 91 115
56 89 117
56 89 107
57 90 114
56 89 113
57 90 118
57 90 118
56 89 105
57 89 107
58 91 110
57 90 113
56 88 108
55 88 101
56 88 114
55 87 104
56 88 107
55 86 107
55 87 110
55 87 103
55 86 106
55 85 108
54 86 105
55 86 103
55 85 106
53 83 95
53 84 105
53 82 96
51 80 87
104 123 71
161 182 0
164 184 0
161 181 0
163 181 0
166 186 0
166 186 0
139 151 16
105 100 25
100 97 29
106 101 28
95 90 25
89 85 19
90 87 25
85 81 11
86 84 16
85 82 19
77 76 14
86 84 16
88 87 12
82 82 14
86 84 0
80 76 14
75 75 5
82 79 16
87 84 11
78 79 14
93 89 8
86 86 8
100 98 14
116 111 26
96 96 14
109 106 16
87 85 8
101 99 25
101 97 25
99 99 19
108 106 25
113 109 18
112 109 22
110 106 23
111 109 21
112 108 20
120 116 26
105 103 25
110 107 24
127 123 36
108 104 29
124 119 38
124 120 32
128 123 32
129 124 34
124 121 39
127 123 33
128 125 37
122 120 29
133 128 26
132 127 37
131 124 37
134 130 43
136 131 46
135 131 36
135 130 36
137 131 46
134 130 48
129 124 35
140 136 37
143 137 46
136 130 34
142 137 48
139 134 34
132 128 32
140 134 42
141 136 47
138 133 41
144 139 42
141 137 37
139 134 44
146 141 47
139 135 41
145 140 48
150 144 57
143 137 49
149 143 42
144 139 39
143 137 44
143 136 51
150 143 48
139 133 44
148 141 45
151 145 54
145 140 49
144 138 49
142 138 47
148 142 42
149 143 45
146 141 48
140 134 52
149 143 53
147 139 51
151 145 48
148 141 48
148 142 48
140 135 47
141 135 49
141 136 45
136 131 45
147 140 53
148 142 57
144 138 52
144 140 41
144 139 48
143 137 52
157 150 62
143 137 54
147 142 48
151 144 60
148 141 52
146 141 52
151 146 57
143 137 52
141 135 51
143 138 54
145 139 47
143 137 54
143 137 51
137 131 53
140 134 47
135 130 45
146 141 47
139 132 47
140 135 49
147 142 59
141 135 57
143 138 53
147 141 58
150 143 61
140 134 45
143 136 59
145 140 53
138 133 53
132 127 47
142 135 57
137 131 54
172 197 0
173 196 0
172 196 0
172 195 0
174 197 0
173 196 0
171 195 0
172 196 0
171 195 0
171 195 0
175 198 0
173 196 25
178 200 62
175 197 67
178 200 67
180 202 88
181 203 95
179 202 95
174 198 44
180 202 84
182 203 108
180 203 111
177 199 88
185 206 122
184 206 120
180 202 95
177 200 88
178 201 86
178 202 108
179 201 92
178 201 88
180 202 102
175 197 95
177 200 72
177 200 76
175 198 62
178 200 84
175 199 67
175 198 62
175 198 92
176 199 95
176 198 76
177 200 92
175 199 95
174 198 88
175 198 76
174 198 72
177 200 62
174 197 62
176 199 84
176 200 102
172 195 51
176 199 67
177 200 80
175 199 76
173 197 72
173 197 67
173 196 62
174 198 80
174 198 62
173 197 44
175 199 80
174 197 57
174 197 57
172 195 51
175 198 57
174 198 57
174 198 62
172 196 76
175 198 36
172 196 88
176 200 84
175 198 72
175 198 67
176 200 80
174 197 76
172 196 57
173 197 67
173 195 0
174 197 44
172 195 51
173 196 57
171 194 62
172 195 67
171 195 67
167 191 57
171 195 57
174 196 62
172 195 57
172 195 51
174 197 67
175 198 72
174 198 88
169 192 62
172 195 76
173 198 92
172 195 57
175 198 84
171 194 76
174 197 72
172 196 67
170 192 44
174 196 62
168 191 76
168 190 51
170 192 67
170 192 76
168 191 76
168 190 95
168 190 80
172 193 99
172 194 67
172 193 99
168 189 80
171 194 108
169 191 88
165 186 57
163 185 67
164 186 62
160 182 76
149 170 25
157 179 0
153 175 0
145 166 0
157 179 0
157 178 0
153 175 0
157 180 0
158 181 0
155 177 0
162 184 0
164 186 51
158 180 25
168 190 51
173 196 62
169 191 80
169 193 0
170 194 0
167 191 0
169 192 0
169 193 0
167 190 0
169 192 0
162 186 18
62 93 99
55 88 88
57 90 102
57 91 114
57 90 110
56 89 102
58 91 114
58 92 108
56 89 105
57 90 100
56 89 103
58 92 122
58 91 108
57 91 110
57 91 103
57 90 114
58 91 111
57 91 110
56 89 100
55 87 107
57 90 115
57 90 108
58 92 118
56 88 102
58 92 115
58 91 117
58 91 126
57 90 107
55 87 102
56 89 108
57 91 118
57 90 115
56 90 111
58 92 111
57 90 111
58 91 113
57 90 111
58 92 111
59 93 118
57 91 114
58 92 110
58 92 115
58 91 125
58 92 107
58 92 111
58 92 117
57 90 111
59 93 117
59 92 117
56 89 105
57 90 118
56 89 105
57 90 114
58 92 118
57 89 110
57 91 114
57 91 103
58 91 113
55 87 110
57 90 110
58 92 114
56 89 105
57 89 114
58 92 126
59 93 128
58 91 108
57 89 105
57 89 114
59 92 113
58 91 125
58 92 114
56 89 110
59 92 115
57 90 121
57 90 118
57 90 111
59 92 118
57 91 117
56 89 110
57 90 116
57 90 114
57 89 118
56 88 107
57 89 114
56 89 108
58 92 129
56 88 113
57 90 114
59 93 120
56 88 107
58 91 118
54 85 98
54 85 97
54 86 96
56 88 111
55 86 107
57 90 114
56 89 107
54 85 103
57 90 110
57 89 119
53 83 105
56 88 107
56 87 108
54 84 104
54 85 107
54 85 105
54 84 109
55 85 106
50 80 89
52 80 82
79 104 79
155 177 18
162 182 0
162 180 0
162 182 0
161 181 0
158 178 0
164 184 0
157 177 0
131 137 32
97 94 30
108 103 37
104 99 28
89 88 16
76 73 16
91 89 22
79 77 19
76 73 12
96 93 0
91 88 16
75 74 8
84 83 3
87 85 8
92 88 19
79 77 8
93 87 14
88 84 3
89 88 14
92 90 18
97 95 14
104 102 11
101 96 19
88 87 0
105 102 22
109 105 14
104 100 16
106 101 18
98 95 18
113 109 28
102 100 21
109 104 14
107 104 24
114 112 29
113 111 28
120 117 25
110 108 19
116 113 24
118 113 28
120 115 35
117 113 25
114 111 33
125 120 27
126 122 30
121 117 30
128 124 39
124 120 30
125 121 39
116 114 21
124 121 33
133 127 28
132 127 38
126 121 33
125 122 26
134 129 41
126 122 37
138 133 41
136 133 35
136 132 33
138 133 44
139 135 36
137 134 36
140 135 44
133 128 42
134 129 39
140 135 47
140 134 37
136 130 40
139 134 41
140 134 36
132 126 37
136 132 37
137 132 32
144 137 47
146 140 37
143 137 51
146 141 41
143 137 49
150 145 53
150 143 58
145 138 52
137 131 42
140 133 41
136 131 44
147 142 44
143 139 44
152 146 51
142 137 41
143 138 47
147 142 53
144 137 52
149 143 47
148 141 52
141 137 51
146 141 48
145 138 49
144 138 52
141 135 49
135 130 45
152 145 52
150 143 58
145 139 47
139 135 48
147 142 47
136 128 41
149 143 53
152 146 52
142 136 45
147 141 45
146 140 52
148 141 53
141 135 42
142 137 52
145 139 52
144 138 42
138 131 48
146 141 51
141 136 51
142 136 57
148 141 59
144 138 49
147 141 59
135 129 44
143 137 54
142 136 53
145 139 49
142 137 51
143 136 58
141 135 53
142 136 51
135 129 53
148 141 61
139 132 53
146 141 53
139 133 53
132 127 47
174 197 0
174 197 0
174 197 0
170 195 0
172 195 0
175 198 0
174 197 0
174 197 0
171 195 0
171 195 0
173 197 0
169 194 0
170 193 0
173 196 51
176 198 62
176 199 88
178 201 72
178 200 67
174 197 72
175 197 57
177 200 84
179 202 88
177 200 92
181 203 108
180 201 105
180 202 88
181 203 95
179 202 99
177 200 92
178 200 99
176 199 84
174 197 80
173 197 57
176 199 92
177 200 95
176 200 80
178 201 76
174 197 51
176 200 84
177 200 80
175 199 76
177 200 76
175 199 92
174 199 76
174 198 62
175 198 67
175 198 72
174 198 72
177 199 76
175 198 72
174 197 67
174 198 76
174 198 80
176 199 62
172 197 80
173 197 51
174 198 51
176 199 67
174 197 51
170 195 88
170 195 44
174 197 51
174 199 95
173 197 62
170 194 57
173 197 92
173 196 72
177 199 67
173 196 62
174 198 67
171 194 51
176 199 80
175 198 76
172 196 67
170 194 72
172 196 76
173 197 76
172 196 88
174 198 80
172 196 76
173 196 72
175 198 72
173 197 80
176 200 95
168 191 44
170 194 76
173 197 67
175 198 72
174 197 67
173 196 76
173 196 72
175 199 80
173 197 84
173 195 72
172 196 76
171 195 84
174 197 72
172 196 67
174 197 62
165 187 84
173 196 84
169 192 67
166 190 76
167 189 44
171 195 76
169 192 62
170 192 67
172 194 88
173 195 72
170 191 67
171 192 84
163 185 95
172 194 99
176 196 111
175 195 95
162 183 95
168 189 99
166 187 80
158 180 51
157 178 0
152 172 0
150 173 0
157 177 0
155 176 0
154 176 0
155 176 0
154 176 0
155 177 0
162 184 0
158 180 0
160 183 25
168 191 51
167 190 44
167 189 44
170 192 76
170 193 0
166 189 0
165 188 0
166 189 0
170 193 0
170 193 0
170 194 0
165 188 0
164 187 0
130 153 62
54 86 95
55 87 100
54 86 105
55 87 105
54 87 100
55 87 97
56 89 92
54 87 95
57 90 103
56 89 99
57 91 111
57 91 114
59 92 124
57 89 115
56 89 113
57 90 100
57 90 117
59 93 125
56 90 102
58 91 111
56 90 105
59 93 120
57 90 108
58 92 107
58 92 120
57 90 115
58 92 113
58 91 114
57 90 111
56 89 105
58 91 111
58 91 115
58 92 115
57 90 120
57 90 111
58 91 113
58 92 111
58 91 115
60 94 125
58 92 120
59 93 129
58 92 117
55 87 114
58 91 118
58 91 110
58 92 111
57 90 118
56 90 105
58 91 107
56 88 110
55 88 99
58 91 113
59 93 120
57 91 120
57 91 113
57 91 118
56 88 108
56 89 107
57 90 108
56 89 111
58 91 122
57 91 118
56 88 107
57 91 115
58 92 113
55 87 105
58 92 120
58 92 114
57 90 111
57 90 110
57 90 114
55 88 108
56 88 115
57 90 115
55 88 105
55 87 99
57 90 113
59 92 123
55 87 94
57 90 113
55 86 103
56 89 110
57 90 115
54 86 99
56 89 110
57 90 113
56 89 114
57 91 115
56 88 114
58 91 125
55 87 99
58 91 124
57 89 110
56 88 99
55 87 114
55 87 115
58 91 123
56 88 103
55 86 103
55 86 108
56 88 105
56 88 110
55 86 107
54 85 108
56 88 103
55 86 110
55 85 111
51 80 82
54 84 104
50 78 79
131 149 41
163 183 0
157 175 0
162 180 0
155 174 0
162 180 0
162 182 0
162 181 0
161 178 0
159 176 0
130 142 16
106 100 34
99 94 25
88 84 25
90 87 26
76 73 18
90 86 22
97 94 16
89 87 16
84 81 8
101 94 22
92 88 18
95 93 3
88 86 8
93 88 12
96 93 0
88 85 5
98 94 0
83 81 8
92 89 0
82 79 12
95 92 8
97 96 11
98 94 18
92 90 18
98 96 14
107 103 22
106 103 12
107 106 16
106 104 24
104 100 14
116 112 23
107 105 18
113 109 8
103 99 25
121 117 31
112 108 22
110 105 21
117 114 21
117 113 29
119 115 30
116 112 33
118 113 25
116 113 22
127 123 22
132 126 31
117 115 31
122 118 31
131 127 32
127 123 32
123 119 33
121 120 18
124 118 30
135 129 33
133 128 29
133 129 34
137 132 24
126 122 34
140 134 34
131 126 31
135 131 30
138 133 36
139 133 45
134 129 38
140 136 39
139 132 42
135 131 39
137 131 42
138 134 36
139 133 41
143 137 47
148 142 39
141 136 44
149 144 47
137 131 45
147 140 42
148 142 37
146 140 41
142 136 45
146 139 51
134 129 41
144 139 49
143 137 48
136 130 41
140 135 47
143 138 41
145 139 49
142 137 47
148 142 48
147 141 48
151 146 53
140 135 36
148 140 52
136 130 41
138 131 41
141 135 42
144 137 45
150 143 51
138 133 41
155 148 56
146 140 41
144 138 47
143 138 48
132 126 44
144 138 52
143 136 51
143 137 51
144 138 56
139 133 42
143 138 47
140 134 51
136 131 52
138 133 48
146 141 49
146 139 52
139 134 44
142 135 49
152 145 61
140 135 45
144 139 48
145 138 51
147 141 59
144 139 44
139 133 49
144 139 51
141 134 58
135 129 51
146 140 56
145 139 52
133 127 49
141 135 54
136 130 45
146 140 60
140 134 53
133 127 53
173 197 0
172 196 0
174 197 0
171 195 0
175 198 0
171 195 0
174 197 0
174 197 0
174 197 0
172 195 0
173 197 0
174 197 0
172 195 0
172 195 0
171 194 36
178 200 80
178 201 67
178 201 80
175 198 51
181 203 95
176 199 80
177 200 84
176 198 84
179 201 84
185 205 111
180 201 108
180 202 105
178 200 92
180 201 111
177 199 72
179 202 102
178 201 80
179 201 99
176 199 82
177 199 92
179 202 95
173 196 80
176 199 76
178 200 88
179 202 88
178 201 80
173 196 84
172 195 62
177 200 84
174 198 72
176 199 57
176 199 76
175 199 62
174 197 76
173 196 57
173 197 44
173 197 72
178 201 80
175 198 51
172 196 76
172 196 57
172 196 44
174 198 67
175 199 95
173 197 72
174 197 72
171 195 57
173 196 57
174 197 57
176 199 67
174 198 57
172 196 51
174 197 51
174 198 51
171 195 80
173 197 72
173 197 67
177 200 72
172 195 57
174 198 80
173 196 62
172 195 67
175 198 72
172 195 62
174 198 67
173 198 88
173 197 72
173 197 76
167 191 76
171 195 36
169 192 44
174 197 62
170 193 67
172 195 76
167 189 67
175 198 76
172 195 67
172 196 76
173 196 76
172 195 84
174 197 67
172 195 67
169 191 44
169 192 62
173 196 80
168 189 72
171 194 67
170 191 72
169 190 80
169 191 72
173 195 92
172 194 80
174 197 92
174 196 108
169 191 84
169 189 84
172 192 88
167 188 84
172 193 67
162 183 72
167 188 99
156 177 76
158 179 36
152 173 0
147 169 0
146 168 0
152 173 0
159 180 0
156 178 0
158 179 0
159 182 0
162 185 0
158 180 0
163 186 0
160 182 36
167 190 44
164 187 0
167 191 67
176 197 84
165 188 0
167 190 0
165 189 0
167 191 0
169 192 0
165 188 0
162 184 0
169 192 0
162 186 0
163 186 0
170 194 0
95 121 90
56 89 92
56 89 102
55 87 99
56 88 105
56 89 105
56 89 105
58 90 105
56 88 111
55 88 95
56 89 114
58 91 117
56 89 121
55 88 110
58 91 117
57 91 118
55 88 102
56 89 108
55 88 97
57 90 111
57 90 108
58 91 118
57 91 117
56 90 110
55 88 110
58 91 113
57 90 111
57 91 117
57 90 111
58 91 114
57 90 108
59 92 130
57 91 110
58 92 117
57 91 107
56 89 103
58 91 110
58 91 114
56 89 105
58 91 120
58 91 111
59 92 124
59 92 126
58 92 120
58 91 121
57 91 117
58 91 107
57 90 114
57 90 111
56 88 103
58 92 113
58 91 115
57 90 111
57 91 114
58 92 117
56 88 108
59 92 118
55 88 107
57 90 115
54 86 97
59 93 122
57 90 117
57 89 114
58 91 128
59 92 121
59 93 121
57 89 110
57 89 111
56 88 90
58 91 117
59 92 129
58 91 117
57 90 107
56 89 105
58 92 124
57 90 114
54 86 103
56 89 107
57 90 110
57 90 110
56 89 107
57 90 125
55 87 91
56 88 105
56 89 99
56 88 97
57 90 111
56 89 118
57 90 116
56 87 105
56 88 111
56 88 101
56 88 110
56 88 107
55 86 107
56 87 115
56 89 116
55 88 99
54 86 100
54 86 91
55 86 110
52 82 93
57 89 109
54 85 104
52 80 89
53 82 100
52 82 90
51 79 93
52 81 93
95 115 66
161 178 0
155 173 0
153 169 0
161 179 0
162 180 0
166 185 0
161 179 0
157 173 0
163 183 0
158 177 0
163 182 0
133 140 22
99 96 28
93 89 32
98 92 28
94 88 21
89 85 11
79 76 18
89 85 8
89 86 18
92 90 11
95 90 3
93 90 19
90 85 12
91 87 16
76 74 0
90 89 12
89 86 12
87 83 11
102 99 0
99 97 12
96 93 0
111 106 20
106 102 0
91 88 18
104 100 16
99 96 16
102 98 18
98 95 3
108 105 11
112 109 26
93 92 21
110 106 16
114 111 14
118 115 8
111 108 20
109 107 18
122 117 16
114 111 18
118 115 18
120 116 24
119 114 22
113 109 24
118 113 28
116 112 19
125 121 32
114 111 24
121 116 36
134 129 32
126 122 31
129 123 34
126 122 30
131 126 34
133 125 37
128 124 33
128 122 19
133 128 28
134 130 41
134 130 34
127 123 37
136 129 41
133 129 28
130 126 35
136 130 41
131 127 34
129 124 29
137 133 39
137 133 32
140 135 36
141 135 41
137 132 41
137 132 42
134 128 39
148 142 42
141 135 44
147 141 42
144 139 47
138 133 42
138 133 34
135 130 32
134 128 34
143 138 39
140 135 42
143 138 44
144 139 39
143 137 41
147 141 49
140 134 36
135 130 42
149 143 49
143 137 51
140 133 47
143 137 49
139 132 42
136 132 45
143 137 48
136 131 47
130 125 39
141 136 47
150 143 53
141 135 45
147 140 49
147 140 52
141 134 45
147 141 48
138 133 42
141 135 47
147 141 51
141 136 54
137 131 48
139 133 44
143 136 58
139 135 37
141 135 51
146 141 47
141 135 49
145 139 52
141 136 48
135 130 44
147 141 57
145 139 47
146 139 48
146 139 54
137 131 53
144 139 48
137 132 41
136 130 47
137 131 45
130 124 41
137 130 54
135 130 53
135 128 56
146 139 58
147 140 58
134 129 44
175 198 0
174 197 0
173 196 0
174 197 0
171 195 0
173 196 0
173 197 0
172 195 0
172 196 0
170 194 0
172 196 0
170 194 0
174 197 0
171 195 0
175 198 0
173 197 0
175 198 57
177 199 88
178 201 88
176 198 82
180 202 88
173 196 51
179 201 80
175 197 67
173 196 70
183 204 114
183 204 105
178 200 99
179 201 88
177 200 95
181 203 111
177 200 84
177 200 88
178 200 92
182 204 111
178 201 99
177 200 80
177 199 88
174 198 72
176 199 95
177 200 92
176 199 62
175 198 44
176 199 72
174 198 76
177 200 88
175 197 80
174 197 72
177 200 76
171 194 72
173 196 76
173 197 51
174 197 72
176 199 80
170 194 51
176 200 88
173 197 51
174 198 72
173 197 72
178 201 72
173 197 72
173 197 62
173 196 51
176 199 76
175 198 80
175 198 57
175 198 67
176 199 88
171 195 57
173 196 51
176 199 76
175 198 84
174 197 72
173 196 72
175 198 72
173 196 76
173 197 67
174 197 44
172 195 62
174 198 76
172 195 72
171 195 62
170 194 72
173 196 62
170 193 57
173 196 84
175 196 67
174 196 80
173 196 57
173 195 57
175 197 51
166 188 44
166 189 57
175 198 67
170 192 67
173 195 62
177 200 67
172 195 84
172 195 84
172 193 72
171 193 72
168 189 67
169 191 62
170 192 99
167 190 72
169 189 62
174 194 99
168 189 95
171 193 105
170 190 108
170 192 95
167 189 72
169 191 76
169 190 67
166 187 72
159 181 44
144 166 0
157 177 0
145 166 0
146 168 0
153 175 0
152 173 0
151 172 0
155 177 0
149 171 0
155 177 0
156 179 0
158 180 0
159 181 36
163 185 0
164 187 51
170 193 51
176 198 80
167 191 0
165 189 0
164 187 0
164 187 0
165 188 0
170 194 0
166 190 0
168 190 0
171 194 0
163 187 0
161 185 0
165 189 0
159 182 0
72 101 103
54 87 96
56 88 103
58 91 110
57 90 107
56 90 94
55 88 94
57 90 103
58 91 124
57 91 114
57 90 110
56 88 102
57 90 115
58 91 111
58 92 120
57 91 115
58 91 117
55 88 108
56 88 107
57 90 115
57 90 107
58 91 121
57 90 103
57 91 102
56 89 102
58 92 122
56 89 110
57 89 108
58 92 124
57 89 115
58 92 110
56 88 103
56 88 103
59 92 115
57 90 117
58 92 115
57 90 107
59 92 120
58 92 120
58 91 115
59 93 121
58 92 125
56 90 113
57 90 103
57 90 111
56 89 102
57 90 111
57 91 117
57 90 114
57 91 105
58 92 118
59 93 120
54 86 97
57 90 100
58 91 115
56 88 108
57 90 103
59 92 122
56 89 108
57 90 108
58 91 108
57 91 108
55 86 95
58 92 120
56 89 108
57 90 103
57 90 114
57 89 103
57 90 113
57 89 111
55 87 107
56 89 121
57 90 115
55 87 94
57 90 102
54 85 102
56 88 113
57 90 110
56 89 95
57 90 121
57 90 114
58 91 114
58 91 113
58 90 111
56 89 115
55 87 92
57 90 117
57 89 121
54 86 99
55 87 111
58 91 116
54 86 107
56 87 113
54 86 94
55 87 99
54 85 106
54 85 97
58 90 125
56 87 102
56 88 106
55 85 101
57 89 108
54 84 105
55 86 105
52 82 94
51 79 84
54 83 111
69 93 81
141 161 25
145 161 0
157 175 0
155 170 0
160 178 0
152 171 0
158 177 0
158 174 0
157 173 0
159 177 0
159 176 0
155 172 0
162 178 0
122 126 30
93 87 16
97 92 32
100 96 22
92 88 16
87 84 25
93 89 14
83 79 21
89 85 24
101 96 22
85 81 14
78 75 0
89 85 11
101 98 8
75 72 14
103 97 3
82 80 11
95 92 11
98 94 14
94 92 16
102 98 0
98 96 11
93 90 11
91 88 12
100 98 14
100 97 12
107 103 16
97 92 20
103 99 11
114 109 16
100 97 16
113 109 19
112 108 29
110 107 16
120 117 25
110 108 22
116 112 28
122 118 29
129 124 28
126 120 28
118 113 25
125 118 30
116 111 22
123 118 29
124 118 30
130 125 28
127 122 34
127 122 25
127 123 34
127 123 24
131 126 29
131 126 34
126 122 31
127 122 32
133 127 36
135 131 32
127 122 25
124 121 29
133 128 32
135 129 39
133 127 32
138 132 44
139 134 34
141 135 42
142 136 34
142 136 41
132 126 40
139 133 40
145 140 41
145 140 39
142 136 32
140 133 39
146 139 41
145 139 37
143 138 39
140 135 34
136 130 36
141 136 45
140 135 47
137 131 36
132 127 36
142 136 41
136 130 42
138 132 42
148 141 45
143 138 45
138 132 45
142 138 36
145 139 41
140 134 45
145 140 39
141 135 47
147 141 39
146 141 51
145 138 45
140 134 45
145 140 34
143 137 49
141 135 52
138 131 45
144 137 48
143 138 45
140 133 42
140 134 49
140 135 48
144 138 42
137 131 45
144 138 47
145 139 48
152 145 56
143 138 47
139 134 44
143 135 57
139 133 49
137 133 39
145 139 44
143 138 48
142 136 51
149 143 54
142 136 49
140 134 48
136 130 41
139 134 45
144 138 49
143 137 56
131 126 47
137 132 48
136 130 48
135 129 45
139 132 56
130 124 41
143 137 54
126 120 47
173 196 0
173 196 0
172 196 0
175 198 0
174 197 0
172 196 0
174 197 0
175 198 0
171 195 0
171 195 0
170 194 0
168 192 0
170 194 0
170 193 0
171 195 0
173 197 0
167 191 0
167 190 25
174 196 36
178 201 76
176 199 62
177 200 92
180 202 99
179 201 84
179 202 105
175 198 76
180 201 84
182 203 99
180 202 114
182 203 102
184 206 120
178 200 99
180 202 102
181 203 108
180 202 114
174 196 72
178 201 95
175 198 76
174 197 76
174 198 72
176 198 88
179 201 92
176 198 67
176 198 99
177 200 95
175 199 88
176 200 76
172 195 57
175 199 76
174 197 72
175 198 99
173 197 57
173 196 57
174 197 57
174 197 62
176 200 95
175 199 84
173 196 80
171 195 62
174 197 92
176 199 67
175 198 102
171 194 72
172 195 62
172 195 88
174 197 67
172 196 67
175 199 80
175 198 72
174 196 51
176 199 62
177 200 72
175 198 88
174 198 88
172 195 76
174 197 80
173 196 57
176 199 88
177 199 76
172 195 84
171 194 44
173 196 51
173 196 76
173 196 76
174 197 76
172 194 57
175 197 62
175 196 62
171 194 67
174 196 76
170 192 57
174 196 72
172 194 62
174 196 76
174 196 80
170 193 57
174 195 72
177 199 84
171 193 76
172 194 67
172 194 88
172 193 80
171 192 62
170 191 84
175 196 114
170 191 80
167 187 84
175 196 105
169 189 99
167 189 76
169 190 76
164 185 72
167 188 51
157 177 62
151 172 0
144 165 0
147 168 0
154 176 0
158 179 0
157 178 0
159 180 0
153 175 0
148 170 0
149 171 0
157 179 0
158 180 25
158 180 0
162 184 36
163 185 51
168 191 25
169 192 76
174 195 84
167 191 0
168 191 0
163 186 0
164 186 0
166 190 0
169 192 0
167 189 0
169 192 0
170 193 0
165 188 0
169 192 0
164 187 0
166 189 0
161 184 0
120 144 65
53 85 82
54 86 97
56 89 88
54 85 97
58 91 107
56 89 103
56 89 110
56 89 108
57 89 103
55 88 92
57 90 113
58 91 108
57 90 111
55 88 95
57 90 103
55 87 103
57 89 111
57 90 113
57 89 111
56 89 111
56 89 114
56 88 99
59 93 118
57 91 120
56 89 102
57 90 107
56 89 110
57 91 117
57 90 111
56 90 105
55 87 102
57 90 108
59 93 115
58 91 121
55 88 97
59 92 115
58 92 113
56 90 111
58 91 111
59 93 120
56 89 114
57 90 103
57 91 111
56 88 108
57 89 113
57 90 114
57 90 118
58 92 111
56 89 103
56 89 107
57 91 113
59 93 125
57 90 110
56 89 108
55 87 103
58 91 113
58 91 122
56 89 102
54 85 97
58 92 115
58 91 110
56 88 115
56 88 103
56 89 100
57 90 95
59 92 125
55 88 118
57 91 118
57 91 108
58 91 121
58 91 113
56 88 99
59 92 120
57 90 107
57 90 105
59 93 134
55 88 107
54 87 99
56 89 107
55 88 100
57 90 110
58 90 114
57 89 108
56 88 108
56 89 114
56 88 111
55 87 110
57 89 116
55 87 102
55 88 110
55 87 107
56 88 104
56 88 107
55 86 102
54 86 97
54 85 98
54 85 102
56 89 109
56 87 105
53 83 96
54 85 108
56 88 99
55 86 101
50 79 92
54 84 118
53 83 93
128 146 57
153 172 0
152 168 0
151 165 0
154 171 0
154 170 0
161 178 0
152 169 0
152 168 0
150 166 0
155 170 0
153 166 0
149 164 0
160 177 0
163 182 0
131 138 28
99 93 39
97 91 24
93 87 31
98 92 22
84 80 18
89 86 23
92 88 18
89 81 19
82 78 14
92 86 19
96 90 8
90 85 11
91 86 16
73 71 0
87 84 8
108 104 11
90 87 8
88 86 2
92 88 8
101 96 14
94 90 16
100 97 19
96 93 16
104 98 3
109 103 0
110 106 14
104 99 16
102 97 14
110 106 19
107 103 11
99 97 21
112 107 22
103 100 18
113 110 21
103 100 11
125 122 18
116 112 19
121 117 19
119 114 33
121 116 26
121 117 34
121 117 25
127 124 19
116 111 22
104 101 19
123 118 24
130 126 11
127 124 35
131 127 25
126 122 28
127 122 25
125 121 22
131 127 32
130 126 25
129 124 28
136 130 39
137 131 34
128 122 28
125 121 35
137 132 39
136 131 42
139 133 41
139 134 47
136 130 36
123 119 30
125 120 19
137 132 45
136 131 37
137 131 36
139 134 42
140 135 36
142 137 39
138 134 44
139 134 44
139 132 45
140 134 36
132 128 36
135 129 39
142 136 41
138 131 45
146 139 44
146 140 44
134 131 36
139 134 34
136 131 25
141 135 45
147 140 45
136 133 32
133 129 41
143 137 48
137 130 51
137 131 41
142 136 44
136 129 45
142 137 41
140 135 48
136 129 42
139 134 39
144 137 53
144 138 53
141 136 52
148 140 54
143 137 39
139 131 41
143 137 39
145 140 51
139 135 45
149 142 54
139 133 45
141 134 47
149 142 57
141 136 45
145 139 47
145 139 58
140 135 48
138 133 45
134 129 41
144 138 53
136 129 53
135 129 48
136 129 45
135 129 47
137 131 53
134 128 54
142 136 47
133 129 47
141 135 53
145 138 51
138 133 42
140 136 36
134 128 47
174 197 0
172 195 0
174 197 0
172 196 0
174 197 0
175 198 0
171 195 0
171 195 0
174 197 0
173 196 0
171 194 0
174 197 0
173 197 0
173 196 0
171 194 0
172 196 0
170 193 0
170 194 0
172 195 0
171 195 36
174 198 51
174 197 51
179 201 80
177 200 72
176 199 67
179 201 84
178 201 84
176 198 92
178 201 99
177 199 76
181 203 108
180 202 97
179 201 99
183 204 111
179 202 102
176 199 92
183 204 114
178 201 84
178 201 95
174 197 88
174 197 72
173 197 57
177 199 62
178 201 76
178 200 88
176 199 95
180 203 111
173 196 72
174 196 80
177 200 80
175 198 84
175 198 72
173 196 92
172 195 72
177 200 84
174 196 67
177 200 88
176 199 80
175 198 62
170 193 44
173 197 76
172 194 67
176 198 76
173 196 44
175 198 80
176 198 51
176 198 76
169 193 67
173 197 80
174 197 67
171 194 67
173 196 62
176 199 80
177 200 76
173 196 76
173 196 72
172 195 99
174 196 62
176 198 72
176 199 99
172 194 88
174 197 72
169 190 57
171 194 62
175 198 92
174 196 57
175 197 62
178 200 80
175 197 76
170 192 62
171 193 67
173 196 92
171 193 62
175 197 92
176 197 51
176 197 72
169 192 92
175 197 95
171 193 62
174 195 88
178 199 114
172 194 99
169 190 72
171 191 72
169 191 95
169 190 95
170 190 95
159 180 67
168 189 72
168 189 76
165 185 99
161 181 76
157 178 0
159 179 0
157 178 0
156 178 0
152 174 0
159 180 0
157 179 0
160 181 0
155 175 0
153 174 0
161 182 0
166 188 0
170 192 0
166 188 25
163 185 44
163 185 25
166 189 57
174 196 51
173 195 76
170 193 0
170 192 0
166 189 0
164 187 0
160 183 0
164 187 0
165 188 0
170 192 0
162 184 0
164 187 0
167 190 0
160 183 0
159 182 0
160 183 0
162 186 0
164 187 0
96 121 76
56 88 102
55 87 99
57 89 111
57 90 99
57 90 102
53 85 97
59 92 121
57 90 102
58 92 120
55 87 99
56 89 100
57 91 114
58 91 118
56 89 102
57 90 107
53 85 95
56 89 100
58 92 102
60 94 121
57 90 108
56 89 102
57 89 113
57 90 108
56 89 103
57 90 110
57 90 103
55 88 102
57 90 110
58 92 108
57 91 107
57 90 117
57 90 108
57 91 113
57 90 108
57 90 115
58 91 118
56 89 115
57 90 111
58 91 115
57 90 111
57 90 110
58 91 122
57 90 113
57 89 121
56 88 107
57 90 108
59 93 122
53 84 100
58 92 120
56 89 105
56 89 103
56 88 108
57 91 118
55 87 92
55 87 95
58 91 122
56 88 103
56 89 107
57 89 103
56 89 100
58 92 111
55 87 95
55 88 103
57 90 110
57 89 114
57 91 107
54 87 99
55 87 97
57 91 108
56 89 107
57 90 118
56 88 108
57 89 107
57 89 111
54 86 102
56 89 103
54 85 99
54 86 113
57 90 117
56 88 114
57 89 105
55 87 113
57 89 99
55 87 108
56 88 103
54 85 103
55 87 95
55 87 99
55 87 99
53 83 86
55 86 92
57 90 113
55 87 113
52 83 92
54 85 108
55 87 111
54 86 99
54 84 99
56 87 104
53 82 90
52 82 96
51 80 95
52 81 99
50 78 89
106 122 56
144 160 0
148 165 0
150 167 0
153 170 0
146 161 0
151 166 0
152 169 0
152 166 0
142 158 0
148 163 0
153 168 0
146 161 0
149 163 0
152 168 0
152 166 0
154 169 0
128 129 25
99 92 34
78 73 19
93 88 22
97 93 19
81 75 14
74 71 21
93 90 11
73 70 11
85 80 11
96 91 14
88 83 16
80 76 8
94 88 0
90 87 0
85 84 0
100 97 0
84 81 3
95 92 3
83 80 0
99 94 0
98 95 0
101 98 14
104 99 14
98 94 14
113 109 11
103 101 0
101 96 0
107 103 0
112 107 21
113 108 16
116 111 24
117 112 14
107 103 22
112 106 16
112 109 19
120 115 11
118 113 16
110 106 16
119 113 11
119 114 19
120 116 24
120 117 16
117 112 19
114 110 19
119 113 22
127 122 32
123 119 28
128 124 25
119 114 25
135 129 34
121 116 29
139 133 22
126 121 25
130 125 30
128 123 22
132 127 37
131 125 36
131 125 16
128 123 28
133 129 36
135 131 28
137 130 32
141 135 41
140 133 47
130 124 30
134 129 39
141 134 41
129 125 22
139 133 44
137 133 36
137 132 37
133 128 39
134 127 39
140 135 39
142 136 42
143 137 32
137 131 44
143 138 47
137 132 34
135 129 37
138 133 34
135 131 36
142 136 47
139 131 41
133 128 37
135 131 37
145 139 48
133 128 39
135 128 36
139 132 48
143 137 45
135 129 39
138 131 34
138 133 49
138 133 44
139 133 37
142 136 42
137 131 47
133 128 39
132 128 39
141 135 42
132 125 51
139 134 47
135 130 32
145 138 54
140 134 44
139 132 44
134 127 47
145 139 51
139 133 45
140 134 44
148 141 48
135 129 42
136 129 48
138 133 37
142 137 45
141 135 51
135 128 49
129 124 41
140 133 49
134 128 48
141 135 49
137 133 44
143 138 53
139 133 57
138 133 37
140 134 45
130 125 39
135 129 39
143 137 49
172 196 0
172 196 0
172 196 0
171 195 0
172 196 0
176 199 0
174 197 0
173 196 0
172 195 0
173 197 0
172 195 0
172 195 0
173 197 0
171 194 0
174 197 0
172 195 0
172 196 0
172 195 0
171 195 0
169 192 0
173 196 0
174 198 25
172 195 57
176 199 57
178 201 72
177 200 76
176 199 95
178 201 92
179 201 84
176 199 72
174 198 76
181 202 76
180 202 88
186 207 122
184 205 105
182 204 99
179 201 102
179 201 92
179 201 99
179 201 108
180 202 102
175 198 67
181 203 111
178 201 102
176 199 76
178 201 95
177 199 92
179 202 88
174 197 67
176 199 76
174 198 76
181 203 105
175 198 80
176 199 76
177 200 99
178 200 88
172 195 62
176 199 76
171 194 57
173 196 72
174 197 80
176 198 76
175 198 72
174 197 62
173 196 80
176 198 72
172 195 72
171 194 76
177 199 84
175 198 72
176 198 80
169 192 51
173 196 57
175 198 84
174 197 72
173 196 80
173 195 80
175 197 57
175 198 72
175 198 72
170 193 88
173 195 102
171 192 72
175 197 99
169 191 57
174 196 88
173 195 76
174 195 80
172 194 57
167 189 92
170 191 67
176 198 84
171 193 80
171 192 72
179 200 76
175 196 80
175 196 80
176 196 84
168 189 99
169 192 80
172 194 80
175 195 99
180 199 102
173 193 102
172 193 80
170 191 76
170 191 62
162 183 62
168 190 76
170 190 92
156 177 25
160 180 0
155 175 0
156 177 0
150 171 0
154 175 0
161 182 0
143 164 0
157 178 0
164 186 0
155 177 0
155 176 0
158 180 0
169 191 0
166 187 0
159 182 0
167 189 44
169 192 36
169 191 57
168 190 57
167 189 0
166 188 0
164 187 0
163 186 0
166 189 0
163 186 0
162 185 0
163 186 0
166 189 0
163 185 0
163 186 0
162 185 0
162 185 0
160 182 0
155 178 0
156 180 0
159 181 0
154 177 0
68 98 103
54 85 102
54 87 88
54 87 84
57 90 108
56 89 100
56 89 111
56 89 103
57 90 105
57 90 111
57 91 117
57 90 107
56 89 107
55 87 111
57 90 105
56 89 110
56 89 100
55 88 105
55 88 103
57 90 105
56 89 99
57 91 108
57 91 108
56 89 113
56 89 111
57 90 99
57 90 105
55 88 100
58 91 115
56 89 114
59 93 122
56 89 99
57 90 113
57 90 122
56 89 102
57 90 107
56 89 105
58 91 111
57 90 113
56 89 103
55 87 107
56 89 102
56 90 103
58 91 113
57 91 121
55 88 100
54 86 94
56 89 114
57 90 110
57 89 107
57 90 108
59 92 118
57 90 117
58 92 120
59 92 118
58 91 110
59 92 120
57 90 110
56 89 113
57 90 110
58 91 105
56 89 108
54 86 90
57 90 100
56 88 107
56 89 90
57 90 115
57 90 103
54 85 99
57 91 111
57 90 115
59 93 117
57 89 110
54 86 107
56 87 107
56 89 108
56 89 108
54 86 90
55 87 97
58 92 118
56 88 111
58 92 117
54 86 96
54 86 90
54 85 104
55 86 100
58 91 110
57 90 105
55 87 99
55 86 102
55 87 102
53 83 96
57 89 107
53 84 89
53 84 101
53 84 95
54 86 96
52 81 91
54 84 92
54 85 104
53 83 89
53 83 92
49 78 77
60 84 81
136 154 31
145 163 0
147 163 0
146 162 0
143 157 0
149 163 0
151 163 0
141 156 0
148 162 0
154 171 0
145 159 0
151 168 0
152 164 0
157 173 0
148 161 0
149 163 0
151 165 0
151 165 0
130 139 16
97 93 19
99 94 30
92 85 16
94 91 19
80 78 19
98 93 29
91 87 21
96 89 0
91 86 19
83 77 3
81 78 0
87 82 0
87 83 0
89 86 3
92 87 3
94 90 16
87 86 11
95 91 1
99 95 16
86 83 18
94 90 0
97 93 16
98 94 11
107 103 16
110 104 0
100 95 11
106 102 3
103 99 14
108 104 0
105 100 14
113 108 11
109 106 16
108 105 14
124 120 11
109 104 16
105 102 19
114 109 16
106 101 16
115 109 22
120 117 11
120 116 16
127 123 19
116 111 28
116 111 26
126 120 22
126 120 30
126 120 19
115 111 14
122 118 35
123 118 30
129 124 25
122 119 32
131 126 28
131 126 34
129 123 39
131 126 32
136 132 39
137 131 33
136 132 22
139 133 25
136 131 28
131 125 28
138 133 36
135 129 36
135 129 47
133 127 39
143 137 39
133 127 30
140 135 32
140 134 36
141 136 37
138 132 34
132 126 28
136 130 30
132 128 30
134 129 39
141 135 45
140 133 34
140 134 37
139 133 41
142 135 44
143 137 37
144 138 51
129 125 32
135 129 36
141 135 44
143 137 44
131 127 34
132 126 25
141 135 42
137 132 34
146 140 45
142 136 49
138 132 39
137 131 42
139 135 39
147 140 53
139 134 37
131 125 47
134 128 45
139 132 45
139 134 44
138 133 45
132 127 45
135 128 49
142 135 48
143 137 58
135 130 42
138 133 47
137 132 49
137 131 42
141 135 47
138 132 37
131 125 44
142 136 54
140 134 47
135 131 42
132 126 30
143 137 51
137 130 48
132 127 41
141 134 54
133 126 48
146 139 58
132 126 48
130 125 48
127 122 34
133 126 49
135 129 54
173 197 0
175 198 0
173 196 0
172 196 0
173 197 0
172 196 0
174 196 0
172 196 0
172 196 0
172 195 0
174 197 0
173 196 0
173 196 0
170 194 0
173 196 0
173 196 0
167 190 0
172 195 0
169 192 0
169 192 0
173 195 0
170 193 0
173 196 0
174 197 67
176 198 62
181 203 88
175 198 62
175 198 80
182 203 108
178 200 84
176 199 76
174 197 62
175 198 76
175 198 76
180 202 102
178 200 92
180 202 102
183 204 102
182 204 111
176 197 80
180 202 95
180 202 92
177 200 95
179 201 95
178 201 95
176 199 99
177 200 72
177 199 67
178 200 88
180 201 80
178 200 92
173 196 84
175 197 76
176 199 80
178 201 99
176 199 88
177 199 84
173 195 57
176 198 84
175 198 62
174 196 76
174 196 67
171 194 72
173 195 72
172 195 88
176 198 84
175 196 36
176 198 72
174 197 72
175 198 102
172 194 57
171 194 80
170 193 62
172 194 67
172 195 51
175 197 72
176 198 62
172 194 51
174 197 67
173 195 62
173 194 67
171 193 62
175 195 67
175 196 72
174 196 72
174 196 72
171 193 76
170 191 72
172 194 76
172 192 95
179 199 76
169 190 72
174 195 84
170 191 84
178 199 102
176 197 84
168 189 99
172 192 95
171 192 102
176 196 102
168 188 92
171 192 62
161 182 62
161 183 62
164 184 76
163 183 72
164 184 76
161 183 44
159 179 0
156 178 0
155 176 0
153 174 0
152 173 0
153 174 0
156 177 0
162 183 0
158 179 0
156 177 0
154 175 0
162 184 0
152 174 0
153 175 0
166 188 0
162 183 25
158 180 51
161 184 25
165 187 25
163 185 80
166 188 72
167 189 0
162 184 0
164 186 0
167 190 0
154 177 0
163 185 0
164 187 0
159 181 0
164 186 0
158 180 0
161 183 0
164 187 0
163 186 0
159 182 0
159 181 0
157 179 0
167 190 0
158 180 0
158 180 0
140 164 40
54 86 97
55 87 99
56 89 100
56 88 94
58 90 120
53 85 82
57 90 111
55 88 97
57 90 107
55 88 102
56 89 103
55 88 103
56 89 108
56 89 97
57 91 100
58 91 111
56 89 107
55 87 107
56 89 102
57 90 111
54 87 99
55 88 95
55 87 105
55 88 97
56 89 108
56 89 114
55 87 94
55 87 95
58 92 117
57 91 114
57 90 110
59 92 118
57 90 99
56 88 107
55 88 100
57 90 108
57 90 103
56 89 114
58 91 113
57 89 105
55 88 102
57 90 113
56 88 108
55 88 103
58 91 108
55 87 95
57 90 107
56 88 105
56 89 114
55 88 103
56 89 107
55 88 97
55 88 95
56 88 111
57 89 102
58 92 110
54 86 99
56 89 102
57 91 114
58 90 118
55 88 105
56 88 108
58 92 117
58 91 110
59 93 128
56 88 102
54 85 92
55 88 100
57 89 114
55 87 99
55 87 110
57 90 108
55 88 100
56 88 111
58 90 108
55 86 92
55 87 107
54 86 92
56 90 115
53 85 103
57 90 108
56 89 113
55 87 97
55 87 101
55 86 107
56 88 111
57 91 115
54 85 105
56 88 104
55 87 105
52 81 97
52 81 88
55 87 108
54 85 101
56 87 110
52 82 88
52 81 89
52 81 94
51 80 85
49 77 77
50 79 90
53 82 89
130 147 51
142 158 0
142 157 0
150 166 0
147 161 0
154 169 0
142 157 0
136 147 0
146 163 0
148 162 0
150 165 0
148 162 0
153 166 0
146 158 0
150 163 0
148 158 0
146 160 0
154 168 0
149 161 0
149 164 0
138 147 0
91 90 16
80 76 22
93 86 16
93 88 19
89 84 22
90 85 22
82 78 0
92 87 16
87 82 11
98 91 22
86 82 11
82 79 8
80 77 0
87 83 0
99 95 0
99 94 11
87 83 0
93 88 8
89 85 0
112 108 14
106 99 3
103 97 0
113 109 11
98 95 11
110 105 11
113 108 11
103 100 11
97 93 8
102 97 11
106 103 12
109 105 18
113 108 14
110 106 16
120 116 16
116 111 14
115 111 29
103 100 22
123 119 16
118 114 18
122 118 24
122 117 22
120 115 19
120 114 32
118 112 11
121 115 22
131 124 23
135 130 32
132 126 19
117 112 19
131 126 18
136 128 32
124 120 31
134 129 19
126 122 34
131 127 25
127 121 22
125 121 16
127 123 22
129 124 22
127 122 30
139 132 36
131 125 28
133 127 32
132 127 28
133 129 28
128 122 36
133 127 37
135 131 30
139 134 36
145 139 39
133 128 34
131 125 36
135 129 41
133 127 42
131 126 32
126 121 28
132 127 36
138 134 36
133 126 39
132 127 37
130 126 30
135 130 37
137 132 37
134 130 37
139 132 48
132 128 37
130 125 36
138 133 30
134 127 39
144 137 53
132 127 36
139 132 49
137 133 39
132 126 41
138 131 41
145 139 44
139 134 37
132 127 41
138 131 41
135 130 32
139 133 45
140 136 36
139 131 49
138 131 45
134 127 39
150 144 49
140 135 51
140 135 49
140 135 47
134 127 42
135 131 36
138 132 54
140 134 49
137 132 39
132 126 45
133 128 41
137 131 48
146 139 56
138 131 48
132 126 39
137 132 47
140 135 47
139 133 45
138 131 51
133 128 45
141 136 57
136 129 48
136 130 47
175 198 0
173 196 0
173 197 0
173 196 0
174 197 0
174 197 0
171 195 0
173 196 0
173 196 0
175 198 0
175 198 0
173 196 0
173 197 0
174 197 0
174 196 0
170 193 0
173 196 0
173 197 0
171 195 0
174 197 0
174 196 0
170 193 0
173 196 0
173 197 0
172 195 0
171 194 25
173 196 80
174 196 80
176 198 76
175 197 84
176 198 62
178 201 88
175 197 67
178 201 80
173 196 62
176 198 57
177 200 67
176 198 67
180 202 102
185 206 114
179 200 111
181 203 95
180 201 105
179 201 114
180 202 114
179 201 108
177 199 84
176 199 84
178 201 95
178 200 84
177 199 99
180 202 108
178 200 84
175 197 92
179 201 92
174 197 76
173 195 62
173 196 99
175 196 62
177 200 95
176 197 76
177 199 76
174 196 88
171 193 67
175 196 92
175 197 80
175 197 51
176 198 76
176 198 76
173 196 72
177 199 95
174 197 92
172 195 92
173 195 72
177 198 88
175 197 80
172 194 76
176 198 76
167 189 57
173 195 88
175 196 80
176 197 76
176 197 80
172 194 67
175 196 95
173 194 80
172 194 84
177 198 95
174 195 72
171 191 88
177 199 99
172 194 92
174 194 72
176 197 108
174 194 95
166 187 76
176 197 102
176 195 108
173 192 105
168 188 80
174 194 92
171 192 80
172 192 80
162 183 62
160 182 80
169 190 72
160 180 36
151 171 0
154 175 0
160 180 0
153 174 0
153 175 0
154 175 0
161 182 0
155 176 0
159 181 0
159 182 0
154 175 0
164 186 0
164 185 0
150 172 0
162 183 25
163 184 25
164 186 51
164 186 51
162 185 25
170 191 92
168 190 57
163 185 0
165 188 0
170 192 0
155 177 0
164 187 0
162 184 0
158 180 0
161 184 0
161 184 0
159 182 0
158 180 0
164 186 0
153 176 0
157 180 0
162 185 0
159 181 0
159 181 0
158 179 0
155 177 0
155 178 0
158 181 0
128 152 54
54 86 95
56 89 95
56 88 107
55 87 97
57 90 110
56 89 110
56 88 99
54 86 95
56 90 103
56 89 100
56 89 100
55 87 102
58 91 111
58 92 117
58 92 120
55 87 97
56 89 111
57 89 100
56 89 108
57 91 110
58 91 122
58 92 113
54 86 95
57 90 108
53 84 95
57 90 108
58 91 115
56 89 111
54 86 92
56 89 102
56 88 97
54 86 99
58 91 111
57 90 114
55 87 105
58 91 114
58 92 118
57 91 115
57 90 107
54 86 108
55 88 100
57 90 117
56 89 108
56 88 100
58 91 117
56 89 118
58 91 114
57 90 107
55 88 100
57 90 102
57 89 111
57 91 113
57 89 111
56 89 103
58 92 114
54 86 100
58 92 113
55 88 100
56 89 110
55 87 97
57 89 108
55 87 92
56 88 107
57 90 110
58 90 105
57 90 105
55 88 107
57 90 108
57 90 107
57 90 117
56 88 107
54 86 92
55 87 100
57 89 108
55 86 108
55 87 95
56 88 108
53 84 97
54 85 94
58 91 117
54 87 97
54 85 94
55 87 101
54 85 95
56 88 110
53 85 99
54 86 107
52 83 97
54 85 101
54 84 97
54 85 97
52 82 95
54 85 106
52 82 94
53 84 89
53 84 94
50 79 83
52 82 99
50 78 82
52 81 104
114 132 58
134 148 0
137 152 0
148 164 0
140 155 0
139 152 0
141 154 0
143 157 0
142 155 0
135 147 0
148 162 0
148 163 0
144 157 0
137 150 0
139 151 0
146 159 0
144 156 0
141 153 0
144 157 0
139 147 0
148 157 0
146 157 0
134 143 0
106 103 28
75 71 11
100 94 20
82 76 0
92 86 16
92 85 16
91 87 0
92 84 16
96 91 28
97 93 16
99 93 0
88 84 0
98 93 11
91 86 5
95 91 0
88 85 8
96 90 0
104 98 0
85 82 5
87 84 0
93 89 0
96 92 0
98 92 8
115 109 0
112 108 8
111 107 3
113 109 16
115 111 16
111 106 3
120 117 11
115 110 12
106 102 0
117 113 11
102 99 0
106 102 11
119 115 14
109 105 0
114 106 0
119 113 16
112 106 14
121 115 11
118 112 18
128 122 22
123 118 28
118 115 0
121 117 22
123 118 26
122 118 0
121 117 25
124 118 16
128 123 25
123 118 22
119 116 19
132 127 37
127 121 19
130 125 11
129 125 30
133 127 34
121 114 25
127 121 19
127 121 25
132 126 34
126 120 37
131 126 30
126 121 19
127 122 32
137 130 36
127 122 11
134 127 37
135 129 37
141 135 37
141 133 36
137 131 39
131 125 30
140 134 25
133 128 36
134 128 37
136 131 36
139 133 37
136 130 34
141 134 42
132 127 32
137 131 36
139 131 34
141 135 45
141 134 41
134 128 34
141 135 47
136 131 36
139 133 42
139 133 37
129 123 44
125 120 30
132 127 41
135 128 37
133 128 30
141 135 42
142 137 41
148 142 47
136 130 39
136 130 36
133 127 41
137 131 37
138 132 47
137 131 47
139 133 45
137 131 42
141 135 49
134 129 45
136 130 42
144 139 52
128 122 37
137 131 51
125 120 37
133 128 39
148 142 56
141 134 49
138 132 44
139 133 42
131 124 42
128 123 45
133 128 44
137 130 41
137 131 44
140 133 49
131 126 41
137 131 45
170 194 0
174 197 0
173 196 0
171 195 0
172 196 0
174 197 0
174 197 0
170 194 0
172 195 0
175 198 0
170 194 0
172 195 0
172 195 0
172 195 0
172 196 0
174 198 0
173 196 0
170 193 0
171 195 0
172 195 0
175 197 0
170 194 0
172 195 0
172 195 0
169 192 0
172 195 0
170 193 0
173 196 25
173 196 36
176 198 72
178 201 92
177 200 51
180 202 88
175 198 92
174 196 80
176 199 80
171 194 44
175 197 76
177 199 51
179 201 84
178 200 76
180 202 95
177 199 102
185 206 130
180 201 80
179 201 111
181 203 120
178 200 72
182 203 88
178 200 102
179 200 88
179 200 95
173 195 105
178 200 95
176 198 84
179 201 88
177 198 76
178 200 80
180 202 108
176 198 72
178 200 84
178 200 84
176 197 76
174 196 84
177 199 108
179 201 88
176 198 84
172 194 57
170 192 80
175 197 92
175 196 99
175 197 80
175 197 67
173 195 76
175 196 76
180 202 114
176 198 92
171 193 80
169 191 80
175 195 57
175 196 99
176 197 80
176 196 67
176 197 84
177 197 80
176 197 92
176 197 102
174 194 99
173 195 84
171 192 84
176 196 111
172 193 92
169 189 80
177 198 114
173 193 108
168 189 84
169 190 80
166 187 72
166 188 76
174 195 114
162 183 76
166 187 76
169 190 88
158 179 67
159 180 44
157 178 0
154 174 0
152 174 0
158 178 0
155 177 0
157 178 0
157 178 0
162 183 0
158 179 0
159 179 0
167 188 0
165 185 25
161 181 0
160 181 0
167 188 0
156 177 0
164 186 0
159 181 0
163 184 51
169 191 57
172 193 84
172 193 0
168 190 0
165 188 0
162 184 0
163 185 0
166 188 0
164 185 0
164 186 0
164 187 0
158 180 0
165 188 0
157 180 0
165 187 0
161 183 0
161 183 0
163 186 0
157 180 0
153 176 0
155 177 0
161 183 0
157 181 0
149 172 0
155 178 0
152 174 0
118 141 78
52 84 86
54 87 84
54 86 88
55 87 103
54 86 96
57 90 107
54 86 74
57 91 113
55 87 102
55 88 102
57 89 113
55 86 92
55 88 99
54 86 88
56 89 102
57 90 110
57 90 107
55 87 99
55 88 97
58 91 108
56 89 107
56 89 113
56 88 110
55 88 92
56 88 100
56 89 103
58 91 108
54 87 97
56 89 108
55 87 102
57 89 105
57 90 100
57 90 102
56 89 105
56 89 92
56 90 100
57 90 108
55 88 102
57 91 108
55 88 90
57 90 107
58 92 110
57 90 110
58 91 110
56 90 107
56 89 107
56 90 108
56 89 99
54 85 99
57 91 114
55 87 97
57 90 113
55 88 107
57 90 110
54 87 94
57 89 110
56 89 105
54 86 95
57 90 110
55 87 102
56 88 103
55 87 97
57 90 121
56 89 99
54 86 103
55 87 100
57 90 103
55 86 115
59 92 117
55 87 99
56 88 110
55 88 99
55 87 100
56 89 100
53 85 88
55 87 90
56 88 114
54 86 90
55 87 95
54 86 99
55 87 107
55 88 107
54 85 94
56 88 102
56 88 95
56 88 107
52 82 90
56 88 99
52 82 81
53 85 94
53 83 90
55 87 107
54 85 90
51 81 85
51 81 77
53 84 102
53 83 97
51 79 89
95 113 62
136 149 0
127 143 0
135 151 0
140 154 0
146 163 0
142 157 0
136 151 0
134 147 0
138 148 0
141 155 0
139 152 0
142 155 0
143 154 0
142 152 0
144 155 0
144 155 0
139 148 0
143 153 0
141 151 0
140 152 0
148 155 0
143 152 0
140 151 0
144 157 0
130 131 19
79 73 22
92 88 14
90 84 16
89 83 25
81 77 11
100 94 19
89 84 14
99 93 11
96 90 11
91 85 3
85 82 8
89 85 0
93 89 0
98 94 11
100 95 0
97 91 0
82 78 0
97 93 11
94 89 11
97 92 11
105 100 14
99 94 0
99 94 0
106 101 0
107 103 11
99 94 0
111 107 14
103 96 8
115 110 14
100 96 11
121 116 11
106 102 14
110 104 16
114 110 8
125 119 16
123 118 23
104 101 8
117 112 16
123 119 16
125 119 25
122 118 22
118 114 22
127 123 11
123 119 11
133 125 30
118 114 19
123 118 24
124 119 16
126 121 16
121 117 19
131 127 22
120 114 28
125 119 22
130 126 16
125 120 22
130 125 28
127 121 22
129 125 16
129 124 28
129 123 25
131 125 34
128 122 32
133 127 25
132 126 32
131 126 32
120 115 25
133 126 30
129 124 22
133 127 32
137 132 39
136 132 32
130 125 34
136 130 34
128 122 30
137 130 32
135 129 34
133 127 32
133 127 37
135 130 30
130 124 36
138 131 36
130 123 28
135 129 34
133 128 36
136 130 41
131 125 39
137 130 44
132 126 45
137 131 42
131 128 25
132 127 37
139 134 42
143 138 45
131 126 34
132 126 37
140 135 42
131 126 37
137 132 39
130 123 32
142 136 44
142 135 42
141 134 45
142 136 48
136 131 37
134 128 39
125 120 34
138 132 45
129 122 42
135 129 42
142 136 42
126 120 37
134 129 44
131 127 39
132 126 44
131 126 37
124 118 42
133 127 47
142 136 44
132 126 48
131 126 47
136 129 44
130 125 47
132 127 41
134 126 47
133 127 44
173 196 0
169 194 0
173 196 0
174 197 25
172 195 0
174 197 0
173 196 0
173 197 0
171 194 0
170 194 0
174 197 0
171 195 0
172 195 0
174 198 0
171 194 0
173 196 0
172 195 0
171 194 0
170 194 0
173 196 0
169 193 0
173 197 0
173 196 0
173 195 0
171 195 0
170 192 0
168 191 0
170 193 0
169 193 0
172 194 0
174 197 51
170 193 57
175 197 76
174 196 57
177 199 84
178 200 76
171 194 36
175 198 67
179 202 92
175 197 67
176 198 67
173 196 57
169 192 44
174 196 57
173 194 84
182 203 117
181 202 92
173 195 84
181 201 108
184 205 130
182 203 117
181 202 108
181 202 122
178 199 88
180 201 84
181 203 105
178 200 102
176 197 62
177 199 88
176 198 92
176 197 88
175 196 92
173 195 72
177 199 67
177 199 72
178 199 88
174 196 88
177 199 92
177 198 72
175 196 88
176 198 92
172 194 84
177 199 80
175 196 84
173 195 99
174 194 88
175 195 84
176 196 76
176 196 84
174 195 80
173 194 102
178 198 99
172 193 88
177 198 99
174 195 84
178 199 111
174 195 99
175 196 92
165 186 76
171 191 102
171 192 92
175 196 108
172 193 95
167 190 57
169 190 76
167 188 51
167 188 67
174 194 72
167 188 72
170 190 76
169 189 88
163 183 51
150 171 0
151 172 0
162 184 0
158 180 0
156 177 0
157 178 0
153 173 0
155 176 0
152 173 0
157 178 0
159 180 25
163 184 0
163 184 25
157 177 0
156 178 0
163 184 0
166 187 0
166 188 25
161 182 36
161 182 25
162 184 36
169 191 44
175 195 76
168 189 0
162 185 0
165 187 0
162 184 0
166 189 0
161 183 0
162 184 0
163 185 0
161 183 0
165 187 0
162 184 0
157 178 0
164 187 0
158 180 0
157 179 0
148 170 0
150 172 0
158 180 0
150 173 0
149 171 0
153 174 0
149 171 0
157 179 0
156 179 0
152 173 0
154 177 0
85 109 70
52 83 90
55 87 95
56 89 97
55 87 90
55 88 94
54 86 99
55 88 100
54 87 100
53 84 97
55 88 102
55 88 92
55 88 100
57 90 105
54 86 94
56 89 97
55 88 95
56 88 110
56 89 100
56 89 95
55 87 102
56 89 102
56 89 105
55 87 99
56 89 111
56 89 103
54 86 97
57 91 115
57 91 105
54 86 90
57 90 108
55 88 105
55 88 102
53 85 95
56 89 114
56 89 110
54 86 103
57 90 115
55 88 107
59 93 121
57 90 110
59 93 121
56 88 99
56 89 113
57 90 113
56 89 111
58 92 113
57 89 107
56 88 102
55 87 99
55 88 100
56 89 105
55 87 102
56 89 113
57 90 99
56 89 103
59 92 122
57 89 107
58 92 124
55 87 100
55 88 88
54 86 99
57 90 114
55 87 105
57 90 100
56 89 110
57 90 107
56 89 92
56 87 105
56 88 97
56 89 103
52 83 82
55 87 99
55 87 97
52 83 94
57 90 107
55 86 91
58 91 122
57 89 107
56 88 102
56 89 110
57 89 107
55 87 105
54 85 100
54 86 97
56 89 107
55 86 104
54 86 102
54 85 94
56 87 94
52 82 92
53 84 101
54 84 93
53 83 97
53 82 97
53 83 96
49 77 89
74 94 75
125 140 18
143 156 0
130 144 0
138 154 0
136 149 0
135 148 0
137 150 0
127 137 0
128 140 0
145 156 0
145 158 0
144 156 0
140 150 0
139 149 0
135 144 0
145 157 0
140 149 0
136 146 0
145 155 0
137 146 0
140 149 0
143 153 0
147 156 0
142 152 0
139 150 0
139 145 0
127 128 11
87 81 19
88 81 19
86 82 19
88 83 19
84 78 0
88 80 16
87 82 0
94 88 18
98 93 11
97 91 8
98 91 11
84 80 16
84 81 8
89 83 0
100 94 0
91 87 0
96 94 8
99 94 0
97 91 0
96 92 11
105 101 11
106 102 14
104 101 8
105 100 8
108 104 11
97 94 11
106 100 0
115 109 8
109 102 11
105 99 3
113 108 0
117 112 0
109 104 0
103 99 8
116 111 22
120 116 0
110 106 0
117 111 19
107 103 18
113 108 16
123 119 22
120 115 16
120 114 19
124 119 22
120 116 19
123 118 11
125 119 22
124 120 11
122 117 16
122 118 25
118 111 28
133 128 30
122 117 25
122 115 16
137 131 22
129 122 25
126 121 11
129 123 22
125 119 34
134 128 25
122 117 30
124 117 28
134 127 32
125 119 25
130 125 34
133 128 25
132 127 30
129 124 28
125 119 16
132 126 34
121 116 30
132 126 32
135 129 37
135 130 28
133 128 28
130 124 25
123 118 25
132 127 30
135 130 30
128 123 36
140 134 34
141 135 45
138 131 37
138 132 44
137 130 48
134 127 37
132 128 37
141 133 44
135 129 37
137 132 41
130 125 28
124 119 32
128 121 37
135 129 42
136 131 42
132 127 34
131 126 30
127 122 37
134 129 36
128 122 32
130 123 44
134 128 41
135 130 34
136 129 44
133 127 41
143 136 49
141 135 45
137 131 39
122 119 39
141 134 48
137 130 42
138 131 52
126 121 34
137 130 53
139 134 45
143 137 51
132 126 42
134 129 45
134 128 44
132 125 48
133 128 47
135 128 45
133 127 48
130 125 44
173 196 0
172 196 0
170 194 0
174 196 0
174 197 25
174 197 0
170 194 0
170 194 0
169 193 0
173 196 0
172 195 0
169 193 0
174 197 0
174 196 0
172 196 0
174 197 0
173 197 0
173 195 0
173 196 0
171 194 0
174 196 0
171 194 0
171 194 0
173 197 0
170 193 0
170 193 0
174 197 0
173 196 0
170 193 0
170 193 0
169 192 0
174 196 0
173 195 0
173 195 57
173 195 67
177 199 84
177 199 62
178 200 92
179 200 88
175 197 72
176 199 84
178 200 72
176 197 67
178 199 88
175 197 62
176 198 44
174 196 44
177 199 62
179 200 105
178 199 117
180 201 95
181 201 117
179 200 92
177 199 88
183 204 102
173 194 99
179 200 88
177 199 92
181 201 102
180 200 105
181 202 88
179 200 95
179 200 92
178 199 88
180 200 88
176 197 99
177 198 92
176 197 88
176 197 102
174 195 76
173 193 72
176 197 84
177 198 84
173 194 84
175 196 80
178 199 120
173 194 76
180 201 108
181 201 114
173 193 92
177 198 108
171 192 95
173 194 84
176 197 108
170 190 95
177 197 111
175 195 99
170 191 88
167 188 84
168 190 57
173 194 80
168 189 76
165 187 80
170 190 72
165 186 92
165 186 57
162 183 67
162 183 51
159 179 36
157 178 0
155 176 0
159 180 0
154 175 0
161 182 0
158 179 0
161 182 0
158 180 0
155 176 0
156 177 0
159 178 0
161 182 0
160 180 0
166 186 0
158 178 0
161 182 0
165 186 0
156 177 0
155 176 0
152 173 44
158 180 36
161 183 36
166 188 36
167 188 72
164 185 51
164 187 0
166 188 0
157 179 0
169 191 0
162 184 0
163 185 0
157 179 0
165 186 0
164 186 0
154 175 0
158 180 0
160 182 0
153 176 0
157 180 0
160 182 0
154 176 0
163 185 0
155 177 0
147 169 0
148 170 0
156 177 0
149 171 0
161 183 0
143 165 0
156 178 0
154 176 0
150 172 0
150 173 18
92 117 67
56 89 102
52 84 86
55 87 95
55 87 95
56 88 99
55 86 107
55 88 88
55 87 86
54 86 90
54 87 95
55 87 97
52 83 84
55 87 94
56 89 99
55 87 97
57 90 107
55 87 95
57 90 113
56 89 110
56 89 100
56 88 102
56 89 113
55 87 90
56 88 103
57 89 103
56 88 102
55 88 95
55 88 88
57 90 108
57 90 105
55 87 103
58 92 113
55 87 94
56 89 103
54 85 100
52 83 88
57 90 99
55 87 97
54 86 90
56 88 115
57 90 103
53 85 95
54 86 94
56 88 114
56 89 111
55 87 103
55 87 102
56 89 110
56 89 114
56 88 105
56 89 103
58 91 111
55 87 99
57 89 107
55 87 107
58 91 115
54 86 88
55 86 99
56 89 105
55 88 115
56 88 107
55 87 97
56 88 107
55 87 108
54 86 83
55 87 105
53 85 88
55 87 97
55 88 100
55 87 111
58 91 113
55 87 103
57 89 111
53 84 97
54 85 102
55 87 95
52 83 83
56 89 103
55 86 95
56 88 102
54 86 103
52 83 90
51 82 90
54 86 92
52 83 74
53 85 94
54 85 95
55 86 94
51 80 97
54 85 97
52 82 96
51 80 89
49 77 74
48 75 83
83 104 77
126 140 0
135 148 0
132 145 0
142 155 0
126 139 0
128 140 0
133 147 0
134 147 0
133 145 0
136 150 0
140 154 0
128 137 0
129 141 0
134 147 0
134 146 0
140 154 0
138 149 0
130 140 0
137 146 0
133 139 0
138 148 0
132 140 0
143 148 0
138 145 0
142 152 0
134 143 0
140 148 0
139 148 0
124 128 0
95 93 16
73 68 0
86 78 0
90 83 16
81 76 19
81 74 16
80 74 16
92 86 11
81 77 0
85 79 16
94 87 11
88 85 8
90 82 11
93 89 0
91 88 0
90 87 0
93 88 0
92 89 0
103 97 11
106 101 11
94 89 0
103 99 11
102 96 0
102 97 0
103 100 16
107 100 0
100 95 11
110 106 11
111 106 0
107 101 0
115 110 11
117 112 11
119 113 0
116 112 14
110 105 11
99 94 11
109 106 11
115 109 0
109 103 16
122 117 19
123 118 0
116 111 0
107 103 19
118 114 24
115 111 16
115 111 16
120 114 16
125 120 22
123 117 16
123 118 16
122 116 0
129 123 11
125 119 22
125 121 26
120 116 0
133 127 19
126 119 22
125 120 28
126 121 25
128 122 30
118 113 11
128 121 25
134 127 22
134 128 32
137 130 32
135 130 25
131 126 30
136 130 41
135 129 36
137 131 28
135 128 37
134 129 30
135 128 36
128 123 28
132 126 30
129 125 32
130 125 25
135 130 34
136 130 30
127 121 30
129 123 32
133 127 36
134 128 28
134 129 36
128 123 30
136 129 39
130 124 41
130 125 37
126 120 32
132 127 32
142 136 41
140 135 36
132 127 41
134 127 39
131 126 37
138 133 44
133 126 39
140 133 39
129 124 41
135 130 36
136 130 37
129 124 42
130 125 42
128 123 34
134 128 36
131 125 37
132 126 28
132 124 45
129 123 36
127 122 39
131 126 39
132 126 37
124 119 34
132 126 37
133 128 42
137 131 53
126 121 39
128 122 45
133 127 37
135 128 51
132 127 41
141 135 51
133 127 44
172 197 25
173 196 0
174 198 25
174 197 0
171 194 0
173 196 0
172 195 0
175 197 0
171 194 0
171 194 0
171 195 0
171 195 0
170 193 0
171 195 0
172 196 0
169 193 0
171 195 0
172 194 0
171 194 0
170 193 0
171 195 0
172 195 0
170 194 0
171 195 0
175 198 0
168 192 0
170 194 0
174 196 0
170 194 0
167 190 0
171 194 0
170 194 0
170 192 0
170 193 0
172 195 0
173 196 25
171 193 44
173 195 51
177 199 76
176 198 95
176 199 67
175 198 88
175 197 80
178 199 88
176 198 102
177 199 84
180 201 84
176 198 72
177 199 62
175 198 72
176 198 62
172 195 62
180 201 88
180 202 80
178 199 76
175 196 72
181 202 108
180 201 84
176 196 102
179 199 92
179 199 95
181 201 111
177 197 84
180 200 99
180 201 111
178 198 105
182 202 102
177 198 99
179 199 84
181 201 108
177 197 102
174 195 80
179 199 117
173 193 92
176 197 99
180 200 117
180 201 114
176 196 105
173 195 95
177 198 99
170 191 62
171 192 67
174 195 72
176 197 111
164 186 76
167 189 62
170 191 108
170 192 57
168 189 84
168 189 80
166 187 67
170 192 62
169 190 44
164 186 51
160 181 62
163 185 44
153 175 0
155 176 0
162 183 0
159 181 0
160 181 0
166 187 0
153 174 0
159 179 0
157 179 0
158 179 0
154 174 0
155 175 0
162 182 0
158 177 0
157 178 0
165 185 0
160 181 0
161 183 0
164 184 0
157 178 0
164 184 0
160 182 36
167 187 36
160 181 36
168 189 62
164 184 84
167 188 25
165 186 0
169 190 0
167 188 0
162 184 0
158 180 0
160 181 0
164 186 0
160 182 0
168 190 0
157 180 0
170 191 0
159 181 0
155 178 0
151 172 0
154 176 0
155 177 0
159 180 0
156 178 0
149 170 0
152 175 0
155 179 0
155 177 0
157 179 0
148 169 0
158 180 0
154 177 0
147 169 0
146 169 0
158 180 0
140 163 25
74 101 72
55 87 86
53 84 88
52 83 90
52 83 80
54 86 90
55 88 86
54 86 88
56 88 88
55 88 95
54 86 92
57 90 102
55 88 97
56 89 99
56 89 111
54 86 94
55 88 94
57 89 102
57 89 105
56 88 110
56 89 97
55 87 102
54 86 92
54 86 86
54 86 107
55 87 92
55 87 107
56 88 110
56 89 99
56 89 102
53 85 95
58 91 108
58 92 111
54 85 95
55 88 102
53 85 86
59 93 125
55 88 103
56 88 100
55 87 88
56 87 110
56 88 100
55 87 107
53 85 90
55 88 99
53 84 95
58 91 117
56 88 107
53 83 92
55 87 102
54 86 92
57 90 105
57 89 105
55 86 102
55 88 100
56 88 103
55 87 100
55 87 100
55 86 105
54 86 105
57 90 113
55 87 102
55 88 108
57 90 107
54 86 95
55 87 94
54 86 95
54 86 97
54 85 95
55 88 102
54 86 102
54 86 100
54 86 97
54 84 95
53 83 97
52 82 86
54 84 92
54 85 103
54 85 95
55 87 107
53 84 102
54 85 104
52 82 85
55 86 99
56 88 107
53 84 99
54 85 87
52 82 88
51 82 89
52 82 83
53 82 92
53 83 79
50 79 87
76 97 63
119 131 31
132 148 0
126 140 0
131 143 0
133 144 0
125 139 0
125 138 0
125 137 0
122 135 0
123 134 0
129 140 0
134 145 0
128 137 0
135 147 0
139 149 0
129 139 0
134 144 0
138 148 0
127 136 0
130 139 0
132 142 0
121 130 0
141 150 0
118 125 0
128 133 0
131 138 0
134 140 0
137 144 0
126 134 0
138 146 0
134 140 0
113 111 11
76 73 19
86 80 19
85 78 16
85 80 11
82 75 0
92 86 19
87 79 11
93 87 16
92 88 8
90 85 11
89 82 0
91 84 0
94 90 8
100 94 0
91 84 11
83 79 0
93 87 0
99 95 8
101 95 0
96 92 0
93 87 0
103 97 0
111 106 8
93 88 0
105 99 0
106 101 0
101 96 0
104 99 8
100 95 14
114 108 11
100 96 8
114 109 0
103 99 11
108 102 8
109 104 11
110 107 0
115 110 0
113 107 11
112 107 19
115 110 19
116 112 19
117 111 19
125 121 11
119 113 16
122 118 19
123 118 11
121 116 16
123 117 29
121 116 25
127 121 19
119 114 32
125 121 19
125 119 22
130 123 19
132 127 32
131 125 37
128 120 30
123 119 19
123 119 25
128 123 19
134 129 25
124 117 28
124 118 28
121 115 11
123 119 22
123 118 28
131 121 25
136 129 25
127 121 28
129 124 30
134 128 32
128 124 36
129 124 34
117 111 16
131 126 28
128 123 32
133 127 41
137 132 36
134 128 39
126 120 30
129 124 30
136 130 32
143 136 36
135 128 39
133 127 37
129 123 42
135 129 36
132 126 30
129 124 34
135 128 44
142 135 39
131 124 39
137 132 37
136 129 44
140 133 45
121 115 37
129 124 32
133 126 47
127 121 30
134 129 41
132 127 41
132 126 42
130 123 44
135 129 45
137 129 51
132 128 39
125 119 34
135 129 32
127 122 32
121 115 39
135 127 47
140 134 42
143 136 45
132 125 45
135 130 41
124 120 39
136 131 39
135 129 42
133 126 47
131 124 41
136 129 56
173 196 0
173 197 0
175 198 0
174 197 0
175 198 0
174 197 0
173 197 0
171 195 36
173 196 0
173 196 0
174 198 0
170 193 0
170 194 0
171 194 0
172 195 0
174 197 0
173 197 0
171 194 0
173 196 0
169 193 0
172 196 0
172 195 0
169 192 0
173 195 0
173 195 0
170 193 0
171 193 0
173 196 0
170 193 0
173 196 0
169 192 0
175 197 0
171 194 0
168 191 0
172 195 0
172 195 0
172 196 0
173 195 0
169 192 0
175 197 0
171 193 62
172 194 44
176 199 76
177 199 84
174 196 67
171 193 72
173 195 67
175 197 62
176 198 92
178 199 67
175 197 88
177 198 84
176 198 80
172 195 57
178 200 84
175 197 72
174 196 44
176 198 67
175 197 76
174 195 62
181 201 92
178 200 102
170 191 62
177 198 76
176 197 88
174 195 72
178 199 84
180 200 80
179 200 92
176 196 88
175 196 84
176 197 72
176 195 95
173 195 99
175 197 72
174 195 62
173 195 88
164 186 51
175 196 72
171 193 62
169 190 57
171 192 84
172 193 84
172 193 80
171 192 76
171 191 92
170 191 76
166 187 62
171 192 76
175 196 76
171 192 62
167 189 44
160 181 25
161 182 0
159 180 0
159 181 0
166 186 0
161 182 0
159 181 0
159 180 0
156 177 0
151 171 0
160 180 0
158 179 0
163 184 0
157 177 0
165 185 0
153 174 0
157 177 0
156 179 25
167 188 0
155 176 0
158 179 0
161 183 0
163 183 0
161 182 44
164 185 44
165 187 36
168 189 44
163 185 44
168 190 51
160 182 0
166 188 0
167 189 0
170 191 0
170 192 0
162 184 0
159 180 0
159 180 0
163 185 0
160 182 0
152 173 0
160 182 0
160 181 0
157 179 0
158 180 0
156 178 0
158 179 0
156 178 0
149 172 0
148 169 0
151 172 0
153 175 0
152 173 0
150 171 0
149 171 0
150 172 0
147 168 0
141 163 0
154 176 0
147 168 0
152 174 0
146 167 0
145 166 18
72 99 80
55 86 90
54 85 86
56 89 102
54 86 99
53 85 90
53 84 92
57 89 105
54 86 90
55 88 105
55 87 100
54 86 100
56 88 102
57 89 108
55 88 92
53 84 105
57 90 107
55 88 95
55 88 94
53 85 76
55 87 103
54 86 94
55 88 100
55 87 92
54 85 103
53 85 80
57 90 114
55 88 103
56 88 107
56 89 97
57 90 103
55 88 110
55 88 97
56 89 95
53 85 94
57 91 117
57 90 108
54 86 94
55 87 100
55 87 103
57 90 86
54 86 100
56 89 117
56 88 95
56 88 95
55 88 97
54 86 102
56 88 100
54 86 97
55 87 110
57 90 107
54 86 100
56 88 107
56 88 110
56 89 100
54 86 84
55 88 86
54 86 90
53 84 76
54 86 95
57 90 110
56 88 107
56 88 102
54 86 99
52 84 97
54 86 88
55 87 100
52 83 80
57 89 102
54 85 103
56 88 108
54 86 95
55 86 99
56 87 111
53 83 80
54 86 95
57 90 103
54 85 102
55 86 84
54 86 92
55 85 105
53 84 99
54 85 102
53 83 90
53 83 90
52 83 88
52 83 92
49 78 88
48 76 72
52 82 89
51 80 91
77 98 70
117 130 25
124 138 0
127 142 0
123 136 0
122 135 0
130 143 0
120 133 0
138 152 0
128 141 0
129 140 0
136 147 0
135 148 0
130 141 0
126 137 0
139 151 0
140 153 0
125 134 0
128 138 0
123 129 0
120 126 0
115 125 0
131 140 0
129 137 0
134 141 0
129 137 0
123 128 0
124 131 0
121 127 0
129 132 0
130 137 0
126 132 0
129 132 0
138 142 0
113 114 0
85 80 16
85 77 19
79 71 0
85 79 0
92 87 0
81 77 16
82 77 11
88 82 0
81 78 0
96 92 16
98 92 16
86 79 0
93 87 16
96 91 0
92 86 0
105 100 11
95 90 8
100 93 0
104 96 0
89 86 0
107 101 8
93 87 0
112 106 0
104 99 0
112 106 0
109 105 0
107 103 0
101 96 0
114 107 8
105 101 0
109 104 11
103 98 0
111 105 0
114 108 0
113 108 11
108 103 11
114 106 11
113 109 11
120 116 11
112 106 19
107 101 11
111 106 0
126 120 16
120 113 11
119 114 16
117 112 11
124 118 19
119 113 22
125 119 16
128 121 19
121 115 16
126 120 19
122 115 11
121 117 22
110 105 11
128 123 19
135 129 30
129 122 22
133 128 19
122 118 16
119 111 22
129 124 25
128 123 30
122 117 22
132 128 22
130 123 30
145 137 49
132 128 30
137 132 28
131 125 36
132 128 22
121 117 22
137 132 34
138 132 30
131 124 32
130 124 36
126 121 36
135 130 28
131 124 37
128 122 36
132 127 32
129 124 34
131 126 36
137 131 37
127 122 28
133 127 37
129 124 34
130 125 28
137 131 39
135 129 30
139 132 47
122 117 25
124 117 30
137 130 45
130 124 34
129 123 32
134 130 41
128 122 37
137 131 47
136 131 37
132 128 37
136 130 45
136 131 44
128 122 34
126 120 34
134 127 37
128 122 39
133 127 34
130 126 30
126 120 37
125 120 34
136 130 39
130 125 42
137 132 54
132 127 44
136 129 49
129 124 39
135 128 48
131 125 41
121 116 36
173 197 25
171 195 0
172 195 0
170 195 25
174 197 0
175 198 0
173 197 0
172 196 0
172 195 0
170 193 0
169 192 0
173 195 0
172 195 0
168 192 0
173 196 25
171 194 0
173 196 0
173 195 0
170 193 0
173 196 0
170 194 0
169 191 0
169 192 0
170 194 0
172 195 0
172 194 0
172 194 0
171 194 0
172 195 0
170 193 0
169 192 0
171 193 0
172 194 0
170 193 0
171 194 0
172 195 0
173 196 0
172 195 0
171 194 0
171 193 0
168 191 0
168 191 0
169 191 0
174 196 36
172 195 25
174 195 51
172 195 51
175 197 72
172 194 67
176 198 72
176 197 95
177 199 80
177 199 72
174 195 62
179 201 76
174 195 80
179 200 80
175 196 76
177 199 80
179 200 88
175 197 72
177 198 67
177 198 76
177 199 92
174 195 72
178 198 88
176 197 80
177 198 67
176 197 67
177 198 92
178 198 84
173 195 57
172 192 67
175 196 62
170 191 57
169 190 76
168 188 62
173 195 92
168 189 72
172 193 76
171 193 92
174 195 84
168 188 76
173 194 62
172 193 80
165 186 72
163 186 57
162 183 62
164 184 44
164 185 0
155 176 0
168 189 0
151 172 0
152 174 0
156 177 0
159 181 0
158 179 0
160 182 0
160 180 0
160 180 0
164 185 0
153 174 0
157 178 0
157 178 0
159 180 0
151 172 0
158 178 0
159 180 0
164 185 0
160 181 0
157 179 0
159 180 0
158 180 0
169 188 72
168 189 44
166 187 57
167 189 62
173 194 51
166 186 57
160 181 0
161 183 0
163 185 0
167 189 0
164 185 0
162 183 0
165 187 0
165 186 0
160 181 0
163 184 0
162 184 0
154 175 0
160 181 0
158 179 0
152 174 0
158 180 0
157 177 0
162 183 0
155 177 0
153 176 0
151 174 0
152 173 0
157 179 0
148 169 0
156 178 0
151 172 0
150 171 0
142 163 0
148 169 0
147 169 0
146 168 0
153 176 0
155 177 0
143 164 0
152 173 0
140 161 18
84 109 78
53 84 80
54 86 92
54 86 82
57 90 111
53 85 80
54 86 90
57 90 92
56 88 103
56 88 105
56 88 97
56 88 97
55 87 95
54 86 86
57 90 115
56 89 102
55 87 108
56 89 102
55 88 95
54 86 103
54 86 92
55 87 95
55 88 100
54 86 99
54 86 92
57 90 108
57 89 107
56 88 103
56 88 108
55 87 97
56 88 94
55 88 103
56 88 97
55 87 88
57 90 103
56 89 107
54 85 107
57 90 105
55 88 103
55 88 97
57 91 110
54 86 107
54 86 103
56 88 111
56 88 92
57 90 95
54 86 90
52 83 76
53 85 86
54 85 100
56 88 107
56 88 97
55 87 103
53 84 84
54 86 97
56 88 105
56 88 111
56 88 92
53 84 89
57 90 110
55 87 99
54 86 95
56 88 117
55 87 102
55 87 100
56 89 114
56 88 95
55 87 102
57 90 110
53 84 86
54 86 95
55 88 105
55 87 110
55 88 102
53 84 90
52 83 82
56 87 105
52 82 75
55 87 97
53 84 88
55 87 108
55 86 94
50 79 91
52 82 96
49 77 81
53 83 94
45 72 61
50 79 70
50 79 79
70 90 63
116 129 0
113 124 0
125 139 0
129 144 0
122 135 0
125 139 0
128 140 0
133 146 0
120 133 0
127 141 0
122 135 0
118 130 0
126 138 0
124 136 0
127 138 0
127 136 0
119 127 0
122 132 0
126 136 0
125 135 0
127 137 0
124 132 0
133 142 0
126 132 0
126 136 0
121 126 0
120 126 0
111 117 0
125 130 0
131 137 0
124 124 0
125 128 0
127 130 0
126 130 0
116 119 0
121 123 0
108 106 22
85 81 19
75 68 16
86 80 16
82 76 14
90 82 0
82 76 11
83 77 16
89 84 3
79 73 0
94 88 11
97 91 16
83 76 11
96 90 0
96 89 0
102 97 0
90 85 0
99 93 0
88 82 0
96 90 0
102 96 0
90 86 0
119 112 8
103 99 0
111 105 0
114 107 0
106 100 8
107 101 0
102 97 0
111 105 0
106 102 0
112 107 0
103 99 0
106 100 11
113 110 0
114 107 18
110 106 0
106 100 11
111 107 11
121 115 16
119 112 11
115 110 11
127 119 19
121 116 0
125 119 19
119 115 11
115 111 0
119 114 11
120 115 19
121 115 11
122 117 22
120 114 25
132 126 16
125 119 22
127 119 25
123 117 25
124 119 19
134 128 28
131 124 22
125 118 25
122 116 19
124 118 25
125 119 11
127 120 30
127 121 25
141 134 30
129 125 28
124 118 28
132 126 32
133 126 37
131 125 25
129 121 34
138 132 36
128 122 25
127 122 28
136 130 36
129 124 32
134 128 41
123 118 25
134 127 32
127 121 37
138 130 34
127 121 32
133 129 36
134 127 37
130 124 30
134 126 39
126 120 25
134 128 32
131 125 36
136 130 41
138 132 45
130 123 39
132 127 34
122 118 32
126 119 28
129 122 32
122 116 36
132 126 44
127 122 37
131 125 36
130 122 37
118 113 32
123 117 34
129 124 39
134 130 44
134 128 47
127 121 36
129 125 42
121 116 37
136 130 41
127 121 41
130 124 44
131 126 39
142 135 59
139 132 47
133 126 42
118 112 41
125 118 39
174 197 25
173 196 25
173 196 0
173 196 25
171 195 0
170 194 0
170 193 0
174 197 0
173 196 25
173 196 0
172 196 0
173 196 0
171 194 0
172 195 0
171 195 0
173 196 0
172 195 0
171 194 0
173 196 0
172 195 0
171 194 0
172 195 0
173 197 0
170 193 0
169 192 0
173 196 0
174 197 0
176 199 0
170 193 0
171 193 0
173 195 0
174 197 0
170 193 0
171 194 0
170 192 0
174 196 0
175 198 0
170 193 0
173 197 0
169 192 0
167 190 0
170 192 0
170 192 0
169 192 0
174 196 0
169 192 0
169 192 0
174 196 25
173 195 25
170 192 36
168 191 51
173 196 51
172 194 76
169 191 62
177 198 76
177 199 62
175 196 72
178 200 67
174 196 72
174 196 72
173 195 72
177 198 80
178 199 72
174 196 67
170 191 51
178 199 76
175 196 67
175 196 92
175 197 67
173 194 72
171 193 76
176 197 88
177 198 88
170 192 72
165 186 62
168 190 44
169 190 51
172 194 80
168 189 44
171 192 80
170 191 51
167 188 51
160 181 0
165 187 36
165 187 0
159 181 0
155 177 0
168 189 0
162 183 0
158 180 0
156 178 0
168 188 0
163 184 0
162 182 0
160 181 0
156 178 0
161 182 0
158 178 0
156 177 0
162 183 0
158 179 0
159 180 0
158 179 0
161 182 0
159 180 0
155 177 0
165 185 0
157 178 0
157 179 25
156 177 0
165 185 0
159 179 0
160 180 57
164 185 44
163 183 25
164 186 36
174 195 84
166 188 36
162 183 0
156 178 0
162 182 0
164 185 0
164 185 0
160 181 0
158 179 0
162 183 0
154 176 0
164 186 0
161 181 0
151 172 0
166 187 0
154 176 0
153 174 0
148 170 0
156 178 0
162 183 0
159 181 0
144 165 0
143 165 0
150 171 0
152 174 0
155 177 0
146 167 0
151 173 0
154 175 0
143 163 0
149 169 0
151 173 0
148 170 0
145 167 0
144 165 0
148 169 0
142 163 0
133 154 0
146 167 0
143 164 0
89 113 72
53 85 86
54 85 90
52 83 90
54 86 82
55 87 100
55 87 86
53 84 90
51 82 82
54 86 82
56 88 114
53 85 78
53 84 92
53 84 95
54 87 86
55 87 100
55 87 97
55 87 99
54 86 95
56 88 102
58 91 97
53 84 82
58 90 107
55 86 94
54 85 110
55 88 97
53 84 84
56 89 111
56 88 103
52 83 86
55 88 107
55 87 94
55 87 103
54 86 97
55 87 97
57 90 107
53 84 100
55 87 92
55 86 99
54 85 90
56 89 113
56 89 110
56 88 113
56 89 108
56 88 103
55 87 97
56 88 108
54 86 95
52 83 90
54 86 90
52 84 76
53 85 88
57 90 111
54 86 90
55 87 107
55 88 95
57 89 110
56 89 105
54 86 84
54 86 100
55 87 107
55 87 99
57 89 105
53 83 95
52 82 94
54 85 97
54 85 97
56 87 107
54 86 103
53 84 96
55 86 103
53 85 94
53 85 99
52 83 90
52 83 92
54 85 96
53 84 94
52 83 80
51 80 82
53 84 90
51 80 84
53 83 89
51 80 79
53 83 94
53 83 100
50 79 82
48 76 84
77 96 63
112 125 0
126 141 0
126 140 0
116 130 0
132 145 0
118 127 0
110 121 0
120 132 0
123 135 0
125 136 0
133 147 0
116 125 0
126 139 0
128 141 0
120 129 0
122 132 0
109 119 0
118 125 0
124 131 0
135 146 0
125 133 0
125 133 0
126 136 0
121 125 0
125 133 0
115 122 0
119 128 0
128 135 0
129 136 0
119 126 0
122 124 0
117 122 0
109 114 0
119 123 0
112 114 0
126 129 0
116 120 0
133 135 0
121 122 11
90 85 11
74 68 0
73 66 0
96 89 25
70 66 0
87 81 16
94 86 0
90 85 11
98 90 11
87 82 0
92 86 0
92 85 8
93 87 0
93 86 11
95 90 0
97 91 0
100 94 0
104 98 0
101 94 0
102 96 0
94 91 0
91 86 0
103 96 0
105 99 0
111 105 11
104 94 0
99 93 0
110 102 8
98 92 0
98 94 8
105 101 0
106 100 11
112 106 0
110 103 0
108 101 0
122 116 19
117 112 0
119 114 11
111 105 0
117 112 11
113 108 11
116 111 0
116 110 11
118 113 0
122 116 19
118 111 0
121 113 11
122 118 16
121 114 16
126 120 19
118 111 25
117 110 16
130 124 25
129 122 28
123 117 11
129 124 16
115 109 25
128 121 19
125 119 19
124 119 22
120 113 11
119 114 22
128 122 28
132 128 11
125 119 25
116 110 22
131 125 37
135 129 34
125 121 25
119 114 25
127 122 16
127 123 30
122 115 22
130 123 28
126 120 30
128 121 32
127 122 25
126 120 22
133 127 34
121 115 22
125 118 32
132 125 30
127 121 28
130 124 37
127 121 25
130 124 37
126 121 28
122 117 32
132 126 37
133 126 36
130 123 22
125 119 36
129 122 39
138 132 39
124 118 39
125 119 39
133 127 36
129 124 37
129 125 34
135 128 30
132 125 45
128 122 41
135 128 49
137 131 49
129 123 36
128 120 39
124 118 36
137 131 45
128 121 44
124 117 34
131 124 47
124 119 37
132 125 41
130 123 47
129 123 39
132 126 41
126 120 41
175 199 44
174 197 36
173 196 25
174 197 0
172 194 25
171 194 25
172 195 0
174 197 0
173 197 0
171 194 0
172 195 0
173 196 0
173 196 0
172 196 0
173 196 0
174 197 25
173 196 0
173 196 0
171 194 25
174 197 0
173 197 0
171 193 0
173 196 0
172 195 0
165 188 0
173 195 0
172 195 0
171 194 0
171 194 0
173 196 0
171 194 0
173 195 0
173 195 0
173 196 0
172 194 0
169 191 0
173 195 0
170 193 0
171 192 0
172 195 0
168 191 0
165 188 0
170 193 0
170 193 0
169 191 0
169 191 0
170 193 0
175 197 0
168 190 0
168 190 0
168 190 0
164 187 0
170 193 0
168 190 0
166 188 0
172 194 0
172 194 44
168 189 36
169 192 25
174 196 51
168 190 62
169 192 51
170 191 36
176 197 62
170 192 62
170 192 67
170 192 72
167 188 36
166 187 62
172 193 62
166 187 25
171 192 62
169 191 44
164 186 44
165 188 25
169 191 25
168 188 0
165 186 0
163 185 0
170 191 0
162 182 0
165 186 0
164 185 0
161 182 0
164 187 0
159 181 0
158 179 0
164 184 0
163 185 0
164 185 0
161 181 0
165 186 0
162 183 0
162 183 0
160 181 0
163 185 0
162 183 0
166 187 0
157 178 0
163 184 0
160 180 0
161 182 0
157 177 0
156 177 0
159 179 0
158 179 0
164 184 25
156 177 0
166 186 0
164 184 0
165 185 51
173 193 36
170 190 51
164 185 36
173 193 76
168 189 67
170 190 0
165 186 0
164 184 0
159 181 0
158 179 0
162 183 0
163 184 0
158 179 0
158 181 0
156 178 0
159 180 0
159 181 0
151 172 0
161 181 0
153 174 0
157 177 0
158 179 0
155 176 0
160 180 0
152 173 0
155 175 0
148 169 0
155 177 0
154 176 0
154 174 0
145 167 0
145 167 0
146 167 0
150 171 0
145 166 0
147 168 0
153 174 0
148 169 0
145 165 0
141 162 0
135 156 0
138 159 0
145 166 0
136 158 0
138 159 0
131 152 18
97 119 67
52 83 86
55 87 94
51 82 76
54 86 88
52 83 86
52 83 76
53 85 86
55 87 95
55 87 92
54 86 92
54 86 90
55 87 92
54 86 102
53 84 90
53 84 95
55 88 100
55 87 108
54 86 88
55 88 95
49 79 78
56 88 110
56 89 107
54 86 92
55 87 113
55 87 90
53 84 86
52 83 86
55 87 99
53 85 97
56 89 97
54 85 90
55 88 95
54 86 103
57 90 95
54 86 88
53 85 90
53 84 84
56 88 110
53 84 92
55 87 92
53 85 97
54 86 90
56 88 105
55 86 103
56 88 105
52 83 84
54 86 99
55 87 99
57 89 110
56 88 103
56 87 110
54 85 99
53 85 86
53 84 90
56 87 110
53 85 97
53 85 92
54 86 90
55 87 90
54 86 97
54 85 95
56 88 100
51 82 88
53 85 95
53 84 95
55 86 102
53 83 95
52 82 88
53 85 92
53 84 90
54 85 86
48 77 74
52 82 90
54 84 94
53 83 92
53 83 86
52 83 94
52 82 92
49 77 70
52 82 78
47 75 78
53 83 81
50 78 89
47 75 85
91 109 68
116 128 0
117 129 0
125 138 0
117 130 0
122 134 0
128 141 0
112 124 0
123 137 0
130 143 0
124 137 0
126 139 0
114 124 0
111 122 0
126 138 0
117 129 0
124 135 0
124 134 0
120 129 0
114 121 0
123 132 0
118 126 0
129 138 0
125 132 0
118 128 0
117 124 0
112 120 0
125 130 0
118 124 0
121 127 0
124 130 0
118 121 0
116 119 0
116 119 0
109 113 0
114 118 0
111 113 0
116 118 0
117 121 0
120 122 0
110 111 0
113 116 0
102 99 11
77 71 11
70 63 16
84 77 0
74 69 0
80 72 11
86 78 0
89 82 0
79 73 0
79 74 0
91 85 0
92 87 0
89 83 0
91 86 0
98 92 0
98 92 16
93 86 0
98 93 0
95 90 0
103 95 0
109 103 0
98 94 0
109 103 0
91 85 8
95 90 0
112 106 0
104 98 0
104 97 0
109 101 0
92 88 0
103 96 11
109 104 0
112 107 0
113 107 0
115 108 0
113 107 0
110 103 0
114 110 0
128 122 11
114 110 0
117 111 11
117 110 19
117 111 11
116 109 11
117 112 11
124 119 11
125 119 16
120 114 25
123 118 16
120 115 16
121 115 19
111 104 11
117 113 16
116 109 16
123 118 16
123 116 25
127 121 28
115 110 11
128 122 19
119 113 19
123 117 28
116 111 11
132 123 30
132 125 37
133 127 28
125 119 19
121 116 28
129 121 25
127 122 19
130 124 36
124 120 22
129 122 28
133 126 32
120 115 22
128 122 34
125 119 19
126 120 30
129 123 34
130 123 32
124 116 37
132 124 37
129 123 36
130 124 28
122 117 25
126 122 30
132 125 36
133 126 36
127 120 36
133 126 32
136 131 41
127 121 37
125 118 32
128 121 34
136 130 42
130 125 39
133 126 47
133 126 48
121 115 28
127 121 41
133 125 44
127 120 42
124 117 34
128 121 34
124 118 28
131 126 37
138 130 47
123 116 41
122 116 22
133 126 49
130 124 39
133 126 44
122 116 37
129 121 48
136 128 51
125 121 37
118 112 45
173 196 44
175 198 44
174 198 44
176 199 25
173 196 25
173 196 0
173 196 0
173 195 0
174 197 0
168 192 0
172 195 0
173 196 0
175 198 25
171 194 0
172 196 0
174 197 0
172 196 0
171 195 0
172 196 0
176 198 25
175 198 25
173 196 0
173 195 25
172 195 0
174 197 0
170 192 0
172 194 0
169 192 0
173 195 0
171 194 0
176 198 0
172 195 0
173 196 0
173 196 0
170 193 0
173 196 0
170 192 0
171 193 0
172 195 0
172 194 0
169 191 0
170 192 0
166 188 0
166 188 0
168 190 0
171 194 0
170 193 0
169 192 0
170 193 0
171 193 0
166 187 0
173 195 0
169 192 0
163 185 0
169 191 0
168 190 0
165 186 0
169 191 0
165 187 0
171 193 0
167 188 0
171 192 0
162 184 0
169 190 0
166 188 0
166 187 0
172 193 0
165 187 0
166 187 0
169 190 0
164 186 0
165 186 0
163 185 0
163 186 0
164 186 0
169 189 0
164 186 0
160 181 0
168 189 0
168 190 0
167 189 0
163 183 0
162 182 0
162 183 0
163 184 0
164 185 0
155 176 0
167 188 0
166 186 0
154 174 0
157 177 0
164 185 0
158 179 0
155 176 0
160 181 0
165 187 0
156 176 0
157 178 0
160 181 0
160 182 0
161 183 0
157 177 0
160 181 0
164 185 0
163 182 0
161 182 0
160 181 0
166 187 0
165 186 0
160 180 0
166 187 44
164 186 44
174 194 80
166 186 62
165 186 0
161 182 0
157 178 0
162 182 0
164 186 0
156 177 0
158 179 0
159 181 0
165 186 0
157 178 0
154 175 0
157 178 0
158 180 0
154 176 0
157 178 0
152 173 0
164 185 0
155 177 0
158 179 0
153 173 0
156 177 0
147 169 0
160 180 0
155 175 0
153 174 0
150 172 0
149 170 0
145 166 0
146 167 0
137 158 0
138 159 0
146 167 0
144 165 0
147 168 0
144 165 0
143 164 0
142 163 0
141 162 0
140 161 0
145 166 0
135 156 0
137 156 0
145 166 0
137 158 0
102 124 54
54 84 76
51 82 74
52 83 86
53 84 84
53 84 95
51 82 82
55 87 102
55 87 94
53 83 95
54 86 99
54 86 90
52 82 92
53 84 84
54 86 95
52 83 100
52 84 82
52 83 99
54 85 95
52 83 94
55 87 90
58 91 103
56 88 102
55 87 86
53 85 90
54 86 86
55 88 88
54 86 100
56 89 103
56 89 102
55 87 92
54 86 90
51 82 82
54 86 97
55 87 102
54 86 102
58 91 110
54 86 102
55 87 97
56 88 94
53 84 90
54 86 100
53 84 80
55 86 100
53 84 82
54 86 100
54 86 90
54 86 99
55 87 94
53 85 90
54 85 92
54 85 92
53 84 90
55 87 94
55 87 94
55 86 105
55 87 99
55 87 99
54 87 99
54 86 90
54 86 95
55 88 97
52 83 90
53 83 94
55 87 96
54 86 95
54 85 103
54 85 94
50 80 80
52 82 105
53 84 100
56 88 105
52 82 99
53 84 86
53 83 85
50 80 76
52 81 81
51 79 97
50 79 85
51 80 78
52 82 88
49 76 83
54 81 83
79 96 62
120 134 0
122 135 0
108 122 0
108 119 0
117 129 0
106 119 0
121 135 0
125 139 0
114 125 0
118 129 0
117 129 0
117 130 0
114 126 0
115 126 0
130 141 0
124 135 0
112 121 0
106 116 0
122 131 0
132 143 0
123 131 0
110 119 0
123 134 0
117 124 0
126 136 0
124 133 0
110 120 0
128 132 0
110 116 0
126 136 0
114 119 0
119 123 0
111 113 0
114 118 0
109 114 0
122 125 0
114 119 0
100 101 0
120 123 0
111 112 0
119 121 0
112 112 0
103 102 0
102 100 0
93 88 16
84 76 11
72 65 0
87 79 11
92 84 19
81 73 0
89 83 0
87 79 0
83 77 0
86 80 0
95 86 0
86 79 0
90 84 11
88 85 0
96 89 0
94 86 0
100 92 0
95 89 0
96 91 0
100 93 0
102 93 0
104 98 0
101 92 0
100 94 0
103 97 0
108 103 0
102 97 0
98 93 0
108 101 0
100 93 0
111 105 14
102 96 11
101 97 0
112 106 0
118 113 0
108 102 11
109 104 0
114 109 11
117 110 0
114 108 0
116 109 11
106 100 0
114 108 11
115 108 0
112 106 11
125 119 11
113 107 11
124 118 19
121 114 22
114 108 16
120 113 16
125 120 16
130 125 28
127 121 19
123 117 19
126 120 25
110 103 11
119 114 22
124 118 30
123 119 22
120 114 16
119 112 25
129 124 22
126 120 28
128 120 32
133 127 25
125 120 28
127 121 25
123 116 16
130 125 22
130 123 28
123 118 22
127 121 30
134 127 30
131 124 28
124 118 36
131 123 25
124 119 30
125 119 30
128 122 30
132 125 32
129 122 34
129 123 36
122 116 22
129 125 25
126 120 28
125 119 36
124 120 32
126 119 25
122 117 32
118 111 32
124 119 30
127 121 36
135 129 44
129 122 41
130 125 32
118 113 30
124 118 34
117 111 32
129 122 41
130 123 41
129 122 44
127 120 34
125 120 41
118 113 32
126 118 30
131 123 42
127 120 41
127 121 41
123 116 41
132 126 42
124 119 32
126 119 41
128 122 45
178 200 67
177 199 57
175 198 44
175 198 51
175 198 36
177 200 36
173 196 25
172 195 0
170 193 0
171 194 0
173 197 0
169 193 0
172 194 0
173 196 0
172 195 25
172 195 0
174 196 0
172 195 0
169 192 0
177 199 44
172 195 0
171 194 0
172 195 0
175 197 0
173 195 0
174 196 0
173 195 0
169 191 0
173 196 0
169 191 0
176 198 0
170 192 0
172 195 0
171 193 0
174 196 0
169 191 0
172 195 0
169 192 0
169 191 0
171 194 0
174 196 0
169 192 0
171 193 0
169 191 0
169 192 0
171 193 0
171 193 0
171 193 0
172 194 0
169 192 0
169 192 0
169 191 0
171 192 0
166 187 0
167 189 0
164 187 0
163 185 0
169 191 0
174 195 0
171 193 0
164 185 0
167 189 0
162 183 0
171 193 0
166 188 0
169 191 0
164 185 0
164 186 0
165 186 0
163 185 0
164 185 0
171 192 0
164 185 0
165 186 0
163 183 0
163 184 0
164 185 0
165 186 0
166 186 0
162 183 0
164 186 0
170 191 0
165 187 0
166 188 0
158 179 0
168 189 0
157 178 0
166 186 0
162 184 0
166 188 0
163 184 0
158 179 0
164 184 0
166 187 0
157 179 0
159 181 0
165 186 0
165 186 25
162 183 25
162 183 0
157 178 0
160 182 0
158 179 25
161 181 0
157 178 0
166 187 36
161 181 36
161 182 25
165 186 36
163 185 36
165 187 51
166 187 62
164 185 0
161 183 0
158 178 0
166 187 0
161 183 0
157 178 0
163 184 0
161 182 0
153 173 0
165 186 0
155 176 0
156 178 0
155 177 0
149 169 0
165 186 0
152 174 0
163 184 0
149 170 0
160 182 0
155 176 0
154 176 0
151 173 0
150 171 0
147 168 0
148 170 0
151 173 0
143 164 0
144 166 0
147 168 0
153 174 0
146 168 0
149 171 0
146 167 0
151 173 0
145 166 0
143 165 0
142 165 0
144 165 0
149 170 0
145 165 0
138 159 0
130 150 0
137 158 0
135 156 0
136 157 0
138 157 0
129 149 0
113 134 36
54 83 62
51 81 72
50 80 82
55 87 90
54 86 90
54 85 84
53 84 86
51 82 78
49 79 70
54 85 100
52 82 84
51 82 70
54 86 88
54 85 100
52 83 84
54 86 94
51 82 80
53 84 88
52 83 84
55 87 88
53 84 92
54 86 90
55 87 100
53 85 92
56 89 99
52 84 86
53 84 100
53 85 80
52 83 86
54 86 97
53 85 97
55 88 97
53 84 94
54 86 100
54 86 97
55 87 92
55 87 95
55 87 95
53 84 86
55 88 88
53 85 92
55 87 102
53 84 97
54 86 94
54 86 92
54 86 102
53 84 100
53 84 86
54 86 92
54 86 86
54 86 94
54 86 95
54 86 97
53 85 82
53 84 82
55 86 100
54 85 92
53 85 107
54 85 88
53 84 101
53 84 100
51 82 80
55 87 103
53 85 88
55 86 104
52 82 97
53 83 90
51 81 86
53 84 89
52 83 90
50 80 72
51 81 83
52 82 82
51 80 86
52 83 85
47 75 76
48 76 78
49 77 72
49 78 89
61 86 72
104 120 51
108 121 0
107 121 0
110 123 0
110 123 0
115 129 0
112 125 0
110 121 0
103 115 0
118 130 0
118 130 0
127 140 0
111 123 0
120 130 0
123 135 0
114 128 0
118 129 0
118 129 0
117 128 0
121 134 0
128 140 0
120 131 0
115 125 0
118 126 0
111 118 0
112 119 0
115 123 0
122 130 0
114 122 0
124 132 0
112 116 0
111 118 0
119 124 0
107 113 0
109 115 0
117 121 0
112 116 0
115 122 0
112 116 0
99 98 0
106 106 0
109 112 0
110 111 0
108 110 0
105 101 0
109 108 0
111 110 0
104 100 0
106 102 19
71 63 0
83 75 0
80 73 0
83 74 11
82 74 0
93 85 11
88 81 11
82 76 0
93 87 0
89 84 0
87 81 0
94 87 0
96 89 0
99 89 0
93 87 0
104 96 0
93 86 0
100 91 0
105 99 0
91 83 0
102 95 0
90 84 0
101 96 0
96 92 0
98 93 0
112 106 0
110 103 0
109 99 0
97 91 0
110 102 11
103 97 0
119 111 0
115 107 11
113 108 0
110 106 0
119 111 11
115 111 0
111 106 11
103 99 0
125 117 0
119 112 16
120 115 16
125 117 11
119 114 16
110 106 0
113 108 0
111 105 19
122 115 16
115 108 11
116 111 11
115 110 16
119 112 22
112 105 0
123 115 11
124 118 19
120 114 11
118 111 19
126 121 25
118 112 16
122 116 19
124 119 25
127 120 30
124 119 25
115 109 16
116 109 19
120 113 25
117 112 16
128 121 32
132 125 16
121 115 22
129 124 28
121 115 25
124 118 30
129 120 25
121 115 28
124 119 19
120 114 11
124 116 32
131 124 32
133 126 41
131 124 36
127 119 28
128 122 32
127 121 30
127 120 36
117 111 32
121 114 39
134 127 39
129 124 36
130 123 42
130 123 32
132 125 42
133 126 37
127 120 37
134 126 49
122 115 36
128 120 34
126 120 37
122 117 37
132 126 44
131 124 47
116 110 42
125 118 37
130 125 44
113 107 32
127 122 37
120 114 30
134 127 39
132 125 41
121 115 36
110 105 34
177 199 62
178 200 62
174 197 25
175 198 44
173 196 62
172 195 0
177 198 57
175 198 36
173 197 57
173 196 0
173 197 0
172 195 0
169 193 0
173 196 0
174 196 0
176 199 0
172 195 0
175 198 0
172 195 0
174 197 0
175 197 0
169 191 0
172 194 0
172 194 0
175 197 0
169 191 0
172 195 0
168 191 0
168 190 0
173 196 0
173 195 0
171 194 0
173 196 0
173 196 0
170 192 0
173 196 0
173 196 0
172 194 0
172 193 0
175 197 0
171 193 0
173 195 0
169 191 0
166 188 0
172 194 0
173 196 0
171 192 0
173 195 0
172 194 0
165 187 0
174 195 0
174 196 0
167 190 0
172 194 0
169 191 0
172 193 0
168 190 0
169 191 0
167 190 0
170 191 0
167 189 0
168 190 0
164 186 0
170 192 0
165 187 0
168 189 0
168 189 0
165 187 0
166 188 0
164 185 0
164 184 0
164 186 0
167 188 0
164 186 0
163 185 0
159 180 0
167 189 0
161 182 0
167 187 0
169 190 0
167 188 0
165 186 0
164 186 0
158 179 0
167 188 0
159 180 0
163 184 0
163 185 0
162 183 0
162 182 0
164 185 0
167 188 0
156 176 0
165 185 0
168 188 0
164 184 0
164 185 0
162 183 0
158 178 0
164 185 0
159 181 0
157 178 0
161 182 25
158 179 0
164 184 25
168 189 51
159 180 36
164 186 36
171 191 72
171 191 84
162 182 25
152 174 0
165 186 0
166 186 0
159 180 0
156 177 0
157 178 0
160 181 0
165 186 0
161 182 0
161 182 0
153 173 0
156 177 0
158 178 0
154 176 0
160 181 0
161 183 0
160 181 0
147 168 0
156 178 0
154 176 0
156 178 0
148 170 0
140 162 0
148 169 0
152 172 0
152 173 0
152 173 0
157 178 0
147 168 0
148 169 0
149 170 0
150 172 0
149 170 0
143 163 0
151 172 0
149 171 0
143 164 0
141 162 0
156 177 0
148 169 0
138 159 0
138 158 0
139 160 0
135 156 0
134 153 0
130 151 0
135 155 0
135 156 0
119 140 0
121 139 25
74 99 76
52 83 74
52 84 88
54 86 92
51 82 86
52 83 80
51 82 95
52 84 74
55 86 88
51 82 84
51 81 92
53 84 97
54 86 78
53 85 86
56 89 105
55 87 103
53 85 86
54 86 86
53 85 78
52 83 86
54 86 97
53 85 82
51 81 86
54 85 95
54 86 88
54 87 97
53 85 99
53 84 94
53 85 84
53 84 95
52 84 82
55 87 90
55 87 99
52 84 86
53 85 90
56 88 108
56 88 100
55 87 94
53 85 92
53 85 95
53 84 92
56 88 99
54 86 92
55 87 94
54 87 92
55 87 99
53 85 90
52 83 95
53 83 92
52 84 95
55 87 95
54 85 99
55 87 102
54 85 105
54 85 95
55 87 103
54 86 92
53 84 97
55 86 95
54 86 99
53 84 97
52 82 82
49 79 60
53 84 82
52 82 82
51 80 86
51 82 84
50 80 74
52 82 80
50 79 80
51 81 85
51 80 82
49 78 78
50 80 68
51 81 86
51 80 84
49 77 68
60 82 72
101 113 0
99 110 0
106 119 0
110 124 0
91 102 0
111 123 0
128 144 0
104 118 0
99 112 0
128 143 0
122 135 0
119 130 0
114 128 0
127 139 0
117 128 0
129 141 0
119 130 0
108 120 0
116 128 0
108 118 0
117 127 0
122 131 0
111 121 0
124 135 0
113 123 0
115 123 0
120 126 0
116 124 0
114 121 0
109 117 0
126 132 0
105 113 0
108 111 0
111 115 0
108 113 0
117 121 0
108 115 0
117 120 0
111 117 0
124 124 0
101 100 0
113 115 0
103 104 0
109 112 0
112 114 0
115 115 0
96 95 0
99 97 0
107 105 0
107 105 0
110 108 11
80 70 11
76 69 0
97 88 11
80 70 0
67 61 0
85 74 11
83 75 0
80 74 0
79 74 11
82 74 0
85 77 0
97 89 0
92 86 0
102 93 0
91 84 0
99 91 0
88 82 0
99 92 0
103 93 0
104 97 0
99 93 0
110 103 0
92 86 0
97 89 0
106 98 0
113 104 0
106 99 0
112 105 11
106 99 0
113 107 0
106 101 0
103 98 0
103 95 0
111 106 0
116 110 11
114 108 0
111 106 11
112 106 11
106 101 0
116 109 11
117 109 0
123 117 16
117 110 16
121 115 16
112 107 0
115 108 16
121 115 0
118 112 16
110 104 0
124 117 16
113 106 16
126 120 16
124 117 25
111 106 16
112 106 30
122 117 22
115 109 22
123 118 0
118 112 19
116 110 19
113 105 25
122 116 28
122 118 25
131 125 30
131 124 28
125 117 25
123 117 25
123 117 19
119 111 30
123 117 25
130 126 28
117 109 25
127 120 32
124 118 34
125 119 25
109 103 11
121 115 39
123 117 30
124 117 30
123 117 32
130 125 34
117 111 32
128 121 32
125 119 34
124 119 39
128 120 39
121 114 28
129 123 30
120 115 30
122 114 25
120 115 36
131 124 34
120 116 30
120 113 39
119 114 30
121 116 30
124 119 34
121 114 42
124 117 32
131 125 39
117 110 30
122 117 39
130 124 42
124 117 41
123 117 32
118 113 36
118 111 39
136 127 45
122 115 34
122 115 41
175 198 44
173 197 36
174 197 36
175 198 51
176 199 44
173 196 44
175 198 44
176 199 57
173 197 25
174 197 36
173 196 36
170 193 36
171 194 0
172 195 0
174 196 0
172 195 0
172 195 0
173 196 0
171 195 25
172 195 0
172 196 0
171 194 0
173 195 0
174 197 0
170 193 0
174 196 0
169 192 0
167 190 0
175 198 0
172 194 0
174 197 0
173 195 25
173 195 25
170 193 0
172 194 0
170 192 0
174 195 0
172 194 0
169 191 0
170 192 0
173 195 0
171 192 0
169 192 0
172 194 0
173 195 0
171 193 0
170 192 0
167 189 0
170 191 0
174 195 0
163 186 0
169 191 0
171 193 0
165 187 0
170 191 0
171 194 0
170 192 0
173 194 0
170 191 0
169 189 0
165 187 0
170 191 0
161 181 0
165 186 0
171 192 0
169 189 0
167 188 0
168 190 0
166 187 0
168 189 0
167 188 0
168 190 0
165 187 0
166 188 0
169 191 0
165 187 0
166 187 0
159 180 0
162 182 0
164 185 0
161 183 0
170 191 0
162 183 0
155 175 0
167 187 0
167 188 0
162 182 0
162 184 0
161 182 0
167 188 0
163 184 25
163 184 0
157 178 0
158 179 0
165 185 0
164 185 0
162 183 0
166 186 0
162 184 0
158 179 36
160 180 25
164 185 44
169 189 36
168 189 57
164 185 51
167 188 44
164 184 62
171 191 72
166 187 25
166 187 0
164 184 0
159 181 0
159 180 0
163 184 0
167 187 0
157 178 0
164 184 0
155 177 0
162 184 0
162 184 0
155 176 0
157 178 0
154 174 0
154 176 0
162 184 0
157 178 0
150 171 0
150 171 0
154 175 0
150 171 0
149 170 0
154 175 0
156 177 0
150 172 0
151 173 0
147 168 0
142 164 0
154 176 0
147 169 0
146 167 0
145 166 0
146 167 0
149 171 0
144 165 0
138 159 0
144 164 0
140 161 0
134 156 0
150 171 0
136 157 0
140 160 0
135 155 0
145 165 0
140 161 0
136 155 0
135 154 0
123 143 0
122 141 0
128 148 0
129 149 0
116 136 0
122 142 0
97 119 40
54 84 70
53 85 90
51 82 86
52 83 80
52 83 84
52 83 80
53 84 86
52 84 82
50 80 74
52 83 88
53 85 103
56 88 97
55 87 100
52 83 86
53 85 92
55 88 99
55 87 97
52 82 82
55 87 102
55 87 86
54 85 82
54 85 92
53 85 99
50 80 90
51 81 88
51 81 76
54 85 94
52 83 88
54 85 92
55 87 99
53 84 97
52 84 76
53 85 99
51 81 88
53 85 95
54 86 86
52 83 84
53 85 95
56 88 102
53 84 94
53 84 94
52 83 90
55 87 95
55 86 94
54 85 95
53 83 95
56 89 105
53 83 94
55 88 88
53 85 94
53 84 90
51 82 82
52 82 80
52 83 88
56 88 108
55 87 103
56 89 108
50 79 94
53 85 86
53 85 97
55 86 102
52 82 92
50 79 78
50 80 88
52 82 70
53 84 88
51 80 89
52 82 92
51 80 75
50 78 80
51 80 78
49 77 87
47 75 75
47 74 79
88 106 48
105 116 0
107 121 0
95 107 0
110 121 0
102 112 0
105 116 0
117 131 0
116 128 0
116 128 0
115 126 0
112 126 0
122 135 0
106 116 0
107 119 0
119 131 0
115 128 0
112 123 0
117 127 0
114 124 0
128 140 0
98 109 0
111 123 0
116 126 0
119 131 0
113 123 0
113 121 0
102 113 0
117 124 0
114 124 0
112 121 0
113 119 0
123 131 0
112 118 0
102 106 0
113 117 0
119 127 0
106 111 0
111 116 0
104 107 0
105 107 0
112 115 0
96 97 0
113 118 0
108 108 0
109 109 0
103 103 0
105 108 0
105 105 0
90 91 0
94 91 0
95 94 0
97 96 0
100 96 0
99 96 0
80 76 16
65 59 0
81 72 0
76 68 0
84 77 11
79 72 0
90 80 11
94 86 16
93 85 0
86 79 0
87 79 0
90 82 0
85 76 0
94 86 0
92 84 0
103 93 0
80 74 0
100 90 0
105 97 0
94 87 0
100 92 0
102 95 0
95 88 0
97 90 0
101 94 0
100 93 0
104 100 0
101 95 0
104 99 0
97 88 0
96 90 0
105 97 0
114 105 16
119 112 11
108 102 0
107 101 11
117 109 16
118 112 0
109 103 0
114 107 11
108 103 0
110 103 0
123 115 11
120 113 22
114 108 19
112 106 16
120 113 22
112 106 11
117 111 19
117 108 19
117 109 19
128 121 16
112 105 22
127 119 30
116 111 16
114 108 16
120 114 11
119 113 22
117 109 19
117 111 30
118 112 16
122 116 25
117 110 30
120 114 22
121 115 25
124 118 28
109 103 16
109 105 16
118 112 16
124 118 25
121 115 11
120 113 34
122 116 16
124 117 28
125 118 36
130 124 37
120 114 25
120 114 30
115 110 28
121 114 22
125 119 28
126 119 32
117 111 30
119 112 37
119 113 30
128 122 30
115 109 22
122 116 34
125 118 37
131 123 41
122 117 30
127 120 30
122 116 36
116 109 28
131 125 32
131 125 39
118 111 25
129 123 39
120 114 32
123 117 32
124 117 34
130 123 44
123 117 34
127 121 45
124 118 25
120 113 32
128 121 41
122 116 41
177 199 36
177 199 44
174 197 51
175 198 51
174 197 36
174 197 51
172 195 44
176 199 57
175 197 25
176 199 44
176 199 51
174 197 36
174 197 36
173 196 36
177 199 25
174 197 25
170 192 0
173 196 0
172 195 0
174 196 0
172 194 0
168 191 0
174 197 0
172 196 0
167 189 0
173 195 0
173 195 0
172 194 0
172 194 0
172 195 0
174 196 0
169 192 0
174 195 0
174 196 0
171 193 0
171 194 0
169 192 0
174 196 0
169 191 0
170 192 0
173 195 0
165 187 0
167 190 0
171 194 0
171 193 0
165 187 0
167 188 0
174 196 0
171 193 0
170 192 0
172 194 0
172 194 0
168 189 0
172 193 0
170 191 0
167 189 0
169 191 0
174 194 0
164 186 0
168 190 0
170 191 0
164 185 0
165 186 0
169 190 0
163 184 0
168 190 0
166 187 0
167 188 0
169 189 0
166 187 0
166 187 0
167 188 0
168 188 0
167 189 0
170 190 0
165 187 0
170 191 0
167 188 0
161 182 0
169 189 0
171 192 0
166 188 0
167 189 0
169 189 0
163 183 0
163 185 25
166 187 0
165 185 0
163 183 0
160 180 0
166 187 25
163 184 0
162 183 25
164 185 0
163 185 0
170 190 0
166 186 25
163 183 36
165 187 36
170 190 57
163 183 36
165 184 44
171 191 51
163 183 62
164 186 67
164 184 51
166 186 0
166 187 0
161 182 0
162 183 0
154 175 0
162 183 0
162 184 0
163 185 0
162 183 0
162 183 0
158 179 0
160 182 0
154 175 0
157 178 0
152 174 0
146 167 0
148 169 0
151 172 0
151 172 0
154 175 0
146 167 0
157 177 0
156 177 0
144 166 0
144 165 0
152 174 0
151 173 0
154 175 0
148 169 0
155 177 0
154 175 0
145 166 0
152 174 0
147 167 0
145 166 0
145 165 0
143 164 0
144 164 0
152 173 0
141 162 0
131 151 0
139 160 0
143 165 0
141 161 0
139 159 0
142 163 0
135 156 0
139 160 0
121 141 0
136 155 0
125 145 0
129 148 0
134 154 0
128 148 0
133 152 0
125 144 0
127 147 0
119 137 40
65 89 72
48 78 76
51 81 74
52 83 82
48 77 76
50 81 82
53 84 90
53 84 100
53 84 100
53 85 82
52 83 80
52 83 82
51 81 67
53 84 86
54 85 88
54 85 97
53 84 88
51 82 84
55 87 95
55 87 110
51 82 67
53 84 95
53 84 84
52 83 86
53 85 86
55 86 95
53 84 88
54 85 97
51 81 82
55 87 107
52 83 88
54 85 95
54 86 88
52 83 86
52 83 78
55 87 80
53 84 99
51 82 70
56 88 102
52 83 95
50 81 74
54 85 95
50 80 76
56 88 110
54 86 110
52 83 86
51 81 85
53 84 84
52 82 90
53 83 86
54 85 105
53 84 88
54 86 94
52 82 85
53 84 88
53 83 95
52 83 99
52 82 88
53 85 97
54 85 95
53 84 80
53 83 84
50 79 81
49 77 80
51 81 88
50 80 65
50 80 84
48 75 76
46 74 60
49 78 78
47 74 67
57 80 67
95 109 40
100 112 0
111 124 0
107 116 0
93 104 0
115 127 0
106 117 0
104 116 0
99 111 0
114 127 0
112 125 0
114 128 0
108 120 0
112 123 0
111 125 0
112 123 0
108 122 0
117 127 0
117 129 0
118 128 0
116 129 0
112 121 0
114 126 0
120 134 0
112 121 0
109 117 0
110 119 0
124 132 0
114 122 0
123 133 0
109 117 0
124 134 0
120 127 0
120 130 0
114 122 0
120 127 0
117 124 0
106 109 0
101 108 0
109 115 0
114 118 0
119 123 0
115 116 0
124 128 0
99 103 0
107 110 0
106 108 0
104 109 0
105 108 0
97 97 0
96 97 0
96 96 0
91 91 0
90 90 0
90 87 0
101 99 0
89 84 0
85 77 0
84 82 0
84 81 0
64 56 0
81 73 0
84 74 0
89 80 11
80 71 0
87 79 0
77 71 0
84 75 0
73 65 0
89 82 0
95 87 0
100 92 0
89 82 0
96 88 0
97 87 11
88 79 0
104 96 0
87 82 0
100 93 0
99 93 0
97 91 0
94 88 0
112 104 11
107 96 0
98 92 0
108 100 0
105 98 0
104 96 0
108 101 0
109 103 0
95 87 0
112 107 11
113 105 16
114 105 11
117 110 11
116 110 0
108 100 11
117 112 0
121 114 16
116 109 19
106 99 11
118 113 19
122 115 19
113 107 19
112 106 0
115 109 19
111 105 16
114 106 11
118 111 0
123 117 25
109 105 16
118 110 19
122 117 19
116 108 16
108 103 16
115 109 22
129 120 34
116 109 28
114 109 22
112 107 19
108 101 25
117 111 25
128 121 30
117 109 25
114 107 28
130 122 28
123 115 28
130 124 34
114 107 22
124 118 28
108 101 16
125 117 28
136 128 34
128 120 30
123 117 36
127 122 30
121 114 34
126 119 28
128 122 28
120 112 32
118 112 22
118 112 28
127 120 30
127 119 36
118 113 28
125 118 32
116 109 28
116 108 39
124 118 34
134 128 39
111 106 32
127 121 32
126 119 39
117 112 39
126 120 37
120 116 28
123 118 30
117 112 32
114 109 30
117 110 34
122 116 42
110 103 32
118 112 34
118 111 39
181 203 99
174 198 25
175 198 36
177 200 72
169 192 36
175 198 44
172 195 57
171 195 0
176 198 44
172 195 57
174 197 57
174 197 57
173 196 36
174 197 51
173 195 36
172 195 51
174 196 25
173 197 0
172 196 0
171 194 25
170 193 0
172 195 0
172 194 0
174 196 0
175 197 0
174 197 0
173 195 0
176 197 25
171 193 0
175 197 0
172 195 0
174 195 25
173 195 0
172 194 0
168 191 0
171 192 36
170 192 0
175 196 0
170 193 0
174 196 0
172 194 0
172 194 0
171 193 0
171 193 25
171 192 0
173 195 0
173 195 0
167 189 0
170 192 0
165 188 0
170 192 0
176 197 0
174 195 0
171 193 0
171 192 0
169 190 0
174 196 0
171 192 0
171 192 0
168 190 0
172 194 0
170 191 0
172 193 0
169 190 0
172 193 0
171 193 0
169 191 0
169 190 0
168 189 0
165 186 0
165 185 0
173 195 0
169 190 0
167 188 0
164 185 0
166 188 0
168 188 0
162 183 0
166 187 0
167 188 0
165 185 0
167 189 0
170 190 0
166 187 0
169 190 36
163 183 0
166 186 0
164 186 0
163 184 0
161 183 25
159 180 0
160 181 0
163 184 0
163 184 0
163 183 44
168 188 36
164 185 44
158 179 36
165 185 67
162 183 0
164 185 36
165 185 67
169 189 67
170 190 62
166 186 0
156 178 0
165 185 0
164 185 0
161 182 0
165 186 0
157 178 0
165 186 0
159 180 0
160 181 0
155 176 0
151 173 0
157 177 0
155 175 0
158 179 0
156 176 0
153 174 0
155 176 0
154 176 0
157 178 0
146 166 0
149 170 0
148 169 0
150 171 0
142 163 0
150 171 0
148 169 0
143 165 0
151 172 0
149 171 0
154 175 0
148 170 0
148 168 0
147 167 0
142 164 0
151 172 0
138 160 0
150 171 0
140 161 0
142 163 0
145 165 0
132 153 0
137 157 0
129 149 0
131 152 0
142 162 0
136 156 0
134 155 0
131 151 0
141 161 0
130 151 0
122 142 0
141 160 0
118 137 0
131 151 0
121 141 0
121 140 0
127 145 0
124 143 0
115 133 0
118 136 0
82 105 62
53 82 80
51 82 67
49 79 67
50 80 65
50 80 82
48 77 74
49 79 80
51 82 78
48 78 65
52 83 84
50 80 88
49 79 82
50 80 84
51 81 78
52 83 76
52 82 86
54 85 92
52 83 88
55 87 95
53 84 76
55 86 100
53 84 82
50 80 86
55 87 95
51 82 90
54 86 86
52 83 80
49 78 82
52 83 88
53 84 97
54 85 88
54 85 90
52 83 84
51 82 88
52 83 90
51 82 82
54 86 99
54 86 97
54 86 88
53 84 88
52 82 84
54 86 84
53 84 95
54 85 100
53 84 84
53 84 97
51 82 95
53 83 90
51 81 76
56 88 90
51 81 84
51 81 86
53 83 88
53 84 86
52 83 74
51 80 84
53 84 88
52 82 84
53 84 90
51 82 84
52 82 88
52 83 78
50 79 87
50 80 70
50 78 84
49 78 85
49 78 67
49 77 62
69 86 54
97 110 18
95 106 0
116 128 0
107 119 0
97 110 0
92 102 0
114 128 0
101 114 0
109 122 0
108 120 0
120 134 0
103 113 0
109 120 0
107 120 0
105 115 0
93 103 0
116 127 0
114 124 0
110 122 0
126 136 0
115 126 0
110 123 0
111 121 0
125 138 0
119 132 0
119 129 0
112 120 0
122 130 0
110 120 0
112 120 0
107 118 0
116 126 0
109 118 0
131 139 0
112 120 0
117 123 0
113 120 0
110 117 0
105 112 0
111 113 0
111 115 0
122 128 0
111 117 0
106 110 0
110 113 0
107 109 0
103 107 0
96 99 0
112 116 0
108 113 0
113 115 0
95 94 0
110 111 0
91 88 0
110 111 0
94 92 0
98 95 0
98 93 0
92 87 0
74 68 0
86 80 0
84 83 0
74 67 0
65 55 0
74 66 0
84 75 0
71 62 0
85 77 0
79 70 0
89 80 0
85 77 0
84 77 0
90 81 0
85 78 0
99 90 0
83 74 0
98 91 0
110 101 0
94 86 0
103 95 0
94 87 0
100 91 0
97 92 0
95 90 0
101 94 0
106 98 0
108 101 0
102 95 0
103 98 0
109 101 16
108 101 0
108 99 0
115 109 0
109 103 0
106 100 16
110 104 0
116 109 16
113 105 0
118 111 11
115 107 11
108 102 11
107 101 0
108 99 11
118 109 0
114 109 16
108 101 0
119 111 11
115 107 16
119 112 19
114 107 19
114 107 19
114 106 22
121 114 22
118 112 28
116 109 22
124 116 16
124 116 19
115 107 19
113 107 19
117 107 16
119 113 19
118 113 25
113 107 22
112 107 19
112 106 19
131 125 37
122 114 30
119 113 22
121 116 22
126 119 32
113 108 11
128 121 25
113 107 19
126 121 36
120 114 19
127 120 32
116 109 32
122 115 30
124 117 34
129 124 32
124 118 22
124 117 36
126 121 37
121 114 32
117 109 39
125 118 34
124 118 25
118 113 30
121 115 37
121 114 39
123 116 25
123 115 37
126 120 36
110 104 28
124 117 36
136 131 42
106 100 25
121 114 39
111 106 25
116 108 39
122 115 45
114 107 34
125 118 34
119 112 41
108 102 34
186 206 128
188 208 135
190 210 135
177 200 67
174 197 25
174 198 25
175 198 36
171 194 0
173 195 25
172 195 36
175 198 57
172 195 36
175 198 57
171 194 36
172 195 36
177 199 57
178 200 51
174 196 57
176 199 57
174 197 36
174 197 36
172 195 0
175 198 0
171 194 0
173 195 0
170 193 0
172 196 0
174 197 0
173 195 0
172 194 25
171 194 0
171 193 0
172 195 25
170 192 0
169 192 0
172 195 0
171 194 0
173 196 0
174 197 0
172 194 0
172 194 0
171 193 25
170 191 0
173 195 0
170 192 0
173 194 0
172 195 0
171 193 0
169 192 0
168 189 0
170 191 0
169 190 0
173 194 0
167 189 25
168 189 25
172 193 0
171 191 0
161 182 0
165 187 0
168 190 0
171 192 0
171 193 0
173 194 0
169 190 0
168 189 0
167 188 0
172 193 0
167 188 0
170 191 0
169 191 0
168 189 0
170 190 0
171 193 0
164 186 0
167 188 0
170 192 0
169 190 0
163 184 0
174 194 0
170 190 0
163 183 0
167 188 0
165 187 0
163 184 0
164 184 0
166 187 0
163 184 0
162 182 0
168 189 0
164 185 0
163 184 44
160 180 25
167 188 62
170 190 57
165 187 44
165 185 51
165 185 44
165 186 36
170 190 44
164 185 67
167 187 62
158 178 25
161 182 0
161 182 0
168 188 0
158 178 0
165 186 0
158 180 0
159 179 0
160 180 0
156 176 0
160 181 0
153 174 0
154 176 0
152 172 0
155 175 0
159 180 0
157 178 0
159 181 0
158 179 0
157 178 0
150 171 0
153 174 0
161 181 0
152 174 0
157 178 0
149 170 0
151 173 0
158 178 0
150 171 0
150 171 0
148 169 0
146 166 0
148 168 0
149 169 0
138 160 0
148 169 0
142 164 0
155 176 0
141 162 0
138 160 0
136 156 0
138 159 0
146 166 0
142 164 0
123 143 0
139 160 0
138 158 0
140 161 0
133 153 0
136 155 0
125 145 0
134 154 0
126 145 0
139 159 0
122 142 0
127 146 0
123 143 0
127 146 0
111 131 0
119 137 0
121 139 0
114 134 0
121 140 0
111 128 0
104 121 0
109 128 25
62 87 70
49 79 76
51 82 67
51 81 76
50 80 80
51 82 76
51 81 60
49 79 76
52 82 86
50 81 80
51 82 82
52 83 84
50 80 67
52 82 76
53 85 94
53 85 94
53 84 92
53 85 86
54 85 90
54 85 95
54 86 76
52 82 84
51 82 82
51 81 86
54 85 88
49 79 80
50 79 80
53 84 84
53 84 90
50 80 84
52 82 88
54 86 97
53 85 95
54 85 95
52 82 88
53 84 84
53 84 86
52 83 76
54 86 86
55 87 97
53 84 82
54 85 88
51 81 84
50 80 76
52 82 84
51 81 82
51 81 97
52 83 74
53 84 86
51 81 76
51 82 88
50 80 74
50 80 81
56 87 94
52 82 94
52 82 80
52 82 88
52 83 87
53 83 88
48 77 74
51 80 90
46 73 76
48 76 70
48 75 84
49 78 82
60 79 62
81 93 25
84 95 0
86 97 0
105 117 0
102 113 0
100 114 0
109 119 0
112 125 0
105 117 0
104 114 0
101 114 0
99 110 0
100 114 0
100 113 0
100 112 0
112 125 0
111 123 0
117 130 0
123 137 0
114 124 0
128 142 0
107 118 0
107 121 0
114 125 0
105 116 0
119 131 0
113 122 0
113 122 0
110 119 0
116 127 0
120 132 0
118 127 0
119 131 0
110 121 0
117 124 0
119 131 0
122 127 0
108 114 0
115 123 0
115 123 0
118 124 0
100 105 0
107 115 0
115 124 0
117 125 0
114 121 0
102 107 0
102 105 0
111 116 0
113 117 0
102 103 0
107 109 0
105 106 0
110 113 0
101 101 0
96 98 0
105 103 0
98 98 0
93 94 0
94 93 0
89 86 0
85 79 0
87 84 0
77 72 0
80 75 0
83 77 0
66 60 0
70 61 0
80 71 0
74 66 0
77 70 0
81 72 0
80 73 0
87 79 0
82 75 0
83 76 0
89 79 0
92 83 0
98 88 0
87 80 0
97 90 0
94 83 0
93 86 0
99 89 0
96 89 0
88 80 0
93 87 0
99 90 0
95 87 0
105 96 16
100 94 0
96 89 0
100 95 0
110 103 0
105 96 11
107 97 0
98 91 16
115 107 0
109 100 0
108 102 16
109 101 11
110 102 11
102 95 11
116 107 16
111 106 11
112 105 11
111 103 16
113 104 11
120 113 16
116 110 11
114 107 19
117 110 19
120 114 22
125 117 28
113 106 11
118 112 16
117 109 16
122 114 11
121 115 19
109 104 16
123 116 16
106 101 16
118 110 25
115 109 16
129 122 22
124 117 28
123 116 16
123 115 22
114 107 25
119 112 25
119 111 19
122 114 30
127 120 30
116 111 25
113 107 11
114 107 28
119 110 28
123 115 30
120 114 22
127 121 39
126 118 34
117 112 30
121 115 32
125 119 39
117 110 25
121 115 32
127 122 28
128 121 30
118 111 22
115 109 32
114 108 30
119 112 37
121 115 37
124 118 25
130 124 32
108 103 25
109 100 28
117 111 36
120 114 32
121 114 32
117 110 30
108 103 34
117 109 44
118 111 42
110 104 37
111 105 28
131 134 28
173 196 0
173 196 36
184 205 125
186 206 120
188 208 140
184 205 102
172 195 25
175 197 25
173 197 36
172 195 0
172 195 25
176 198 57
174 197 57
175 198 57
176 198 44
174 197 36
173 196 44
174 197 36
177 199 25
174 196 25
175 197 44
168 191 44
174 196 36
173 195 25
173 195 25
171 195 0
171 193 0
171 193 25
171 195 0
172 194 0
170 193 0
173 195 0
171 194 0
174 196 0
171 194 0
172 194 0
172 193 0
172 193 0
173 196 0
171 193 0
175 197 0
168 191 25
174 196 0
176 197 25
174 196 0
172 193 0
167 188 0
170 192 0
169 192 0
168 189 0
173 194 0
175 197 0
173 194 0
169 191 25
173 194 0
171 192 0
169 191 0
169 191 25
171 193 0
169 190 0
173 195 25
166 187 0
170 191 0
169 191 0
168 190 0
169 191 0
169 190 0
171 192 0
168 189 0
168 189 0
165 186 0
172 192 0
166 187 0
164 185 0
164 184 0
169 190 0
169 189 0
168 190 0
166 186 0
168 188 0
165 186 0
166 187 0
168 189 0
165 187 0
165 184 0
169 191 0
164 184 25
165 186 25
166 186 51
165 186 51
163 184 36
161 182 0
161 183 36
168 189 25
167 188 57
164 185 62
168 188 72
170 191 84
165 186 44
157 178 0
163 183 0
161 182 0
161 182 0
157 179 0
160 182 0
163 183 0
158 179 0
155 175 0
161 181 0
157 177 0
155 176 0
155 175 0
160 181 0
156 176 0
156 177 0
155 176 0
156 177 0
150 170 0
156 177 0
159 179 0
152 174 0
157 178 0
161 182 0
155 176 0
151 171 0
156 177 0
147 169 0
146 167 0
145 166 0
159 181 0
153 174 0
148 170 0
154 175 0
144 165 0
143 164 0
146 168 0
146 166 0
136 156 0
144 166 0
135 157 0
140 160 0
139 161 0
138 159 0
144 165 0
144 164 0
130 150 0
146 167 0
138 158 0
132 152 0
141 161 0
138 158 0
136 157 0
134 154 0
134 154 0
131 151 0
125 145 0
129 148 0
118 138 0
124 143 0
119 139 0
112 130 0
111 130 0
116 134 0
117 135 0
126 144 0
108 126 0
107 125 0
108 125 0
89 107 18
53 80 60
50 80 84
53 85 78
50 79 74
51 82 84
48 76 60
51 82 80
50 80 76
53 84 88
48 77 62
50 80 94
52 83 78
52 82 88
54 85 95
50 80 84
53 84 82
52 84 78
52 83 95
54 86 80
52 84 94
53 84 102
50 81 78
54 86 95
52 83 95
53 84 82
52 83 95
54 85 102
52 82 97
52 82 84
51 81 86
53 84 84
51 81 76
52 82 84
52 82 90
51 82 80
49 77 84
52 83 86
52 82 82
55 86 100
51 82 92
52 83 94
51 81 88
51 82 74
52 83 95
49 79 80
53 84 86
52 83 95
49 78 78
50 79 80
49 78 78
53 84 95
49 78 75
50 79 80
49 78 70
53 83 84
51 81 74
50 79 85
50 79 78
46 74 74
50 79 82
44 71 57
52 76 57
91 105 25
100 113 0
99 110 0
95 109 0
104 117 0
103 114 0
97 109 0
96 110 0
96 107 0
92 104 0
114 126 0
112 123 0
93 105 0
117 130 0
110 123 0
111 123 0
104 118 0
103 115 0
109 119 0
109 120 0
99 110 0
111 124 0
110 120 0
121 134 0
115 126 0
116 128 0
113 124 0
117 128 0
116 126 0
112 124 0
124 135 0
111 120 0
117 128 0
110 119 0
116 126 0
125 134 0
120 131 0
107 117 0
113 122 0
115 123 0
110 118 0
117 128 0
106 114 0
111 115 0
105 112 0
112 119 0
125 133 0
121 127 0
97 98 0
101 107 0
104 110 0
108 113 0
107 109 0
105 106 0
112 113 0
105 107 0
106 107 0
98 101 0
93 92 0
102 107 0
109 107 0
100 99 0
99 100 0
83 79 0
94 89 0
85 83 0
86 82 0
85 81 0
81 76 0
79 74 0
71 65 0
76 70 0
73 65 0
72 64 0
75 66 0
87 80 0
86 78 0
80 72 0
86 76 0
80 72 0
83 74 0
84 75 0
83 75 0
94 86 0
88 80 0
85 76 0
98 89 11
82 75 0
104 97 0
90 83 0
96 87 0
95 88 0
90 82 0
103 94 11
109 101 0
106 98 0
110 103 0
98 90 0
99 91 0
110 103 11
103 97 11
99 92 0
100 92 0
105 96 11
116 108 16
112 103 0
113 106 0
109 100 11
113 106 0
110 103 11
107 99 11
115 108 11
122 112 16
110 102 11
113 106 22
115 109 19
125 117 22
113 107 16
113 108 25
114 106 19
114 106 16
127 121 30
122 116 16
114 106 22
117 111 16
117 109 22
121 114 16
111 104 22
118 111 19
121 113 32
117 110 16
122 115 25
117 112 22
124 118 28
124 117 22
112 107 30
117 112 11
120 114 30
115 108 32
114 107 22
123 114 19
109 100 22
117 109 32
122 116 25
122 115 32
123 116 34
117 109 30
119 111 22
123 118 25
116 109 25
121 114 25
112 105 32
125 120 41
127 119 42
105 100 22
117 111 28
118 111 34
118 112 42
107 102 32
121 115 36
118 111 34
113 106 32
119 113 45
110 103 34
106 100 30
121 118 30
150 159 28
157 175 0
168 188 0
170 194 0
173 196 0
172 195 0
171 195 0
176 199 51
184 206 120
182 202 117
186 207 125
184 205 114
173 196 25
176 198 44
174 197 25
174 197 25
173 196 62
172 195 0
174 197 44
174 196 44
174 197 44
175 197 57
175 198 51
173 196 44
172 195 36
173 195 44
177 199 51
171 193 25
176 198 57
177 199 44
177 199 44
175 197 36
176 198 0
171 194 25
168 191 0
174 195 25
174 196 0
173 195 0
173 196 0
173 195 0
172 194 0
172 194 0
174 196 0
172 194 0
171 193 0
171 193 0
173 195 0
170 192 0
171 192 0
176 198 0
173 195 25
171 192 0
172 194 25
169 190 0
172 194 25
169 191 0
167 189 0
172 194 0
169 191 0
171 192 0
170 191 0
169 191 0
168 189 0
173 194 0
172 194 0
171 192 0
166 187 0
170 191 25
168 189 0
170 191 25
170 192 0
168 189 0
168 190 0
168 189 0
159 180 0
169 191 0
167 188 0
172 193 0
170 192 25
168 190 0
171 192 25
165 186 0
166 186 0
167 188 0
167 189 0
166 187 0
170 190 44
167 187 0
169 189 51
161 183 51
172 193 0
157 178 36
167 187 25
169 189 51
163 184 36
164 185 25
170 190 72
169 190 62
166 187 51
163 184 0
164 185 0
165 187 0
161 181 0
156 178 0
161 182 0
154 174 0
165 185 0
155 176 0
160 181 0
157 178 0
157 177 0
154 175 0
156 178 0
160 181 0
160 181 0
156 177 0
164 186 0
160 180 0
159 180 0
149 170 0
150 171 0
148 169 0
157 178 0
154 175 0
149 169 0
151 172 0
151 173 0
155 176 0
155 175 0
158 180 0
152 173 0
148 169 0
145 166 0
159 180 0
151 172 0
149 170 0
147 168 0
135 156 0
149 170 0
148 169 0
150 170 0
143 164 0
142 163 0
143 164 0
144 165 0
141 162 0
140 162 0
138 159 0
144 164 0
138 159 0
134 154 0
134 154 0
134 154 0
142 162 0
132 151 0
127 148 0
134 154 0
126 146 0
123 143 0
124 143 0
126 146 0
116 134 0
122 141 0
129 149 0
116 134 0
115 132 0
109 128 0
124 141 0
117 136 0
94 112 0
119 136 0
100 117 0
97 114 0
67 88 51
56 82 70
48 77 51
49 79 84
49 79 65
49 79 70
46 75 67
51 82 92
53 83 84
50 80 76
51 82 84
52 82 74
52 84 82
51 81 82
51 81 70
53 84 84
49 79 72
47 76 70
51 81 82
50 79 72
52 82 86
53 84 80
51 81 84
51 82 78
54 87 90
49 78 82
51 82 78
51 80 88
52 83 90
51 81 90
53 84 88
52 83 84
51 82 70
50 79 74
50 80 76
52 83 92
50 80 72
50 80 84
50 80 80
52 83 88
51 82 82
51 81 82
50 79 84
49 78 82
49 77 74
51 81 82
49 79 74
51 81 80
49 78 88
50 79 67
49 77 84
49 78 82
49 79 79
51 80 92
50 79 78
47 74 72
48 76 72
47 75 80
57 81 76
82 98 44
94 106 0
93 102 0
81 94 0
86 97 0
102 112 0
98 109 0
102 115 0
87 99 0
93 105 0
92 104 0
109 121 0
105 116 0
108 120 0
109 123 0
106 117 0
117 130 0
106 117 0
117 131 0
111 124 0
107 120 0
116 128 0
106 121 0
115 128 0
113 123 0
113 123 0
115 128 0
107 119 0
110 122 0
118 129 0
117 128 0
111 123 0
102 112 0
114 125 0
116 128 0
105 117 0
120 131 0
111 120 0
122 130 0
120 130 0
113 121 0
119 128 0
114 119 0
116 124 0
123 132 0
117 126 0
125 132 0
120 125 0
110 116 0
115 122 0
111 118 0
110 115 0
112 118 0
96 98 0
114 121 0
105 109 0
104 107 0
102 107 0
102 106 0
104 106 0
117 118 0
95 96 0
108 108 0
91 90 0
105 101 0
91 88 0
97 94 0
100 95 0
96 93 0
87 82 0
96 91 0
84 79 0
83 77 0
84 81 0
76 68 0
76 68 0
74 66 0
77 68 0
71 63 0
78 70 0
78 69 0
84 75 0
91 81 0
80 71 0
86 76 0
88 77 0
82 74 0
100 89 0
93 86 0
80 72 0
100 92 0
89 82 0
105 96 0
93 86 0
105 97 0
95 90 0
95 88 0
103 94 0
106 101 11
110 102 0
102 94 0
107 99 11
105 96 19
97 90 11
101 92 0
108 99 0
114 105 0
105 98 11
113 107 0
112 104 11
107 99 11
104 95 16
107 102 0
105 97 0
115 106 19
107 100 11
106 99 11
115 106 16
110 105 16
114 106 19
107 100 16
102 94 11
112 105 16
112 105 16
115 108 19
109 101 19
126 119 25
110 102 25
103 96 16
108 100 22
118 110 19
109 102 0
114 107 28
115 110 22
122 115 19
122 114 36
118 110 25
106 100 11
109 102 25
118 112 19
113 104 30
104 97 11
116 108 25
117 109 28
119 114 32
116 109 25
115 107 25
117 109 30
106 98 22
112 104 30
124 116 34
119 113 22
117 110 25
119 112 32
110 104 22
108 101 28
122 114 28
112 106 25
111 104 30
117 112 36
111 106 28
116 109 37
117 110 36
115 109 37
120 118 25
143 150 32
159 174 16
168 187 0
170 190 0
167 189 0
167 186 0
173 197 0
173 197 0
173 196 0
170 193 0
173 197 0
174 197 0
175 198 0
174 197 25
176 198 57
181 202 108
187 207 128
182 203 99
178 200 84
173 197 44
173 196 25
176 198 25
173 196 25
175 198 36
173 196 36
174 196 36
174 197 57
173 196 44
176 198 44
177 199 44
172 194 25
177 199 44
174 196 36
172 195 44
175 197 44
172 193 51
174 196 44
173 196 36
174 196 44
173 195 25
175 197 0
172 194 25
175 196 25
173 195 0
173 195 25
171 193 0
171 193 0
175 197 0
168 190 0
169 192 0
173 195 0
174 196 0
171 193 0
172 194 0
173 195 0
171 193 0
175 197 0
174 194 0
174 195 0
168 189 0
170 192 0
172 194 0
169 191 0
168 189 0
168 189 0
172 193 0
172 193 0
170 191 0
172 193 0
173 195 0
169 188 25
170 191 0
167 188 0
169 190 0
170 190 0
170 190 0
167 188 0
169 191 0
166 188 0
168 189 0
168 189 0
172 192 0
164 186 36
163 184 25
164 184 25
170 192 25
166 186 51
168 190 51
168 188 36
163 183 0
171 192 44
168 188 57
166 186 25
161 182 44
161 182 0
173 193 57
171 192 67
161 183 51
160 181 36
161 183 0
164 184 0
164 185 0
163 183 0
163 184 0
163 183 0
159 180 0
159 181 0
156 177 0
161 182 0
160 179 0
155 176 0
162 183 0
163 183 0
152 173 0
162 183 0
155 177 0
159 180 0
154 174 0
161 182 0
159 181 0
155 175 0
151 172 0
153 174 0
157 179 0
150 170 0
152 173 0
154 175 0
139 160 0
148 168 0
160 182 0
151 171 0
151 172 0
157 178 0
151 172 0
153 175 0
151 172 0
154 175 0
153 174 0
153 174 0
146 167 0
143 164 0
136 156 0
143 165 0
147 167 0
142 163 0
141 161 0
143 165 0
138 158 0
133 153 0
138 159 0
138 159 0
140 160 0
142 163 0
129 150 0
133 153 0
132 154 0
132 152 0
132 151 0
129 150 0
134 154 0
134 154 0
132 152 0
130 150 0
131 151 0
126 145 0
132 151 0
115 133 0
125 144 0
112 132 0
122 140 0
118 136 0
106 123 0
107 124 0
97 115 0
100 117 0
102 118 0
110 126 0
95 112 0
82 101 40
60 85 67
47 75 76
49 78 80
51 80 82
51 82 80
48 76 70
51 81 78
49 78 86
52 82 76
51 82 90
48 77 67
52 83 80
51 81 92
50 81 78
53 84 82
49 78 90
48 78 67
50 81 67
50 81 88
51 82 86
48 77 74
50 80 74
53 85 80
52 82 88
52 83 86
52 83 78
50 80 80
54 86 82
48 77 72
53 84 86
51 82 80
50 80 74
48 77 78
51 80 82
48 76 74
52 82 88
52 82 78
51 81 78
50 80 86
51 80 86
51 81 70
51 81 78
45 73 65
50 79 74
50 79 78
49 77 76
48 77 72
48 76 75
45 72 51
47 75 57
48 76 70
48 76 70
46 72 75
58 80 57
65 79 31
70 82 0
96 108 0
92 102 0
95 105 0
89 101 0
83 94 0
99 111 0
101 113 0
99 111 0
88 99 0
89 100 0
108 121 0
103 114 0
116 127 0
104 115 0
113 125 0
110 122 0
103 115 0
105 117 0
112 122 0
102 114 0
111 125 0
118 130 0
106 119 0
112 123 0
100 112 0
107 122 0
119 131 0
108 118 0
110 123 0
111 122 0
119 132 0
115 126 0
116 128 0
111 121 0
105 116 0
109 117 0
128 140 0
115 126 0
102 110 0
124 133 0
111 119 0
120 131 0
118 128 0
116 126 0
114 120 0
117 125 0
123 131 0
125 131 0
112 122 0
113 119 0
125 132 0
105 108 0
120 126 0
108 109 0
106 109 0
112 119 0
109 111 0
108 112 0
109 114 0
104 106 0
105 108 0
106 105 0
102 101 0
106 107 0
102 102 0
97 98 0
97 96 0
88 87 0
95 93 0
94 91 0
98 95 0
94 89 0
86 86 0
91 88 0
85 83 0
85 79 0
87 85 0
84 78 0
78 73 0
73 65 0
87 78 0
78 68 0
64 55 0
84 73 0
86 74 0
74 68 0
90 80 0
89 78 0
81 71 0
88 79 0
89 81 0
94 85 11
93 82 11
98 90 0
95 86 0
103 95 0
106 97 0
99 89 0
108 98 0
106 98 11
96 87 0
107 98 11
96 87 0
102 91 0
102 94 11
104 95 0
111 103 16
96 90 0
110 100 0
104 97 0
108 100 0
106 98 11
112 102 19
113 103 19
99 92 16
109 100 11
119 110 19
99 92 11
115 109 0
104 98 22
105 98 11
104 98 0
112 104 25
102 96 16
112 104 11
121 115 30
106 100 11
108 99 22
115 108 22
113 106 11
113 106 22
111 105 19
118 111 16
124 118 22
107 99 22
120 112 28
113 107 16
107 99 19
110 103 28
114 107 28
119 111 22
114 106 25
127 119 34
118 109 28
116 110 32
118 110 25
118 110 30
109 101 19
122 114 25
119 111 30
118 111 30
115 108 30
110 103 22
115 107 25
119 112 28
117 110 36
112 107 34
118 110 36
116 109 39
119 113 32
113 106 34
130 131 32
136 146 19
155 172 16
165 182 0
167 184 0
170 189 0
168 188 0
172 194 0
170 189 0
171 191 0
174 197 0
174 197 0
175 198 0
173 196 0
174 197 0
174 197 0
174 197 0
174 197 0
175 198 0
174 197 0
175 198 36
175 198 51
179 201 92
192 211 155
185 206 122
180 202 95
176 198 72
174 197 44
174 197 44
174 196 36
173 195 36
175 197 25
173 196 51
174 196 25
174 197 25
174 197 51
174 196 44
176 198 62
171 193 25
174 196 44
173 195 51
174 196 36
174 197 51
174 196 62
173 195 25
173 195 36
178 199 51
175 197 44
175 197 57
174 196 25
174 195 0
168 189 25
170 191 36
171 193 25
170 193 0
173 194 0
172 194 0
172 193 0
170 191 0
172 194 0
170 191 0
170 191 0
172 193 0
173 195 0
170 190 0
171 191 0
167 189 0
172 194 0
172 193 0
175 196 25
172 193 0
170 191 0
169 190 25
171 191 0
168 189 0
170 191 0
168 188 0
167 189 0
170 191 0
171 192 25
166 187 25
172 192 36
169 189 36
172 193 44
172 192 51
167 187 57
167 188 36
168 188 44
170 191 25
167 188 25
169 191 36
168 189 67
164 185 57
166 187 44
164 185 25
169 189 36
167 188 67
167 188 51
163 183 57
160 181 25
166 187 0
155 177 0
169 190 0
163 184 0
162 183 0
166 187 0
167 188 0
161 182 0
163 183 0
160 181 0
156 176 0
165 185 0
161 182 0
162 184 0
155 176 0
164 185 0
160 180 0
156 177 0
159 181 0
154 174 0
157 177 0
155 176 0
155 176 0
152 172 0
152 174 0
144 164 0
155 176 0
152 174 0
156 177 0
147 167 0
152 174 0
147 168 0
149 169 0
149 170 0
143 164 0
152 173 0
148 169 0
150 171 0
147 169 0
153 174 0
146 167 0
147 168 0
145 166 0
137 158 0
153 174 0
154 175 0
149 171 0
141 162 0
139 160 0
138 158 0
144 164 0
144 166 0
141 161 0
148 168 0
133 155 0
143 163 0
141 160 0
137 158 0
142 163 0
124 143 0
128 148 0
134 155 0
128 148 0
125 146 0
123 142 0
135 155 0
126 145 0
116 136 0
120 138 0
118 136 0
120 139 0
120 138 0
120 137 0
98 115 0
107 126 0
119 137 0
101 117 0
113 131 0
104 120 0
112 128 0
94 110 0
94 111 0
92 108 0
102 118 0
74 90 31
62 85 54
45 73 44
48 77 80
48 77 74
48 78 74
47 75 70
47 75 67
47 75 65
48 77 62
49 79 76
47 77 67
47 76 70
51 82 78
50 80 74
52 82 82
51 81 78
49 78 76
53 84 97
50 80 92
47 76 67
47 75 67
52 82 74
50 80 80
50 80 84
47 76 76
52 83 86
50 79 84
50 80 65
52 82 90
51 80 67
52 83 82
51 81 78
49 77 74
52 83 86
50 80 80
50 79 80
52 82 86
49 78 82
49 78 78
51 80 84
49 79 78
48 77 72
50 79 74
48 77 76
48 76 82
48 76 76
50 79 76
47 75 78
51 78 67
60 78 51
75 90 40
86 98 0
97 110 0
87 96 0
98 111 0
79 90 0
95 106 0
92 104 0
91 102 0
95 106 0
90 101 0
88 102 0
103 115 0
109 122 0
89 99 0
100 111 0
93 105 0
97 110 0
109 123 0
113 124 0
102 113 0
104 117 0
106 117 0
99 110 0
113 127 0
101 115 0
129 140 0
104 117 0
124 137 0
101 111 0
106 116 0
115 127 0
117 130 0
101 113 0
105 115 0
110 121 0
114 126 0
114 124 0
109 117 0
118 128 0
111 122 0
114 125 0
122 134 0
124 133 0
125 137 0
109 117 0
123 132 0
110 118 0
116 123 0
122 130 0
116 123 0
117 126 0
113 120 0
113 120 0
125 134 0
104 108 0
111 117 0
104 108 0
112 118 0
107 111 0
121 126 0
118 124 0
119 122 0
117 121 0
103 106 0
111 114 0
104 106 0
101 103 0
97 101 0
99 98 0
106 108 0
109 109 0
98 97 0
108 105 0
98 98 0
100 99 0
98 94 0
99 96 0
101 99 0
102 102 0
89 86 0
88 84 0
75 69 0
78 71 0
73 66 0
69 63 0
71 67 0
72 64 0
82 74 0
68 58 0
84 73 0
84 73 11
81 70 0
80 71 0
91 79 0
88 80 0
80 73 0
105 93 0
92 83 0
87 79 0
89 80 0
97 87 0
97 89 0
96 87 0
97 89 0
91 82 0
104 95 16
97 88 16
91 84 11
101 93 11
102 92 11
95 86 16
109 101 0
105 99 0
97 90 16
112 104 19
111 103 11
96 88 11
102 94 11
104 95 0
109 102 16
108 101 16
103 95 16
105 97 11
108 100 11
102 95 16
117 108 16
105 95 11
110 102 22
107 101 19
106 98 25
113 107 30
112 104 22
111 103 25
124 115 25
112 104 16
115 106 32
110 104 22
117 108 25
116 111 19
115 107 22
108 99 0
121 114 30
110 104 25
108 102 22
109 102 25
113 107 28
114 107 11
115 108 30
112 105 22
115 108 25
108 101 28
111 105 28
108 102 25
113 106 32
112 106 32
107 99 22
116 109 28
121 114 28
105 99 36
106 100 28
108 103 30
122 125 25
152 164 16
159 176 11
165 183 0
165 182 0
168 189 0
164 182 0
167 183 0
169 187 0
166 182 0
166 184 0
166 186 0
170 190 0
174 197 0
172 196 0
173 196 0
172 196 0
174 197 0
174 197 0
173 196 0
171 194 0
172 196 0
172 195 0
174 197 0
175 198 0
173 196 0
173 197 0
176 199 51
176 198 67
185 206 122
185 205 125
182 203 99
179 201 80
180 201 80
175 198 36
173 196 36
170 193 0
174 196 44
174 197 57
175 198 44
173 196 44
171 194 57
172 195 44
174 196 51
175 197 44
174 196 44
175 196 51
173 195 57
177 198 51
175 197 51
171 193 51
174 196 44
176 197 57
177 198 44
174 196 51
177 198 44
170 192 36
171 193 36
172 193 0
174 196 25
171 191 36
171 193 36
174 196 51
170 190 57
177 198 62
173 194 25
173 194 25
169 190 0
171 192 0
170 190 25
171 191 44
170 191 44
168 189 0
174 195 44
171 192 25
171 191 36
174 196 44
171 192 36
168 189 57
172 194 36
174 195 36
165 185 25
176 196 62
170 191 25
172 192 44
170 191 44
167 187 36
170 190 51
167 188 0
169 190 25
167 188 44
172 193 51
168 189 25
166 186 51
170 191 51
172 192 67
168 190 51
172 193 36
168 189 57
169 189 0
167 188 0
168 189 0
166 187 0
169 191 0
159 181 0
166 187 0
164 185 0
163 185 0
161 180 0
161 182 0
158 180 0
156 177 0
156 177 0
160 180 0
164 185 0
157 177 0
162 183 0
158 178 0
166 186 0
162 184 0
160 180 0
160 181 0
158 179 0
163 183 0
159 180 0
156 176 0
155 176 0
148 169 0
140 161 0
144 165 0
157 179 0
152 174 0
150 171 0
166 187 0
159 181 0
153 173 0
147 169 0
147 168 0
150 171 0
153 174 0
151 171 0
149 171 0
146 167 0
144 165 0
146 168 0
147 168 0
146 167 0
145 166 0
147 169 0
139 160 0
148 170 0
137 158 0
139 160 0
133 152 0
141 162 0
149 170 0
147 168 0
134 154 0
136 156 0
127 148 0
135 154 0
137 157 0
125 145 0
120 140 0
130 150 0
137 156 0
131 149 0
123 143 0
129 149 0
133 152 0
123 141 0
121 141 0
116 134 0
110 128 0
126 144 0
116 135 0
121 139 0
110 128 0
118 135 0
118 136 0
109 126 0
106 123 0
101 118 0
105 122 0
109 127 0
98 113 0
82 98 0
94 109 0
94 109 0
82 97 0
74 91 25
56 78 60
45 72 60
50 80 67
48 77 54
47 75 67
50 80 78
50 80 84
49 78 65
48 76 70
49 78 74
46 74 72
51 82 78
46 74 67
51 81 72
47 76 67
49 78 82
49 78 67
47 76 70
51 81 88
49 78 76
51 81 78
49 78 84
51 81 76
49 79 80
47 75 65
48 77 67
51 80 72
49 78 67
52 82 88
47 76 70
47 76 76
49 78 76
48 76 47
48 76 74
48 77 84
45 71 57
47 74 72
51 81 72
51 80 84
49 77 76
45 71 60
50 79 84
46 73 54
53 76 54
75 88 36
74 85 0
82 94 0
86 98 0
76 84 0
87 98 0
104 117 0
81 93 0
93 105 0
94 107 0
94 106 0
106 118 0
102 113 0
98 108 0
95 106 0
111 124 0
106 119 0
99 112 0
98 110 0
100 114 0
101 115 0
105 117 0
101 113 0
103 116 0
110 121 0
104 118 0
119 131 0
106 119 0
100 112 0
110 121 0
113 125 0
124 137 0
121 135 0
111 124 0
112 122 0
109 119 0
110 122 0
112 123 0
116 129 0
119 133 0
117 128 0
122 134 0
121 131 0
115 127 0
120 131 0
120 130 0
119 130 0
115 126 0
111 121 0
105 113 0
119 130 0
116 127 0
114 123 0
123 130 0
120 129 0
118 125 0
111 118 0
116 123 0
112 120 0
114 120 0
106 112 0
121 129 0
105 110 0
117 122 0
104 106 0
119 123 0
117 118 0
110 115 0
113 117 0
111 116 0
111 114 0
105 105 0
107 112 0
104 107 0
109 111 0
102 102 0
103 101 0
100 99 0
94 92 0
98 98 0
101 95 0
101 95 0
99 98 0
93 89 0
87 82 0
92 88 0
84 77 0
84 80 0
81 77 0
98 95 0
85 77 0
74 67 0
63 57 0
79 72 0
73 65 11
71 61 0
75 66 0
75 64 0
85 74 0
83 72 0
90 80 0
93 83 0
88 78 11
102 91 0
92 84 0
100 90 0
92 80 11
95 85 0
89 79 0
94 85 0
103 94 11
97 89 0
80 73 0
85 76 11
99 91 11
106 99 0
102 95 11
104 95 16
101 93 11
91 83 11
99 91 11
104 94 0
98 90 16
95 90 0
109 100 0
95 86 11
110 103 11
106 98 22
110 103 19
114 104 11
105 97 16
103 92 19
102 94 19
107 98 25
103 96 22
99 91 16
110 101 19
110 102 16
114 104 30
115 108 19
109 103 16
110 102 25
110 104 28
109 103 19
111 104 19
126 117 36
112 104 25
115 107 30
100 93 11
109 105 22
105 99 16
116 108 16
106 100 16
118 109 36
113 106 34
105 97 16
104 99 22
108 102 19
109 103 28
113 106 37
121 117 22
122 126 16
142 153 19
150 163 11
168 185 0
165 182 0
166 183 0
168 186 0
162 179 0
168 186 0
163 180 0
165 182 0
164 184 0
168 186 0
164 183 0
165 184 0
168 186 0
164 183 0
173 196 0
172 196 0
172 195 0
173 197 0
176 198 0
170 195 0
172 196 0
172 196 0
172 196 0
174 197 0
172 195 0
172 195 0
172 196 0
172 195 0
175 197 0
173 196 0
174 197 0
173 195 0
172 196 0
180 201 67
182 203 95
182 202 95
180 201 102
183 203 108
178 199 84
178 200 62
173 195 25
174 197 25
173 196 51
174 197 36
174 196 51
176 198 44
173 197 0
173 196 51
174 196 51
174 196 57
179 200 57
174 195 51
175 197 25
173 195 51
173 195 25
173 195 25
174 196 62
176 197 25
175 197 44
173 193 36
172 194 51
174 196 44
173 194 57
174 194 36
175 196 25
178 198 44
176 197 51
171 192 51
175 196 51
176 196 36
170 191 25
177 197 44
173 194 51
170 192 44
171 192 0
174 195 36
173 193 62
166 187 0
172 192 44
168 189 36
173 193 36
172 193 36
166 187 36
178 198 67
164 185 44
170 190 57
173 193 44
171 192 25
171 192 25
172 193 44
168 188 72
175 196 84
177 197 80
176 196 57
167 189 44
162 183 25
166 185 0
163 182 0
166 187 0
167 188 0
167 188 0
159 180 0
163 184 0
165 186 0
160 182 0
163 183 0
163 184 0
162 183 0
162 183 0
161 183 0
161 182 0
158 180 0
159 180 0
162 184 0
161 181 0
156 177 0
159 180 0
161 182 0
152 172 0
156 176 0
154 175 0
157 179 0
155 176 0
159 180 0
157 179 0
157 178 0
150 172 0
159 181 0
158 179 0
141 162 0
158 178 0
155 176 0
150 172 0
149 171 0
146 167 0
155 177 0
144 165 0
156 177 0
150 172 0
140 161 0
155 176 0
143 165 0
154 175 0
141 161 0
153 174 0
151 172 0
147 168 0
147 168 0
147 168 0
139 160 0
149 170 0
148 168 0
143 164 0
146 167 0
132 152 0
137 157 0
142 163 0
141 162 0
137 157 0
131 150 0
138 159 0
130 150 0
138 159 0
135 156 0
133 154 0
136 155 0
128 147 0
125 144 0
132 152 0
125 144 0
133 152 0
119 137 0
131 151 0
114 132 0
124 143 0
106 125 0
122 140 0
114 132 0
124 143 0
102 120 0
114 132 0
112 129 0
96 113 0
106 123 0
100 116 0
101 117 0
91 106 0
102 117 0
80 94 0
88 103 0
101 116 0
90 104 0
82 96 0
76 92 18
71 88 44
62 85 57
48 77 74
45 72 44
46 74 51
49 79 86
47 76 65
48 77 67
48 77 67
50 79 78
47 75 57
48 76 78
48 76 76
45 73 60
51 81 82
50 80 80
49 77 76
49 79 78
46 73 70
47 76 65
47 76 74
44 71 62
49 78 65
48 77 70
48 76 78
50 80 72
48 77 65
53 83 90
47 75 54
48 77 62
48 77 72
51 80 92
47 75 60
49 77 74
43 70 57
48 76 74
46 72 84
50 77 76
48 70 54
57 71 36
56 67 25
54 64 0
85 96 0
91 101 0
90 101 0
76 86 0
83 94 0
73 84 0
95 107 0
92 106 0
92 102 0
93 105 0
90 101 0
89 102 0
98 110 0
92 104 0
99 109 0
103 117 0
110 121 0
99 113 0
109 122 0
97 111 0
110 125 0
110 123 0
104 117 0
102 115 0
111 123 0
103 113 0
109 121 0
109 121 0
109 121 0
105 116 0
112 124 0
112 125 0
105 117 0
114 127 0
124 137 0
115 128 0
118 129 0
120 134 0
116 130 0
113 124 0
124 135 0
134 147 0
115 129 0
121 133 0
118 130 0
113 121 0
126 140 0
116 129 0
117 125 0
119 133 0
109 118 0
113 123 0
107 117 0
125 134 0
118 126 0
110 117 0
115 125 0
123 130 0
118 126 0
109 116 0
114 121 0
108 112 0
117 121 0
110 117 0
110 118 0
119 125 0
109 114 0
114 118 0
113 119 0
110 112 0
111 112 0
113 117 0
116 120 0
112 114 0
109 111 0
99 102 0
107 109 0
111 111 0
97 95 0
108 107 0
114 114 0
91 90 0
101 99 0
106 106 0
102 99 0
98 92 0
103 99 0
89 82 0
98 95 0
99 97 0
87 81 0
99 94 0
92 88 0
82 74 0
76 70 0
76 66 0
82 72 0
87 81 0
72 66 0
73 63 0
78 72 0
84 76 0
89 78 0
85 75 0
87 77 0
89 81 0
94 83 0
89 78 11
91 79 0
105 95 16
91 82 0
97 88 11
84 77 0
100 91 11
91 83 11
104 94 11
97 86 0
89 81 0
105 98 11
102 94 0
107 98 11
97 87 11
108 100 0
97 88 11
97 86 16
103 94 30
109 100 19
94 87 0
102 95 16
100 93 16
113 105 25
106 100 11
115 108 22
100 92 11
110 102 19
110 101 0
101 94 0
102 94 16
107 101 19
107 99 32
103 97 11
94 88 11
108 99 25
105 96 22
107 98 11
108 99 19
109 102 22
113 104 30
111 103 19
99 92 25
109 102 36
102 96 22
111 104 19
110 100 30
112 105 28
101 100 28
117 115 22
150 156 22
144 152 16
160 176 0
158 174 0
161 177 0
159 174 0
167 186 0
162 177 0
166 183 0
159 174 0
160 178 0
165 182 0
163 178 0
165 180 0
166 183 0
169 187 0
167 185 0
165 182 0
164 183 0
165 183 0
168 187 0
176 199 0
172 195 0
174 197 0
172 195 0
173 197 0
175 198 0
173 196 0
175 198 0
175 198 0
173 197 0
174 197 0
174 196 0
173 196 0
172 196 0
173 196 0
173 196 0
172 195 0
171 194 0
174 197 0
175 197 0
173 196 0
171 194 0
173 196 0
170 193 0
175 197 62
178 200 67
178 200 80
184 204 108
178 200 99
178 199 88
183 204 105
178 200 76
174 196 44
172 195 25
175 198 44
176 198 25
172 195 25
173 195 44
175 197 62
174 196 57
175 196 25
172 195 25
175 196 36
174 196 25
171 192 36
176 198 51
173 193 51
174 196 36
175 196 62
170 191 25
171 192 36
175 195 36
176 197 36
172 193 36
174 195 36
173 194 44
172 192 36
170 191 0
174 195 51
173 194 36
175 196 44
173 194 25
174 195 36
170 190 44
172 194 51
170 190 36
173 194 36
172 193 57
173 194 44
171 191 51
171 192 36
178 199 80
171 191 57
171 192 67
172 192 76
170 191 57
171 191 44
169 190 0
170 191 0
170 190 0
167 189 0
168 189 0
170 191 0
168 189 0
167 188 0
159 179 0
163 183 0
166 187 0
161 182 0
162 182 0
158 180 0
161 183 0
162 183 0
156 176 0
165 186 0
167 188 0
165 186 0
159 180 0
160 182 0
163 184 0
165 184 0
160 181 0
151 172 0
160 182 0
154 176 0
164 185 0
162 183 0
155 177 0
166 186 0
150 172 0
157 180 0
158 179 0
148 168 0
155 176 0
153 174 0
157 178 0
157 178 0
147 168 0
154 175 0
153 175 0
153 173 0
146 167 0
145 165 0
148 169 0
158 178 0
144 164 0
145 166 0
147 169 0
139 161 0
152 173 0
145 166 0
152 174 0
151 171 0
145 165 0
144 164 0
144 164 0
143 165 0
145 166 0
141 163 0
137 158 0
137 159 0
144 165 0
145 165 0
136 156 0
139 160 0
142 163 0
135 156 0
134 155 0
132 152 0
127 147 0
123 142 0
128 148 0
127 146 0
127 146 0
118 138 0
114 134 0
126 146 0
123 143 0
131 150 0
125 145 0
109 127 0
114 131 0
126 144 0
122 141 0
116 134 0
104 121 0
111 129 0
115 131 0
109 127 0
90 106 0
97 115 0
92 108 0
90 106 0
88 106 0
92 108 0
73 86 0
90 104 0
94 107 0
87 101 0
78 90 0
96 108 0
71 85 0
73 87 18
53 68 0
67 85 51
54 78 67
46 74 65
47 74 70
51 80 90
46 74 72
49 79 70
48 76 65
50 80 74
47 75 78
44 71 60
44 71 54
47 75 70
51 81 78
50 79 70
45 73 78
45 73 70
48 76 76
46 73 67
47 75 72
50 79 78
45 72 70
47 75 67
47 74 65
46 74 62
46 73 76
48 76 67
43 70 57
45 72 70
48 76 65
46 71 65
49 67 51
55 69 44
60 71 0
65 76 0
72 84 0
87 98 0
80 92 0
91 102 0
76 86 0
78 88 0
86 97 0
92 106 0
80 91 0
88 99 0
75 89 0
77 88 0
96 108 0
98 109 0
85 98 0
90 101 0
91 103 0
101 114 0
106 117 0
93 106 0
101 109 0
109 123 0
100 113 0
112 125 0
109 122 0
106 121 0
111 126 0
118 133 0
114 128 0
109 120 0
112 125 0
112 122 0
119 131 0
112 125 0
115 128 0
118 132 0
125 138 0
113 125 0
104 115 0
111 124 0
115 128 0
123 136 0
121 132 0
107 119 0
112 121 0
119 130 0
126 139 0
128 142 0
124 138 0
110 122 0
118 128 0
130 142 0
121 131 0
113 122 0
118 129 0
121 132 0
121 131 0
113 122 0
116 125 0
122 133 0
122 132 0
127 137 0
115 121 0
121 131 0
116 122 0
115 123 0
110 114 0
109 114 0
120 126 0
108 112 0
110 112 0
128 133 0
113 118 0
109 114 0
105 108 0
119 123 0
121 124 0
112 114 0
108 111 0
103 102 0
108 111 0
111 114 0
109 111 0
108 106 0
95 93 0
103 103 0
109 108 0
92 93 0
95 91 0
93 90 0
94 88 0
93 90 0
93 90 0
88 85 0
90 82 0
93 88 0
102 97 0
98 94 0
81 73 0
89 87 0
98 93 0
100 96 0
79 73 0
114 111 0
94 87 0
86 79 0
105 100 0
80 71 0
80 73 0
86 77 11
89 78 0
87 77 0
90 79 11
87 77 16
95 87 0
97 88 0
88 77 0
83 73 16
92 82 0
95 86 0
101 90 0
95 85 16
97 89 0
101 90 11
97 87 11
99 91 11
100 92 11
90 80 0
95 85 0
108 100 16
98 90 16
109 98 11
102 95 19
111 100 19
108 99 16
103 95 0
104 95 16
104 93 25
101 94 19
104 96 22
104 98 25
102 93 19
108 100 22
101 94 22
121 112 16
102 92 25
107 99 11
104 96 22
111 104 28
107 100 30
98 90 16
106 98 39
107 104 19
128 125 25
129 129 16
134 140 11
142 149 19
159 174 0
160 173 0
157 171 0
159 172 0
162 177 0
160 173 0
161 175 0
158 173 0
163 179 0
164 180 0
159 173 0
164 180 0
161 178 0
162 176 0
164 181 0
163 179 0
166 183 0
169 183 0
165 180 0
167 184 0
166 186 0
164 183 0
168 187 0
166 185 0
173 196 0
169 193 0
174 198 0
170 194 0
171 195 0
173 196 0
169 192 0
172 195 0
172 196 0
172 195 0
172 195 0
174 198 0
171 194 0
175 198 0
174 197 0
173 196 0
173 195 0
173 196 0
172 195 0
171 195 0
175 197 0
175 197 0
174 196 0
172 195 0
175 197 0
172 195 0
173 196 0
174 197 0
174 196 0
174 196 0
175 197 44
177 198 72
182 203 99
179 199 76
183 203 92
174 196 57
180 201 95
183 203 95
179 201 88
179 200 95
179 200 92
177 198 62
172 194 44
179 199 88
175 196 36
174 195 25
171 193 25
174 196 36
174 196 44
177 198 57
172 194 36
173 195 57
173 194 51
174 196 44
171 192 25
176 197 36
172 194 25
179 200 72
177 198 67
175 195 80
174 194 76
177 197 95
173 192 76
176 197 88
177 197 51
171 192 44
171 191 76
177 197 62
175 196 72
174 194 44
173 193 25
169 191 0
167 188 0
167 188 0
170 190 0
172 192 0
171 191 0
164 186 0
165 185 0
171 192 0
160 181 0
166 187 0
169 190 0
164 184 0
166 187 0
165 185 0
163 184 0
163 183 0
164 186 0
159 181 0
161 183 0
165 187 0
161 182 0
158 179 0
160 181 0
157 178 0
160 182 0
165 186 0
159 180 0
158 178 0
162 183 0
161 183 0
159 179 0
147 168 0
158 179 0
156 177 0
156 178 0
156 177 0
159 180 0
156 177 0
160 181 0
152 174 0
155 176 0
150 171 0
153 174 0
152 173 0
154 175 0
156 178 0
148 169 0
151 173 0
144 165 0
151 172 0
152 173 0
149 171 0
148 169 0
156 177 0
150 171 0
139 160 0
147 168 0
140 161 0
152 173 0
142 164 0
142 163 0
148 170 0
145 166 0
134 155 0
145 166 0
135 156 0
137 158 0
142 163 0
145 166 0
150 171 0
136 157 0
129 149 0
141 162 0
136 157 0
136 156 0
131 151 0
146 167 0
136 156 0
133 153 0
134 153 0
134 155 0
127 147 0
135 154 0
111 131 0
133 152 0
129 148 0
131 149 0
117 136 0
103 120 0
119 138 0
110 128 0
122 141 0
117 135 0
99 117 0
102 120 0
107 124 0
99 116 0
118 135 0
119 136 0
95 111 0
90 106 0
94 110 0
105 121 0
88 103 0
86 100 0
91 104 0
102 116 0
78 90 0
86 99 0
80 94 0
84 97 0
64 78 0
78 92 0
71 83 0
78 90 0
71 85 40
64 79 36
49 70 44
56 77 47
50 74 51
44 71 62
46 75 54
46 74 62
44 71 60
44 71 67
45 71 72
48 77 67
45 72 57
43 70 51
41 66 60
44 70 67
42 68 67
44 70 62
43 68 62
47 75 74
41 66 60
44 67 40
49 69 54
57 73 31
57 74 40
55 66 18
72 81 18
79 89 0
66 77 0
67 79 0
84 95 0
88 98 0
72 82 0
81 94 0
69 79 0
92 104 0
76 88 0
81 94 0
100 111 0
66 80 0
77 88 0
85 98 0
94 106 0
93 106 0
94 106 0
106 120 0
90 102 0
87 100 0
106 118 0
105 116 0
107 119 0
96 108 0
104 115 0
97 110 0
117 130 0
105 120 0
97 109 0
92 105 0
111 124 0
104 118 0
118 130 0
103 115 0
105 118 0
113 129 0
128 143 0
106 119 0
112 125 0
126 138 0
110 124 0
121 133 0
116 131 0
113 125 0
114 126 0
125 139 0
111 124 0
126 139 0
112 126 0
114 125 0
108 119 0
118 130 0
112 125 0
126 137 0
101 112 0
116 128 0
126 138 0
120 131 0
120 131 0
108 114 0
118 128 0
113 123 0
112 121 0
119 129 0
117 127 0
115 122 0
116 128 0
113 121 0
116 125 0
116 124 0
120 128 0
120 127 0
117 125 0
123 132 0
118 123 0
122 130 0
115 119 0
112 117 0
120 126 0
127 131 0
107 113 0
115 119 0
112 113 0
112 115 0
106 109 0
115 120 0
105 106 0
115 117 0
116 117 0
113 117 0
115 114 0
107 103 0
110 107 0
105 105 0
108 107 0
96 94 0
110 108 0
101 101 0
107 102 0
94 88 0
94 91 0
101 100 0
103 100 0
97 92 0
90 80 0
96 91 0
98 96 0
102 97 0
89 84 0
96 93 0
101 94 0
91 84 0
89 81 0
93 85 0
95 89 0
96 87 0
96 91 0
102 93 0
82 73 0
91 79 11
87 77 11
94 86 11
84 74 11
95 86 11
93 84 0
87 77 0
69 59 11
89 79 11
88 78 16
90 81 11
96 84 19
99 90 22
94 85 11
94 87 11
101 92 16
100 90 22
90 82 11
110 101 19
103 95 19
100 92 19
102 93 19
89 80 19
100 91 19
93 86 19
102 95 25
108 101 16
109 99 25
98 93 19
111 104 19
121 116 16
112 110 22
124 127 0
133 138 19
143 152 16
149 157 11
153 163 0
155 165 0
161 173 0
156 168 0
148 161 0
160 173 0
161 173 0
158 168 0
157 171 0
157 171 0
164 177 0
163 174 0
168 183 0
159 172 0
162 175 0
163 177 0
161 175 0
161 177 0
158 174 0
166 182 0
163 175 0
158 173 0
164 177 0
159 174 0
164 181 0
163 180 0
160 177 0
162 180 0
164 179 0
163 180 0
173 196 0
170 194 0
173 195 0
173 195 0
173 195 0
173 197 0
173 196 0
175 198 0
175 197 0
173 196 0
172 195 0
172 195 0
173 196 0
173 196 0
173 195 0
174 197 0
172 195 0
174 196 0
170 193 0
173 195 0
167 190 0
171 193 0
175 198 0
174 196 0
172 195 0
171 193 0
172 195 0
174 197 0
169 191 0
173 195 0
174 196 0
173 195 0
173 195 0
174 196 0
174 196 0
174 195 0
174 196 0
170 192 0
171 193 0
170 191 0
175 197 51
175 196 44
178 199 72
173 194 72
180 201 67
178 200 76
180 200 80
180 200 76
178 200 72
178 198 62
174 194 72
181 202 99
183 202 99
175 195 80
179 199 76
179 199 95
176 196 76
175 195 57
175 196 67
170 191 57
171 191 0
170 191 0
173 194 0
170 190 0
170 190 0
173 193 0
168 189 0
169 190 0
169 190 0
173 193 0
165 185 0
169 190 0
172 192 0
166 186 0
169 189 0
160 181 0
171 191 0
168 188 0
168 190 0
165 187 0
163 184 0
165 186 0
169 190 0
163 184 0
164 185 0
161 181 0
162 184 0
166 187 0
170 191 0
167 189 0
161 183 0
169 190 0
161 183 0
159 179 0
166 186 0
163 184 0
160 182 0
159 179 0
163 185 0
156 177 0
153 175 0
164 185 0
158 178 0
162 184 0
159 181 0
159 180 0
159 181 0
151 173 0
155 176 0
154 175 0
145 166 0
155 177 0
148 169 0
157 178 0
145 166 0
151 173 0
145 166 0
142 163 0
150 171 0
151 173 0
156 178 0
152 174 0
152 174 0
156 178 0
151 173 0
145 166 0
148 170 0
147 169 0
155 177 0
137 157 0
146 168 0
141 163 0
148 168 0
153 173 0
151 172 0
143 163 0
140 161 0
137 159 0
137 159 0
137 158 0
135 155 0
135 156 0
145 166 0
130 151 0
141 162 0
134 156 0
133 154 0
126 146 0
132 152 0
132 152 0
131 150 0
139 160 0
127 146 0
128 149 0
124 144 0
123 144 0
116 135 0
120 140 0
117 136 0
124 143 0
125 144 0
108 125 0
124 142 0
115 135 0
120 138 0
110 127 0
109 126 0
116 133 0
101 118 0
107 124 0
103 119 0
103 120 0
112 130 0
120 137 0
91 107 0
100 116 0
87 101 0
94 109 0
101 116 0
109 124 0
100 115 0
78 92 0
67 81 0
83 96 0
69 82 0
79 91 0
76 89 0
73 84 0
82 94 0
57 68 0
68 79 0
54 64 0
74 85 0
66 77 0
53 66 0
52 67 40
59 75 36
51 65 44
53 68 36
57 73 31
65 78 18
50 67 31
47 65 47
60 72 18
54 68 25
53 65 36
72 83 25
65 76 0
62 74 0
72 81 0
63 73 0
60 71 0
66 76 0
66 75 0
56 69 0
68 78 0
90 101 0
85 96 0
62 75 0
90 101 0
77 87 0
91 103 0
90 102 0
89 101 0
98 112 0
84 96 0
73 84 0
83 95 0
93 104 0
98 112 0
87 100 0
80 92 0
90 101 0
104 116 0
79 92 0
96 109 0
99 111 0
111 123 0
105 118 0
93 107 0
108 121 0
98 109 0
106 119 0
108 121 0
109 123 0
119 133 0
108 120 0
111 123 0
104 118 0
108 121 0
110 124 0
113 126 0
117 130 0
121 131 0
109 122 0
100 112 0
113 126 0
116 129 0
115 128 0
108 120 0
114 127 0
106 118 0
102 114 0
122 135 0
113 122 0
111 124 0
129 144 0
113 127 0
124 134 0
111 121 0
123 133 0
130 140 0
119 131 0
114 126 0
120 129 0
108 117 0
133 143 0
124 137 0
103 112 0
114 122 0
121 130 0
131 140 0
118 126 0
123 132 0
121 125 0
117 127 0
117 126 0
118 126 0
113 119 0
109 117 0
126 136 0
117 120 0
116 125 0
127 133 0
126 133 0
116 122 0
109 114 0
116 118 0
126 130 0
111 114 0
108 111 0
114 113 0
112 112 0
118 119 0
116 119 0
105 108 0
116 114 0
118 120 0
110 111 0
114 112 0
104 104 0
113 109 0
115 117 0
105 103 0
104 100 0
102 98 0
103 103 0
98 94 0
105 101 0
104 99 0
101 99 0
107 102 0
100 95 0
114 110 0
101 97 0
97 93 0
108 105 0
98 90 0
105 100 0
96 89 0
100 94 0
109 105 0
113 108 0
94 88 0
109 104 0
113 112 0
117 114 0
102 97 0
123 118 0
109 104 0
106 101 11
112 109 0
108 103 0
111 105 16
121 116 11
97 94 0
116 111 11
105 104 0
117 113 0
100 96 11
116 112 0
119 118 0
117 114 16
121 118 16
117 114 0
134 135 11
129 128 0
130 132 0
139 143 0
134 136 0
139 144 0
148 152 0
150 155 0
148 153 0
149 155 0
150 156 0
151 157 0
149 158 0
151 158 0
154 161 0
154 162 0
150 160 0
156 166 0
151 159 0
150 161 0
164 176 0
159 169 0
155 167 0
158 172 0
155 168 0
158 170 0
159 174 0
162 177 0
156 168 0
160 174 0
164 176 0
163 177 0
161 177 0
159 174 0
161 178 0
162 177 0
164 180 0
163 178 0
166 181 0
167 181 0
168 186 0
162 178 0
166 184 0
158 174 0
162 177 0
171 195 0
173 196 0
172 195 0
175 198 0
170 194 0
174 197 0
172 195 0
171 194 0
171 194 0
173 196 0
175 197 0
171 194 0
171 194 0
174 196 0
173 196 0
173 196 0
172 195 0
174 195 0
172 194 0
175 198 0
175 197 0
175 197 0
171 193 0
173 195 0
176 198 0
171 193 0
169 191 0
173 195 0
171 194 0
173 195 0
172 195 0
175 197 0
175 196 0
170 193 0
172 194 0
174 196 0
176 197 0
174 196 0
172 193 0
174 195 0
173 194 0
172 194 0
174 195 0
171 192 0
169 191 0
174 195 0
174 195 0
171 192 0
176 196 0
170 191 0
171 193 0
171 193 0
171 192 0
172 193 0
172 193 0
174 195 0
172 193 0
169 191 0
171 191 0
171 192 0
173 193 0
171 192 0
173 193 0
172 192 0
168 189 0
165 186 0
163 184 0
175 196 0
171 192 0
171 191 0
169 190 0
166 187 0
171 192 0
168 189 0
167 187 0
167 187 0
160 181 0
165 187 0
162 183 0
164 184 0
167 187 0
161 181 0
168 189 0
165 186 0
165 186 0
163 184 0
159 181 0
158 178 0
159 182 0
161 182 0
161 181 0
161 182 0
164 185 0
159 180 0
163 184 0
162 182 0
161 182 0
160 181 0
160 182 0
157 178 0
158 179 0
155 177 0
157 178 0
155 176 0
152 173 0
154 175 0
154 176 0
153 174 0
157 178 0
153 174 0
145 167 0
156 177 0
154 175 0
154 177 0
155 177 0
157 179 0
149 170 0
147 169 0
155 176 0
151 173 0
149 171 0
152 173 0
155 177 0
152 173 0
149 169 0
153 176 0
148 169 0
149 172 0
139 161 0
147 168 0
151 173 0
143 165 0
143 165 0
142 164 0
140 161 0
150 171 0
146 167 0
144 166 0
133 153 0
136 157 0
137 158 0
143 165 0
131 150 0
136 157 0
141 161 0
122 142 0
129 148 0
120 139 0
145 166 0
135 155 0
130 151 0
130 150 0
113 134 0
135 155 0
125 144 0
127 145 0
126 145 0
121 141 0
122 141 0
112 131 0
129 148 0
111 128 0
116 134 0
117 135 0
105 122 0
111 129 0
123 140 0
115 133 0
101 118 0
105 123 0
107 123 0
96 112 0
116 133 0
99 116 0
109 125 0
99 114 0
95 111 0
98 113 0
97 111 0
92 107 0
88 104 0
75 89 0
83 97 0
77 90 0
89 103 0
86 99 0
88 102 0
78 90 0
65 78 0
80 93 0
80 92 0
75 86 0
64 75 0
77 89 0
85 97 0
65 76 0
61 73 0
73 83 0
67 77 0
67 78 0
65 75 0
66 76 0
69 78 0
69 79 0
47 57 0
57 68 0
70 80 0
60 74 0
71 83 0
65 76 0
91 102 0
77 87 0
79 89 0
71 84 0
77 85 0
76 87 0
71 84 0
82 93 0
80 92 0
78 91 0
82 96 0
83 96 0
83 95 0
93 105 0
107 121 0
90 104 0
89 100 0
84 97 0
83 92 0
90 102 0
96 109 0
100 114 0
101 115 0
95 107 0
85 97 0
93 106 0
103 120 0
104 117 0
105 118 0
120 134 0
110 124 0
105 118 0
119 133 0
117 128 0
115 130 0
115 130 0
114 129 0
112 126 0
106 120 0
107 121 0
106 118 0
105 119 0
111 126 0
121 134 0
107 121 0
117 131 0
103 116 0
126 142 0
113 126 0
119 132 0
119 136 0
110 124 0
114 128 0
120 135 0
126 138 0
120 134 0
128 140 0
120 133 0
127 139 0
124 135 0
126 139 0
122 134 0
121 133 0
119 129 0
121 134 0
120 130 0
125 135 0
121 133 0
127 139 0
108 119 0
129 140 0
126 137 0
109 121 0
122 132 0
118 124 0
122 132 0
122 132 0
124 133 0
113 121 0
116 124 0
122 129 0
117 124 0
112 117 0
125 127 0
110 115 0
114 119 0
118 125 0
116 120 0
106 111 0
118 123 0
132 137 0
120 124 0
119 123 0
122 125 0
114 116 0
115 114 0
121 124 0
108 111 0
120 123 0
112 109 0
118 120 0
120 121 0
99 97 0
103 102 0
113 110 0
108 108 0
108 106 0
101 97 0
111 108 0
105 102 0
108 107 0
104 99 0
96 94 0
98 92 0
95 89 0
102 99 0
106 99 0
103 97 0
102 96 0
104 100 0
108 101 0
102 96 0
109 104 0
115 111 0
115 112 0
112 108 0
118 115 0
126 123 0
120 115 0
118 115 0
125 122 0
125 126 0
122 121 0
124 118 0
126 127 0
121 116 0
130 128 0
123 122 0
140 143 0
122 120 0
135 136 0
122 121 0
136 137 0
134 133 0
140 141 0
139 143 0
136 139 0
141 144 0
144 147 0
143 148 0
145 149 0
146 151 0
152 159 0
143 149 0
145 147 0
155 164 0
143 146 0
149 155 0
150 158 0
155 165 0
151 157 0
152 163 0
149 156 0
157 167 0
150 160 0
151 160 0
153 162 0
146 155 0
158 166 0
165 177 0
159 171 0
159 171 0
160 171 0
161 174 0
159 174 0
160 175 0
165 179 0
166 180 0
160 173 0
162 176 0
163 177 0
159 172 0
164 180 0
163 176 0
165 181 0
157 172 0
158 173 0
164 180 0
163 182 0
162 179 0
170 193 0
174 197 0
173 196 0
172 195 0
173 196 0
172 194 0
173 195 0
171 194 0
173 196 0
174 196 0
176 199 0
170 193 0
172 196 0
172 194 0
173 195 0
171 194 0
172 195 0
174 196 0
174 197 0
172 194 0
174 196 0
173 195 0
173 196 0
168 190 0
172 194 0
171 194 0
173 196 0
175 196 0
172 194 0
173 195 0
172 194 0
174 196 0
175 197 0
172 194 0
169 191 0
174 195 0
171 193 0
174 196 0
170 192 0
174 195 0
170 192 0
171 193 0
174 195 0
174 196 0
171 192 0
175 196 0
172 194 0
171 192 0
171 191 0
171 192 0
167 188 0
173 194 0
171 192 0
171 193 0
171 193 0
171 193 0
174 194 0
169 190 0
171 192 0
173 192 0
172 192 0
169 190 0
173 193 0
172 193 0
165 187 0
171 192 0
169 189 0
170 190 0
172 193 0
167 188 0
168 189 0
168 190 0
170 191 0
168 188 0
168 188 0
162 183 0
164 185 0
166 187 0
165 187 0
161 182 0
167 188 0
164 185 0
166 188 0
162 184 0
165 185 0
164 185 0
156 177 0
166 187 0
163 185 0
157 179 0
160 180 0
160 181 0
162 183 0
159 179 0
153 173 0
160 181 0
160 183 0
153 174 0
149 171 0
164 185 0
162 183 0
154 176 0
163 184 0
159 181 0
159 180 0
158 180 0
159 180 0
158 178 0
155 176 0
164 185 0
155 176 0
156 177 0
151 173 0
152 173 0
148 169 0
160 180 0
146 168 0
154 176 0
159 181 0
151 172 0
155 177 0
158 179 0
149 171 0
148 169 0
148 170 0
145 167 0
152 173 0
147 169 0
142 163 0
145 166 0
148 168 0
147 169 0
152 174 0
145 166 0
142 164 0
140 161 0
141 162 0
147 168 0
141 161 0
134 155 0
139 160 0
154 175 0
139 160 0
129 150 0
129 150 0
131 151 0
134 154 0
126 147 0
145 166 0
143 164 0
130 150 0
140 160 0
135 155 0
123 141 0
120 140 0
119 139 0
125 145 0
121 139 0
124 143 0
112 131 0
129 147 0
126 145 0
126 145 0
112 130 0
115 133 0
113 131 0
110 128 0
103 121 0
99 119 0
99 116 0
111 128 0
116 133 0
91 108 0
104 120 0
104 121 0
96 113 0
91 107 0
100 116 0
81 96 0
95 109 0
96 113 0
91 106 0
92 105 0
80 95 0
83 96 0
98 113 0
85 98 0
89 102 0
93 107 0
73 85 0
76 89 0
75 87 0
63 75 0
89 102 0
73 84 0
68 80 0
68 79 0
87 96 0
86 98 0
74 85 0
70 80 0
63 75 0
91 102 0
62 71 0
65 77 0
74 84 0
80 92 0
67 77 0
54 65 0
89 100 0
67 77 0
67 77 0
75 87 0
74 86 0
78 91 0
78 90 0
75 87 0
90 101 0
85 99 0
84 96 0
81 93 0
84 96 0
97 109 0
91 102 0
91 104 0
81 92 0
95 108 0
86 98 0
100 112 0
89 102 0
94 109 0
101 116 0
96 109 0
93 105 0
103 116 0
104 118 0
111 125 0
107 119 0
96 108 0
109 123 0
100 113 0
112 125 0
112 125 0
101 114 0
111 124 0
102 116 0
116 129 0
104 117 0
116 129 0
116 131 0
119 134 0
111 125 0
104 117 0
107 120 0
109 124 0
109 122 0
113 126 0
124 139 0
124 136 0
124 139 0
119 132 0
114 127 0
124 138 0
118 128 0
126 139 0
115 129 0
133 146 0
123 136 0
125 139 0
117 129 0
121 133 0
114 127 0
127 141 0
112 124 0
123 133 0
113 126 0
123 133 0
121 133 0
124 135 0
125 138 0
122 131 0
133 143 0
120 131 0
121 132 0
122 133 0
127 138 0
128 137 0
120 129 0
117 126 0
123 130 0
121 130 0
110 118 0
116 121 0
119 128 0
110 118 0
121 129 0
123 127 0
125 133 0
117 121 0
121 125 0
120 122 0
119 121 0
114 120 0
117 119 0
107 108 0
118 123 0
121 124 0
114 118 0
118 116 0
117 119 0
114 115 0
112 116 0
118 119 0
111 113 0
106 103 0
118 121 0
102 99 0
115 113 0
112 109 0
116 118 0
112 113 0
104 101 0
120 119 0
116 114 0
111 108 0
108 105 0
117 115 0
108 103 0
117 114 0
109 109 0
106 100 0
116 115 0
111 106 0
105 101 0
110 107 0
108 105 0
125 124 0
120 117 0
117 113 0
114 108 0
118 116 0
116 114 0
116 113 0
115 110 0
109 108 0
116 114 0
129 126 0
115 113 0
130 128 0
131 134 0
124 119 0
127 128 0
125 126 0
136 138 0
141 142 0
135 134 0
131 136 0
133 133 0
149 152 0
141 145 0
148 155 0
138 143 0
132 135 0
145 151 0
149 155 0
144 149 0
135 139 0
152 159 0
145 149 0
148 155 0
150 157 0
150 159 0
150 156 0
149 159 0
153 161 0
148 155 0
152 163 0
161 174 0
160 172 0
159 172 0
155 166 0
153 163 0
161 175 0
154 166 0
161 175 0
159 171 0
163 173 0
158 172 0
159 174 0
162 176 0
159 173 0
161 175 0
164 179 0
162 175 0
161 176 0
164 178 0
158 175 0
160 176 0
165 181 0
161 176 0
176 198 0
174 197 0
174 197 0
170 193 0
174 197 0
174 196 0
173 196 0
170 193 0
173 195 0
172 195 0
176 198 0
171 194 0
175 197 0
173 196 0
175 197 0
175 197 0
173 196 0
170 192 0
167 190 0
174 196 0
171 193 0
170 193 0
169 191 0
170 192 0
173 196 0
173 195 0
174 196 0
173 195 0
173 195 0
174 195 0
168 190 0
174 196 0
173 195 0
174 195 0
175 196 0
176 197 0
174 196 0
170 190 0
175 195 0
175 196 0
168 189 0
173 195 0
170 193 0
170 192 0
173 194 0
172 193 0
170 191 0
170 191 0
168 189 0
171 192 0
173 195 0
170 191 0
174 195 0
173 193 0
171 193 0
174 196 0
176 197 0
172 193 0
171 192 0
173 193 0
169 190 0
170 190 0
167 188 0
170 192 0
170 191 0
174 195 0
167 187 0
166 187 0
170 191 0
168 189 0
172 192 0
169 189 0
165 186 0
163 184 0
162 183 0
166 188 0
171 193 0
163 184 0
169 189 0
162 184 0
166 187 0
167 189 0
164 184 0
156 177 0
158 179 0
162 184 0
161 182 0
155 178 0
161 182 0
158 179 0
163 183 0
159 181 0
155 178 0
159 180 0
147 169 0
155 176 0
153 174 0
155 176 0
162 183 0
157 179 0
159 181 0
157 178 0
161 181 0
154 176 0
154 176 0
156 177 0
149 171 0
163 185 0
156 177 0
152 174 0
152 174 0
156 176 0
157 179 0
148 169 0
155 177 0
154 176 0
147 169 0
150 172 0
151 173 0
151 174 0
154 176 0
148 169 0
156 177 0
144 167 0
147 169 0
149 171 0
140 161 0
149 169 0
157 178 0
145 166 0
143 164 0
148 169 0
150 172 0
144 165 0
147 167 0
139 160 0
153 174 0
150 171 0
146 169 0
138 159 0
131 151 0
139 161 0
137 158 0
136 156 0
141 162 0
123 144 0
136 157 0
138 158 0
131 150 0
129 148 0
141 160 0
135 155 0
135 155 0
132 152 0
127 147 0
127 147 0
129 149 0
128 148 0
135 154 0
123 143 0
113 132 0
118 136 0
122 140 0
108 126 0
116 135 0
109 127 0
122 139 0
115 132 0
115 132 0
113 131 0
101 118 0
110 127 0
106 124 0
111 128 0
109 125 0
103 119 0
98 114 0
117 133 0
90 106 0
86 100 0
92 108 0
100 115 0
82 96 0
75 90 0
87 101 0
93 106 0
71 84 0
101 115 0
82 96 0
97 110 0
73 86 0
87 100 0
81 94 0
85 99 0
79 92 0
69 80 0
67 80 0
76 88 0
84 97 0
65 77 0
80 93 0
75 87 0
71 83 0
67 79 0
86 100 0
73 84 0
72 84 0
67 81 0
82 95 0
85 98 0
84 96 0
70 82 0
68 82 0
86 99 0
77 89 0
86 101 0
83 94 0
75 86 0
77 90 0
90 103 0
76 87 0
106 120 0
89 102 0
82 96 0
97 109 0
78 91 0
81 93 0
97 109 0
83 98 0
97 110 0
95 109 0
101 114 0
93 106 0
104 118 0
107 120 0
99 112 0
105 119 0
101 115 0
102 115 0
102 115 0
108 122 0
117 130 0
112 126 0
107 121 0
129 142 0
116 128 0
109 122 0
111 124 0
101 113 0
125 136 0
114 128 0
109 122 0
114 126 0
116 129 0
117 131 0
118 133 0
121 135 0
122 137 0
125 139 0
129 143 0
121 134 0
116 128 0
135 149 0
123 137 0
124 136 0
109 120 0
124 136 0
122 135 0
124 136 0
120 134 0
115 127 0
114 128 0
128 140 0
111 121 0
118 130 0
128 139 0
118 131 0
125 135 0
120 131 0
124 135 0
124 136 0
120 130 0
126 135 0
117 124 0
113 123 0
130 140 0
122 131 0
126 135 0
120 127 0
123 130 0
121 127 0
120 128 0
126 134 0
123 132 0
122 131 0
128 133 0
123 130 0
120 126 0
125 133 0
119 122 0
112 116 0
123 130 0
122 128 0
117 123 0
128 130 0
126 131 0
121 125 0
116 120 0
127 133 0
109 112 0
130 136 0
119 118 0
121 125 0
115 118 0
115 117 0
123 124 0
116 118 0
128 130 0
112 110 0
113 110 0
110 111 0
116 117 0
120 121 0
123 123 0
101 100 0
107 104 0
104 102 0
113 111 0
112 109 0
119 117 0
115 110 0
110 109 0
113 111 0
120 118 0
109 107 0
116 114 0
106 99 0
115 112 0
113 111 0
115 113 0
122 120 0
119 116 0
115 113 0
121 120 0
126 123 0
122 122 0
122 121 0
139 141 0
126 122 0
127 126 0
123 119 0
133 133 0
131 126 0
145 146 0
133 133 0
129 127 0
129 133 0
136 138 0
139 141 0
136 140 0
142 147 0
141 144 0
139 144 0
135 136 0
147 150 0
139 141 0
140 146 0
147 151 0
151 160 0
146 153 0
142 149 0
154 164 0
151 159 0
156 166 0
152 161 0
153 160 0
152 161 0
153 161 0
149 160 0
155 164 0
154 163 0
152 163 0
160 171 0
163 175 0
158 170 0
159 172 0
159 171 0
159 172 0
156 171 0
161 174 0
163 176 0
152 164 0
159 173 0
164 179 0
157 169 0
165 181 0
160 175 0
162 178 0
167 182 0
164 180 0
171 193 0
172 195 0
173 197 0
171 194 0
174 198 0
170 192 0
174 196 0
173 196 0
171 193 0
170 193 0
172 196 0
174 197 0
171 194 0
173 196 0
174 196 0
172 195 0
174 196 0
174 196 0
171 194 0
173 196 0
173 195 0
172 194 0
174 196 0
172 195 0
174 196 0
172 194 0
174 196 0
172 194 0
172 193 0
173 196 0
174 196 0
177 197 0
169 191 0
172 193 0
174 195 0
173 194 0
172 193 0
174 196 0
166 187 0
176 197 0
171 192 0
172 193 0
171 192 0
174 195 0
172 194 0
174 194 0
171 192 0
175 197 0
173 194 0
173 194 0
166 187 0
166 188 0
170 192 0
171 192 0
167 189 0
173 193 0
169 189 0
174 195 0
165 185 0
174 194 0
170 191 0
171 192 0
171 192 0
165 186 0
166 188 0
165 187 0
170 190 0
168 189 0
162 184 0
164 184 0
165 187 0
165 187 0
171 191 0
164 184 0
166 187 0
169 190 0
162 183 0
164 186 0
159 180 0
161 182 0
164 186 0
167 188 0
158 178 0
158 180 0
164 186 0
160 181 0
160 180 0
163 183 0
161 181 0
158 180 0
164 186 0
161 182 0
152 174 0
151 172 0
157 179 0
159 181 0
162 184 0
163 185 0
156 177 0
150 171 0
155 177 0
164 186 0
150 172 0
160 182 0
149 170 0
160 181 0
150 172 0
158 179 0
148 169 0
158 179 0
155 176 0
150 172 0
161 182 0
156 178 0
148 170 0
150 171 0
152 172 0
152 173 0
150 171 0
151 172 0
147 170 0
145 167 0
141 162 0
156 177 0
155 176 0
141 161 0
152 173 0
142 163 0
145 166 0
152 173 0
144 164 0
154 175 0
149 171 0
140 162 0
142 163 0
144 164 0
138 159 0
146 167 0
146 169 0
137 158 0
131 153 0
139 160 0
137 158 0
137 157 0
135 155 0
126 146 0
133 153 0
134 154 0
126 146 0
124 144 0
132 153 0
136 155 0
132 152 0
122 141 0
127 147 0
134 153 0
126 145 0
119 139 0
116 136 0
126 145 0
118 136 0
121 141 0
122 141 0
122 139 0
118 137 0
114 133 0
104 122 0
112 130 0
106 124 0
94 112 0
101 119 0
115 133 0
111 129 0
100 117 0
93 111 0
105 122 0
95 111 0
112 129 0
86 102 0
100 115 0
93 108 0
103 120 0
88 103 0
95 110 0
78 93 0
72 86 0
81 96 0
86 100 0
92 105 0
87 99 0
86 100 0
92 105 0
73 86 0
78 92 0
85 98 0
87 101 0
71 85 0
85 97 0
91 105 0
76 88 0
81 96 0
76 89 0
90 104 0
90 103 0
72 85 0
72 85 0
70 81 0
79 92 0
82 95 0
87 100 0
89 102 0
82 94 0
89 102 0
83 94 0
89 102 0
77 91 0
78 89 0
77 90 0
91 103 0
92 105 0
87 99 0
99 112 0
84 98 0
90 103 0
91 105 0
92 105 0
83 96 0
104 119 0
96 110 0
91 103 0
101 113 0
96 112 0
99 113 0
101 114 0
99 114 0
96 110 0
111 123 0
103 119 0
110 120 0
101 116 0
102 116 0
110 123 0
103 116 0
99 112 0
114 131 0
108 121 0
104 118 0
106 121 0
117 130 0
114 128 0
110 125 0
109 120 0
123 138 0
124 138 0
118 133 0
112 128 0
125 139 0
122 135 0
124 139 0
126 140 0
125 139 0
118 133 0
122 136 0
125 138 0
122 135 0
127 142 0
132 146 0
128 142 0
121 132 0
124 136 0
121 136 0
114 126 0
121 136 0
134 149 0
126 139 0
129 141 0
122 135 0
128 139 0
131 144 0
125 134 0
130 142 0
122 133 0
124 133 0
130 141 0
119 127 0
127 139 0
125 134 0
128 139 0
118 127 0
132 142 0
124 133 0
120 129 0
115 124 0
129 136 0
125 134 0
123 130 0
119 128 0
122 129 0
119 125 0
117 122 0
121 129 0
114 118 0
126 132 0
114 120 0
129 137 0
113 119 0
116 119 0
112 119 0
118 125 0
107 111 0
127 131 0
132 135 0
119 122 0
103 106 0
119 121 0
121 121 0
111 113 0
116 117 0
122 122 0
116 118 0
130 131 0
128 130 0
126 126 0
114 117 0
126 128 0
118 118 0
118 116 0
121 123 0
124 126 0
123 125 0
119 118 0
104 103 0
115 112 0
114 111 0
117 116 0
117 115 0
123 125 0
115 111 0
112 111 0
112 108 0
123 123 0
123 121 0
111 106 0
126 124 0
121 120 0
113 110 0
121 119 0
125 126 0
126 129 0
124 124 0
118 118 0
131 132 0
127 125 0
134 134 0
119 118 0
137 138 0
139 142 0
144 145 0
139 144 0
142 144 0
143 148 0
145 149 0
141 144 0
146 150 0
142 146 0
150 157 0
146 152 0
147 153 0
151 161 0
139 144 0
144 150 0
146 150 0
153 162 0
154 161 0
149 155 0
151 162 0
147 154 0
159 168 0
154 163 0
149 160 0
159 170 0
154 165 0
159 170 0
159 171 0
157 168 0
159 170 0
155 168 0
149 159 0
161 177 0
162 173 0
159 172 0
156 172 0
161 176 0
160 174 0
158 173 0
163 178 0
163 178 0
162 179 0
163 180 0
160 174 0
172 195 0
173 196 0
172 196 0
170 194 0
170 192 0
172 194 0
173 195 0
175 197 0
174 196 0
172 194 0
175 197 0
175 197 0
174 196 0
173 195 0
174 196 0
173 196 0
172 195 0
170 193 0
173 195 0
172 193 0
172 194 0
170 193 0
176 197 0
173 196 0
173 195 0
175 197 0
169 192 0
173 194 0
174 196 0
173 195 0
172 193 0
175 197 0
174 196 0
172 193 0
177 198 0
169 190 0
170 192 0
174 196 0
172 193 0
174 195 0
171 193 0
167 189 0
174 196 0
173 195 0
175 195 0
172 194 0
175 196 0
170 191 0
171 192 0
172 193 0
175 196 0
171 192 0
169 190 0
169 190 0
169 190 0
172 194 0
170 192 0
168 189 0
168 190 0
165 186 0
166 188 0
171 192 0
168 188 0
168 189 0
162 183 0
168 190 0
162 183 0
160 182 0
166 187 0
167 188 0
165 186 0
169 189 0
163 185 0
165 186 0
161 181 0
160 181 0
168 190 0
161 182 0
164 185 0
169 190 0
159 180 0
161 183 0
159 181 0
156 178 0
162 184 0
162 183 0
159 180 0
164 185 0
169 191 0
156 177 0
157 179 0
162 183 0
155 176 0
160 182 0
161 183 0
164 184 0
160 181 0
155 176 0
156 177 0
152 174 0
155 177 0
162 184 0
152 174 0
145 167 0
159 180 0
158 179 0
160 182 0
151 173 0
152 173 0
153 174 0
157 178 0
149 172 0
154 175 0
153 175 0
152 175 0
160 181 0
149 172 0
150 171 0
145 167 0
150 172 0
152 174 0
151 172 0
147 169 0
151 172 0
146 168 0
152 173 0
152 175 0
141 162 0
148 169 0
145 166 0
143 164 0
143 164 0
149 171 0
149 170 0
139 160 0
145 166 0
141 162 0
132 153 0
138 158 0
145 166 0
141 162 0
138 159 0
129 149 0
142 163 0
136 156 0
129 150 0
134 155 0
127 148 0
141 161 0
142 161 0
121 140 0
125 145 0
130 151 0
138 159 0
126 145 0
124 143 0
122 141 0
131 151 0
116 135 0
119 137 0
123 142 0
120 139 0
123 142 0
122 141 0
115 132 0
105 123 0
116 136 0
117 136 0
110 128 0
117 135 0
115 133 0
99 117 0
112 128 0
117 134 0
98 114 0
114 130 0
99 115 0
101 117 0
96 112 0
100 116 0
108 125 0
96 111 0
100 114 0
94 108 0
83 98 0
103 118 0
102 118 0
85 99 0
92 106 0
103 118 0
89 103 0
80 95 0
83 96 0
77 90 0
81 95 0
71 84 0
88 101 0
86 99 0
83 99 0
80 95 0
85 99 0
80 93 0
83 96 0
81 94 0
91 106 0
83 97 0
85 99 0
76 89 0
78 93 0
74 85 0
94 108 0
101 115 0
91 103 0
86 99 0
84 96 0
88 101 0
85 98 0
84 96 0
82 95 0
79 91 0
96 109 0
94 106 0
95 110 0
94 107 0
94 108 0
87 99 0
106 117 0
110 124 0
91 106 0
91 105 0
103 118 0
114 128 0
112 129 0
95 109 0
102 114 0
87 101 0
119 133 0
111 126 0
117 133 0
108 121 0
117 132 0
100 116 0
114 128 0
102 117 0
110 126 0
114 128 0
110 125 0
125 141 0
112 128 0
124 138 0
127 141 0
113 128 0
115 130 0
111 124 0
123 136 0
121 134 0
128 144 0
109 118 0
117 132 0
123 136 0
122 137 0
113 127 0
120 134 0
118 133 0
129 143 0
120 135 0
126 140 0
129 143 0
112 122 0
115 130 0
119 133 0
133 146 0
132 145 0
125 136 0
137 150 0
118 130 0
131 144 0
128 142 0
130 143 0
117 128 0
134 147 0
120 130 0
133 146 0
127 138 0
113 125 0
129 143 0
129 143 0
121 133 0
125 134 0
129 140 0
122 131 0
120 128 0
129 139 0
128 140 0
124 132 0
128 136 0
122 129 0
127 136 0
116 120 0
127 136 0
130 137 0
120 123 0
132 140 0
114 122 0
115 121 0
114 121 0
120 125 0
126 130 0
116 118 0
122 127 0
115 120 0
120 124 0
120 122 0
121 124 0
114 118 0
119 121 0
124 128 0
117 121 0
125 130 0
117 119 0
109 114 0
110 113 0
113 114 0
113 116 0
120 119 0
128 129 0
119 119 0
116 117 0
121 119 0
108 107 0
126 121 0
118 117 0
114 112 0
124 124 0
124 124 0
119 119 0
112 107 0
133 136 0
126 121 0
113 111 0
129 131 0
119 116 0
123 122 0
128 127 0
120 119 0
119 122 0
114 113 0
124 124 0
132 133 0
128 126 0
126 123 0
129 128 0
125 124 0
129 130 0
138 141 0
126 125 0
136 137 0
133 132 0
139 142 0
134 134 0
148 152 0
139 138 0
138 140 0
138 143 0
144 148 0
136 138 0
145 147 0
148 152 0
142 147 0
153 159 0
147 154 0
145 149 0
148 156 0
147 154 0
146 153 0
147 155 0
153 163 0
151 159 0
153 163 0
152 162 0
153 162 0
155 165 0
151 160 0
151 157 0
153 163 0
157 169 0
161 174 0
160 170 0
157 169 0
158 172 0
157 169 0
162 178 0
157 172 0
158 170 0
158 171 0
163 179 0
161 176 0
156 169 0
159 173 0
161 176 0
172 196 0
172 196 0
172 195 0
173 195 0
172 195 0
173 195 0
172 196 0
173 196 0
172 194 0
171 194 0
175 197 0
171 194 0
172 194 0
171 194 0
174 197 0
171 193 0
169 192 0
171 194 0
170 192 0
173 196 0
171 194 0
175 196 0
174 196 0
173 195 0
173 195 0
171 194 0
171 193 0
172 194 0
173 194 0
169 192 0
173 195 0
174 196 0
175 196 0
173 196 0
172 194 0
176 197 0
174 195 0
171 193 0
172 193 0
168 190 0
170 192 0
171 192 0
172 193 0
174 195 0
175 195 0
172 192 0
171 192 0
170 191 0
169 191 0
171 192 0
172 194 0
172 194 0
168 189 0
172 193 0
167 189 0
167 187 0
171 191 0
173 194 0
170 191 0
170 192 0
169 191 0
169 190 0
164 183 0
172 193 0
168 190 0
165 186 0
162 183 0
167 188 0
163 184 0
167 188 0
165 186 0
167 189 0
166 187 0
164 185 0
163 184 0
164 184 0
161 182 0
161 183 0
163 186 0
156 176 0
159 181 0
160 181 0
158 179 0
166 187 0
161 183 0
167 188 0
158 180 0
162 183 0
156 177 0
157 179 0
159 180 0
161 183 0
161 183 0
156 177 0
160 183 0
159 181 0
153 175 0
160 182 0
162 185 0
162 184 0
153 176 0
162 184 0
144 166 0
159 180 0
147 168 0
157 179 0
153 174 0
158 180 0
151 173 0
159 181 0
157 179 0
148 169 0
154 175 0
153 175 0
151 172 0
140 160 0
148 170 0
154 176 0
145 166 0
139 161 0
149 170 0
149 171 0
149 170 0
150 172 0
145 167 0
155 177 0
146 168 0
147 169 0
143 164 0
146 168 0
151 172 0
154 176 0
145 167 0
147 169 0
144 166 0
144 165 0
141 161 0
130 151 0
141 163 0
130 151 0
141 162 0
138 159 0
143 163 0
136 158 0
137 157 0
132 153 0
125 145 0
145 165 0
138 160 0
132 152 0
133 154 0
128 148 0
128 147 0
132 151 0
120 140 0
123 143 0
136 156 0
123 143 0
126 146 0
123 142 0
137 157 0
118 136 0
119 138 0
117 135 0
123 142 0
109 126 0
107 126 0
107 125 0
115 134 0
111 129 0
111 129 0
111 129 0
112 129 0
122 140 0
105 123 0
101 119 0
96 114 0
104 122 0
92 109 0
107 123 0
102 117 0
100 116 0
107 123 0
98 115 0
96 111 0
84 100 0
89 104 0
109 124 0
93 110 0
94 108 0
84 98 0
93 106 0
80 94 0
91 103 0
80 94 0
100 115 0
89 104 0
83 98 0
84 98 0
74 87 0
95 108 0
81 93 0
87 102 0
74 89 0
85 99 0
92 106 0
89 103 0
86 99 0
87 101 0
82 96 0
81 95 0
89 103 0
66 81 0
85 98 0
89 103 0
94 108 0
78 92 0
90 103 0
83 97 0
83 97 0
102 116 0
106 120 0
92 108 0
99 113 0
96 110 0
92 107 0
105 118 0
95 110 0
113 128 0
98 113 0
103 118 0
97 111 0
98 111 0
94 109 0
95 110 0
102 116 0
107 121 0
92 104 0
109 124 0
108 123 0
103 117 0
108 124 0
119 134 0
107 123 0
121 134 0
98 112 0
120 135 0
117 129 0
109 126 0
101 116 0
110 124 0
114 129 0
111 126 0
114 127 0
115 129 0
119 134 0
123 137 0
125 139 0
134 149 0
111 125 0
116 129 0
124 138 0
116 130 0
120 134 0
120 135 0
122 137 0
113 126 0
117 131 0
118 131 0
125 138 0
118 131 0
124 136 0
113 126 0
135 148 0
119 129 0
126 139 0
130 145 0
120 134 0
129 142 0
125 140 0
114 122 0
125 137 0
119 131 0
130 142 0
130 143 0
130 140 0
124 136 0
122 132 0
113 119 0
120 132 0
122 129 0
128 137 0
124 134 0
131 143 0
126 134 0
129 141 0
121 129 0
119 126 0
110 117 0
131 139 0
129 139 0
118 126 0
120 126 0
126 132 0
125 133 0
118 125 0
122 129 0
131 139 0
115 120 0
111 114 0
123 130 0
122 127 0
122 125 0
118 121 0
136 140 0
122 126 0
121 125 0
124 126 0
126 125 0
115 116 0
130 131 0
114 118 0
120 122 0
121 125 0
120 121 0
123 124 0
128 128 0
119 119 0
124 124 0
117 118 0
129 133 0
119 118 0
116 117 0
118 118 0
120 117 0
123 122 0
130 131 0
129 131 0
127 125 0
116 116 0
123 124 0
123 122 0
125 126 0
125 124 0
125 124 0
126 125 0
118 117 0
129 130 0
140 143 0
133 136 0
129 129 0
133 133 0
130 132 0
127 131 0
132 134 0
133 135 0
140 143 0
137 140 0
138 138 0
134 136 0
138 142 0
142 145 0
134 137 0
142 145 0
131 131 0
136 140 0
146 152 0
145 150 0
148 154 0
141 146 0
142 148 0
148 154 0
143 148 0
150 154 0
151 158 0
147 155 0
151 160 0
149 157 0
149 156 0
151 157 0
153 162 0
157 166 0
155 164 0
158 167 0
162 171 0
150 158 0
151 162 0
148 159 0
157 169 0
155 168 0
154 165 0
156 166 0
161 174 0
160 174 0
157 168 0
165 179 0
157 169 0
158 173 0
158 170 0
166 181 0
172 194 0
173 196 0
173 196 0
172 195 0
170 193 0
174 197 0
174 197 0
173 197 0
171 193 0
169 192 0
173 196 0
172 194 0
175 197 0
172 194 0
174 196 0
174 196 0
173 195 0
170 193 0
173 195 0
172 195 0
173 196 0
168 190 0
175 197 0
170 192 0
172 194 0
171 193 0
173 195 0
172 194 0
174 196 0
175 197 0
171 193 0
173 194 0
171 193 0
174 195 0
173 194 0
174 196 0
173 195 0
173 193 0
176 197 0
172 193 0
167 189 0
175 196 0
169 191 0
171 193 0
175 196 0
170 191 0
172 194 0
172 193 0
173 194 0
173 194 0
169 191 0
169 190 0
172 193 0
169 191 0
165 187 0
173 194 0
169 190 0
163 184 0
167 187 0
172 193 0
165 186 0
168 189 0
163 185 0
170 191 0
163 184 0
167 187 0
167 188 0
167 189 0
168 189 0
165 186 0
166 187 0
163 184 0
162 184 0
164 185 0
165 186 0
165 187 0
165 187 0
154 176 0
153 174 0
167 189 0
155 176 0
163 184 0
152 174 0
162 184 0
158 179 0
162 183 0
157 177 0
159 180 0
160 182 0
159 180 0
162 184 0
155 176 0
154 175 0
153 175 0
156 178 0
162 185 0
160 182 0
155 178 0
155 177 0
159 181 0
157 179 0
154 175 0
155 176 0
149 171 0
156 179 0
161 184 0
155 177 0
147 169 0
154 175 0
146 168 0
150 172 0
153 175 0
154 176 0
156 179 0
149 171 0
152 173 0
148 171 0
153 175 0
150 172 0
159 180 0
143 166 0
151 173 0
159 181 0
147 169 0
156 178 0
148 170 0
146 168 0
145 166 0
148 169 0
149 170 0
150 172 0
141 162 0
144 166 0
140 161 0
140 161 0
145 166 0
138 159 0
136 157 0
140 161 0
138 159 0
144 164 0
136 157 0
140 161 0
135 156 0
134 154 0
138 159 0
130 150 0
140 160 0
135 156 0
138 159 0
140 160 0
123 143 0
130 151 0
132 152 0
122 141 0
118 137 0
125 144 0
126 145 0
124 144 0
131 150 0
125 144 0
127 147 0
120 138 0
129 148 0
122 140 0
116 134 0
112 129 0
122 141 0
117 135 0
106 124 0
117 135 0
114 132 0
111 127 0
112 129 0
103 120 0
114 132 0
105 122 0
101 118 0
101 117 0
104 120 0
97 113 0
116 132 0
115 133 0
80 96 0
89 104 0
99 114 0
98 114 0
97 112 0
102 117 0
103 116 0
82 96 0
91 106 0
109 123 0
85 100 0
85 102 0
82 97 0
88 102 0
94 109 0
94 110 0
84 99 0
97 112 0
66 81 0
82 96 0
82 97 0
94 108 0
90 102 0
96 110 0
87 100 0
92 105 0
90 105 0
99 112 0
83 97 0
87 100 0
78 93 0
94 107 0
105 120 0
85 100 0
87 101 0
98 112 0
103 117 0
103 117 0
91 106 0
86 99 0
92 105 0
95 111 0
98 110 0
114 131 0
87 102 0
109 125 0
90 104 0
105 120 0
91 105 0
103 118 0
119 134 0
112 127 0
102 118 0
109 124 0
115 129 0
112 128 0
102 117 0
109 125 0
110 124 0
113 128 0
103 118 0
125 140 0
107 122 0
114 129 0
105 120 0
112 125 0
108 123 0
118 133 0
118 132 0
121 136 0
116 131 0
114 128 0
123 138 0
122 137 0
119 135 0
124 140 0
119 133 0
115 129 0
126 140 0
112 124 0
116 129 0
117 130 0
124 136 0
139 155 0
128 141 0
120 134 0
119 135 0
127 143 0
134 149 0
124 138 0
115 129 0
137 152 0
120 132 0
126 139 0
128 143 0
124 140 0
126 141 0
129 142 0
117 127 0
115 127 0
132 146 0
124 135 0
119 131 0
133 147 0
121 132 0
132 144 0
131 144 0
124 137 0
131 141 0
131 143 0
122 135 0
129 139 0
128 135 0
121 129 0
123 132 0
121 129 0
121 127 0
128 138 0
138 149 0
129 137 0
137 145 0
132 140 0
119 127 0
122 128 0
120 130 0
122 129 0
122 129 0
124 134 0
123 127 0
130 139 0
120 127 0
122 124 0
133 138 0
124 130 0
124 129 0
126 129 0
123 128 0
117 120 0
132 136 0
122 124 0
124 127 0
121 124 0
119 118 0
125 130 0
126 127 0
122 121 0
132 135 0
112 111 0
125 128 0
126 127 0
121 120 0
128 125 0
127 127 0
119 119 0
129 131 0
129 133 0
118 118 0
126 126 0
123 123 0
122 124 0
130 129 0
127 128 0
121 118 0
125 123 0
118 116 0
120 121 0
132 134 0
128 129 0
134 135 0
126 128 0
136 137 0
131 132 0
124 123 0
136 136 0
127 127 0
131 132 0
146 150 0
145 147 0
143 146 0
136 136 0
138 143 0
142 146 0
138 142 0
139 143 0
140 142 0
145 151 0
144 149 0
145 151 0
140 145 0
148 155 0
146 153 0
143 148 0
151 160 0
152 160 0
154 160 0
153 164 0
146 155 0
149 158 0
158 168 0
150 160 0
154 166 0
140 146 0
155 164 0
157 168 0
157 170 0
158 170 0
153 163 0
157 167 0
158 169 0
161 176 0
159 171 0
156 168 0
148 159 0
156 169 0
159 170 0
165 179 0
161 175 0
171 194 0
171 193 0
170 193 0
173 196 0
171 194 0
176 197 0
172 194 0
170 192 0
172 194 0
171 194 0
175 197 0
174 196 0
170 193 0
175 197 0
172 194 0
175 197 0
177 198 0
172 195 0
174 196 0
172 194 0
174 196 0
172 194 0
171 194 0
172 194 0
171 192 0
171 193 0
173 195 0
174 196 0
173 194 0
168 191 0
174 196 0
168 189 0
171 193 0
172 193 0
170 192 0
172 194 0
172 194 0
168 189 0
169 191 0
171 192 0
171 192 0
174 195 0
168 190 0
170 191 0
173 194 0
172 193 0
171 192 0
171 191 0
166 188 0
171 192 0
172 193 0
170 191 0
168 190 0
169 189 0
170 191 0
166 187 0
166 188 0
168 189 0
167 188 0
173 194 0
171 192 0
171 193 0
167 188 0
170 191 0
162 184 0
168 189 0
170 191 0
169 190 0
168 190 0
163 183 0
167 189 0
162 184 0
164 186 0
166 187 0
163 184 0
156 178 0
159 181 0
160 181 0
164 187 0
164 186 0
164 186 0
166 187 0
163 184 0
161 182 0
159 180 0
160 182 0
157 178 0
152 174 0
153 175 0
158 180 0
160 182 0
152 175 0
163 184 0
158 179 0
159 181 0
153 175 0
157 178 0
155 176 0
156 177 0
154 176 0
153 175 0
149 171 0
156 177 0
155 177 0
150 172 0
153 174 0
152 174 0
152 174 0
156 178 0
150 172 0
156 178 0
150 172 0
147 168 0
150 172 0
146 168 0
156 178 0
154 175 0
148 169 0
157 178 0
149 170 0
154 175 0
160 181 0
152 174 0
160 181 0
138 159 0
158 180 0
136 158 0
144 166 0
138 159 0
146 167 0
146 168 0
146 168 0
144 165 0
148 169 0
143 164 0
146 167 0
136 158 0
144 166 0
133 155 0
146 167 0
146 167 0
131 152 0
129 150 0
129 151 0
133 154 0
136 157 0
143 164 0
134 154 0
125 145 0
130 151 0
139 159 0
128 148 0
132 152 0
125 145 0
132 152 0
134 153 0
119 139 0
131 151 0
115 134 0
110 128 0
117 136 0
114 133 0
132 151 0
113 132 0
124 141 0
114 134 0
118 136 0
114 131 0
115 135 0
121 139 0
116 133 0
112 130 0
114 131 0
114 132 0
108 125 0
102 119 0
113 130 0
117 133 0
110 128 0
109 125 0
99 116 0
92 108 0
99 115 0
112 129 0
94 110 0
108 124 0
104 120 0
103 119 0
100 115 0
91 108 0
95 111 0
102 119 0
100 116 0
90 104 0
85 99 0
108 124 0
90 104 0
84 100 0
84 99 0
98 112 0
108 125 0
90 106 0
92 107 0
92 106 0
101 116 0
87 102 0
77 93 0
86 100 0
86 99 0
91 106 0
81 95 0
99 115 0
99 112 0
94 108 0
90 104 0
90 104 0
96 112 0
91 106 0
86 101 0
78 93 0
90 103 0
97 111 0
99 114 0
93 109 0
108 122 0
103 118 0
99 115 0
106 120 0
117 131 0
112 127 0
106 123 0
106 120 0
111 127 0
107 121 0
115 129 0
106 120 0
107 122 0
120 135 0
105 121 0
103 118 0
123 139 0
118 131 0
106 120 0
117 132 0
114 130 0
124 140 0
104 118 0
115 129 0
115 131 0
123 137 0
115 130 0
121 138 0
116 131 0
133 149 0
119 135 0
117 132 0
124 139 0
113 127 0
115 131 0
121 135 0
111 125 0
119 134 0
118 133 0
124 137 0
126 140 0
122 138 0
119 133 0
119 135 0
122 136 0
119 132 0
125 140 0
128 142 0
119 132 0
133 148 0
125 141 0
127 143 0
123 135 0
125 139 0
135 147 0
115 130 0
128 142 0
121 135 0
121 135 0
125 138 0
130 142 0
132 144 0
129 140 0
127 138 0
125 137 0
125 136 0
129 142 0
123 133 0
133 142 0
126 135 0
126 135 0
128 139 0
129 140 0
122 127 0
121 133 0
131 141 0
125 135 0
125 133 0
134 142 0
130 140 0
134 143 0
128 136 0
123 130 0
133 141 0
122 130 0
125 133 0
127 133 0
130 137 0
124 128 0
133 141 0
118 126 0
125 129 0
134 140 0
123 129 0
136 143 0
132 136 0
133 140 0
127 133 0
125 130 0
124 125 0
128 132 0
124 130 0
116 117 0
126 128 0
125 127 0
113 114 0
117 120 0
133 134 0
133 135 0
121 122 0
126 128 0
122 120 0
128 130 0
127 126 0
127 130 0
130 132 0
128 130 0
132 135 0
130 128 0
119 120 0
130 129 0
127 125 0
133 135 0
129 131 0
132 135 0
122 119 0
130 132 0
134 135 0
121 120 0
139 144 0
135 135 0
139 143 0
139 141 0
148 154 0
139 138 0
132 132 0
148 153 0
140 145 0
128 130 0
141 145 0
139 142 0
143 148 0
138 141 0
137 142 0
145 149 0
144 149 0
147 153 0
141 146 0
149 156 0
138 143 0
142 147 0
153 163 0
147 153 0
150 157 0
157 166 0
147 152 0
147 154 0
146 152 0
156 167 0
153 163 0
152 162 0
157 168 0
148 156 0
155 163 0
146 156 0
147 156 0
150 156 0
159 170 0
154 165 0
153 165 0
159 170 0
157 171 0
163 177 0
160 173 0
159 172 0
160 174 0
169 191 0
174 197 0
174 196 0
170 193 0
172 195 0
168 190 0
173 196 0
173 195 0
171 194 0
172 194 0
172 193 0
171 193 0
175 197 0
175 197 0
173 195 0
170 192 0
173 195 0
168 191 0
176 198 0
169 191 0
169 191 0
174 195 0
172 194 0
174 195 0
172 194 0
171 193 0
174 196 0
171 193 0
173 194 0
169 191 0
172 194 0
170 192 0
172 193 0
167 189 0
175 196 0
173 194 0
171 193 0
174 195 0
173 194 0
169 190 0
171 192 0
174 196 0
174 195 0
173 195 0
173 194 0
166 187 0
172 193 0
168 189 0
170 191 0
169 191 0
170 190 0
170 192 0
167 189 0
164 186 0
167 188 0
159 180 0
164 185 0
170 191 0
164 186 0
168 189 0
171 192 0
165 187 0
165 186 0
166 188 0
163 184 0
168 188 0
163 185 0
163 185 0
163 184 0
160 182 0
168 190 0
165 187 0
163 185 0
161 182 0
166 188 0
164 186 0
162 184 0
159 181 0
168 189 0
163 185 0
160 182 0
155 177 0
160 181 0
158 179 0
157 178 0
153 174 0
160 181 0
159 181 0
162 184 0
155 176 0
151 173 0
162 184 0
161 183 0
159 181 0
164 185 0
158 179 0
156 178 0
154 176 0
160 181 0
158 178 0
153 176 0
157 178 0
155 177 0
155 178 0
153 174 0
157 179 0
149 172 0
158 180 0
142 164 0
150 172 0
145 166 0
154 175 0
152 174 0
142 164 0
143 164 0
161 184 0
157 179 0
155 177 0
155 176 0
142 164 0
145 167 0
145 167 0
145 167 0
148 169 0
149 171 0
131 153 0
140 162 0
151 172 0
144 165 0
153 175 0
138 159 0
148 170 0
150 172 0
148 169 0
142 164 0
147 169 0
145 166 0
139 161 0
143 164 0
138 160 0
143 164 0
137 158 0
134 155 0
140 161 0
136 157 0
135 155 0
143 164 0
145 166 0
128 148 0
124 145 0
126 147 0
128 148 0
140 161 0
118 139 0
137 157 0
128 147 0
124 144 0
116 135 0
112 131 0
131 150 0
126 146 0
127 146 0
119 138 0
119 137 0
122 140 0
115 133 0
116 135 0
126 144 0
125 143 0
122 140 0
106 124 0
112 130 0
108 126 0
106 125 0
102 119 0
108 125 0
104 122 0
111 128 0
103 121 0
99 116 0
103 121 0
110 128 0
94 109 0
102 120 0
117 135 0
98 114 0
92 108 0
102 118 0
95 112 0
98 112 0
94 112 0
93 108 0
87 102 0
101 116 0
100 115 0
104 119 0
101 117 0
95 111 0
97 113 0
98 113 0
92 108 0
94 108 0
90 104 0
95 111 0
100 115 0
100 115 0
89 106 0
68 83 0
85 100 0
98 112 0
97 110 0
93 106 0
114 131 0
104 118 0
85 100 0
109 124 0
101 116 0
109 124 0
98 113 0
94 109 0
97 113 0
94 108 0
114 129 0
103 117 0
111 124 0
109 124 0
96 113 0
109 122 0
99 114 0
105 123 0
105 119 0
103 119 0
108 124 0
95 112 0
115 130 0
109 125 0
105 120 0
114 129 0
115 131 0
118 133 0
110 125 0
103 116 0
99 115 0
124 140 0
107 121 0
105 118 0
119 135 0
129 147 0
118 134 0
115 129 0
106 123 0
120 136 0
130 146 0
122 137 0
129 145 0
105 117 0
122 138 0
129 145 0
111 128 0
119 133 0
136 153 0
119 132 0
125 142 0
132 145 0
107 121 0
133 149 0
129 143 0
136 151 0
114 129 0
130 145 0
129 145 0
133 147 0
124 138 0
121 136 0
129 142 0
130 144 0
123 137 0
123 139 0
126 139 0
125 139 0
130 141 0
125 140 0
119 131 0
132 147 0
123 136 0
129 143 0
129 142 0
129 143 0
139 152 0
125 134 0
140 154 0
119 130 0
129 137 0
125 138 0
133 144 0
132 142 0
128 137 0
133 144 0
119 126 0
132 141 0
128 137 0
132 143 0
121 131 0
134 143 0
133 143 0
130 141 0
128 134 0
125 134 0
122 130 0
104 109 0
115 122 0
118 124 0
127 132 0
125 134 0
137 144 0
131 140 0
136 146 0
130 137 0
130 135 0
128 134 0
136 143 0
125 128 0
132 138 0
128 132 0
127 131 0
124 128 0
125 132 0
135 140 0
113 114 0
127 132 0
124 126 0
133 134 0
125 127 0
135 141 0
123 127 0
128 133 0
123 127 0
124 126 0
125 124 0
123 125 0
137 141 0
135 138 0
130 131 0
126 126 0
130 130 0
127 129 0
130 132 0
129 132 0
139 141 0
147 151 0
133 138 0
134 132 0
139 141 0
127 127 0
135 138 0
129 127 0
139 142 0
141 148 0
143 145 0
138 137 0
146 151 0
143 149 0
138 140 0
146 147 0
132 134 0
145 148 0
134 135 0
132 135 0
150 157 0
133 138 0
144 150 0
151 157 0
136 141 0
152 160 0
147 154 0
145 154 0
150 156 0
150 157 0
150 156 0
144 151 0
149 159 0
152 159 0
153 162 0
144 151 0
149 157 0
153 163 0
152 163 0
152 160 0
157 168 0
148 158 0
156 168 0
155 167 0
156 166 0
154 163 0
159 170 0
160 172 0
155 165 0
159 172 0
156 169 0
163 180 0
171 194 0
175 198 0
174 196 0
174 196 0
175 197 0
170 193 0
175 197 0
172 194 0
172 193 0
171 193 0
172 195 0
172 195 0
172 195 0
173 195 0
172 194 0
168 191 0
172 193 0
172 195 0
173 195 0
175 196 0
174 196 0
171 192 0
171 192 0
169 190 0
171 193 0
173 194 0
169 190 0
172 193 0
172 195 0
172 195 0
171 192 0
176 197 0
172 194 0
174 195 0
172 195 0
166 188 0
166 188 0
174 195 0
174 195 0
169 190 0
167 188 0
167 188 0
171 192 0
172 192 0
173 194 0
168 190 0
169 190 0
170 192 0
170 191 0
171 193 0
168 189 0
167 188 0
167 189 0
171 193 0
165 186 0
173 194 0
164 186 0
169 190 0
166 187 0
165 186 0
169 191 0
163 184 0
167 188 0
159 181 0
163 184 0
166 188 0
164 186 0
169 191 0
164 186 0
167 189 0
163 184 0
163 184 0
166 187 0
166 188 0
156 177 0
158 180 0
163 185 0
165 187 0
162 184 0
162 183 0
167 188 0
161 183 0
157 178 0
160 182 0
162 184 0
160 183 0
156 178 0
151 173 0
164 187 0
160 182 0
160 182 0
159 180 0
159 181 0
153 174 0
158 179 0
160 180 0
152 175 0
161 183 0
153 175 0
148 171 0
155 176 0
155 177 0
158 179 0
154 175 0
154 177 0
155 177 0
146 168 0
151 173 0
151 174 0
153 176 0
153 176 0
157 179 0
139 160 0
160 181 0
162 184 0
154 173 0
145 167 0
147 170 0
150 172 0
143 164 0
145 166 0
150 171 0
149 171 0
147 168 0
144 166 0
148 170 0
142 163 0
144 166 0
141 163 0
136 159 0
142 163 0
138 159 0
148 170 0
145 166 0
148 170 0
146 167 0
145 167 0
136 158 0
144 166 0
133 153 0
139 160 0
137 158 0
127 147 0
132 153 0
122 144 0
136 156 0
128 150 0
132 153 0
135 156 0
125 144 0
136 156 0
127 148 0
122 141 0
123 142 0
134 155 0
138 157 0
132 151 0
124 143 0
126 145 0
128 148 0
122 141 0
116 134 0
123 142 0
125 144 0
113 132 0
112 131 0
121 141 0
118 136 0
119 138 0
111 129 0
102 120 0
123 140 0
115 134 0
122 140 0
103 121 0
103 122 0
116 133 0
108 125 0
110 128 0
109 128 0
109 125 0
111 128 0
120 137 0
95 112 0
105 122 0
110 129 0
110 126 0
98 116 0
108 124 0
102 118 0
108 124 0
96 111 0
113 130 0
95 110 0
97 113 0
94 109 0
98 115 0
104 122 0
96 113 0
86 99 0
94 109 0
91 107 0
103 119 0
95 112 0
108 124 0
106 122 0
97 113 0
99 115 0
102 118 0
92 108 0
101 116 0
94 107 0
94 110 0
92 107 0
98 114 0
86 103 0
107 122 0
99 114 0
96 111 0
103 116 0
104 120 0
98 113 0
100 116 0
105 121 0
112 128 0
105 120 0
100 116 0
105 120 0
105 119 0
110 125 0
112 129 0
111 126 0
122 138 0
109 124 0
97 113 0
102 117 0
119 134 0
108 123 0
106 121 0
127 143 0
115 131 0
110 123 0
127 145 0
129 146 0
125 140 0
116 133 0
111 126 0
124 140 0
116 133 0
124 141 0
119 135 0
120 133 0
114 128 0
119 134 0
120 135 0
98 113 0
118 134 0
128 144 0
124 138 0
132 146 0
128 144 0
125 140 0
126 142 0
128 145 0
114 126 0
117 129 0
120 135 0
125 139 0
124 139 0
132 147 0
124 137 0
131 145 0
127 142 0
124 139 0
127 140 0
129 144 0
127 144 0
125 138 0
135 149 0
129 141 0
125 140 0
130 146 0
128 143 0
131 144 0
133 144 0
129 143 0
132 145 0
134 149 0
122 134 0
125 137 0
127 141 0
138 149 0
139 152 0
123 132 0
126 135 0
129 139 0
128 141 0
129 139 0
132 142 0
126 135 0
132 144 0
129 140 0
117 128 0
127 137 0
132 143 0
135 146 0
127 137 0
126 136 0
130 139 0
133 144 0
127 137 0
136 145 0
134 142 0
129 137 0
119 128 0
132 138 0
137 144 0
127 130 0
136 144 0
124 131 0
124 128 0
132 138 0
133 139 0
134 139 0
134 140 0
128 134 0
126 133 0
135 141 0
131 137 0
124 129 0
127 130 0
131 134 0
117 122 0
131 134 0
133 138 0
126 129 0
130 136 0
127 131 0
132 136 0
132 133 0
133 138 0
136 140 0
132 136 0
138 139 0
132 137 0
132 135 0
129 132 0
136 138 0
137 140 0
132 137 0
133 136 0
132 132 0
128 129 0
134 136 0
136 139 0
134 136 0
139 145 0
132 137 0
136 139 0
140 143 0
140 142 0
144 146 0
133 133 0
141 144 0
139 145 0
137 143 0
136 137 0
150 153 0
149 154 0
145 152 0
148 155 0
143 151 0
152 159 0
143 147 0
146 153 0
147 154 0
153 161 0
139 144 0
149 154 0
145 151 0
152 162 0
149 155 0
155 162 0
146 150 0
151 157 0
152 159 0
147 156 0
158 168 0
153 164 0
155 164 0
155 163 0
159 169 0
149 161 0
157 168 0
164 177 0
154 163 0
159 172 0
159 171 0
155 168 0
154 165 0
173 196 0
172 194 0
174 196 0
173 196 0
173 196 0
170 193 0
170 193 0
173 195 0
171 193 0
171 193 0
173 196 0
171 194 0
171 193 0
171 194 0
173 195 0
168 192 0
172 195 0
174 196 0
170 192 0
174 195 0
167 189 0
171 194 0
169 191 0
175 196 0
173 195 0
172 193 0
168 190 0
172 194 0
172 194 0
171 193 0
171 193 0
172 194 0
172 193 0
174 195 0
168 190 0
170 192 0
167 189 0
169 191 0
171 192 0
171 192 0
170 192 0
174 195 0
165 187 0
173 194 0
172 194 0
171 193 0
164 186 0
171 193 0
173 195 0
169 190 0
165 187 0
170 191 0
169 191 0
167 189 0
168 190 0
170 191 0
169 190 0
166 187 0
163 186 0
160 181 0
163 186 0
170 191 0
165 185 0
166 187 0
167 189 0
162 184 0
163 185 0
159 182 0
156 178 0
161 182 0
165 187 0
162 183 0
166 188 0
169 190 0
160 182 0
162 184 0
161 183 0
160 182 0
166 188 0
158 180 0
165 186 0
160 182 0
158 180 0
160 181 0
167 189 0
163 185 0
163 184 0
154 176 0
160 182 0
161 183 0
160 182 0
155 177 0
157 179 0
157 179 0
155 176 0
151 173 0
155 177 0
159 181 0
153 175 0
150 172 0
147 169 0
160 182 0
154 176 0
156 177 0
154 176 0
149 171 0
155 178 0
153 175 0
155 177 0
154 176 0
148 171 0
146 169 0
152 173 0
142 164 0
148 170 0
147 169 0
148 170 0
156 180 0
149 171 0
152 173 0
152 173 0
153 174 0
153 175 0
149 170 0
142 164 0
149 171 0
144 165 0
146 167 0
144 166 0
149 171 0
146 168 0
151 172 0
146 167 0
141 162 0
141 163 0
145 167 0
148 170 0
144 165 0
140 162 0
144 166 0
147 169 0
136 156 0
137 158 0
142 163 0
136 158 0
137 158 0
138 159 0
129 150 0
136 156 0
133 154 0
138 157 0
129 150 0
138 159 0
127 145 0
122 143 0
129 149 0
125 146 0
129 149 0
125 144 0
118 138 0
121 140 0
126 147 0
112 132 0
133 153 0
115 134 0
125 144 0
119 138 0
123 142 0
122 141 0
111 130 0
119 137 0
112 130 0
102 120 0
112 131 0
112 131 0
114 132 0
121 140 0
108 125 0
114 132 0
113 130 0
104 122 0
122 138 0
109 125 0
108 126 0
109 127 0
110 127 0
109 126 0
117 135 0
102 118 0
114 131 0
108 125 0
109 125 0
109 125 0
115 131 0
81 97 0
104 119 0
98 114 0
119 136 0
102 118 0
99 114 0
99 114 0
112 129 0
102 118 0
102 116 0
106 123 0
99 114 0
89 104 0
97 114 0
99 115 0
107 124 0
107 124 0
93 110 0
113 128 0
90 105 0
103 118 0
100 116 0
96 111 0
97 112 0
103 119 0
109 124 0
109 124 0
91 106 0
101 118 0
115 132 0
107 123 0
101 117 0
102 117 0
107 124 0
114 129 0
100 116 0
116 133 0
104 120 0
118 135 0
108 122 0
100 116 0
111 128 0
108 122 0
105 119 0
102 117 0
117 133 0
120 136 0
114 130 0
119 136 0
120 135 0
122 138 0
124 141 0
120 136 0
129 144 0
120 136 0
112 128 0
125 142 0
120 136 0
124 139 0
130 148 0
126 142 0
126 141 0
125 143 0
129 144 0
122 138 0
130 145 0
127 144 0
121 136 0
124 140 0
124 141 0
125 138 0
130 144 0
125 139 0
129 145 0
124 141 0
123 139 0
134 150 0
133 149 0
136 151 0
130 145 0
134 147 0
135 150 0
129 144 0
126 140 0
118 131 0
130 145 0
127 142 0
125 139 0
119 132 0
133 148 0
129 143 0
133 148 0
136 149 0
122 134 0
134 146 0
125 140 0
131 144 0
136 149 0
129 141 0
133 146 0
127 139 0
128 140 0
126 139 0
131 142 0
134 145 0
133 146 0
133 146 0
130 140 0
131 142 0
135 147 0
133 145 0
132 142 0
130 137 0
132 139 0
135 144 0
125 138 0
130 139 0
135 143 0
134 141 0
137 144 0
128 136 0
131 141 0
130 134 0
120 127 0
123 131 0
141 151 0
137 143 0
126 131 0
124 133 0
137 144 0
127 135 0
138 144 0
130 137 0
128 136 0
134 140 0
137 145 0
140 146 0
124 128 0
134 140 0
135 139 0
129 134 0
135 136 0
133 137 0
126 127 0
133 138 0
132 136 0
133 136 0
134 137 0
135 137 0
132 137 0
129 130 0
133 137 0
126 126 0
136 141 0
128 130 0
129 131 0
127 130 0
136 137 0
132 132 0
131 134 0
136 141 0
138 140 0
143 147 0
134 136 0
143 149 0
135 138 0
148 154 0
143 147 0
135 140 0
130 130 0
137 141 0
146 152 0
141 146 0
141 146 0
144 147 0
137 139 0
150 156 0
140 144 0
148 151 0
148 153 0
144 148 0
145 150 0
142 149 0
149 159 0
143 150 0
150 157 0
141 144 0
146 153 0
141 146 0
152 162 0
146 156 0
153 162 0
149 155 0
155 163 0
158 169 0
154 162 0
150 158 0
157 169 0
157 169 0
157 170 0
161 172 0
153 163 0
156 166 0
160 171 0
160 172 0
158 170 0
173 196 0
174 197 0
173 195 0
174 197 0
170 192 0
170 192 0
167 189 0
172 195 0
172 193 0
173 195 0
174 196 0
169 192 0
169 191 0
172 194 0
173 195 0
172 195 0
172 195 0
172 194 0
172 194 0
173 195 0
173 195 0
175 196 0
171 194 0
170 192 0
167 189 0
169 191 0
166 189 0
176 197 0
170 192 0
172 194 0
170 191 0
167 189 0
173 194 0
173 195 0
170 192 0
171 192 0
171 193 0
165 186 0
167 189 0
170 191 0
170 191 0
173 195 0
172 194 0
168 190 0
169 191 0
171 192 0
171 192 0
167 188 0
170 192 0
168 189 0
166 189 0
165 186 0
170 192 0
174 194 0
172 194 0
166 187 0
168 189 0
163 185 0
167 188 0
159 180 0
169 191 0
169 190 0
165 187 0
166 188 0
166 188 0
166 187 0
163 184 0
162 183 0
163 185 0
165 187 0
160 182 0
158 180 0
158 181 0
168 190 0
162 183 0
160 182 0
165 187 0
153 175 0
161 182 0
158 180 0
158 180 0
160 181 0
162 184 0
159 181 0
165 186 0
155 177 0
151 172 0
159 180 0
167 190 0
160 181 0
160 182 0
159 181 0
158 180 0
156 178 0
156 178 0
165 186 0
156 178 0
152 173 0
156 178 0
160 181 0
165 186 0
154 177 0
157 178 0
155 176 0
160 181 0
149 170 0
156 178 0
152 173 0
156 178 0
152 173 0
146 168 0
144 165 0
151 173 0
153 175 0
153 175 0
149 171 0
144 166 0
141 162 0
148 169 0
137 159 0
143 164 0
153 174 0
148 171 0
150 173 0
143 165 0
145 167 0
151 173 0
151 172 0
135 157 0
140 162 0
150 171 0
138 159 0
146 168 0
146 167 0
142 163 0
148 169 0
150 172 0
142 163 0
143 164 0
137 158 0
139 160 0
137 158 0
137 158 0
141 163 0
139 160 0
138 159 0
131 152 0
141 162 0
131 152 0
131 151 0
141 161 0
135 154 0
124 145 0
112 131 0
129 149 0
132 151 0
139 159 0
128 148 0
130 150 0
124 144 0
127 148 0
123 143 0
121 141 0
134 152 0
118 136 0
122 141 0
125 145 0
131 150 0
131 150 0
119 138 0
120 140 0
118 136 0
113 133 0
124 141 0
112 130 0
113 131 0
110 126 0
111 129 0
102 120 0
112 128 0
109 125 0
124 143 0
115 132 0
114 131 0
110 128 0
103 120 0
111 127 0
104 120 0
96 113 0
115 133 0
98 116 0
90 106 0
100 117 0
93 110 0
112 128 0
103 119 0
103 120 0
94 111 0
105 123 0
109 124 0
95 111 0
113 129 0
100 116 0
113 130 0
111 127 0
109 125 0
103 118 0
116 132 0
98 115 0
105 121 0
108 125 0
98 113 0
106 123 0
106 123 0
106 123 0
105 122 0
101 116 0
116 133 0
90 106 0
106 122 0
100 118 0
103 118 0
112 128 0
104 121 0
108 124 0
109 126 0
103 117 0
116 131 0
114 130 0
106 124 0
113 130 0
105 121 0
97 112 0
133 150 0
111 127 0
115 132 0
131 148 0
107 122 0
112 127 0
102 117 0
122 138 0
120 136 0
123 140 0
110 123 0
116 132 0
113 129 0
128 143 0
104 119 0
109 123 0
114 130 0
109 124 0
127 145 0
114 130 0
113 129 0
126 142 0
121 137 0
118 133 0
129 145 0
123 140 0
132 149 0
122 137 0
125 139 0
119 133 0
129 145 0
131 145 0
133 149 0
121 137 0
120 133 0
134 150 0
124 138 0
128 144 0
117 131 0
124 140 0
135 151 0
123 137 0
126 141 0
132 148 0
122 137 0
132 144 0
135 153 0
124 136 0
136 150 0
126 140 0
119 133 0
130 144 0
123 138 0
132 143 0
130 144 0
127 141 0
124 138 0
127 140 0
125 138 0
129 140 0
135 146 0
133 144 0
135 149 0
117 127 0
125 137 0
129 141 0
130 141 0
135 146 0
130 140 0
134 144 0
130 141 0
127 138 0
128 137 0
131 144 0
129 141 0
133 141 0
131 141 0
127 134 0
136 147 0
122 131 0
143 153 0
139 149 0
131 139 0
137 143 0
126 132 0
141 149 0
135 142 0
129 135 0
121 128 0
124 129 0
133 140 0
127 133 0
136 143 0
129 137 0
141 150 0
122 126 0
124 131 0
135 140 0
128 133 0
125 133 0
144 151 0
133 139 0
125 128 0
127 129 0
132 137 0
134 142 0
134 136 0
140 147 0
139 142 0
132 132 0
136 142 0
134 136 0
130 135 0
143 150 0
135 140 0
131 133 0
138 144 0
132 135 0
141 145 0
134 136 0
127 128 0
136 141 0
147 153 0
139 144 0
131 133 0
144 148 0
135 141 0
138 141 0
149 156 0
138 142 0
144 148 0
143 146 0
145 148 0
140 142 0
143 147 0
143 147 0
141 143 0
144 150 0
146 155 0
140 146 0
148 155 0
149 159 0
143 147 0
146 154 0
146 155 0
145 148 0
141 146 0
151 158 0
150 156 0
144 154 0
154 162 0
154 164 0
152 161 0
155 162 0
155 163 0
154 163 0
159 172 0
151 164 0
147 155 0
156 167 0
150 160 0
158 170 0
156 167 0
154 164 0
152 161 0
159 171 0
158 169 0
172 193 0
169 192 0
169 191 0
171 194 0
170 193 0
173 196 0
173 195 0
173 195 0
174 196 0
171 193 0
171 193 0
172 195 0
170 193 0
175 197 0
171 193 0
169 192 0
171 192 0
173 195 0
170 192 0
171 193 0
169 191 0
171 192 0
172 194 0
170 193 0
173 195 0
173 194 0
173 195 0
169 192 0
168 191 0
169 191 0
172 193 0
172 194 0
171 193 0
174 195 0
166 188 0
170 191 0
171 193 0
174 196 0
167 189 0
166 188 0
164 186 0
167 190 0
172 193 0
168 189 0
169 191 0
166 188 0
170 192 0
171 193 0
169 191 0
171 192 0
171 193 0
161 182 0
169 191 0
162 185 0
165 187 0
169 191 0
168 190 0
162 184 0
163 185 0
162 184 0
166 188 0
161 182 0
161 183 0
169 190 0
164 187 0
164 186 0
162 185 0
160 181 0
166 188 0
167 188 0
168 190 0
159 181 0
158 180 0
164 186 0
167 189 0
164 186 0
161 184 0
158 180 0
164 186 0
154 176 0
155 177 0
164 185 0
157 178 0
157 179 0
163 185 0
157 178 0
157 179 0
159 180 0
154 176 0
160 181 0
159 182 0
156 177 0
159 180 0
158 181 0
157 179 0
158 180 0
158 179 0
156 178 0
150 171 0
154 176 0
153 175 0
158 181 0
154 176 0
162 184 0
151 173 0
152 174 0
158 180 0
157 179 0
151 173 0
155 177 0
151 172 0
150 172 0
158 180 0
150 172 0
146 168 0
145 168 0
147 168 0
141 163 0
146 169 0
149 170 0
146 167 0
150 172 0
156 178 0
145 166 0
147 169 0
135 157 0
145 166 0
144 165 0
146 167 0
144 166 0
138 159 0
136 157 0
137 159 0
147 168 0
143 163 0
150 172 0
137 158 0
135 156 0
137 159 0
144 165 0
139 160 0
137 157 0
136 157 0
144 166 0
137 158 0
142 164 0
139 161 0
136 156 0
137 157 0
134 155 0
130 150 0
128 149 0
133 152 0
134 155 0
121 142 0
130 150 0
130 151 0
138 159 0
129 150 0
133 154 0
127 148 0
121 141 0
126 146 0
122 142 0
128 147 0
120 139 0
115 134 0
130 149 0
125 143 0
109 127 0
116 136 0
119 138 0
124 143 0
104 123 0
117 135 0
98 116 0
112 131 0
111 129 0
128 146 0
129 149 0
104 123 0
109 125 0
98 115 0
114 132 0
109 128 0
113 131 0
114 131 0
115 132 0
119 136 0
105 121 0
110 126 0
105 123 0
118 134 0
119 135 0
109 127 0
110 128 0
113 129 0
107 123 0
102 119 0
113 131 0
116 133 0
114 131 0
110 128 0
108 124 0
109 126 0
109 124 0
114 132 0
104 119 0
111 128 0
108 125 0
95 110 0
117 134 0
98 114 0
113 129 0
98 114 0
109 126 0
106 121 0
115 131 0
117 132 0
107 124 0
113 129 0
94 111 0
108 123 0
114 132 0
107 122 0
112 132 0
123 138 0
112 130 0
114 129 0
115 132 0
121 138 0
118 135 0
107 123 0
116 133 0
114 132 0
113 132 0
110 128 0
117 133 0
126 143 0
110 126 0
109 124 0
132 150 0
120 138 0
109 125 0
126 144 0
125 143 0
119 136 0
121 136 0
116 132 0
118 134 0
118 134 0
116 131 0
116 133 0
131 147 0
127 142 0
128 145 0
127 142 0
127 144 0
132 148 0
117 132 0
125 141 0
125 140 0
120 136 0
126 142 0
137 154 0
127 142 0
125 142 0
124 141 0
123 139 0
141 158 0
138 153 0
133 148 0
125 141 0
129 144 0
124 138 0
133 149 0
127 141 0
126 140 0
133 148 0
129 143 0
122 139 0
115 126 0
132 148 0
134 149 0
134 147 0
130 144 0
130 143 0
126 138 0
129 141 0
124 136 0
142 158 0
132 145 0
133 146 0
126 139 0
134 148 0
131 143 0
129 139 0
129 144 0
134 148 0
139 150 0
136 149 0
136 150 0
135 147 0
141 154 0
134 147 0
137 147 0
129 141 0
135 148 0
133 140 0
131 140 0
126 136 0
134 144 0
141 151 0
134 144 0
131 140 0
134 143 0
136 147 0
139 148 0
120 127 0
135 144 0
129 140 0
136 147 0
137 145 0
140 149 0
146 155 0
129 133 0
136 146 0
135 145 0
126 132 0
132 141 0
136 144 0
131 137 0
127 135 0
134 141 0
132 139 0
129 132 0
140 148 0
130 135 0
140 146 0
137 143 0
143 149 0
131 137 0
139 142 0
136 140 0
142 145 0
141 144 0
136 143 0
135 137 0
135 141 0
125 128 0
142 148 0
137 141 0
124 125 0
143 147 0
135 138 0
133 135 0
139 144 0
134 138 0
138 143 0
142 147 0
136 141 0
142 146 0
142 148 0
141 145 0
136 142 0
138 141 0
139 147 0
137 140 0
146 151 0
137 142 0
145 149 0
142 148 0
145 152 0
142 147 0
144 151 0
141 145 0
151 155 0
147 152 0
142 147 0
146 151 0
153 161 0
149 156 0
152 159 0
149 155 0
155 163 0
148 156 0
148 157 0
151 162 0
152 160 0
159 169 0
151 160 0
144 152 0
154 166 0
154 165 0
158 170 0
160 170 0
154 165 0
155 166 0
148 155 0
152 159 0
175 197 0
169 192 0
172 195 0
171 193 0
174 196 0
168 191 0
171 193 0
172 194 0
168 191 0
175 197 0
174 196 0
170 191 0
169 191 0
173 194 0
176 198 0
169 191 0
170 192 0
174 195 0
172 194 0
175 196 0
175 196 0
173 195 0
176 197 0
171 192 0
172 194 0
172 194 0
167 190 0
168 190 0
173 195 0
168 188 0
172 194 0
168 190 0
167 190 0
172 194 0
171 193 0
173 195 0
169 190 0
163 185 0
167 189 0
171 192 0
166 189 0
169 191 0
170 193 0
173 194 0
168 189 0
160 181 0
165 187 0
163 184 0
171 193 0
162 183 0
165 187 0
169 191 0
168 190 0
168 189 0
167 188 0
163 184 0
165 187 0
166 188 0
170 192 0
167 189 0
170 192 0
170 192 0
165 186 0
163 186 0
163 185 0
161 183 0
164 186 0
160 181 0
166 188 0
157 180 0
161 182 0
156 179 0
162 184 0
166 188 0
160 183 0
168 190 0
157 179 0
157 178 0
159 182 0
158 180 0
161 182 0
159 182 0
161 183 0
159 181 0
154 175 0
161 184 0
154 176 0
160 182 0
159 182 0
159 180 0
160 182 0
162 184 0
160 182 0
164 187 0
150 172 0
149 171 0
153 175 0
160 182 0
155 178 0
160 182 0
162 185 0
156 179 0
161 182 0
159 181 0
152 174 0
155 177 0
156 177 0
160 181 0
146 168 0
148 170 0
152 174 0
154 177 0
151 173 0
149 171 0
143 165 0
159 180 0
143 165 0
150 172 0
149 171 0
156 177 0
155 177 0
152 173 0
152 173 0
153 175 0
144 166 0
149 171 0
148 169 0
146 167 0
144 165 0
149 171 0
145 166 0
153 175 0
144 165 0
142 164 0
143 164 0
144 166 0
139 159 0
143 165 0
132 152 0
146 168 0
141 161 0
140 161 0
141 162 0
136 156 0
131 151 0
132 152 0
133 154 0
135 156 0
140 161 0
133 152 0
132 152 0
141 161 0
129 150 0
128 148 0
130 151 0
130 149 0
132 152 0
142 162 0
129 150 0
126 146 0
123 143 0
134 154 0
119 138 0
128 148 0
125 145 0
121 141 0
123 143 0
125 144 0
112 131 0
118 136 0
134 153 0
134 153 0
125 144 0
122 141 0
108 127 0
121 139 0
118 136 0
120 139 0
129 147 0
112 130 0
119 138 0
119 136 0
117 135 0
125 142 0
110 129 0
112 129 0
113 131 0
113 131 0
115 133 0
111 127 0
115 133 0
111 128 0
122 139 0
113 130 0
107 123 0
102 119 0
95 110 0
109 126 0
106 122 0
105 121 0
90 106 0
107 124 0
104 119 0
111 127 0
108 124 0
106 123 0
87 105 0
109 126 0
102 118 0
111 128 0
108 124 0
112 129 0
113 130 0
111 128 0
115 132 0
109 125 0
114 130 0
104 121 0
103 118 0
124 139 0
102 118 0
111 127 0
116 134 0
104 121 0
118 136 0
102 117 0
119 135 0
108 121 0
103 121 0
118 133 0
119 137 0
123 140 0
116 133 0
107 123 0
115 131 0
102 120 0
117 134 0
117 134 0
111 126 0
119 133 0
105 120 0
118 135 0
118 134 0
127 145 0
121 137 0
126 143 0
125 143 0
115 131 0
129 146 0
122 138 0
132 148 0
115 133 0
122 138 0
126 143 0
114 129 0
111 126 0
118 136 0
126 140 0
120 137 0
131 145 0
121 136 0
134 150 0
120 135 0
134 151 0
130 146 0
127 144 0
127 144 0
131 148 0
124 140 0
120 136 0
128 144 0
129 143 0
127 143 0
123 139 0
133 149 0
132 149 0
135 151 0
123 139 0
136 150 0
130 145 0
115 128 0
133 149 0
130 146 0
129 144 0
128 141 0
133 146 0
134 151 0
131 146 0
124 140 0
136 149 0
130 145 0
124 136 0
133 146 0
125 136 0
133 147 0
132 144 0
132 144 0
137 151 0
130 141 0
128 138 0
133 145 0
131 145 0
131 143 0
128 140 0
127 140 0
134 146 0
142 156 0
134 146 0
136 148 0
130 143 0
137 148 0
129 141 0
133 144 0
137 146 0
141 154 0
128 139 0
130 138 0
126 134 0
133 142 0
148 159 0
127 137 0
141 153 0
129 140 0
143 154 0
134 140 0
130 139 0
138 145 0
130 138 0
130 138 0
121 128 0
142 150 0
132 138 0
134 140 0
132 139 0
137 145 0
134 141 0
124 130 0
143 150 0
140 145 0
131 137 0
136 140 0
145 150 0
132 137 0
137 143 0
141 145 0
131 136 0
131 134 0
146 153 0
137 142 0
139 145 0
128 135 0
140 146 0
137 142 0
134 138 0
139 148 0
139 142 0
141 146 0
139 143 0
138 144 0
144 150 0
145 152 0
135 140 0
134 138 0
148 154 0
144 149 0
142 148 0
140 145 0
139 144 0
136 141 0
152 160 0
143 150 0
137 142 0
145 153 0
140 147 0
138 141 0
149 155 0
142 147 0
146 153 0
143 150 0
144 151 0
145 152 0
143 148 0
150 156 0
151 158 0
149 156 0
149 157 0
149 157 0
152 162 0
155 167 0
153 161 0
156 166 0
155 166 0
155 164 0
156 169 0
153 163 0
155 166 0
152 160 0
153 161 0
158 170 0
153 160 0
170 193 0
174 197 0
173 195 0
174 196 0
172 194 0
171 193 0
167 189 0
176 198 0
172 194 0
174 196 0
171 193 0
170 192 0
169 192 0
172 195 0
176 197 0
169 192 0
173 196 0
172 193 0
173 195 0
174 196 0
171 192 0
174 197 0
170 193 0
171 192 0
171 194 0
169 191 0
171 193 0
167 188 0
169 190 0
167 189 0
168 191 0
175 197 0
175 197 0
171 193 0
165 186 0
167 189 0
172 193 0
171 193 0
160 182 0
167 189 0
171 192 0
173 194 0
169 191 0
166 187 0
168 189 0
167 189 0
167 189 0
167 188 0
168 190 0
167 188 0
162 183 0
163 185 0
169 191 0
168 191 0
164 185 0
165 187 0
167 188 0
167 189 0
163 185 0
165 186 0
153 174 0
164 187 0
163 185 0
162 185 0
162 184 0
167 189 0
160 181 0
161 182 0
161 183 0
163 185 0
164 186 0
165 187 0
165 187 0
157 179 0
167 189 0
162 185 0
158 180 0
154 177 0
155 177 0
157 179 0
158 180 0
162 184 0
164 187 0
155 177 0
157 180 0
160 182 0
158 180 0
158 179 0
160 182 0
155 176 0
164 187 0
153 174 0
161 183 0
160 183 0
157 178 0
150 172 0
162 184 0
155 177 0
156 178 0
150 172 0
153 174 0
157 178 0
153 174 0
151 172 0
153 175 0
151 173 0
149 172 0
156 178 0
151 173 0
151 173 0
147 169 0
151 174 0
142 163 0
154 177 0
149 171 0
150 172 0
150 172 0
148 170 0
149 171 0
146 167 0
152 174 0
144 165 0
155 176 0
144 167 0
154 176 0
146 167 0
150 171 0
146 168 0
146 168 0
151 172 0
146 167 0
154 176 0
148 169 0
139 161 0
143 165 0
138 160 0
136 157 0
149 171 0
140 161 0
143 164 0
134 157 0
138 160 0
141 162 0
128 150 0
134 155 0
130 152 0
127 148 0
140 161 0
144 165 0
136 157 0
136 156 0
127 148 0
127 147 0
129 149 0
140 161 0
141 161 0
137 158 0
124 144 0
134 154 0
126 147 0
128 148 0
131 151 0
130 149 0
132 151 0
114 133 0
130 150 0
135 156 0
119 139 0
111 131 0
116 135 0
123 143 0
123 143 0
116 136 0
125 144 0
132 150 0
127 146 0
114 133 0
112 131 0
115 134 0
115 133 0
119 138 0
103 121 0
112 130 0
118 136 0
111 130 0
110 128 0
120 138 0
120 138 0
117 135 0
117 134 0
116 134 0
108 126 0
97 115 0
114 131 0
115 133 0
109 127 0
102 120 0
102 120 0
111 127 0
117 134 0
106 124 0
112 130 0
107 123 0
105 122 0
107 124 0
98 115 0
110 127 0
102 119 0
104 120 0
120 137 0
108 123 0
104 120 0
116 131 0
122 140 0
118 132 0
108 125 0
118 134 0
118 137 0
118 134 0
100 117 0
113 130 0
115 132 0
99 116 0
119 136 0
117 134 0
114 131 0
115 130 0
126 141 0
110 127 0
128 144 0
104 121 0
123 138 0
102 119 0
110 127 0
123 140 0
115 131 0
120 138 0
128 145 0
120 137 0
113 129 0
121 137 0
127 145 0
120 135 0
113 128 0
127 144 0
124 142 0
120 137 0
113 130 0
124 142 0
117 134 0
116 133 0
126 144 0
129 145 0
132 148 0
111 127 0
125 140 0
126 141 0
121 136 0
124 140 0
131 148 0
126 140 0
121 138 0
130 144 0
127 143 0
129 144 0
132 148 0
119 133 0
131 148 0
124 139 0
123 139 0
125 140 0
132 148 0
133 150 0
130 144 0
135 151 0
133 151 0
132 149 0
131 147 0
128 142 0
126 139 0
127 143 0
137 153 0
132 147 0
138 153 0
139 151 0
121 134 0
123 138 0
138 152 0
138 151 0
129 141 0
130 146 0
139 154 0
122 136 0
134 148 0
138 153 0
132 147 0
127 140 0
134 151 0
128 139 0
133 145 0
136 149 0
129 142 0
132 142 0
135 148 0
135 147 0
131 145 0
134 144 0
135 150 0
129 140 0
136 146 0
133 145 0
135 147 0
131 140 0
129 139 0
138 152 0
138 149 0
135 147 0
136 146 0
134 141 0
131 141 0
147 159 0
135 143 0
137 145 0
124 132 0
133 143 0
135 143 0
135 146 0
149 159 0
136 147 0
138 146 0
126 134 0
136 141 0
132 137 0
137 145 0
135 143 0
138 148 0
141 149 0
136 144 0
135 143 0
133 139 0
143 147 0
137 142 0
136 144 0
133 140 0
132 140 0
138 143 0
134 139 0
136 142 0
137 142 0
146 150 0
130 133 0
146 150 0
137 143 0
139 141 0
135 141 0
134 138 0
146 151 0
138 144 0
145 152 0
137 142 0
141 148 0
147 153 0
133 137 0
151 159 0
144 149 0
145 150 0
143 147 0
137 141 0
137 141 0
139 144 0
137 140 0
144 150 0
147 154 0
150 159 0
141 144 0
145 154 0
141 150 0
142 151 0
147 153 0
142 150 0
142 148 0
150 155 0
146 153 0
148 156 0
150 159 0
144 150 0
151 161 0
149 157 0
145 152 0
151 158 0
149 157 0
160 171 0
156 166 0
151 159 0
153 161 0
158 169 0
156 167 0
155 167 0
150 159 0
153 163 0
168 191 0
173 195 0
173 195 0
172 195 0
171 193 0
171 193 0
172 194 0
172 195 0
172 195 0
174 196 0
165 188 0
172 194 0
172 194 0
172 195 0
172 194 0
174 195 0
170 192 0
168 191 0
169 191 0
168 191 0
173 195 0
170 192 0
170 192 0
167 189 0
172 194 0
171 192 0
174 196 0
167 188 0
171 193 0
171 193 0
173 194 0
168 190 0
164 187 0
157 179 0
168 190 0
170 192 0
172 193 0
169 190 0
164 186 0
169 190 0
168 189 0
167 189 0
172 194 0
166 188 0
166 188 0
168 190 0
168 191 0
169 191 0
166 188 0
162 185 0
163 184 0
170 192 0
166 188 0
168 189 0
164 186 0
171 193 0
165 188 0
170 192 0
166 188 0
168 189 0
163 184 0
160 182 0
164 187 0
167 189 0
166 188 0
166 188 0
157 180 0
161 183 0
166 188 0
162 184 0
164 186 0
165 187 0
162 184 0
159 181 0
160 182 0
157 178 0
163 185 0
156 178 0
158 181 0
162 183 0
156 178 0
161 183 0
156 178 0
160 183 0
164 185 0
159 182 0
155 178 0
160 182 0
163 185 0
156 178 0
158 180 0
154 176 0
158 180 0
152 174 0
153 176 0
153 176 0
157 180 0
154 176 0
152 174 0
149 172 0
151 174 0
157 179 0
157 179 0
156 178 0
154 177 0
148 170 0
151 173 0
157 179 0
154 176 0
161 182 0
157 179 0
152 174 0
153 175 0
145 167 0
154 177 0
154 175 0
152 175 0
146 167 0
154 175 0
155 177 0
140 162 0
150 171 0
147 168 0
142 165 0
144 167 0
149 171 0
153 175 0
137 159 0
151 173 0
145 167 0
145 167 0
146 167 0
140 161 0
139 160 0
139 161 0
143 164 0
144 165 0
143 165 0
142 162 0
143 165 0
139 161 0
142 164 0
145 167 0
138 159 0
142 163 0
135 154 0
134 155 0
132 152 0
136 157 0
141 161 0
128 149 0
134 154 0
134 155 0
128 148 0
128 148 0
129 150 0
121 140 0
135 155 0
124 144 0
129 150 0
129 149 0
117 136 0
131 152 0
130 150 0
129 148 0
123 143 0
120 138 0
121 140 0
123 142 0
118 137 0
131 151 0
120 140 0
123 142 0
115 135 0
120 140 0
119 138 0
120 140 0
131 150 0
126 146 0
118 136 0
123 142 0
116 134 0
115 133 0
127 146 0
122 139 0
111 129 0
119 138 0
112 131 0
113 130 0
111 130 0
113 130 0
104 121 0
107 124 0
105 124 0
114 132 0
106 124 0
117 135 0
107 124 0
115 132 0
110 129 0
108 126 0
116 133 0
111 129 0
101 118 0
109 127 0
119 137 0
112 130 0
120 137 0
112 130 0
101 118 0
117 133 0
106 123 0
121 139 0
118 136 0
111 128 0
106 123 0
119 135 0
119 137 0
125 143 0
109 125 0
113 129 0
108 126 0
118 134 0
111 126 0
115 132 0
124 141 0
119 137 0
122 139 0
120 136 0
118 134 0
98 114 0
111 128 0
127 145 0
112 130 0
114 130 0
121 139 0
122 140 0
124 140 0
125 141 0
110 125 0
128 145 0
122 138 0
125 143 0
115 132 0
131 146 0
130 147 0
119 136 0
126 144 0
127 144 0
128 143 0
128 146 0
121 138 0
125 141 0
124 142 0
129 146 0
126 141 0
130 147 0
117 133 0
127 143 0
121 139 0
126 142 0
131 145 0
131 149 0
123 139 0
125 143 0
123 139 0
128 145 0
130 146 0
126 143 0
130 147 0
128 143 0
135 151 0
130 143 0
137 153 0
137 153 0
123 137 0
140 155 0
130 146 0
137 153 0
139 155 0
126 139 0
129 142 0
129 144 0
132 148 0
136 151 0
128 145 0
129 147 0
140 155 0
125 138 0
134 150 0
131 146 0
143 159 0
125 138 0
136 151 0
134 148 0
134 149 0
145 159 0
132 146 0
125 140 0
140 154 0
136 151 0
132 144 0
132 146 0
144 157 0
132 144 0
130 143 0
142 154 0
131 145 0
135 144 0
137 151 0
137 149 0
131 142 0
140 153 0
141 154 0
130 139 0
135 144 0
132 145 0
124 134 0
148 161 0
141 153 0
136 150 0
134 147 0
127 139 0
143 152 0
140 152 0
132 141 0
141 150 0
133 141 0
145 157 0
139 151 0
133 143 0
137 146 0
139 146 0
137 145 0
142 154 0
144 152 0
134 143 0
128 137 0
129 135 0
139 146 0
141 149 0
135 143 0
136 144 0
134 141 0
138 142 0
126 132 0
134 143 0
148 156 0
142 148 0
144 149 0
136 140 0
135 142 0
130 130 0
145 152 0
139 144 0
139 146 0
143 149 0
142 145 0
138 141 0
137 142 0
142 147 0
142 149 0
142 148 0
141 148 0
145 151 0
147 154 0
145 148 0
141 146 0
151 159 0
142 148 0
139 144 0
142 150 0
144 147 0
153 160 0
142 147 0
146 151 0
149 160 0
145 152 0
143 148 0
146 152 0
147 152 0
148 157 0
151 159 0
156 167 0
154 161 0
156 166 0
150 158 0
150 159 0
156 164 0
151 160 0
153 163 0
155 162 0
150 157 0
152 162 0
154 164 0
152 162 0
155 167 0
152 162 0
156 165 0
151 163 0
174 196 0
170 193 0
171 193 0
173 195 0
174 196 0
168 190 0
170 192 0
172 194 0
176 198 0
172 194 0
171 193 0
172 194 0
170 193 0
173 195 0
173 195 0
167 189 0
171 193 0
174 197 0
172 194 0
170 192 0
171 193 0
175 197 0
172 195 0
171 192 0
174 195 0
171 194 0
170 192 0
171 193 0
171 192 0
170 192 0
169 191 0
165 188 0
169 191 0
169 190 0
170 192 0
170 192 0
165 187 0
168 190 0
169 191 0
166 187 0
171 193 0
171 193 0
170 192 0
165 188 0
165 186 0
167 189 0
169 190 0
167 188 0
168 190 0
168 189 0
166 188 0
164 185 0
168 190 0
161 183 0
168 189 0
160 182 0
162 184 0
167 189 0
168 190 0
167 188 0
164 186 0
160 182 0
161 184 0
167 188 0
160 183 0
163 185 0
165 187 0
159 181 0
165 188 0
161 184 0
165 187 0
163 186 0
163 185 0
162 183 0
157 180 0
159 182 0
167 189 0
164 187 0
163 185 0
164 186 0
158 180 0
166 188 0
160 183 0
158 181 0
159 181 0
162 184 0
160 182 0
157 178 0
149 171 0
159 181 0
160 182 0
155 177 0
159 182 0
160 182 0
155 176 0
156 178 0
157 179 0
146 169 0
148 170 0
155 177 0
156 178 0
150 172 0
163 185 0
160 182 0
155 177 0
154 176 0
142 164 0
149 170 0
152 175 0
156 178 0
154 175 0
155 177 0
157 179 0
149 171 0
150 172 0
151 173 0
151 173 0
148 170 0
148 169 0
146 168 0
140 160 0
148 169 0
132 154 0
143 164 0
147 169 0
141 163 0
138 160 0
145 167 0
149 170 0
147 169 0
141 163 0
144 166 0
145 167 0
150 172 0
147 168 0
142 164 0
144 165 0
134 155 0
141 162 0
150 171 0
135 156 0
136 157 0
144 166 0
132 154 0
130 151 0
131 153 0
143 164 0
143 164 0
141 162 0
142 164 0
128 150 0
129 149 0
136 158 0
141 161 0
130 151 0
125 144 0
136 157 0
123 143 0
128 148 0
129 148 0
127 147 0
140 161 0
120 139 0
124 143 0
126 147 0
130 150 0
121 141 0
126 147 0
128 148 0
129 148 0
122 141 0
115 134 0
119 138 0
125 145 0
126 145 0
121 139 0
121 139 0
121 139 0
128 147 0
120 139 0
114 132 0
126 145 0
107 125 0
115 134 0
110 127 0
111 130 0
117 135 0
118 136 0
125 143 0
117 136 0
122 140 0
110 126 0
111 129 0
113 131 0
100 117 0
100 119 0
117 136 0
112 129 0
112 130 0
114 131 0
113 131 0
119 136 0
117 135 0
105 122 0
118 135 0
132 150 0
116 134 0
107 123 0
116 134 0
126 143 0
115 133 0
112 129 0
124 142 0
112 131 0
111 128 0
126 142 0
101 118 0
108 124 0
120 137 0
123 141 0
116 133 0
117 135 0
119 136 0
103 120 0
115 134 0
119 136 0
110 129 0
123 141 0
119 135 0
115 132 0
111 127 0
117 132 0
116 134 0
118 135 0
121 136 0
112 127 0
123 141 0
116 132 0
114 130 0
122 138 0
118 136 0
124 142 0
118 134 0
132 150 0
111 128 0
111 127 0
123 138 0
132 148 0
125 141 0
130 148 0
124 144 0
120 135 0
118 135 0
129 146 0
127 145 0
125 142 0
135 153 0
117 135 0
121 138 0
133 149 0
124 140 0
134 149 0
120 136 0
124 140 0
131 147 0
136 151 0
133 149 0
131 149 0
131 149 0
134 148 0
131 149 0
134 150 0
124 138 0
123 140 0
119 134 0
129 144 0
143 158 0
139 156 0
125 140 0
137 151 0
129 143 0
134 150 0
135 151 0
138 153 0
140 155 0
145 161 0
118 131 0
132 148 0
127 141 0
129 143 0
131 144 0
130 144 0
130 145 0
135 149 0
128 140 0
131 145 0
133 147 0
128 140 0
134 150 0
140 155 0
130 142 0
126 140 0
143 154 0
139 149 0
136 150 0
136 151 0
128 138 0
130 142 0
133 146 0
126 136 0
128 138 0
131 143 0
133 145 0
139 153 0
133 146 0
129 140 0
131 142 0
138 151 0
126 138 0
142 155 0
141 155 0
137 146 0
139 149 0
133 142 0
139 151 0
140 151 0
126 135 0
133 143 0
143 155 0
129 139 0
141 154 0
136 145 0
136 148 0
138 147 0
136 148 0
133 140 0
131 139 0
137 145 0
137 142 0
132 137 0
140 150 0
138 142 0
142 149 0
136 142 0
146 158 0
143 149 0
144 151 0
143 150 0
141 150 0
139 145 0
141 147 0
131 138 0
131 137 0
135 143 0
136 140 0
140 147 0
142 146 0
140 145 0
143 150 0
140 144 0
150 156 0
143 149 0
142 150 0
140 147 0
144 150 0
144 150 0
136 141 0
143 147 0
146 150 0
150 156 0
146 153 0
139 145 0
149 157 0
144 154 0
143 149 0
144 152 0
143 150 0
140 145 0
140 144 0
143 146 0
149 153 0
152 160 0
146 153 0
150 159 0
143 152 0
154 164 0
153 162 0
149 159 0
153 160 0
143 152 0
150 159 0
148 155 0
151 160 0
154 163 0
157 169 0
155 168 0
158 167 0
153 162 0
155 165 0
155 166 0
170 192 0
167 190 0
173 196 0
169 192 0
170 192 0
170 193 0
170 191 0
171 193 0
174 196 0
171 192 0
172 194 0
170 192 0
168 190 0
169 191 0
171 193 0
171 194 0
169 191 0
172 194 0
168 190 0
171 193 0
169 192 0
174 195 0
167 189 0
167 189 0
169 191 0
171 193 0
168 189 0
171 193 0
171 194 0
168 190 0
170 191 0
165 187 0
172 194 0
170 192 0
169 191 0
166 187 0
164 186 0
168 189 0
170 192 0
169 191 0
172 195 0
167 189 0
162 184 0
166 188 0
167 190 0
164 185 0
166 188 0
167 188 0
160 183 0
166 189 0
163 186 0
165 188 0
164 187 0
171 193 0
165 187 0
160 182 0
162 184 0
164 186 0
162 185 0
159 180 0
160 182 0
156 179 0
162 185 0
162 184 0
159 181 0
159 181 0
163 185 0
162 184 0
158 180 0
158 180 0
164 186 0
168 189 0
161 184 0
156 179 0
162 185 0
161 183 0
160 183 0
153 175 0
159 180 0
155 177 0
156 178 0
163 186 0
159 181 0
166 188 0
165 188 0
162 185 0
160 182 0
157 179 0
165 186 0
159 182 0
154 177 0
158 180 0
153 175 0
160 182 0
151 173 0
149 170 0
153 175 0
155 176 0
158 181 0
152 174 0
149 171 0
148 171 0
154 175 0
157 179 0
152 174 0
153 176 0
155 177 0
151 174 0
155 178 0
153 175 0
147 169 0
151 173 0
150 173 0
156 179 0
155 178 0
151 174 0
156 178 0
146 168 0
149 170 0
143 164 0
152 173 0
150 171 0
148 170 0
146 168 0
145 166 0
142 163 0
148 169 0
145 166 0
141 163 0
150 171 0
152 173 0
155 177 0
148 169 0
133 154 0
135 157 0
144 166 0
143 165 0
150 170 0
146 168 0
139 160 0
143 164 0
133 155 0
129 151 0
129 150 0
141 162 0
149 171 0
143 164 0
141 163 0
135 155 0
131 151 0
140 160 0
137 159 0
136 156 0
141 161 0
134 155 0
121 142 0
136 157 0
134 155 0
131 152 0
138 160 0
135 155 0
127 147 0
121 140 0
132 151 0
119 139 0
122 142 0
130 150 0
126 146 0
127 147 0
137 156 0
132 152 0
114 135 0
122 142 0
129 149 0
124 144 0
122 141 0
121 139 0
126 145 0
126 145 0
125 144 0
121 140 0
120 138 0
115 135 0
131 149 0
115 133 0
109 128 0
118 136 0
116 134 0
113 132 0
117 135 0
126 145 0
117 137 0
107 126 0
105 125 0
115 134 0
107 124 0
115 133 0
130 146 0
106 124 0
127 144 0
121 138 0
123 142 0
118 135 0
116 134 0
123 141 0
114 131 0
108 126 0
117 136 0
127 144 0
114 131 0
117 134 0
116 135 0
115 133 0
107 124 0
110 125 0
111 127 0
125 142 0
114 130 0
117 133 0
109 126 0
121 138 0
120 137 0
116 132 0
110 129 0
123 141 0
123 141 0
111 128 0
121 139 0
125 144 0
113 129 0
117 133 0
111 128 0
115 131 0
108 124 0
118 135 0
117 133 0
120 137 0
125 143 0
130 148 0
125 143 0
117 134 0
117 135 0
118 136 0
118 135 0
122 141 0
124 139 0
121 139 0
126 143 0
117 134 0
125 142 0
109 126 0
121 137 0
132 150 0
124 139 0
136 155 0
125 143 0
130 147 0
132 149 0
128 144 0
130 146 0
128 146 0
125 142 0
131 148 0
129 146 0
127 143 0
132 149 0
124 140 0
135 152 0
132 149 0
127 143 0
141 156 0
125 142 0
135 150 0
131 147 0
130 146 0
126 141 0
122 139 0
130 144 0
140 156 0
128 145 0
125 137 0
135 151 0
134 151 0
130 148 0
141 156 0
130 146 0
138 155 0
135 149 0
136 153 0
124 138 0
135 151 0
140 155 0
121 136 0
124 139 0
127 141 0
141 154 0
140 154 0
136 152 0
136 150 0
144 158 0
133 147 0
136 149 0
137 149 0
134 148 0
133 146 0
145 156 0
134 147 0
137 149 0
134 147 0
127 139 0
137 151 0
137 149 0
136 150 0
136 148 0
137 148 0
133 142 0
137 149 0
140 153 0
143 156 0
131 142 0
138 148 0
145 156 0
134 142 0
141 151 0
136 147 0
137 148 0
137 145 0
128 137 0
131 141 0
136 148 0
157 169 0
134 144 0
131 141 0
131 141 0
132 136 0
136 145 0
145 154 0
144 153 0
137 146 0
135 143 0
143 152 0
140 149 0
136 142 0
136 143 0
135 142 0
134 143 0
149 157 0
139 146 0
140 148 0
147 156 0
140 146 0
129 137 0
140 146 0
138 145 0
138 145 0
143 152 0
136 141 0
138 145 0
145 150 0
144 152 0
146 156 0
154 161 0
145 152 0
144 151 0
138 145 0
143 149 0
148 156 0
142 150 0
146 153 0
138 142 0
146 153 0
147 154 0
141 145 0
139 146 0
146 155 0
152 160 0
147 155 0
144 150 0
142 148 0
145 152 0
144 154 0
153 161 0
146 153 0
155 165 0
152 160 0
140 146 0
149 160 0
150 160 0
147 157 0
147 154 0
152 163 0
153 162 0
150 160 0
157 171 0
155 166 0
148 157 0
153 164 0
150 157 0
147 157 0
156 168 0
173 195 0
173 195 0
173 195 0
171 193 0
170 192 0
173 195 0
176 197 0
168 190 0
168 191 0
172 194 0
172 194 0
171 192 0
172 194 0
169 191 0
169 191 0
171 193 0
167 189 0
170 192 0
172 195 0
174 196 0
171 193 0
174 196 0
164 187 0
169 191 0
168 190 0
168 190 0
172 194 0
170 193 0
171 193 0
171 194 0
172 194 0
172 195 0
167 189 0
167 189 0
165 187 0
166 188 0
165 187 0
164 187 0
172 193 0
162 185 0
168 190 0
168 190 0
166 188 0
164 187 0
165 187 0
165 188 0
169 191 0
161 183 0
170 191 0
163 186 0
168 191 0
161 184 0
165 187 0
165 187 0
160 182 0
163 185 0
166 188 0
165 187 0
165 188 0
167 189 0
157 179 0
162 184 0
164 186 0
164 187 0
168 189 0
161 183 0
165 186 0
160 183 0
166 188 0
158 181 0
166 189 0
163 185 0
159 181 0
160 182 0
162 183 0
151 173 0
162 184 0
159 182 0
161 184 0
164 187 0
162 185 0
156 178 0
153 176 0
158 179 0
164 186 0
161 182 0
157 179 0
154 176 0
154 177 0
160 183 0
154 175 0
153 176 0
159 181 0
154 177 0
152 174 0
153 176 0
158 181 0
149 172 0
150 172 0
152 174 0
149 171 0
154 176 0
148 171 0
148 171 0
156 177 0
154 177 0
156 177 0
152 175 0
148 170 0
156 179 0
148 171 0
147 169 0
156 178 0
145 168 0
156 178 0
150 172 0
152 174 0
147 168 0
144 166 0
146 169 0
148 169 0
146 170 0
154 175 0
152 173 0
148 170 0
142 164 0
142 163 0
145 167 0
148 170 0
150 172 0
145 166 0
150 171 0
152 173 0
145 168 0
141 162 0
144 166 0
139 160 0
142 163 0
136 158 0
147 168 0
145 167 0
131 153 0
139 161 0
137 158 0
140 161 0
134 156 0
131 152 0
141 162 0
137 158 0
139 161 0
135 156 0
130 150 0
149 170 0
131 151 0
123 143 0
130 151 0
139 160 0
127 147 0
125 145 0
133 153 0
124 143 0
128 149 0
132 152 0
136 157 0
122 142 0
133 152 0
135 155 0
128 148 0
123 143 0
125 145 0
125 145 0
119 139 0
133 152 0
130 148 0
113 131 0
112 130 0
129 150 0
116 136 0
124 143 0
129 149 0
123 142 0
124 143 0
122 140 0
125 144 0
119 138 0
118 138 0
120 139 0
116 134 0
127 146 0
108 126 0
117 135 0
117 136 0
123 142 0
122 140 0
123 142 0
113 131 0
130 148 0
128 145 0
108 126 0
110 127 0
112 131 0
123 141 0
116 134 0
114 133 0
113 131 0
108 125 0
108 125 0
118 135 0
108 125 0
115 134 0
118 135 0
122 140 0
115 133 0
113 130 0
122 139 0
128 145 0
115 131 0
126 145 0
122 141 0
119 134 0
124 141 0
114 132 0
118 136 0
118 136 0
107 126 0
118 135 0
113 130 0
131 150 0
116 132 0
119 137 0
120 137 0
115 131 0
124 142 0
129 147 0
118 136 0
112 129 0
127 144 0
121 138 0
122 139 0
124 140 0
132 149 0
122 140 0
110 128 0
121 137 0
126 142 0
131 147 0
126 143 0
115 133 0
123 141 0
126 144 0
125 142 0
133 150 0
136 153 0
125 141 0
138 156 0
124 141 0
130 147 0
126 143 0
133 152 0
127 145 0
130 147 0
131 148 0
136 155 0
125 141 0
128 144 0
129 148 0
130 146 0
124 141 0
134 152 0
126 142 0
123 138 0
128 145 0
124 138 0
133 149 0
133 149 0
125 140 0
131 146 0
133 150 0
135 150 0
135 152 0
132 149 0
133 150 0
140 157 0
141 157 0
145 160 0
137 153 0
143 160 0
135 151 0
140 157 0
134 148 0
139 155 0
133 145 0
136 152 0
129 144 0
140 155 0
131 145 0
136 149 0
141 154 0
139 155 0
135 151 0
134 146 0
136 149 0
128 144 0
131 145 0
142 154 0
139 153 0
135 149 0
139 151 0
138 152 0
136 148 0
136 147 0
144 161 0
140 152 0
142 155 0
137 150 0
137 150 0
136 149 0
139 151 0
141 154 0
135 146 0
141 153 0
136 147 0
136 148 0
145 158 0
143 155 0
129 141 0
130 141 0
152 165 0
137 146 0
134 142 0
139 149 0
137 146 0
142 153 0
141 149 0
139 148 0
141 151 0
137 146 0
138 145 0
145 157 0
142 151 0
144 157 0
140 149 0
135 142 0
129 137 0
140 147 0
138 143 0
140 151 0
134 143 0
146 154 0
140 145 0
134 140 0
136 142 0
142 148 0
138 148 0
145 154 0
145 154 0
135 142 0
147 157 0
144 154 0
144 153 0
145 152 0
144 152 0
139 146 0
134 137 0
138 145 0
145 152 0
145 152 0
142 150 0
142 152 0
147 155 0
147 154 0
137 142 0
147 155 0
138 148 0
147 153 0
138 145 0
148 155 0
146 154 0
148 153 0
148 155 0
147 155 0
147 155 0
145 148 0
145 151 0
153 161 0
145 153 0
148 157 0
147 153 0
152 159 0
149 156 0
149 155 0
153 162 0
147 153 0
157 164 0
149 157 0
154 164 0
153 161 0
159 169 0
153 162 0
156 168 0
172 195 0
172 195 0
173 195 0
172 195 0
172 194 0
166 189 0
167 190 0
173 195 0
171 194 0
172 193 0
172 194 0
174 196 0
172 195 0
169 191 0
170 192 0
169 191 0
167 189 0
172 194 0
169 191 0
169 191 0
172 195 0
167 189 0
174 197 0
174 196 0
167 189 0
169 191 0
165 187 0
168 190 0
168 190 0
159 181 0
167 190 0
167 188 0
161 183 0
167 189 0
164 186 0
169 191 0
163 185 0
166 187 0
164 186 0
168 190 0
169 192 0
161 184 0
164 187 0
166 187 0
167 189 0
165 186 0
167 190 0
160 183 0
167 189 0
168 189 0
167 189 0
165 187 0
170 191 0
161 183 0
163 186 0
164 186 0
160 183 0
165 187 0
165 187 0
162 184 0
161 183 0
169 191 0
159 181 0
167 189 0
161 183 0
157 179 0
166 188 0
163 185 0
167 188 0
160 181 0
160 181 0
165 187 0
156 178 0
160 183 0
160 183 0
161 183 0
164 187 0
158 180 0
159 182 0
160 183 0
160 182 0
161 184 0
159 181 0
160 182 0
157 180 0
155 178 0
155 178 0
157 179 0
153 176 0
153 175 0
155 177 0
155 177 0
156 179 0
149 171 0
154 175 0
157 181 0
153 175 0
156 179 0
150 174 0
159 181 0
152 175 0
152 174 0
151 172 0
151 174 0
154 175 0
149 171 0
149 171 0
150 173 0
146 168 0
155 177 0
160 183 0
152 174 0
153 175 0
146 169 0
148 170 0
148 170 0
142 163 0
144 166 0
150 172 0
153 175 0
149 171 0
146 168 0
152 175 0
150 172 0
150 172 0
153 175 0
147 169 0
142 163 0
143 165 0
145 165 0
133 155 0
149 171 0
145 166 0
152 174 0
150 172 0
140 162 0
143 163 0
136 158 0
141 162 0
145 167 0
149 169 0
141 162 0
135 156 0
134 155 0
135 157 0
131 153 0
145 166 0
143 164 0
140 160 0
139 160 0
136 157 0
134 155 0
140 161 0
138 159 0
129 149 0
134 155 0
140 160 0
140 160 0
133 154 0
133 153 0
133 154 0
125 146 0
132 152 0
136 156 0
134 154 0
141 162 0
130 151 0
123 143 0
134 155 0
133 153 0
123 143 0
131 151 0
133 154 0
132 152 0
136 157 0
133 152 0
137 157 0
117 136 0
119 138 0
129 149 0
128 146 0
111 130 0
122 140 0
125 145 0
124 144 0
121 140 0
118 137 0
120 138 0
118 138 0
115 133 0
123 143 0
125 143 0
121 141 0
138 156 0
116 134 0
119 137 0
113 131 0
122 141 0
120 138 0
115 133 0
121 138 0
129 149 0
114 131 0
121 139 0
117 136 0
115 134 0
107 125 0
122 143 0
114 133 0
125 144 0
121 140 0
117 136 0
120 137 0
125 144 0
122 139 0
130 146 0
121 140 0
121 140 0
114 131 0
126 143 0
118 137 0
106 125 0
122 140 0
123 140 0
123 141 0
122 139 0
122 139 0
111 129 0
121 139 0
127 145 0
122 140 0
126 143 0
117 134 0
116 134 0
122 139 0
124 141 0
126 144 0
122 140 0
119 137 0
125 142 0
109 126 0
128 146 0
132 149 0
131 149 0
127 144 0
135 153 0
119 135 0
131 151 0
123 138 0
128 146 0
124 141 0
121 137 0
117 133 0
119 134 0
118 135 0
134 152 0
118 137 0
133 150 0
131 149 0
126 141 0
131 149 0
131 149 0
126 142 0
131 147 0
127 143 0
129 147 0
124 139 0
132 150 0
127 143 0
136 156 0
133 150 0
131 151 0
124 138 0
130 149 0
127 145 0
135 152 0
136 150 0
132 150 0
141 159 0
129 146 0
132 149 0
136 152 0
131 148 0
139 152 0
134 149 0
132 149 0
134 148 0
138 155 0
137 154 0
134 149 0
130 145 0
141 159 0
132 146 0
129 143 0
142 158 0
132 150 0
134 149 0
135 149 0
136 153 0
145 161 0
135 147 0
134 153 0
138 152 0
130 145 0
137 151 0
139 156 0
139 153 0
143 157 0
133 147 0
134 148 0
134 149 0
145 157 0
135 150 0
141 156 0
138 151 0
139 153 0
131 144 0
140 152 0
135 145 0
137 148 0
127 140 0
139 151 0
134 147 0
142 154 0
145 156 0
138 150 0
138 151 0
140 152 0
138 149 0
141 150 0
141 152 0
128 138 0
144 154 0
134 143 0
132 139 0
142 153 0
135 145 0
137 147 0
140 153 0
145 156 0
146 155 0
139 148 0
132 142 0
142 152 0
142 154 0
135 146 0
137 145 0
137 146 0
132 140 0
136 145 0
144 153 0
140 147 0
147 156 0
148 154 0
132 139 0
133 145 0
142 150 0
145 154 0
148 158 0
141 149 0
144 153 0
145 153 0
142 150 0
147 154 0
140 145 0
150 157 0
150 159 0
146 153 0
150 158 0
135 144 0
142 147 0
140 149 0
148 157 0
145 153 0
145 153 0
147 157 0
142 150 0
147 154 0
149 157 0
145 152 0
146 155 0
151 160 0
148 153 0
149 158 0
142 150 0
148 157 0
153 161 0
158 168 0
152 162 0
148 157 0
149 159 0
150 157 0
152 160 0
153 164 0
157 168 0
153 162 0
154 164 0
143 151 0
154 164 0
153 162 0
173 195 0
172 195 0
174 196 0
167 190 0
174 196 0
173 195 0
172 193 0
165 187 0
172 194 0
172 194 0
170 192 0
171 193 0
166 188 0
169 192 0
164 186 0
169 191 0
169 191 0
164 187 0
169 192 0
169 192 0
171 193 0
172 194 0
169 191 0
171 192 0
166 188 0
166 188 0
166 188 0
171 193 0
168 189 0
170 192 0
169 191 0
164 186 0
166 189 0
165 187 0
165 188 0
167 190 0
166 188 0
167 189 0
165 188 0
168 190 0
171 193 0
169 191 0
163 185 0
165 187 0
166 189 0
165 187 0
165 187 0
164 186 0
166 188 0
165 187 0
165 188 0
164 186 0
170 193 0
165 187 0
162 184 0
159 182 0
167 190 0
167 189 0
160 182 0
162 184 0
163 186 0
159 181 0
160 183 0
162 184 0
152 174 0
166 188 0
160 183 0
161 182 0
163 186 0
163 186 0
158 180 0
160 182 0
157 179 0
162 185 0
160 183 0
161 184 0
156 179 0
155 177 0
157 179 0
157 179 0
156 178 0
155 178 0
157 178 0
159 182 0
156 178 0
159 182 0
156 179 0
153 175 0
164 185 0
159 182 0
151 173 0
162 184 0
155 177 0
160 181 0
154 176 0
147 169 0
160 182 0
158 179 0
154 176 0
151 173 0
155 177 0
157 179 0
158 179 0
155 178 0
153 175 0
150 172 0
161 183 0
151 173 0
156 177 0
155 176 0
152 174 0
151 174 0
149 172 0
149 171 0
144 166 0
153 175 0
145 167 0
155 178 0
145 168 0
147 170 0
149 171 0
148 171 0
150 171 0
139 162 0
148 170 0
146 168 0
143 165 0
151 174 0
147 169 0
147 169 0
144 166 0
147 169 0
140 162 0
143 165 0
145 166 0
148 169 0
142 164 0
147 169 0
147 170 0
131 152 0
145 167 0
151 171 0
134 155 0
145 166 0
148 170 0
144 165 0
144 165 0
149 171 0
126 146 0
132 154 0
130 152 0
138 159 0
136 157 0
136 157 0
137 158 0
141 162 0
130 149 0
130 150 0
134 154 0
128 147 0
122 141 0
133 154 0
117 136 0
118 138 0
120 140 0
126 145 0
134 154 0
129 150 0
128 149 0
134 153 0
134 154 0
127 147 0
123 142 0
123 143 0
125 145 0
123 143 0
117 137 0
132 151 0
125 145 0
129 148 0
114 133 0
124 143 0
112 132 0
116 135 0
124 142 0
119 139 0
114 134 0
114 132 0
120 138 0
118 136 0
127 146 0
112 131 0
114 132 0
111 130 0
116 135 0
124 142 0
120 138 0
120 139 0
128 147 0
114 133 0
123 142 0
133 152 0
117 136 0
117 136 0
116 133 0
125 143 0
116 134 0
125 143 0
127 147 0
116 134 0
128 148 0
116 134 0
123 140 0
116 134 0
115 133 0
112 129 0
127 144 0
119 139 0
122 139 0
112 130 0
123 141 0
125 142 0
128 147 0
140 159 0
122 140 0
117 135 0
132 152 0
128 146 0
118 135 0
123 141 0
125 143 0
121 139 0
121 138 0
122 140 0
130 148 0
118 135 0
126 143 0
125 142 0
118 135 0
128 144 0
109 125 0
129 148 0
129 144 0
117 134 0
118 135 0
122 139 0
126 142 0
131 147 0
128 145 0
134 151 0
133 152 0
126 144 0
124 143 0
134 153 0
131 147 0
129 147 0
128 146 0
131 149 0
129 145 0
129 145 0
126 143 0
137 153 0
129 146 0
134 150 0
129 146 0
128 145 0
122 138 0
136 154 0
130 147 0
131 149 0
136 151 0
143 161 0
127 146 0
137 156 0
131 148 0
133 150 0
134 150 0
128 146 0
133 151 0
139 157 0
138 152 0
146 164 0
131 146 0
131 149 0
138 155 0
136 150 0
132 147 0
129 141 0
127 143 0
136 153 0
138 154 0
139 155 0
128 144 0
126 141 0
143 162 0
138 151 0
136 150 0
128 143 0
137 153 0
145 159 0
137 152 0
136 149 0
130 145 0
139 153 0
144 159 0
127 142 0
146 162 0
132 145 0
135 149 0
140 154 0
140 156 0
130 144 0
137 153 0
137 150 0
139 154 0
137 150 0
142 154 0
134 147 0
142 153 0
148 163 0
137 147 0
135 146 0
132 146 0
146 158 0
130 143 0
133 144 0
127 137 0
133 144 0
135 147 0
143 153 0
138 151 0
148 160 0
135 149 0
135 144 0
140 149 0
139 150 0
145 155 0
142 152 0
146 158 0
139 147 0
138 149 0
139 148 0
138 147 0
138 148 0
144 153 0
139 148 0
144 151 0
138 149 0
135 144 0
137 146 0
144 153 0
134 138 0
138 145 0
145 153 0
142 153 0
147 158 0
140 149 0
142 152 0
139 148 0
145 153 0
140 147 0
145 152 0
144 152 0
149 159 0
149 158 0
141 151 0
143 151 0
141 150 0
139 147 0
148 157 0
150 161 0
147 155 0
145 154 0
147 156 0
135 142 0
142 152 0
144 152 0
154 162 0
151 159 0
139 147 0
145 150 0
143 149 0
143 152 0
150 159 0
154 162 0
146 153 0
148 158 0
149 158 0
150 156 0
144 155 0
150 158 0
152 162 0
147 154 0
153 163 0
147 157 0
151 161 0
148 158 0
150 160 0
151 161 0
158 170 0
169 191 0
175 197 0
171 194 0
173 195 0
174 197 0
170 192 0
167 189 0
169 190 0
173 195 0
171 193 0
174 195 0
167 189 0
169 192 0
170 192 0
167 190 0
166 189 0
173 194 0
167 190 0
173 194 0
169 191 0
174 195 0
168 190 0
168 191 0
167 189 0
168 190 0
165 187 0
168 190 0
167 190 0
169 190 0
170 192 0
171 193 0
168 190 0
168 189 0
169 191 0
167 188 0
163 185 0
166 188 0
167 189 0
168 190 0
170 192 0
167 190 0
165 187 0
161 184 0
169 191 0
166 188 0
165 187 0
168 189 0
167 190 0
161 183 0
167 189 0
165 186 0
167 189 0
160 182 0
167 189 0
165 187 0
166 188 0
159 181 0
166 188 0
165 188 0
164 187 0
157 180 0
155 178 0
163 185 0
164 186 0
162 184 0
157 179 0
155 177 0
161 183 0
154 176 0
164 186 0
156 178 0
163 185 0
158 180 0
162 184 0
159 182 0
157 179 0
161 184 0
156 178 0
158 181 0
149 171 0
163 184 0
163 186 0
159 181 0
159 181 0
164 185 0
156 178 0
160 181 0
160 183 0
152 174 0
160 182 0
161 184 0
155 178 0
155 177 0
158 180 0
151 173 0
148 170 0
153 176 0
154 177 0
161 183 0
150 173 0
146 168 0
153 176 0
151 173 0
151 173 0
159 180 0
153 175 0
157 179 0
155 177 0
148 169 0
158 180 0
155 177 0
150 174 0
153 175 0
152 174 0
154 176 0
141 163 0
149 172 0
153 174 0
146 169 0
144 166 0
148 169 0
148 170 0
140 163 0
143 165 0
149 172 0
149 170 0
141 163 0
147 169 0
144 167 0
147 169 0
146 169 0
147 168 0
139 161 0
144 165 0
142 163 0
144 166 0
148 169 0
143 165 0
139 161 0
140 161 0
138 159 0
143 165 0
134 156 0
132 152 0
131 152 0
142 164 0
138 159 0
143 164 0
140 161 0
128 149 0
133 154 0
135 155 0
136 157 0
137 158 0
129 149 0
133 153 0
137 158 0
134 156 0
135 156 0
131 152 0
129 149 0
132 153 0
129 149 0
137 158 0
127 147 0
135 154 0
135 156 0
124 143 0
123 143 0
123 143 0
121 141 0
130 149 0
125 146 0
122 142 0
137 156 0
117 136 0
129 149 0
114 133 0
130 149 0
123 142 0
121 142 0
108 128 0
125 143 0
120 139 0
122 141 0
113 131 0
134 153 0
117 135 0
123 141 0
127 148 0
125 144 0
130 150 0
129 148 0
130 149 0
120 139 0
108 126 0
126 144 0
115 133 0
118 136 0
125 144 0
123 140 0
113 131 0
118 136 0
129 147 0
113 131 0
121 140 0
126 144 0
104 123 0
109 128 0
116 133 0
116 135 0
117 135 0
103 120 0
122 142 0
119 138 0
114 132 0
124 142 0
125 143 0
111 129 0
125 144 0
124 141 0
117 134 0
112 129 0
130 146 0
113 132 0
124 142 0
124 142 0
121 139 0
126 145 0
133 151 0
107 125 0
130 148 0
120 138 0
110 128 0
128 148 0
131 151 0
121 139 0
132 149 0
128 147 0
122 139 0
124 143 0
130 148 0
134 153 0
128 147 0
126 143 0
129 147 0
127 144 0
119 135 0
122 141 0
134 152 0
128 147 0
133 150 0
136 154 0
129 146 0
123 140 0
122 140 0
121 139 0
135 154 0
129 148 0
131 149 0
128 146 0
129 147 0
127 145 0
132 149 0
134 152 0
139 158 0
135 152 0
121 138 0
134 151 0
127 142 0
129 144 0
129 147 0
133 149 0
138 156 0
130 146 0
131 147 0
136 153 0
130 148 0
136 152 0
134 152 0
134 151 0
130 146 0
134 151 0
143 160 0
139 156 0
133 149 0
136 153 0
122 137 0
140 156 0
136 153 0
136 151 0
139 156 0
135 150 0
139 156 0
133 149 0
142 158 0
132 149 0
140 154 0
137 152 0
145 161 0
136 151 0
138 155 0
138 155 0
137 151 0
141 155 0
136 150 0
138 153 0
141 157 0
131 143 0
136 150 0
145 160 0
133 147 0
134 147 0
145 160 0
138 149 0
145 159 0
147 159 0
139 153 0
135 148 0
141 154 0
141 150 0
136 151 0
142 155 0
140 151 0
147 163 0
149 163 0
142 154 0
143 156 0
144 157 0
130 142 0
143 156 0
145 155 0
133 144 0
138 152 0
136 148 0
143 153 0
132 143 0
138 148 0
138 148 0
137 147 0
137 146 0
142 153 0
138 149 0
141 149 0
141 149 0
143 151 0
145 157 0
143 154 0
143 154 0
132 139 0
142 149 0
136 145 0
139 148 0
140 152 0
150 159 0
144 153 0
148 157 0
143 152 0
144 152 0
146 154 0
148 157 0
153 164 0
145 158 0
149 158 0
138 146 0
145 153 0
150 158 0
144 152 0
145 151 0
142 149 0
149 156 0
145 151 0
143 151 0
146 156 0
151 160 0
149 155 0
145 154 0
153 163 0
141 149 0
141 147 0
153 165 0
146 155 0
152 163 0
153 163 0
149 159 0
141 150 0
147 156 0
153 163 0
152 161 0
152 161 0
151 160 0
151 163 0
152 162 0
152 161 0
149 159 0
156 165 0
152 162 0
146 154 0
153 162 0
152 161 0
170 193 0
166 189 0
170 191 0
174 195 0
170 192 0
168 191 0
170 193 0
172 194 0
165 187 0
173 195 0
173 194 0
173 195 0
171 192 0
170 192 0
173 196 0
174 196 0
166 188 0
171 193 0
172 194 0
167 190 0
168 190 0
169 191 0
162 184 0
170 192 0
172 194 0
163 185 0
169 191 0
167 189 0
166 188 0
162 185 0
163 185 0
166 188 0
164 188 0
168 190 0
167 189 0
163 184 0
167 189 0
165 188 0
168 189 0
163 185 0
162 185 0
166 188 0
167 189 0
169 191 0
166 188 0
166 189 0
160 183 0
164 186 0
161 183 0
165 188 0
167 189 0
160 182 0
162 185 0
168 190 0
161 184 0
169 191 0
164 186 0
163 185 0
162 185 0
164 187 0
164 186 0
160 182 0
159 182 0
163 185 0
161 183 0
158 180 0
163 185 0
159 181 0
162 184 0
156 177 0
163 186 0
165 186 0
166 189 0
159 182 0
162 184 0
161 184 0
156 179 0
163 186 0
155 177 0
158 180 0
154 176 0
155 177 0
161 183 0
158 180 0
157 179 0
162 186 0
159 181 0
160 183 0
152 174 0
156 179 0
161 183 0
149 171 0
155 178 0
151 174 0
156 178 0
154 177 0
149 172 0
158 181 0
152 174 0
153 176 0
152 175 0
159 181 0
150 174 0
161 184 0
158 180 0
156 179 0
159 182 0
145 167 0
158 180 0
155 177 0
157 179 0
158 180 0
153 175 0
155 177 0
153 175 0
149 172 0
151 174 0
150 173 0
142 164 0
146 167 0
150 172 0
145 167 0
147 169 0
152 174 0
137 159 0
149 171 0
144 166 0
142 164 0
139 161 0
144 165 0
142 165 0
146 167 0
143 164 0
144 166 0
145 168 0
140 161 0
139 160 0
139 160 0
136 157 0
138 160 0
143 164 0
133 155 0
132 154 0
139 160 0
140 160 0
140 161 0
148 169 0
124 143 0
132 154 0
136 157 0
139 160 0
139 161 0
138 158 0
126 148 0
134 155 0
135 156 0
134 154 0
133 154 0
132 153 0
132 152 0
135 155 0
138 159 0
135 155 0
132 152 0
125 145 0
137 158 0
127 147 0
125 146 0
129 150 0
124 143 0
121 141 0
118 138 0
131 150 0
129 149 0
125 145 0
124 144 0
120 138 0
132 153 0
129 149 0
128 147 0
129 148 0
127 145 0
130 150 0
127 147 0
119 138 0
128 147 0
126 145 0
125 145 0
129 150 0
116 135 0
118 136 0
112 131 0
127 146 0
126 144 0
119 136 0
117 137 0
118 136 0
110 128 0
124 142 0
133 153 0
119 137 0
118 137 0
122 140 0
114 132 0
114 132 0
119 137 0
122 141 0
124 142 0
123 142 0
129 147 0
121 141 0
120 136 0
116 134 0
111 128 0
118 137 0
113 132 0
129 148 0
124 142 0
126 143 0
124 142 0
124 141 0
117 135 0
125 143 0
123 141 0
127 146 0
126 146 0
119 137 0
131 150 0
124 142 0
125 143 0
117 134 0
130 148 0
131 148 0
126 144 0
131 148 0
117 135 0
127 144 0
122 138 0
135 153 0
140 159 0
127 145 0
119 137 0
124 143 0
130 148 0
129 148 0
133 151 0
134 152 0
130 146 0
136 153 0
127 145 0
137 155 0
130 149 0
131 149 0
126 144 0
131 149 0
116 134 0
138 156 0
125 140 0
138 156 0
132 149 0
134 151 0
127 145 0
126 143 0
136 154 0
120 136 0
125 143 0
129 144 0
130 148 0
135 152 0
128 145 0
133 149 0
132 150 0
132 148 0
138 156 0
135 153 0
126 142 0
132 149 0
128 146 0
138 157 0
141 157 0
138 154 0
129 143 0
134 151 0
137 152 0
134 151 0
132 151 0
133 150 0
143 160 0
138 153 0
145 163 0
139 155 0
140 155 0
133 148 0
133 148 0
137 154 0
141 156 0
139 154 0
135 151 0
138 151 0
144 159 0
131 148 0
131 146 0
133 148 0
135 148 0
140 156 0
139 156 0
141 157 0
149 166 0
140 157 0
147 163 0
150 162 0
140 154 0
145 161 0
144 159 0
138 153 0
136 150 0
140 152 0
143 156 0
145 159 0
137 150 0
136 149 0
138 151 0
134 147 0
132 144 0
147 158 0
135 148 0
129 142 0
141 152 0
134 146 0
136 149 0
137 149 0
146 159 0
137 150 0
136 148 0
140 152 0
140 150 0
143 154 0
143 157 0
133 145 0
136 144 0
147 156 0
142 152 0
140 150 0
141 152 0
147 157 0
138 150 0
142 151 0
142 151 0
148 159 0
135 145 0
143 150 0
142 150 0
140 149 0
140 151 0
138 148 0
142 153 0
146 157 0
140 148 0
143 152 0
144 151 0
139 149 0
130 138 0
151 162 0
145 157 0
148 155 0
142 148 0
132 139 0
146 154 0
146 153 0
147 155 0
145 155 0
152 161 0
146 153 0
149 159 0
147 159 0
148 159 0
143 150 0
146 152 0
146 153 0
151 159 0
147 157 0
151 160 0
153 165 0
151 160 0
148 157 0
148 157 0
151 160 0
143 151 0
151 159 0
149 159 0
151 161 0
154 164 0
147 157 0
151 162 0
148 157 0
157 169 0
154 163 0
146 155 0
152 161 0
152 163 0
173 195 0
171 194 0
171 193 0
169 192 0
170 192 0
171 194 0
171 193 0
167 190 0
166 188 0
170 192 0
171 193 0
173 196 0
167 190 0
169 191 0
170 192 0
166 188 0
171 194 0
168 190 0
166 188 0
170 193 0
166 188 0
166 188 0
169 191 0
165 186 0
167 190 0
167 190 0
167 189 0
168 190 0
166 187 0
167 189 0
170 192 0
172 194 0
165 186 0
170 192 0
168 190 0
169 192 0
165 187 0
156 180 0
167 189 0
162 185 0
167 189 0
167 189 0
163 185 0
170 192 0
165 187 0
171 192 0
167 189 0
160 182 0
171 193 0
162 185 0
162 185 0
166 189 0
161 184 0
162 185 0
163 186 0
164 186 0
155 177 0
162 183 0
161 183 0
159 181 0
160 181 0
163 186 0
161 183 0
160 181 0
159 181 0
167 190 0
165 188 0
160 183 0
155 177 0
159 182 0
167 189 0
155 177 0
157 179 0
154 177 0
166 189 0
157 179 0
161 183 0
158 181 0
162 185 0
158 180 0
161 183 0
155 177 0
163 185 0
156 178 0
152 175 0
160 182 0
155 178 0
153 175 0
158 180 0
167 189 0
154 177 0
152 175 0
152 174 0
157 178 0
153 175 0
150 173 0
152 175 0
151 173 0
152 175 0
154 176 0
154 176 0
154 177 0
162 185 0
150 172 0
148 171 0
153 176 0
147 169 0
143 165 0
152 174 0
148 170 0
158 180 0
153 175 0
150 172 0
148 170 0
156 178 0
151 173 0
145 167 0
148 170 0
149 171 0
144 167 0
153 175 0
136 158 0
150 172 0
148 169 0
152 174 0
149 170 0
140 162 0
146 167 0
147 169 0
150 172 0
143 165 0
135 156 0
142 164 0
138 161 0
146 168 0
147 169 0
141 162 0
143 163 0
142 165 0
150 172 0
132 154 0
147 168 0
141 163 0
135 156 0
140 161 0
142 163 0
138 159 0
134 156 0
143 166 0
142 163 0
131 153 0
138 159 0
129 150 0
138 158 0
137 158 0
131 151 0
137 157 0
135 156 0
135 155 0
139 160 0
134 154 0
141 162 0
135 156 0
134 155 0
139 160 0
135 155 0
133 153 0
135 156 0
127 146 0
135 156 0
132 152 0
126 145 0
133 154 0
128 149 0
138 158 0
121 141 0
135 156 0
119 140 0
116 136 0
138 156 0
133 154 0
131 150 0
121 140 0
127 147 0
105 125 0
120 138 0
127 146 0
129 148 0
119 138 0
129 149 0
118 135 0
125 144 0
123 143 0
117 136 0
123 142 0
126 145 0
117 135 0
127 146 0
117 137 0
125 143 0
125 144 0
133 152 0
125 143 0
124 142 0
124 142 0
123 141 0
119 140 0
130 149 0
132 151 0
117 135 0
119 137 0
127 147 0
134 153 0
122 141 0
121 140 0
116 133 0
123 143 0
114 133 0
129 148 0
137 154 0
129 148 0
125 142 0
124 140 0
124 143 0
124 143 0
135 154 0
133 152 0
131 148 0
123 142 0
128 147 0
122 139 0
127 144 0
119 137 0
127 145 0
128 147 0
125 143 0
128 146 0
122 141 0
128 146 0
125 142 0
132 150 0
125 143 0
118 137 0
127 146 0
127 146 0
131 150 0
132 151 0
123 141 0
128 145 0
131 148 0
132 151 0
135 153 0
133 150 0
125 144 0
134 153 0
143 162 0
132 150 0
128 148 0
130 148 0
127 145 0
138 158 0
144 162 0
138 156 0
141 159 0
127 146 0
136 154 0
129 147 0
128 146 0
127 144 0
140 161 0
133 151 0
129 146 0
126 143 0
133 151 0
139 156 0
143 160 0
127 144 0
133 150 0
128 145 0
132 148 0
137 156 0
132 148 0
128 144 0
137 153 0
138 154 0
136 155 0
132 148 0
132 149 0
147 164 0
138 155 0
145 161 0
138 155 0
140 158 0
142 159 0
137 154 0
144 159 0
139 156 0
134 150 0
138 155 0
137 154 0
135 154 0
144 158 0
147 162 0
140 156 0
134 148 0
142 157 0
144 158 0
140 155 0
134 149 0
139 154 0
137 151 0
136 150 0
136 149 0
144 159 0
130 145 0
135 147 0
136 150 0
141 158 0
123 135 0
139 154 0
145 160 0
133 145 0
145 159 0
136 148 0
135 146 0
147 159 0
145 159 0
132 142 0
141 153 0
141 156 0
134 146 0
141 154 0
137 149 0
136 147 0
137 148 0
151 165 0
145 157 0
138 152 0
143 155 0
144 155 0
136 150 0
149 160 0
138 150 0
149 158 0
147 156 0
139 148 0
137 148 0
145 155 0
140 152 0
144 156 0
143 155 0
131 140 0
139 149 0
146 156 0
147 157 0
151 160 0
143 151 0
147 156 0
137 146 0
149 160 0
140 146 0
147 156 0
147 158 0
141 147 0
152 164 0
146 155 0
144 156 0
149 156 0
144 153 0
142 151 0
144 155 0
140 149 0
134 138 0
149 159 0
142 148 0
144 153 0
152 159 0
144 154 0
150 159 0
152 163 0
149 157 0
148 153 0
153 161 0
148 157 0
146 155 0
146 154 0
155 164 0
153 164 0
151 162 0
154 162 0
152 163 0
149 159 0
156 167 0
153 165 0
148 159 0
155 165 0
148 156 0
148 155 0
152 163 0
155 167 0
172 195 0
173 195 0
170 192 0
175 197 0
173 195 0
166 188 0
170 192 0
166 188 0
171 192 0
167 190 0
174 196 0
168 191 0
169 191 0
169 191 0
172 194 0
173 196 0
169 192 0
169 191 0
168 190 0
169 191 0
169 191 0
171 194 0
167 189 0
168 191 0
170 192 0
172 195 0
166 189 0
166 188 0
167 189 0
168 189 0
164 187 0
166 188 0
167 189 0
165 188 0
164 187 0
162 185 0
167 189 0
166 189 0
161 183 0
173 194 0
166 188 0
166 188 0
164 186 0
164 187 0
163 186 0
170 193 0
169 191 0
167 190 0
162 184 0
159 180 0
167 189 0
157 179 0
160 183 0
165 187 0
164 186 0
165 188 0
155 177 0
162 184 0
164 187 0
162 184 0
162 185 0
165 188 0
159 181 0
162 185 0
159 182 0
167 189 0
156 178 0
163 184 0
157 180 0
162 185 0
159 182 0
158 181 0
154 177 0
157 180 0
163 185 0
163 186 0
161 183 0
158 180 0
159 182 0
163 185 0
155 178 0
162 185 0
159 182 0
154 176 0
157 180 0
159 182 0
157 179 0
155 177 0
165 187 0
156 178 0
162 185 0
157 180 0
154 176 0
159 181 0
156 179 0
158 180 0
153 176 0
150 172 0
154 176 0
146 169 0
150 173 0
156 179 0
154 176 0
152 174 0
161 184 0
154 176 0
152 174 0
153 175 0
151 172 0
149 171 0
150 172 0
149 171 0
148 169 0
145 167 0
150 172 0
148 171 0
150 172 0
143 165 0
150 172 0
145 168 0
154 175 0
152 173 0
145 166 0
149 172 0
150 172 0
147 169 0
143 165 0
150 172 0
150 170 0
148 170 0
150 172 0
148 171 0
143 166 0
150 171 0
142 164 0
145 165 0
152 174 0
154 174 0
144 167 0
151 171 0
152 173 0
143 164 0
138 159 0
132 153 0
136 158 0
155 177 0
141 163 0
136 158 0
152 173 0
141 162 0
127 148 0
144 166 0
135 157 0
131 152 0
142 163 0
140 161 0
148 170 0
145 166 0
140 160 0
127 148 0
139 159 0
145 166 0
140 161 0
136 157 0
127 147 0
134 155 0
122 142 0
121 142 0
127 148 0
144 164 0
134 153 0
128 148 0
125 145 0
131 153 0
139 159 0
134 154 0
136 155 0
122 141 0
135 156 0
131 151 0
138 157 0
125 145 0
119 139 0
125 144 0
134 152 0
124 143 0
122 142 0
128 147 0
135 154 0
110 130 0
134 154 0
131 151 0
125 146 0
135 154 0
116 137 0
129 149 0
130 149 0
125 145 0
124 143 0
135 154 0
123 143 0
129 147 0
129 148 0
123 143 0
113 132 0
116 135 0
124 143 0
119 136 0
130 148 0
118 135 0
121 139 0
131 151 0
129 148 0
122 141 0
121 139 0
128 145 0
121 139 0
123 142 0
125 143 0
127 145 0
131 151 0
126 145 0
127 146 0
123 141 0
122 139 0
122 142 0
137 156 0
128 146 0
110 127 0
122 140 0
134 152 0
129 148 0
130 149 0
134 154 0
135 153 0
128 146 0
127 147 0
135 154 0
128 148 0
132 151 0
124 143 0
120 139 0
132 150 0
126 145 0
126 144 0
133 150 0
131 148 0
127 143 0
132 150 0
128 147 0
133 150 0
127 145 0
131 148 0
131 149 0
137 155 0
126 143 0
124 140 0
127 146 0
131 150 0
135 152 0
135 154 0
133 151 0
122 139 0
136 153 0
128 146 0
133 151 0
132 151 0
121 136 0
129 146 0
129 147 0
132 149 0
133 151 0
128 146 0
141 159 0
138 154 0
145 161 0
136 153 0
131 145 0
137 153 0
139 157 0
136 154 0
127 143 0
140 157 0
140 155 0
140 157 0
133 150 0
141 158 0
144 161 0
125 141 0
131 147 0
131 147 0
137 153 0
132 148 0
138 155 0
144 160 0
144 162 0
143 158 0
128 143 0
142 159 0
146 165 0
141 156 0
148 166 0
135 151 0
147 162 0
131 145 0
131 146 0
140 156 0
138 152 0
145 161 0
142 155 0
137 152 0
138 150 0
132 147 0
133 147 0
131 147 0
135 146 0
143 154 0
136 150 0
134 145 0
139 152 0
138 153 0
140 154 0
139 153 0
148 164 0
143 156 0
143 157 0
144 155 0
147 161 0
145 158 0
141 154 0
146 159 0
147 160 0
146 157 0
139 151 0
147 160 0
146 162 0
134 144 0
143 158 0
137 148 0
138 149 0
138 151 0
141 152 0
144 154 0
142 154 0
148 160 0
141 151 0
142 153 0
143 152 0
145 156 0
142 155 0
138 149 0
136 147 0
140 152 0
146 158 0
141 152 0
144 153 0
135 144 0
149 159 0
141 152 0
145 157 0
146 154 0
143 156 0
144 154 0
144 155 0
147 158 0
140 149 0
140 150 0
145 159 0
149 160 0
148 158 0
148 156 0
146 156 0
146 154 0
148 158 0
141 152 0
149 159 0
144 154 0
148 157 0
150 161 0
145 156 0
146 154 0
154 162 0
152 161 0
146 156 0
155 164 0
152 165 0
149 161 0
154 164 0
154 164 0
154 165 0
155 165 0
149 161 0
153 163 0
155 166 0
149 159 0
155 166 0
156 167 0
155 164 0
149 159 0
152 162 0
171 193 0
166 189 0
173 196 0
170 192 0
168 190 0
172 194 0
174 196 0
171 193 0
167 190 0
172 194 0
171 194 0
170 192 0
169 191 0
165 188 0
172 194 0
169 192 0
166 188 0
167 190 0
172 194 0
168 190 0
167 189 0
166 189 0
169 191 0
168 191 0
166 189 0
168 191 0
163 185 0
169 191 0
162 185 0
164 187 0
170 192 0
169 191 0
165 188 0
161 184 0
161 182 0
166 189 0
165 187 0
168 191 0
167 190 0
167 190 0
161 185 0
155 177 0
167 189 0
164 187 0
168 190 0
162 184 0
159 181 0
161 184 0
164 186 0
162 184 0
166 188 0
157 180 0
166 187 0
164 186 0
168 190 0
161 184 0
163 186 0
168 191 0
160 182 0
164 187 0
162 184 0
168 190 0
163 186 0
159 181 0
158 181 0
155 180 0
164 187 0
153 175 0
158 180 0
161 184 0
160 182 0
158 180 0
158 180 0
158 179 0
156 178 0
159 182 0
156 179 0
162 184 0
153 176 0
158 180 0
162 184 0
149 173 0
157 179 0
160 182 0
164 187 0
157 180 0
155 178 0
156 178 0
161 184 0
157 180 0
153 176 0
159 182 0
155 177 0
160 183 0
157 180 0
155 178 0
156 178 0
164 186 0
151 173 0
158 181 0
149 171 0
156 178 0
153 176 0
149 171 0
145 168 0
153 175 0
157 180 0
145 168 0
147 171 0
152 174 0
150 173 0
146 168 0
149 171 0
153 176 0
149 172 0
145 167 0
149 170 0
141 163 0
154 176 0
157 180 0
153 175 0
150 172 0
143 165 0
150 172 0
147 169 0
154 176 0
146 167 0
153 175 0
142 165 0
148 169 0
153 176 0
148 170 0
146 167 0
148 170 0
142 165 0
152 174 0
142 165 0
143 164 0
143 164 0
141 163 0
147 169 0
145 167 0
133 154 0
136 158 0
140 162 0
138 159 0
137 159 0
143 164 0
139 160 0
132 152 0
139 160 0
140 161 0
125 146 0
129 150 0
135 156 0
137 157 0
136 156 0
130 151 0
143 164 0
135 156 0
137 157 0
135 154 0
138 158 0
128 148 0
137 157 0
144 164 0
130 149 0
126 146 0
142 163 0
131 152 0
133 154 0
132 151 0
132 153 0
135 156 0
129 150 0
131 151 0
138 159 0
139 158 0
116 134 0
125 144 0
126 146 0
127 148 0
136 156 0
122 142 0
120 139 0
121 141 0
128 147 0
127 146 0
130 150 0
124 144 0
130 150 0
136 155 0
119 139 0
124 143 0
125 143 0
124 144 0
131 152 0
126 145 0
124 143 0
132 151 0
103 123 0
123 142 0
126 146 0
133 153 0
120 140 0
130 150 0
129 148 0
121 139 0
126 145 0
124 143 0
123 143 0
127 146 0
122 141 0
118 139 0
123 141 0
119 137 0
123 141 0
125 143 0
125 145 0
133 152 0
131 149 0
119 135 0
125 144 0
129 147 0
116 133 0
125 144 0
127 147 0
121 139 0
122 141 0
136 155 0
136 155 0
123 141 0
127 145 0
118 137 0
126 145 0
124 142 0
131 149 0
123 140 0
127 146 0
127 145 0
129 147 0
126 144 0
136 154 0
132 150 0
123 140 0
136 154 0
129 147 0
134 151 0
129 148 0
136 154 0
136 155 0
127 145 0
133 150 0
130 148 0
131 149 0
129 148 0
130 149 0
137 156 0
135 155 0
129 148 0
130 148 0
137 156 0
125 143 0
131 150 0
136 153 0
137 155 0
139 155 0
129 143 0
137 154 0
132 149 0
141 159 0
137 154 0
139 158 0
144 163 0
137 154 0
138 156 0
138 153 0
135 152 0
140 157 0
132 149 0
143 160 0
140 159 0
136 153 0
139 158 0
134 153 0
132 148 0
138 155 0
143 161 0
136 152 0
138 154 0
141 157 0
143 160 0
141 157 0
136 153 0
137 155 0
134 149 0
137 155 0
135 151 0
129 145 0
141 158 0
141 158 0
133 148 0
143 160 0
140 158 0
145 163 0
147 164 0
138 152 0
136 151 0
133 147 0
134 149 0
139 152 0
140 155 0
142 157 0
133 147 0
134 145 0
141 156 0
149 165 0
151 164 0
138 149 0
145 160 0
140 156 0
147 160 0
143 160 0
138 153 0
135 150 0
139 152 0
140 154 0
137 151 0
137 148 0
139 153 0
146 160 0
140 153 0
134 147 0
145 158 0
138 147 0
143 155 0
143 156 0
136 148 0
147 159 0
141 154 0
142 154 0
144 154 0
141 153 0
153 167 0
145 158 0
140 149 0
141 152 0
143 155 0
139 151 0
140 152 0
149 157 0
146 158 0
144 157 0
138 151 0
146 155 0
151 164 0
138 149 0
137 147 0
141 149 0
146 157 0
141 154 0
141 153 0
151 163 0
143 155 0
149 160 0
147 157 0
145 156 0
149 157 0
153 164 0
143 155 0
144 154 0
142 150 0
141 149 0
140 149 0
149 160 0
147 158 0
146 158 0
147 157 0
153 167 0
142 150 0
148 158 0
147 155 0
146 157 0
156 165 0
148 157 0
150 158 0
148 160 0
149 158 0
151 162 0
151 162 0
147 156 0
149 160 0
152 163 0
150 161 0
153 163 0
154 167 0
156 167 0
148 160 0
149 160 0
151 160 0
169 192 0
167 190 0
169 192 0
168 191 0
170 192 0
170 193 0
171 193 0
171 193 0
166 188 0
173 195 0
169 193 0
170 192 0
168 191 0
168 190 0
168 190 0
164 187 0
169 191 0
170 193 0
163 185 0
170 193 0
165 188 0
171 193 0
166 188 0
163 185 0
166 188 0
167 189 0
165 187 0
170 194 0
172 194 0
166 189 0
164 187 0
169 191 0
169 191 0
167 189 0
166 188 0
168 191 0
160 182 0
168 191 0
167 190 0
163 186 0
168 190 0
168 190 0
168 191 0
161 184 0
164 187 0
157 179 0
161 184 0
157 178 0
168 190 0
163 185 0
165 188 0
162 185 0
165 188 0
156 179 0
164 186 0
164 187 0
164 186 0
163 186 0
167 190 0
152 175 0
162 184 0
161 183 0
163 186 0
159 182 0
164 186 0
162 185 0
158 181 0
155 177 0
155 177 0
160 181 0
161 183 0
159 182 0
154 177 0
162 184 0
163 186 0
156 178 0
157 179 0
155 178 0
164 187 0
158 181 0
162 184 0
158 180 0
161 184 0
160 183 0
155 178 0
164 186 0
158 181 0
163 184 0
159 182 0
150 172 0
160 182 0
160 182 0
159 181 0
157 180 0
153 176 0
157 179 0
153 176 0
154 177 0
160 183 0
150 172 0
154 176 0
160 183 0
154 176 0
154 176 0
151 173 0
156 179 0
157 179 0
145 166 0
157 181 0
151 173 0
153 175 0
152 175 0
157 179 0
158 181 0
147 169 0
149 172 0
153 176 0
153 175 0
155 178 0
146 167 0
148 169 0
159 181 0
146 168 0
149 171 0
154 175 0
142 164 0
149 171 0
136 158 0
150 172 0
143 164 0
148 171 0
144 166 0
139 161 0
147 169 0
142 163 0
150 171 0
147 169 0
146 166 0
141 162 0
151 174 0
137 158 0
142 163 0
138 158 0
148 170 0
152 174 0
141 162 0
141 163 0
142 163 0
142 163 0
139 160 0
138 160 0
148 169 0
144 165 0
129 150 0
142 163 0
144 166 0
127 149 0
146 167 0
138 159 0
139 159 0
141 163 0
136 156 0
133 154 0
127 147 0
141 161 0
131 151 0
137 157 0
143 163 0
136 157 0
133 154 0
139 159 0
136 156 0
123 143 0
128 148 0
131 151 0
125 145 0
129 148 0
125 145 0
136 157 0
139 158 0
136 156 0
124 145 0
133 153 0
125 145 0
132 152 0
130 150 0
127 147 0
125 143 0
127 145 0
131 150 0
136 155 0
133 153 0
126 146 0
136 153 0
124 141 0
136 156 0
127 147 0
121 139 0
123 144 0
133 151 0
125 144 0
126 145 0
117 135 0
134 152 0
127 147 0
127 146 0
128 147 0
119 137 0
140 160 0
125 145 0
119 138 0
123 143 0
122 140 0
120 139 0
119 136 0
133 153 0
129 148 0
126 144 0
138 157 0
118 137 0
130 150 0
125 143 0
134 153 0
125 144 0
120 138 0
122 139 0
120 139 0
123 141 0
129 147 0
133 151 0
132 152 0
133 152 0
131 149 0
128 146 0
125 145 0
125 142 0
126 143 0
135 155 0
140 159 0
133 151 0
131 151 0
124 144 0
132 150 0
128 147 0
121 140 0
134 152 0
128 144 0
128 147 0
133 152 0
139 158 0
131 150 0
117 134 0
130 150 0
132 151 0
122 138 0
142 162 0
129 147 0
131 149 0
129 146 0
137 157 0
124 141 0
140 159 0
136 154 0
135 153 0
139 157 0
139 156 0
128 145 0
140 159 0
136 153 0
131 151 0
139 157 0
132 150 0
137 155 0
137 155 0
135 154 0
141 160 0
135 154 0
133 150 0
139 157 0
133 150 0
128 146 0
139 156 0
131 146 0
139 156 0
132 150 0
130 148 0
130 148 0
135 152 0
144 160 0
138 153 0
136 154 0
128 144 0
141 158 0
150 168 0
142 160 0
136 153 0
136 152 0
131 146 0
126 142 0
140 156 0
148 166 0
143 158 0
146 163 0
144 160 0
132 146 0
138 155 0
135 150 0
140 156 0
147 162 0
138 155 0
142 157 0
145 162 0
134 149 0
141 156 0
142 157 0
142 155 0
141 155 0
142 159 0
153 169 0
148 163 0
143 159 0
143 158 0
144 159 0
143 159 0
135 151 0
142 156 0
132 145 0
146 162 0
140 154 0
138 153 0
142 155 0
148 161 0
145 156 0
143 155 0
142 156 0
146 159 0
137 150 0
136 147 0
140 151 0
145 159 0
146 162 0
144 156 0
143 157 0
143 156 0
146 161 0
135 144 0
148 159 0
136 148 0
138 149 0
142 154 0
143 154 0
150 164 0
146 158 0
147 159 0
146 157 0
143 153 0
148 160 0
142 154 0
149 161 0
148 159 0
138 148 0
141 148 0
143 154 0
148 160 0
140 148 0
142 153 0
147 157 0
151 162 0
146 156 0
152 164 0
156 167 0
152 165 0
142 152 0
143 152 0
153 162 0
148 158 0
156 170 0
151 162 0
150 163 0
146 155 0
145 153 0
148 159 0
153 163 0
149 160 0
148 158 0
150 162 0
151 163 0
146 155 0
151 162 0
153 165 0
148 159 0
145 156 0
152 163 0
148 157 0
146 155 0
147 155 0
153 162 0
148 156 0
150 160 0
150 159 0
170 192 0
168 191 0
169 191 0
165 188 0
168 190 0
171 193 0
170 192 0
169 191 0
168 190 0
171 193 0
170 192 0
173 196 0
169 191 0
170 193 0
172 195 0
164 187 0
173 194 0
171 193 0
167 190 0
169 192 0
168 190 0
166 189 0
163 185 0
166 189 0
164 186 0
169 190 0
167 189 0
166 188 0
170 192 0
167 189 0
165 186 0
172 194 0
168 190 0
165 187 0
160 182 0
167 189 0
166 188 0
170 192 0
162 184 0
167 189 0
161 184 0
162 184 0
167 189 0
160 182 0
162 185 0
166 188 0
165 187 0
166 187 0
164 186 0
168 191 0
162 185 0
166 190 0
166 187 0
162 185 0
159 182 0
164 187 0
160 183 0
159 182 0
165 187 0
156 178 0
165 188 0
162 184 0
157 180 0
158 181 0
159 182 0
161 184 0
159 180 0
164 186 0
159 182 0
158 181 0
162 184 0
161 184 0
161 183 0
159 181 0
154 177 0
157 179 0
157 179 0
157 180 0
154 176 0
157 180 0
152 174 0
161 184 0
161 183 0
159 181 0
159 181 0
156 178 0
151 174 0
163 184 0
153 175 0
150 173 0
161 184 0
144 167 0
160 182 0
162 185 0
155 177 0
158 180 0
159 181 0
155 178 0
154 177 0
155 178 0
155 177 0
158 179 0
152 174 0
152 175 0
152 175 0
155 178 0
152 174 0
152 175 0
153 175 0
156 178 0
151 172 0
156 178 0
155 178 0
151 174 0
153 175 0
144 167 0
157 180 0
153 175 0
152 175 0
150 173 0
142 164 0
150 172 0
142 164 0
148 170 0
145 166 0
147 170 0
150 172 0
138 159 0
142 162 0
140 162 0
153 176 0
156 179 0
145 167 0
147 169 0
133 154 0
148 170 0
154 175 0
142 165 0
143 164 0
137 161 0
145 167 0
143 164 0
142 163 0
136 157 0
139 162 0
141 162 0
139 160 0
148 170 0
138 160 0
138 160 0
140 162 0
135 156 0
132 153 0
144 165 0
144 165 0
136 157 0
146 167 0
140 162 0
133 152 0
134 154 0
133 154 0
148 169 0
138 159 0
138 159 0
137 157 0
137 158 0
139 159 0
126 147 0
132 152 0
135 155 0
133 153 0
136 156 0
143 163 0
132 152 0
133 153 0
127 147 0
130 149 0
121 140 0
128 149 0
137 157 0
130 149 0
123 142 0
139 160 0
132 152 0
138 157 0
124 144 0
129 149 0
132 151 0
131 151 0
136 155 0
129 148 0
131 151 0
116 134 0
124 144 0
124 143 0
123 142 0
123 141 0
119 139 0
127 146 0
128 148 0
123 143 0
118 137 0
134 154 0
134 154 0
140 160 0
126 145 0
115 134 0
118 137 0
135 155 0
123 141 0
127 146 0
127 146 0
118 136 0
124 143 0
141 160 0
128 149 0
133 152 0
139 160 0
129 148 0
138 157 0
135 154 0
135 154 0
131 151 0
125 143 0
127 147 0
129 148 0
123 142 0
137 156 0
129 148 0
121 140 0
121 140 0
122 142 0
121 140 0
130 148 0
133 152 0
128 147 0
131 150 0
133 151 0
126 144 0
127 148 0
133 152 0
134 154 0
134 152 0
131 151 0
130 147 0
128 147 0
130 146 0
126 143 0
136 155 0
140 159 0
130 150 0
137 156 0
138 157 0
131 149 0
135 153 0
129 149 0
131 150 0
139 158 0
126 144 0
128 148 0
132 150 0
138 156 0
140 160 0
136 153 0
136 154 0
141 161 0
136 154 0
140 156 0
141 161 0
135 151 0
139 157 0
125 142 0
139 158 0
140 157 0
127 145 0
132 149 0
138 154 0
135 153 0
134 152 0
137 155 0
136 155 0
131 148 0
140 159 0
135 152 0
133 149 0
135 151 0
150 166 0
137 154 0
136 152 0
133 149 0
133 149 0
142 158 0
136 152 0
136 154 0
137 151 0
137 154 0
150 168 0
152 170 0
137 155 0
135 151 0
141 157 0
143 161 0
141 156 0
140 156 0
143 161 0
139 152 0
136 153 0
145 159 0
141 156 0
143 158 0
152 169 0
142 157 0
141 157 0
147 164 0
150 165 0
133 148 0
140 154 0
144 160 0
148 162 0
142 159 0
137 150 0
145 160 0
145 157 0
137 151 0
141 155 0
140 154 0
145 160 0
139 153 0
147 163 0
135 146 0
147 162 0
143 157 0
137 149 0
149 162 0
146 162 0
144 159 0
140 155 0
142 155 0
145 160 0
144 157 0
153 167 0
152 165 0
140 153 0
140 157 0
142 153 0
141 152 0
147 159 0
136 147 0
134 146 0
142 154 0
147 160 0
138 150 0
145 154 0
149 159 0
144 154 0
146 156 0
146 160 0
142 153 0
136 147 0
148 162 0
145 155 0
139 147 0
144 155 0
149 159 0
145 155 0
146 158 0
143 156 0
151 161 0
141 151 0
152 163 0
151 159 0
141 150 0
142 150 0
151 164 0
143 154 0
143 153 0
144 154 0
143 156 0
154 165 0
144 152 0
144 155 0
152 162 0
145 152 0
145 153 0
153 164 0
155 167 0
147 157 0
144 155 0
148 157 0
152 163 0
145 155 0
151 162 0
151 161 0
156 168 0
148 156 0
149 158 0
144 154 0
150 160 0
153 163 0
153 163 0
168 190 0
171 194 0
166 189 0
166 189 0
169 191 0
172 194 0
170 192 0
167 190 0
167 190 0
169 192 0
169 192 0
172 194 0
166 189 0
165 187 0
165 187 0
163 185 0
164 186 0
167 190 0
167 189 0
170 191 0
172 194 0
166 190 0
171 194 0
166 189 0
167 191 0
165 187 0
168 190 0
164 185 0
164 186 0
164 187 0
164 187 0
160 184 0
166 188 0
163 185 0
163 186 0
163 185 0
165 187 0
170 193 0
161 183 0
167 190 0
161 183 0
164 187 0
160 183 0
161 184 0
161 183 0
166 188 0
165 187 0
164 187 0
164 187 0
159 181 0
164 187 0
166 188 0
161 183 0
169 192 0
165 188 0
163 185 0
161 183 0
162 184 0
165 187 0
160 182 0
162 185 0
160 183 0
159 181 0
157 181 0
157 180 0
163 186 0
157 180 0
160 182 0
158 182 0
161 183 0
165 188 0
161 183 0
161 183 0
158 181 0
158 180 0
159 181 0
161 184 0
161 184 0
161 184 0
160 182 0
165 187 0
158 180 0
155 177 0
157 180 0
159 181 0
157 180 0
154 177 0
155 177 0
148 171 0
159 182 0
158 181 0
148 171 0
154 175 0
159 182 0
146 169 0
155 178 0
152 174 0
153 175 0
159 181 0
158 181 0
151 172 0
155 177 0
143 165 0
148 170 0
163 185 0
147 169 0
156 179 0
146 169 0
150 172 0
153 176 0
146 169 0
159 180 0
152 174 0
159 180 0
154 176 0
152 175 0
156 177 0
141 164 0
158 181 0
147 168 0
147 169 0
155 178 0
149 173 0
149 169 0
153 174 0
150 173 0
146 168 0
152 174 0
137 158 0
145 168 0
145 167 0
142 163 0
153 175 0
153 174 0
147 168 0
141 163 0
145 167 0
142 164 0
149 171 0
131 152 0
142 164 0
137 160 0
139 159 0
143 164 0
146 168 0
143 166 0
133 154 0
142 163 0
138 158 0
136 158 0
141 162 0
127 148 0
140 161 0
136 158 0
139 160 0
144 166 0
139 159 0
137 157 0
137 158 0
134 155 0
131 152 0
135 155 0
130 150 0
136 157 0
129 150 0
136 156 0
134 155 0
144 165 0
131 151 0
129 150 0
144 165 0
138 159 0
127 148 0
131 151 0
133 155 0
140 160 0
137 157 0
135 155 0
136 155 0
126 146 0
130 151 0
128 147 0
129 150 0
132 153 0
134 154 0
124 143 0
124 144 0
136 157 0
140 161 0
131 151 0
121 141 0
126 146 0
131 151 0
144 164 0
122 142 0
126 146 0
135 154 0
131 151 0
126 144 0
133 152 0
133 154 0
127 146 0
128 147 0
117 137 0
127 146 0
122 142 0
132 152 0
132 151 0
119 138 0
132 152 0
128 147 0
128 147 0
139 158 0
127 145 0
132 152 0
128 147 0
137 158 0
128 147 0
122 140 0
133 153 0
122 140 0
117 135 0
131 150 0
118 138 0
128 147 0
133 152 0
126 145 0
129 147 0
131 150 0
128 146 0
136 155 0
129 149 0
121 142 0
121 140 0
130 150 0
119 137 0
131 149 0
130 151 0
145 164 0
132 151 0
133 152 0
131 150 0
124 142 0
131 150 0
137 155 0
130 149 0
147 166 0
122 139 0
126 145 0
135 155 0
135 155 0
137 156 0
130 148 0
125 144 0
134 153 0
143 161 0
136 155 0
134 153 0
136 155 0
132 148 0
141 160 0
140 159 0
135 152 0
134 153 0
125 143 0
140 159 0
135 153 0
134 152 0
141 158 0
144 163 0
130 147 0
133 150 0
128 146 0
137 155 0
149 168 0
125 143 0
144 164 0
134 153 0
136 155 0
138 156 0
139 158 0
144 164 0
146 165 0
143 161 0
145 161 0
134 151 0
140 157 0
145 163 0
144 161 0
136 152 0
139 156 0
141 158 0
139 155 0
151 168 0
138 155 0
132 150 0
138 156 0
142 159 0
134 151 0
141 157 0
136 154 0
140 155 0
131 145 0
141 157 0
144 160 0
144 160 0
143 159 0
138 156 0
143 162 0
147 165 0
145 161 0
137 153 0
142 158 0
137 151 0
143 158 0
152 168 0
144 158 0
144 158 0
144 158 0
149 165 0
141 156 0
146 163 0
150 165 0
145 160 0
131 147 0
143 160 0
145 160 0
138 153 0
145 159 0
137 150 0
141 155 0
149 163 0
135 150 0
134 147 0
143 156 0
142 156 0
141 154 0
142 155 0
135 148 0
145 158 0
143 159 0
153 165 0
142 155 0
139 152 0
145 160 0
141 153 0
143 155 0
154 166 0
145 158 0
151 167 0
143 154 0
136 148 0
139 149 0
143 155 0
140 151 0
151 164 0
141 153 0
145 158 0
149 159 0
151 161 0
150 160 0
147 157 0
147 159 0
144 155 0
140 151 0
147 162 0
145 158 0
144 154 0
144 156 0
152 164 0
149 160 0
156 166 0
150 162 0
142 151 0
148 158 0
150 162 0
143 153 0
140 152 0
150 162 0
152 164 0
148 157 0
148 158 0
142 152 0
147 156 0
145 156 0
150 159 0
147 159 0
149 160 0
145 155 0
152 163 0
148 157 0
147 159 0
148 157 0
147 157 0
153 163 0
153 163 0
147 155 0
151 161 0
144 152 0
155 168 0
169 192 0
167 190 0
168 190 0
164 188 0
166 189 0
170 193 0
173 195 0
166 188 0
165 187 0
168 191 0
164 187 0
174 196 0
167 190 0
170 192 0
165 187 0
166 188 0
169 192 0
165 187 0
165 187 0
169 191 0
168 191 0
161 183 0
166 189 0
169 191 0
168 191 0
169 192 0
163 186 0
164 186 0
168 191 0
165 188 0
164 187 0
168 191 0
165 187 0
165 188 0
167 190 0
163 186 0
171 193 0
160 183 0
166 189 0
169 192 0
163 186 0
164 187 0
164 186 0
163 186 0
164 188 0
159 181 0
160 183 0
165 188 0
163 186 0
165 188 0
164 186 0
160 183 0
161 184 0
165 187 0
158 181 0
162 183 0
168 190 0
164 188 0
155 177 0
166 188 0
157 181 0
162 185 0
164 188 0
159 181 0
161 183 0
156 179 0
162 184 0
160 183 0
159 181 0
155 178 0
157 180 0
156 178 0
161 184 0
153 176 0
157 180 0
155 177 0
161 183 0
157 179 0
161 183 0
158 181 0
156 178 0
156 179 0
150 173 0
152 175 0
153 176 0
159 181 0
151 174 0
159 182 0
160 182 0
159 180 0
156 179 0
159 182 0
154 176 0
156 179 0
151 173 0
165 188 0
159 181 0
149 172 0
145 168 0
157 179 0
156 179 0
152 174 0
151 173 0
158 181 0
149 171 0
155 177 0
143 165 0
151 174 0
154 176 0
153 175 0
148 170 0
154 176 0
153 174 0
149 172 0
152 175 0
149 170 0
149 171 0
153 175 0
147 170 0
154 177 0
145 168 0
150 173 0
141 162 0
143 164 0
141 161 0
145 167 0
149 171 0
147 169 0
147 169 0
146 167 0
150 173 0
147 169 0
140 161 0
143 165 0
147 168 0
140 161 0
148 170 0
149 172 0
144 166 0
141 163 0
154 175 0
139 161 0
145 166 0
143 164 0
140 162 0
146 168 0
142 163 0
145 167 0
143 164 0
143 164 0
143 164 0
139 161 0
146 168 0
146 167 0
141 162 0
146 167 0
142 163 0
139 160 0
139 160 0
133 152 0
132 152 0
140 159 0
142 164 0
136 157 0
135 155 0
135 155 0
137 158 0
139 160 0
135 155 0
139 160 0
130 150 0
145 166 0
127 147 0
136 157 0
130 149 0
132 152 0
128 148 0
140 159 0
132 153 0
132 153 0
128 148 0
126 146 0
126 146 0
122 142 0
135 154 0
135 155 0
133 153 0
130 150 0
129 148 0
128 148 0
135 155 0
133 152 0
133 153 0
131 151 0
131 150 0
124 144 0
133 153 0
128 148 0
131 151 0
124 143 0
124 143 0
135 154 0
134 153 0
132 152 0
123 142 0
128 148 0
134 154 0
122 142 0
118 138 0
126 146 0
124 143 0
132 151 0
125 145 0
128 147 0
131 151 0
122 142 0
122 141 0
124 143 0
135 155 0
128 147 0
128 148 0
128 147 0
129 149 0
126 145 0
132 150 0
126 147 0
131 151 0
139 159 0
128 149 0
131 150 0
124 144 0
135 154 0
126 145 0
124 143 0
128 147 0
131 151 0
128 147 0
126 145 0
131 150 0
133 152 0
136 156 0
135 154 0
134 153 0
133 152 0
132 151 0
133 152 0
130 147 0
121 137 0
141 160 0
133 152 0
131 149 0
126 145 0
132 150 0
139 158 0
139 157 0
130 149 0
135 154 0
140 161 0
134 151 0
128 146 0
136 155 0
135 153 0
134 152 0
134 152 0
140 159 0
130 148 0
136 155 0
135 154 0
125 143 0
137 153 0
140 158 0
134 153 0
145 166 0
145 164 0
139 155 0
141 159 0
138 157 0
142 160 0
140 156 0
136 154 0
135 154 0
132 148 0
137 156 0
135 152 0
137 151 0
141 159 0
139 156 0
131 149 0
144 163 0
130 148 0
134 149 0
138 153 0
130 144 0
136 154 0
143 162 0
147 165 0
144 163 0
129 146 0
143 160 0
137 154 0
142 160 0
142 159 0
142 159 0
155 174 0
149 166 0
146 163 0
140 158 0
149 167 0
149 167 0
147 166 0
147 164 0
149 166 0
143 159 0
139 153 0
137 153 0
138 150 0
143 159 0
147 161 0
134 149 0
145 160 0
136 152 0
145 161 0
144 160 0
147 161 0
133 145 0
141 156 0
153 168 0
140 154 0
139 155 0
147 162 0
140 156 0
147 162 0
142 158 0
134 147 0
149 163 0
156 174 0
143 157 0
140 153 0
145 159 0
148 160 0
143 158 0
152 166 0
149 164 0
147 161 0
147 161 0
149 162 0
147 158 0
152 165 0
147 158 0
139 153 0
145 160 0
149 163 0
143 155 0
133 143 0
145 160 0
154 166 0
142 152 0
145 158 0
148 161 0
145 157 0
146 160 0
150 164 0
143 153 0
149 163 0
146 158 0
148 159 0
148 161 0
151 164 0
151 163 0
149 164 0
150 163 0
151 163 0
144 156 0
141 151 0
151 164 0
146 155 0
147 158 0
139 151 0
143 155 0
150 162 0
147 158 0
147 158 0
146 154 0
150 161 0
159 173 0
147 159 0
150 162 0
151 162 0
154 164 0
149 160 0
148 158 0
146 158 0
158 170 0
157 166 0
152 163 0
152 161 0
156 168 0
153 164 0
158 170 0
154 165 0
171 193 0
166 189 0
170 192 0
170 193 0
169 191 0
163 186 0
169 191 0
166 189 0
165 187 0
169 192 0
166 188 0
169 192 0
167 190 0
167 190 0
167 189 0
165 188 0
169 192 0
170 192 0
163 186 0
160 182 0
167 189 0
168 190 0
173 195 0
166 189 0
165 187 0
170 192 0
169 192 0
164 187 0
170 192 0
164 186 0
167 190 0
165 188 0
170 192 0
164 187 0
162 184 0
162 184 0
167 190 0
166 189 0
169 191 0
161 184 0
165 188 0
158 181 0
164 186 0
162 185 0
157 180 0
163 185 0
164 187 0
162 185 0
167 190 0
167 189 0
164 186 0
162 185 0
157 179 0
163 187 0
161 183 0
160 182 0
167 190 0
160 183 0
157 180 0
159 182 0
166 189 0
164 186 0
164 187 0
160 183 0
162 184 0
157 179 0
160 182 0
156 179 0
163 185 0
162 186 0
161 184 0
160 183 0
160 184 0
157 180 0
154 177 0
159 181 0
156 179 0
159 183 0
163 185 0
164 186 0
160 182 0
163 186 0
150 173 0
156 178 0
158 179 0
160 181 0
154 177 0
156 179 0
156 178 0
155 177 0
151 173 0
152 174 0
162 184 0
148 170 0
155 178 0
154 176 0
156 179 0
147 170 0
149 172 0
146 168 0
155 178 0
147 169 0
156 179 0
147 169 0
154 177 0
149 172 0
150 172 0
151 173 0
150 172 0
149 172 0
157 180 0
147 169 0
154 176 0
152 174 0
154 175 0
139 161 0
156 178 0
145 167 0
137 159 0
150 173 0
150 173 0
142 165 0
143 165 0
153 176 0
150 173 0
149 172 0
141 163 0
148 170 0
150 172 0
141 162 0
147 169 0
142 164 0
135 157 0
148 171 0
145 167 0
152 173 0
144 166 0
151 173 0
137 159 0
138 159 0
152 175 0
140 162 0
143 165 0
153 174 0
154 175 0
139 161 0
152 172 0
137 158 0
136 158 0
144 166 0
139 161 0
140 161 0
141 163 0
143 165 0
139 161 0
141 161 0
132 154 0
141 162 0
141 163 0
132 153 0
135 157 0
142 163 0
137 158 0
146 168 0
130 151 0
138 158 0
127 147 0
140 161 0
133 154 0
132 153 0
133 154 0
139 158 0
131 152 0
142 163 0
136 157 0
133 153 0
131 151 0
122 141 0
134 154 0
133 153 0
144 165 0
133 154 0
127 146 0
127 147 0
126 145 0
135 156 0
128 148 0
133 155 0
138 158 0
134 153 0
134 154 0
134 153 0
122 142 0
134 154 0
133 153 0
132 152 0
135 156 0
134 154 0
136 156 0
134 155 0
119 136 0
119 138 0
131 149 0
136 156 0
128 147 0
116 135 0
134 154 0
128 147 0
129 149 0
136 155 0
129 149 0
131 151 0
123 143 0
130 150 0
132 151 0
129 149 0
133 153 0
138 158 0
132 151 0
121 141 0
136 156 0
131 150 0
130 148 0
132 151 0
123 141 0
122 143 0
129 149 0
132 151 0
136 155 0
139 157 0
128 147 0
124 143 0
130 149 0
127 146 0
141 161 0
129 148 0
142 162 0
134 152 0
133 152 0
123 141 0
135 155 0
131 150 0
137 156 0
137 157 0
128 148 0
135 153 0
120 138 0
131 152 0
130 151 0
140 159 0
138 157 0
129 148 0
141 160 0
137 156 0
134 152 0
142 162 0
134 153 0
136 156 0
133 149 0
130 147 0
131 148 0
135 155 0
141 159 0
136 154 0
137 157 0
138 156 0
132 148 0
142 160 0
152 170 0
125 142 0
143 163 0
140 158 0
139 158 0
140 157 0
148 167 0
141 161 0
131 149 0
137 156 0
138 157 0
140 156 0
147 166 0
143 162 0
135 153 0
128 145 0
135 152 0
151 169 0
131 149 0
140 159 0
141 159 0
137 155 0
143 159 0
142 160 0
126 143 0
135 150 0
146 164 0
145 162 0
139 156 0
144 162 0
136 154 0
141 158 0
141 158 0
141 159 0
145 163 0
145 162 0
141 158 0
137 155 0
136 152 0
142 161 0
141 160 0
137 154 0
141 158 0
148 165 0
130 145 0
144 161 0
143 158 0
144 159 0
144 160 0
146 162 0
144 159 0
138 155 0
144 160 0
143 159 0
143 159 0
148 164 0
148 163 0
144 160 0
137 150 0
148 163 0
150 165 0
145 160 0
150 164 0
146 161 0
143 158 0
143 159 0
145 162 0
136 150 0
146 162 0
148 162 0
143 157 0
142 156 0
149 164 0
139 153 0
152 164 0
148 161 0
142 153 0
144 157 0
149 162 0
152 165 0
139 152 0
156 168 0
150 163 0
149 164 0
145 156 0
141 153 0
151 163 0
141 153 0
151 165 0
143 155 0
150 162 0
144 157 0
146 157 0
150 162 0
152 163 0
146 158 0
145 155 0
147 157 0
148 161 0
139 150 0
143 154 0
147 158 0
145 157 0
141 151 0
140 149 0
140 149 0
150 161 0
149 158 0
146 158 0
144 158 0
149 159 0
152 163 0
155 167 0
151 162 0
154 168 0
154 165 0
149 157 0
155 166 0
151 165 0
151 164 0
151 162 0
153 164 0
153 163 0
153 164 0
155 168 0
152 162 0
151 160 0
153 167 0
156 168 0
152 162 0
155 169 0
154 168 0
168 191 0
166 189 0
167 189 0
166 188 0
167 190 0
172 194 0
170 193 0
165 188 0
169 192 0
167 189 0
168 190 0
161 183 0
160 182 0
169 191 0
162 184 0
167 190 0
163 186 0
165 188 0
168 191 0
170 193 0
163 186 0
165 187 0
167 189 0
169 191 0
171 193 0
167 190 0
162 185 0
162 184 0
166 189 0
166 188 0
168 191 0
169 191 0
163 186 0
159 182 0
165 188 0
162 185 0
165 188 0
160 182 0
162 184 0
157 179 0
159 182 0
166 188 0
166 189 0
158 180 0
165 188 0
159 182 0
167 189 0
165 187 0
168 190 0
163 184 0
167 189 0
165 188 0
155 178 0
163 185 0
166 188 0
163 186 0
158 181 0
160 183 0
158 181 0
156 178 0
163 186 0
166 188 0
159 181 0
166 188 0
164 186 0
159 182 0
155 178 0
162 186 0
158 180 0
153 174 0
159 182 0
160 183 0
156 179 0
157 180 0
162 184 0
160 183 0
158 181 0
168 191 0
157 180 0
158 182 0
161 185 0
163 185 0
157 179 0
153 176 0
160 182 0
153 176 0
157 179 0
155 177 0
157 179 0
159 182 0
156 179 0
155 178 0
160 183 0
152 174 0
157 179 0
158 182 0
155 178 0
147 170 0
151 173 0
155 178 0
155 178 0
155 178 0
163 185 0
147 170 0
144 167 0
147 170 0
159 181 0
154 176 0
155 177 0
151 173 0
160 182 0
151 173 0
156 180 0
150 172 0
153 175 0
149 171 0
147 168 0
152 174 0
153 175 0
156 179 0
150 172 0
139 161 0
147 169 0
147 169 0
153 174 0
148 169 0
153 175 0
148 170 0
152 173 0
149 171 0
151 173 0
145 167 0
142 164 0
144 166 0
147 168 0
146 166 0
141 162 0
144 166 0
145 166 0
139 161 0
147 169 0
141 162 0
144 166 0
143 166 0
154 175 0
144 164 0
144 165 0
142 163 0
145 167 0
146 168 0
140 163 0
138 158 0
136 158 0
137 158 0
138 159 0
134 154 0
130 152 0
143 164 0
138 160 0
130 151 0
142 162 0
146 167 0
136 157 0
133 153 0
134 155 0
148 170 0
141 163 0
143 164 0
136 156 0
138 158 0
126 146 0
141 163 0
136 155 0
139 160 0
135 154 0
146 166 0
138 159 0
135 156 0
135 154 0
129 149 0
135 157 0
137 157 0
135 155 0
130 150 0
128 147 0
137 158 0
130 150 0
134 154 0
133 153 0
126 146 0
132 153 0
128 148 0
134 154 0
133 153 0
132 152 0
131 150 0
121 141 0
140 159 0
121 140 0
132 153 0
130 150 0
125 145 0
125 144 0
126 147 0
128 148 0
132 152 0
122 141 0
135 155 0
130 149 0
124 144 0
125 145 0
131 152 0
121 140 0
135 153 0
123 143 0
136 155 0
140 159 0
126 144 0
138 158 0
127 144 0
126 146 0
115 133 0
129 148 0
141 160 0
137 154 0
130 150 0
121 140 0
141 159 0
132 152 0
136 154 0
129 151 0
125 145 0
124 144 0
132 152 0
124 145 0
124 142 0
136 155 0
133 151 0
129 146 0
135 154 0
129 148 0
132 153 0
125 144 0
133 152 0
140 159 0
129 148 0
116 134 0
139 158 0
133 152 0
137 156 0
122 141 0
141 159 0
141 159 0
132 151 0
132 150 0
137 156 0
142 160 0
143 162 0
138 156 0
127 145 0
133 153 0
140 158 0
137 157 0
135 152 0
141 158 0
130 148 0
139 158 0
129 150 0
133 154 0
144 162 0
139 158 0
142 159 0
136 153 0
145 163 0
144 162 0
133 152 0
135 153 0
143 160 0
132 150 0
138 156 0
140 158 0
136 154 0
134 154 0
142 162 0
137 156 0
148 166 0
147 166 0
142 159 0
139 158 0
138 157 0
133 150 0
138 157 0
149 168 0
145 161 0
138 156 0
140 155 0
141 156 0
139 155 0
144 161 0
142 160 0
151 167 0
146 163 0
148 165 0
133 147 0
144 161 0
138 156 0
155 172 0
137 153 0
146 164 0
155 175 0
147 164 0
140 157 0
140 157 0
141 157 0
143 159 0
141 156 0
145 161 0
142 157 0
135 151 0
145 161 0
138 154 0
148 164 0
149 165 0
145 161 0
142 154 0
145 162 0
146 162 0
142 155 0
144 161 0
148 162 0
143 158 0
146 162 0
148 163 0
152 167 0
152 165 0
139 150 0
147 160 0
144 161 0
142 156 0
152 170 0
150 165 0
140 153 0
147 162 0
142 155 0
139 153 0
147 160 0
147 162 0
145 158 0
139 152 0
140 152 0
140 153 0
148 161 0
154 168 0
136 147 0
144 157 0
138 153 0
142 155 0
147 161 0
143 156 0
149 163 0
141 153 0
147 160 0
150 163 0
145 158 0
142 151 0
149 161 0
149 162 0
150 165 0
148 161 0
143 154 0
142 154 0
143 155 0
151 165 0
150 160 0
143 153 0
146 157 0
147 161 0
153 166 0
150 161 0
148 158 0
152 163 0
148 158 0
148 160 0
151 165 0
146 156 0
153 167 0
149 162 0
149 160 0
155 168 0
147 159 0
150 157 0
152 159 0
147 157 0
150 161 0
145 155 0
156 170 0
145 157 0
139 145 0
150 163 0
144 156 0
173 195 0
166 189 0
167 190 0
170 192 0
166 188 0
170 191 0
168 190 0
165 187 0
163 186 0
170 193 0
166 188 0
167 189 0
167 189 0
164 188 0
168 191 0
164 186 0
170 193 0
171 194 0
167 190 0
161 184 0
166 190 0
168 191 0
163 185 0
167 189 0
157 179 0
162 185 0
167 189 0
161 184 0
163 186 0
163 185 0
165 188 0
166 188 0
165 188 0
164 186 0
165 187 0
164 187 0
163 185 0
167 190 0
162 186 0
161 184 0
165 187 0
159 182 0
166 189 0
161 183 0
165 188 0
166 189 0
163 186 0
161 184 0
159 182 0
161 183 0
166 189 0
161 184 0
161 183 0
160 182 0
166 189 0
166 189 0
167 189 0
161 183 0
160 183 0
159 182 0
157 179 0
163 186 0
159 181 0
160 183 0
152 175 0
154 176 0
167 190 0
158 181 0
156 179 0
165 189 0
157 180 0
156 179 0
163 186 0
154 178 0
161 183 0
162 185 0
157 179 0
164 186 0
156 178 0
158 180 0
163 185 0
159 182 0
158 181 0
159 182 0
156 179 0
164 186 0
153 176 0
152 175 0
161 184 0
160 183 0
161 184 0
158 180 0
155 178 0
155 178 0
153 175 0
161 184 0
150 172 0
156 179 0
159 182 0
157 179 0
159 181 0
153 176 0
158 180 0
152 175 0
151 173 0
146 169 0
155 178 0
160 183 0
157 180 0
151 174 0
152 175 0
148 170 0
149 170 0
156 179 0
158 181 0
159 180 0
154 175 0
153 174 0
153 175 0
152 175 0
154 178 0
151 172 0
157 180 0
148 169 0
150 173 0
158 181 0
144 165 0
150 171 0
143 164 0
139 160 0
151 172 0
151 173 0
149 172 0
144 166 0
142 164 0
140 161 0
139 161 0
135 156 0
144 166 0
143 164 0
140 162 0
149 169 0
139 160 0
140 162 0
149 172 0
143 165 0
145 165 0
139 160 0
147 169 0
139 160 0
146 167 0
140 162 0
133 155 0
137 159 0
139 160 0
143 164 0
141 164 0
140 161 0
147 168 0
141 162 0
140 161 0
137 157 0
136 157 0
134 153 0
145 165 0
137 159 0
140 161 0
131 153 0
145 166 0
148 169 0
124 145 0
135 156 0
139 160 0
137 157 0
134 155 0
138 159 0
144 165 0
134 155 0
127 147 0
140 160 0
127 147 0
132 153 0
139 160 0
131 153 0
122 143 0
137 156 0
132 153 0
123 144 0
139 159 0
142 163 0
120 139 0
138 158 0
132 153 0
130 151 0
127 148 0
136 157 0
137 157 0
134 154 0
130 150 0
122 143 0
133 154 0
131 151 0
130 151 0
130 148 0
136 155 0
131 150 0
128 149 0
122 140 0
134 153 0
133 153 0
131 151 0
131 151 0
133 152 0
132 152 0
125 144 0
138 158 0
127 146 0
135 154 0
135 154 0
130 148 0
126 146 0
124 143 0
143 163 0
135 155 0
130 149 0
129 147 0
134 154 0
117 137 0
133 152 0
137 157 0
121 139 0
130 148 0
127 148 0
131 151 0
127 145 0
132 150 0
122 139 0
127 145 0
135 156 0
140 160 0
132 151 0
136 156 0
133 153 0
142 160 0
129 149 0
136 155 0
134 154 0
140 159 0
130 147 0
125 144 0
131 148 0
139 159 0
135 154 0
135 154 0
140 158 0
127 146 0
130 149 0
142 160 0
141 160 0
133 151 0
136 154 0
137 157 0
146 165 0
135 154 0
117 134 0
129 147 0
139 159 0
143 162 0
140 157 0
132 150 0
144 162 0
132 149 0
136 154 0
144 164 0
140 157 0
139 157 0
140 160 0
126 143 0
137 156 0
142 161 0
138 156 0
143 162 0
139 157 0
153 172 0
136 154 0
134 152 0
142 161 0
142 161 0
138 156 0
136 154 0
138 157 0
136 153 0
135 151 0
132 149 0
138 155 0
143 161 0
144 162 0
150 168 0
145 164 0
143 160 0
141 160 0
142 162 0
142 161 0
143 160 0
142 160 0
144 161 0
140 157 0
143 160 0
145 161 0
145 164 0
149 165 0
138 155 0
143 160 0
148 166 0
130 143 0
150 167 0
144 160 0
148 166 0
140 156 0
131 146 0
148 164 0
143 161 0
141 157 0
146 163 0
141 156 0
141 155 0
145 161 0
147 163 0
148 166 0
152 166 0
140 156 0
147 159 0
144 159 0
139 152 0
146 161 0
150 164 0
143 160 0
148 163 0
151 167 0
149 164 0
143 156 0
144 160 0
146 162 0
145 158 0
149 162 0
142 153 0
145 160 0
148 163 0
149 164 0
147 161 0
149 163 0
149 163 0
141 156 0
143 156 0
146 160 0
150 164 0
150 165 0
138 150 0
150 164 0
148 161 0
150 165 0
142 154 0
148 161 0
151 164 0
155 169 0
144 158 0
146 158 0
151 163 0
155 168 0
150 165 0
151 162 0
147 161 0
148 163 0
144 155 0
148 158 0
146 157 0
147 159 0
147 157 0
145 158 0
144 153 0
145 158 0
150 162 0
149 161 0
141 154 0
151 161 0
151 162 0
150 163 0
152 162 0
157 172 0
149 160 0
151 162 0
157 170 0
148 159 0
149 161 0
158 167 0
153 163 0
149 160 0
158 169 0
155 164 0
153 164 0
169 191 0
166 189 0
169 191 0
168 190 0
169 192 0
170 192 0
167 189 0
163 186 0
170 192 0
170 192 0
165 188 0
165 188 0
176 198 0
168 191 0
165 188 0
164 187 0
166 189 0
167 188 0
167 190 0
163 186 0
166 188 0
166 189 0
165 188 0
168 191 0
164 186 0
171 193 0
170 193 0
161 183 0
165 187 0
164 187 0
165 188 0
164 186 0
158 180 0
164 187 0
163 186 0
161 184 0
161 183 0
167 190 0
163 186 0
162 185 0
159 183 0
161 184 0
170 193 0
161 184 0
161 184 0
157 179 0
162 185 0
166 188 0
165 187 0
166 190 0
164 186 0
163 186 0
162 184 0
159 183 0
158 180 0
155 179 0
164 186 0
160 183 0
158 181 0
156 179 0
163 185 0
165 188 0
158 182 0
156 179 0
163 185 0
164 187 0
156 178 0
166 190 0
166 190 0
160 182 0
163 187 0
162 184 0
160 183 0
154 177 0
162 185 0
161 185 0
159 181 0
156 179 0
158 180 0
155 178 0
156 179 0
163 186 0
163 185 0
154 176 0
157 180 0
156 179 0
164 187 0
154 176 0
155 177 0
155 178 0
158 181 0
152 175 0
153 174 0
158 181 0
159 181 0
157 180 0
157 180 0
154 176 0
153 175 0
152 175 0
150 173 0
140 162 0
150 172 0
162 184 0
152 174 0
152 174 0
147 170 0
150 172 0
154 178 0
153 177 0
153 175 0
148 172 0
153 175 0
158 181 0
152 175 0
153 175 0
148 169 0
158 181 0
149 171 0
149 172 0
155 178 0
149 172 0
151 172 0
147 168 0
154 176 0
148 170 0
147 170 0
153 175 0
138 160 0
145 167 0
146 168 0
148 170 0
153 175 0
149 171 0
146 168 0
153 175 0
151 174 0
142 163 0
143 166 0
148 168 0
144 165 0
143 165 0
143 164 0
155 178 0
140 161 0
139 161 0
138 160 0
141 164 0
146 166 0
138 160 0
140 161 0
144 165 0
135 156 0
139 162 0
140 161 0
136 158 0
134 155 0
140 161 0
136 156 0
143 164 0
146 166 0
142 163 0
139 159 0
141 161 0
135 157 0
141 162 0
136 157 0
142 163 0
134 155 0
137 158 0
129 149 0
141 163 0
135 155 0
137 157 0
138 159 0
138 158 0
127 149 0
134 155 0
140 161 0
135 156 0
126 147 0
132 153 0
132 152 0
135 155 0
134 154 0
138 157 0
132 152 0
136 156 0
134 154 0
134 154 0
122 143 0
136 156 0
141 162 0
134 153 0
140 160 0
125 144 0
137 159 0
136 156 0
131 150 0
138 158 0
126 144 0
138 159 0
139 158 0
135 154 0
136 158 0
134 153 0
128 147 0
138 157 0
141 160 0
143 163 0
129 150 0
135 154 0
127 147 0
115 136 0
129 149 0
142 162 0
138 157 0
129 149 0
129 148 0
134 153 0
126 143 0
133 153 0
132 152 0
134 153 0
128 147 0
141 161 0
125 144 0
130 151 0
137 156 0
132 151 0
138 158 0
137 157 0
137 157 0
131 150 0
135 155 0
128 148 0
129 147 0
136 155 0
132 153 0
131 150 0
134 154 0
139 158 0
130 149 0
135 156 0
141 161 0
131 150 0
138 158 0
142 160 0
144 163 0
127 145 0
138 159 0
128 148 0
132 151 0
138 158 0
142 161 0
127 147 0
137 155 0
128 144 0
137 157 0
138 157 0
126 144 0
144 163 0
140 157 0
137 157 0
141 159 0
134 153 0
137 156 0
135 154 0
139 158 0
142 160 0
140 159 0
136 154 0
130 149 0
142 161 0
132 149 0
135 154 0
145 164 0
138 157 0
141 160 0
141 160 0
138 158 0
141 159 0
138 157 0
131 149 0
139 157 0
147 164 0
140 157 0
142 159 0
132 149 0
133 152 0
142 160 0
145 164 0
149 169 0
134 154 0
146 162 0
143 159 0
147 164 0
139 158 0
138 157 0
146 164 0
138 156 0
134 151 0
141 160 0
137 155 0
134 151 0
144 162 0
146 164 0
142 159 0
147 163 0
138 156 0
140 157 0
133 147 0
143 159 0
137 155 0
144 161 0
147 164 0
147 164 0
143 161 0
141 158 0
142 161 0
146 164 0
153 171 0
140 157 0
148 163 0
147 162 0
142 156 0
144 161 0
146 162 0
149 164 0
144 162 0
146 161 0
145 161 0
150 166 0
153 167 0
140 157 0
141 156 0
144 158 0
145 160 0
142 156 0
145 159 0
150 164 0
144 157 0
143 157 0
146 160 0
147 160 0
141 153 0
140 153 0
147 164 0
151 167 0
141 154 0
150 165 0
152 166 0
148 162 0
143 156 0
150 164 0
140 155 0
142 155 0
153 165 0
150 162 0
155 168 0
152 166 0
147 163 0
157 170 0
149 164 0
150 163 0
145 156 0
150 163 0
157 173 0
148 161 0
145 158 0
140 152 0
151 164 0
151 165 0
143 158 0
153 168 0
149 161 0
148 160 0
156 170 0
153 166 0
155 167 0
152 163 0
152 165 0
151 165 0
151 165 0
153 165 0
154 165 0
151 165 0
146 156 0
153 165 0
154 165 0
148 159 0
150 159 0
151 162 0
156 170 0
149 161 0
151 163 0
154 167 0
147 155 0
151 163 0
151 164 0
171 194 0
167 189 0
167 191 0
162 185 0
168 191 0
167 190 0
164 188 0
165 187 0
168 191 0
169 192 0
161 183 0
165 188 0
167 190 0
167 189 0
167 189 0
167 189 0
165 187 0
162 185 0
170 191 0
166 189 0
168 191 0
168 191 0
167 190 0
165 188 0
164 187 0
165 186 0
168 190 0
160 183 0
170 193 0
168 190 0
168 191 0
162 184 0
166 187 0
167 190 0
166 189 0
168 190 0
161 184 0
167 190 0
165 188 0
162 185 0
162 185 0
159 182 0
166 189 0
163 186 0
165 188 0
158 181 0
157 180 0
166 189 0
161 184 0
162 185 0
161 184 0
161 184 0
162 184 0
158 180 0
159 182 0
157 181 0
158 180 0
154 177 0
161 183 0
161 183 0
157 179 0
160 182 0
155 177 0
151 174 0
157 179 0
158 181 0
153 175 0
161 184 0
162 185 0
155 178 0
155 179 0
159 182 0
162 185 0
158 181 0
156 179 0
164 186 0
153 176 0
161 184 0
158 181 0
159 182 0
152 175 0
155 177 0
156 179 0
162 184 0
159 181 0
154 176 0
150 173 0
151 174 0
155 179 0
153 175 0
162 184 0
159 181 0
157 180 0
151 174 0
156 180 0
158 180 0
153 175 0
153 175 0
151 173 0
155 178 0
156 179 0
154 177 0
157 179 0
157 179 0
150 172 0
155 177 0
153 176 0
151 174 0
145 168 0
148 170 0
147 169 0
154 176 0
148 170 0
156 178 0
141 163 0
145 168 0
157 179 0
148 170 0
149 170 0
151 174 0
153 176 0
149 171 0
138 160 0
143 166 0
154 176 0
156 179 0
156 177 0
145 166 0
151 174 0
155 176 0
141 162 0
141 162 0
152 174 0
147 168 0
147 168 0
148 170 0
143 164 0
151 173 0
145 167 0
142 165 0
142 163 0
135 157 0
145 167 0
142 164 0
141 163 0
144 166 0
142 164 0
135 157 0
137 158 0
145 167 0
144 165 0
138 159 0
141 163 0
140 162 0
140 162 0
149 170 0
138 160 0
143 164 0
144 165 0
149 170 0
134 156 0
143 165 0
138 158 0
140 161 0
132 153 0
136 157 0
130 152 0
136 156 0
141 162 0
124 145 0
141 161 0
142 162 0
138 158 0
126 147 0
139 160 0
137 156 0
129 150 0
140 162 0
132 153 0
143 163 0
129 149 0
139 161 0
140 162 0
132 153 0
135 156 0
126 146 0
140 160 0
129 148 0
134 154 0
129 149 0
138 158 0
127 148 0
132 153 0
137 156 0
139 159 0
128 149 0
130 151 0
130 150 0
134 154 0
132 153 0
126 147 0
129 150 0
130 150 0
138 158 0
129 150 0
139 158 0
135 155 0
130 148 0
141 161 0
131 151 0
133 152 0
127 146 0
128 148 0
138 158 0
133 153 0
137 157 0
135 156 0
136 154 0
125 143 0
127 147 0
140 160 0
141 161 0
135 155 0
137 157 0
140 159 0
133 153 0
131 150 0
133 153 0
131 149 0
135 154 0
123 143 0
132 152 0
128 148 0
138 159 0
137 156 0
130 149 0
138 157 0
126 144 0
138 158 0
127 147 0
136 156 0
131 150 0
129 148 0
136 154 0
129 147 0
138 160 0
142 162 0
135 155 0
136 155 0
131 150 0
138 156 0
126 146 0
135 154 0
134 152 0
138 158 0
133 152 0
140 161 0
138 156 0
139 157 0
129 147 0
133 151 0
137 156 0
141 158 0
138 156 0
143 163 0
136 156 0
137 156 0
130 149 0
139 159 0
137 157 0
133 151 0
133 151 0
141 160 0
136 155 0
136 156 0
140 158 0
136 154 0
153 171 0
134 152 0
144 163 0
138 158 0
142 157 0
141 161 0
141 159 0
145 164 0
138 156 0
138 156 0
140 157 0
136 156 0
142 161 0
144 161 0
147 165 0
145 163 0
136 154 0
139 156 0
143 162 0
136 153 0
145 161 0
137 156 0
140 156 0
142 160 0
149 168 0
142 160 0
148 164 0
151 170 0
140 154 0
144 160 0
138 155 0
138 155 0
148 166 0
146 164 0
146 163 0
144 161 0
142 159 0
147 163 0
147 164 0
146 164 0
149 167 0
149 167 0
142 157 0
147 163 0
140 156 0
146 161 0
140 155 0
137 151 0
149 165 0
150 168 0
139 155 0
133 151 0
144 159 0
154 171 0
144 160 0
142 157 0
157 174 0
144 161 0
152 167 0
152 168 0
152 167 0
144 159 0
142 156 0
142 155 0
150 164 0
154 169 0
148 162 0
140 155 0
144 159 0
147 161 0
148 162 0
140 155 0
141 153 0
146 161 0
152 167 0
156 170 0
149 166 0
143 154 0
140 154 0
148 161 0
142 155 0
147 161 0
150 162 0
149 163 0
145 158 0
152 164 0
144 155 0
148 163 0
150 162 0
154 169 0
144 158 0
147 159 0
149 163 0
151 165 0
144 157 0
147 161 0
144 157 0
147 159 0
154 170 0
154 167 0
156 172 0
156 172 0
159 173 0
151 166 0
152 165 0
147 158 0
153 166 0
149 161 0
148 160 0
153 164 0
148 161 0
153 167 0
156 168 0
152 165 0
143 155 0
154 166 0
151 161 0
155 169 0
154 165 0
152 166 0
153 165 0
147 159 0
154 168 0
169 192 0
165 187 0
167 190 0
168 191 0
169 191 0
163 186 0
167 189 0
167 190 0
167 190 0
169 191 0
163 185 0
170 191 0
165 187 0
169 192 0
166 189 0
162 185 0
169 192 0
164 187 0
166 190 0
159 182 0
169 192 0
167 189 0
169 191 0
164 187 0
166 188 0
167 189 0
164 187 0
167 190 0
166 188 0
165 187 0
161 184 0
162 185 0
164 187 0
157 180 0
165 188 0
163 184 0
163 186 0
162 183 0
165 188 0
165 187 0
166 188 0
163 185 0
166 188 0
161 184 0
160 183 0
159 182 0
163 186 0
160 183 0
162 185 0
162 185 0
164 187 0
165 187 0
159 182 0
164 186 0
166 189 0
164 186 0
160 183 0
160 183 0
156 179 0
162 185 0
160 183 0
165 188 0
163 186 0
164 187 0
160 182 0
162 185 0
158 180 0
153 175 0
157 180 0
160 184 0
164 187 0
160 182 0
159 182 0
164 187 0
158 182 0
152 174 0
152 175 0
161 184 0
163 186 0
156 178 0
156 179 0
155 178 0
153 175 0
159 183 0
159 182 0
159 182 0
157 181 0
161 183 0
156 179 0
153 175 0
153 176 0
162 185 0
160 183 0
155 178 0
158 182 0
157 179 0
154 177 0
154 177 0
150 172 0
151 174 0
156 178 0
148 170 0
151 174 0
158 181 0
148 171 0
153 176 0
158 180 0
155 177 0
162 185 0
157 179 0
150 173 0
154 176 0
157 180 0
149 171 0
155 179 0
150 173 0
147 170 0
150 173 0
149 172 0
152 174 0
151 173 0
155 178 0
144 168 0
147 170 0
152 174 0
156 179 0
145 167 0
152 174 0
149 171 0
148 171 0
151 174 0
148 170 0
147 169 0
148 171 0
147 170 0
138 159 0
147 169 0
147 169 0
140 163 0
142 164 0
149 172 0
149 171 0
137 159 0
146 167 0
152 174 0
147 170 0
147 169 0
145 167 0
148 171 0
142 164 0
140 161 0
141 163 0
134 156 0
141 163 0
141 163 0
140 162 0
139 160 0
148 170 0
147 169 0
139 160 0
137 158 0
143 164 0
135 156 0
145 166 0
138 160 0
142 162 0
149 170 0
138 158 0
135 156 0
138 158 0
137 157 0
134 156 0
129 150 0
137 156 0
145 166 0
131 152 0
138 158 0
138 159 0
141 161 0
136 158 0
128 149 0
140 161 0
138 158 0
139 160 0
143 163 0
136 156 0
132 153 0
136 157 0
138 159 0
138 158 0
127 148 0
145 165 0
132 153 0
139 158 0
130 150 0
128 148 0
124 142 0
139 158 0
136 156 0
137 157 0
138 158 0
137 156 0
134 154 0
134 154 0
134 153 0
137 157 0
137 157 0
134 153 0
143 162 0
134 153 0
129 150 0
138 158 0
127 148 0
129 148 0
136 156 0
130 151 0
138 158 0
134 153 0
131 149 0
138 157 0
134 154 0
130 150 0
142 161 0
133 153 0
134 154 0
142 161 0
137 158 0
129 149 0
144 165 0
137 155 0
132 151 0
131 151 0
137 157 0
132 151 0
134 156 0
141 160 0
137 157 0
140 159 0
140 160 0
134 154 0
134 153 0
137 157 0
133 152 0
135 155 0
137 157 0
141 161 0
129 146 0
141 160 0
139 160 0
133 153 0
132 150 0
140 160 0
129 147 0
129 147 0
139 159 0
144 163 0
135 155 0
144 162 0
139 159 0
139 159 0
134 151 0
130 150 0
146 165 0
140 158 0
135 155 0
135 154 0
135 155 0
135 154 0
140 158 0
147 167 0
127 145 0
147 165 0
132 148 0
134 152 0
139 157 0
131 149 0
141 161 0
140 160 0
137 156 0
140 159 0
136 153 0
145 162 0
147 166 0
146 165 0
145 163 0
137 154 0
139 157 0
147 165 0
142 162 0
139 159 0
136 153 0
144 161 0
138 156 0
150 170 0
143 162 0
138 156 0
141 159 0
143 160 0
143 162 0
134 152 0
148 166 0
134 152 0
149 167 0
148 168 0
140 157 0
142 160 0
141 159 0
145 161 0
153 170 0
147 164 0
147 164 0
142 160 0
148 165 0
143 160 0
144 160 0
149 168 0
149 166 0
145 163 0
151 166 0
145 161 0
143 160 0
143 160 0
150 169 0
149 166 0
140 154 0
141 159 0
138 154 0
148 163 0
149 166 0
139 155 0
154 172 0
145 161 0
144 159 0
144 161 0
152 166 0
148 165 0
142 157 0
146 159 0
146 161 0
143 158 0
149 165 0
144 159 0
134 149 0
137 150 0
146 160 0
144 156 0
154 173 0
144 159 0
147 163 0
146 160 0
144 158 0
148 161 0
145 157 0
148 163 0
143 155 0
148 160 0
146 157 0
151 165 0
141 152 0
148 161 0
155 168 0
151 166 0
155 171 0
157 173 0
147 161 0
144 159 0
147 158 0
145 159 0
152 167 0
144 158 0
144 155 0
147 161 0
150 164 0
151 164 0
152 163 0
145 157 0
152 165 0
146 158 0
143 157 0
149 162 0
151 162 0
154 168 0
149 164 0
154 167 0
151 164 0
146 158 0
144 153 0
147 158 0
152 163 0
149 160 0
151 161 0
148 160 0
153 167 0
153 166 0
152 163 0
153 166 0
148 162 0
149 160 0
149 165 0
154 168 0
171 194 0
169 193 0
162 184 0
168 190 0
168 191 0
166 188 0
169 191 0
169 192 0
167 189 0
169 193 0
163 185 0
168 191 0
167 190 0
166 190 0
164 187 0
159 182 0
164 187 0
167 190 0
169 192 0
167 190 0
167 190 0
167 190 0
166 190 0
166 190 0
165 188 0
161 184 0
166 190 0
166 188 0
159 183 0
169 191 0
163 186 0
168 190 0
163 185 0
166 188 0
164 186 0
165 187 0
164 186 0
166 189 0
165 187 0
166 189 0
166 188 0
164 186 0
163 186 0
162 185 0
162 185 0
157 180 0
162 186 0
167 190 0
157 179 0
165 188 0
157 179 0
159 182 0
164 186 0
167 190 0
163 186 0
154 176 0
159 181 0
157 180 0
164 187 0
158 181 0
157 179 0
155 177 0
156 180 0
160 182 0
157 180 0
157 180 0
160 184 0
158 182 0
163 187 0
164 187 0
161 184 0
154 177 0
160 183 0
160 183 0
163 186 0
162 184 0
162 185 0
160 182 0
154 177 0
157 180 0
155 178 0
151 174 0
149 171 0
159 182 0
158 181 0
151 174 0
156 179 0
163 186 0
163 185 0
156 178 0
159 181 0
162 185 0
163 185 0
154 177 0
150 173 0
149 172 0
157 180 0
151 173 0
159 181 0
158 180 0
151 174 0
164 187 0
161 184 0
155 177 0
149 173 0
154 176 0
155 178 0
150 173 0
159 182 0
154 175 0
153 176 0
154 176 0
153 176 0
147 170 0
156 178 0
152 174 0
151 174 0
155 176 0
150 172 0
152 176 0
146 167 0
145 167 0
144 167 0
155 177 0
153 175 0
146 167 0
152 175 0
155 177 0
149 171 0
142 164 0
138 161 0
152 173 0
149 172 0
145 168 0
144 167 0
151 173 0
149 171 0
147 169 0
140 162 0
147 169 0
144 166 0
146 167 0
140 162 0
144 167 0
151 175 0
147 169 0
142 164 0
137 158 0
138 159 0
141 163 0
140 161 0
128 150 0
137 159 0
135 156 0
151 172 0
140 161 0
151 173 0
131 153 0
146 168 0
148 170 0
139 160 0
143 165 0
149 170 0
133 154 0
131 151 0
132 153 0
139 160 0
133 153 0
143 164 0
142 162 0
143 164 0
147 168 0
140 161 0
143 163 0
137 158 0
137 159 0
138 159 0
129 150 0
141 162 0
150 170 0
136 158 0
138 158 0
136 157 0
144 164 0
132 153 0
145 166 0
130 151 0
138 158 0
137 157 0
142 163 0
138 159 0
136 157 0
120 139 0
141 161 0
134 154 0
140 161 0
134 154 0
134 154 0
143 163 0
132 153 0
140 160 0
136 156 0
142 162 0
137 158 0
131 151 0
144 164 0
119 138 0
128 148 0
138 157 0
127 148 0
134 153 0
137 158 0
144 164 0
138 159 0
134 152 0
137 157 0
135 155 0
130 148 0
137 157 0
135 155 0
145 165 0
142 161 0
121 141 0
140 159 0
134 154 0
138 157 0
139 158 0
130 151 0
146 167 0
136 156 0
139 160 0
129 147 0
127 146 0
129 148 0
138 157 0
132 153 0
133 152 0
139 159 0
139 159 0
130 149 0
126 142 0
123 140 0
140 158 0
135 154 0
142 162 0
133 150 0
138 159 0
136 156 0
138 156 0
133 152 0
131 151 0
132 151 0
137 156 0
138 157 0
132 151 0
136 154 0
129 147 0
128 148 0
139 158 0
131 150 0
140 158 0
146 166 0
145 164 0
134 150 0
138 159 0
139 158 0
141 159 0
145 165 0
141 161 0
135 156 0
132 149 0
139 158 0
144 163 0
135 153 0
138 157 0
134 150 0
140 158 0
142 161 0
143 162 0
152 171 0
144 163 0
142 160 0
144 164 0
138 156 0
142 160 0
139 158 0
136 154 0
139 158 0
141 160 0
138 157 0
139 158 0
146 165 0
142 159 0
148 166 0
143 160 0
144 160 0
135 153 0
136 154 0
141 159 0
133 150 0
145 164 0
139 156 0
151 169 0
142 161 0
139 157 0
148 165 0
139 158 0
135 152 0
148 167 0
139 157 0
133 150 0
148 165 0
145 164 0
148 164 0
150 169 0
138 155 0
144 162 0
146 164 0
136 154 0
151 169 0
154 170 0
150 168 0
140 158 0
142 161 0
147 163 0
148 164 0
144 159 0
152 170 0
151 166 0
144 160 0
140 154 0
147 161 0
150 166 0
153 169 0
144 160 0
143 158 0
151 164 0
151 168 0
142 157 0
150 166 0
150 168 0
147 164 0
138 153 0
146 163 0
156 170 0
155 171 0
146 160 0
146 164 0
152 168 0
145 161 0
142 154 0
157 175 0
147 162 0
156 172 0
144 158 0
153 168 0
143 158 0
153 170 0
148 162 0
148 163 0
148 163 0
150 164 0
146 158 0
145 159 0
147 161 0
145 159 0
144 157 0
154 171 0
146 159 0
156 172 0
155 167 0
154 170 0
146 158 0
149 162 0
148 160 0
150 162 0
153 168 0
148 160 0
153 167 0
155 169 0
145 159 0
146 160 0
154 167 0
146 157 0
151 162 0
153 167 0
147 158 0
140 151 0
153 165 0
153 167 0
146 157 0
155 166 0
152 164 0
155 167 0
151 162 0
152 165 0
154 167 0
159 172 0
149 161 0
155 167 0
168 192 0
168 191 0
168 191 0
166 189 0
170 192 0
171 194 0
167 189 0
170 193 0
165 188 0
167 190 0
166 189 0
165 189 0
165 188 0
166 188 0
167 190 0
165 187 0
160 182 0
165 188 0
166 189 0
166 188 0
168 191 0
164 186 0
169 191 0
166 189 0
161 184 0
168 191 0
166 188 0
165 187 0
162 185 0
164 187 0
165 188 0
163 186 0
166 190 0
163 186 0
162 185 0
159 181 0
159 182 0
161 184 0
158 181 0
164 186 0
167 190 0
168 192 0
165 188 0
161 184 0
157 181 0
159 181 0
165 188 0
161 182 0
157 181 0
158 182 0
155 178 0
159 183 0
157 180 0
163 186 0
163 186 0
160 182 0
162 184 0
162 186 0
159 182 0
162 185 0
161 183 0
158 181 0
159 182 0
160 184 0
158 181 0
165 187 0
163 186 0
162 185 0
161 184 0
158 181 0
162 185 0
147 169 0
160 184 0
160 183 0
161 184 0
152 176 0
154 176 0
157 180 0
156 178 0
155 177 0
157 179 0
161 184 0
157 181 0
160 182 0
162 184 0
153 174 0
153 176 0
155 178 0
163 186 0
153 176 0
155 177 0
158 182 0
157 180 0
158 181 0
154 177 0
160 182 0
157 179 0
158 180 0
152 175 0
151 175 0
154 177 0
154 176 0
159 180 0
157 180 0
157 179 0
153 175 0
157 179 0
149 172 0
156 179 0
152 175 0
154 177 0
154 176 0
149 171 0
154 177 0
154 176 0
154 177 0
152 175 0
151 173 0
155 177 0
156 178 0
154 176 0
152 174 0
150 171 0
155 178 0
145 168 0
153 176 0
149 171 0
155 178 0
151 174 0
153 176 0
150 171 0
150 172 0
151 173 0
145 167 0
143 166 0
150 172 0
141 162 0
149 171 0
149 171 0
143 165 0
140 163 0
142 163 0
151 172 0
141 162 0
146 168 0
143 166 0
144 166 0
146 167 0
144 166 0
149 171 0
145 165 0
149 170 0
138 160 0
131 151 0
142 165 0
143 164 0
146 168 0
138 159 0
137 158 0
139 159 0
144 165 0
136 157 0
143 164 0
135 157 0
140 162 0
138 158 0
141 162 0
132 152 0
137 159 0
131 152 0
143 165 0
139 160 0
138 159 0
142 164 0
137 159 0
134 155 0
136 157 0
133 154 0
136 156 0
137 157 0
131 152 0
145 166 0
132 152 0
144 165 0
129 149 0
139 159 0
138 158 0
138 159 0
131 152 0
130 149 0
142 161 0
131 152 0
125 145 0
136 157 0
144 166 0
133 153 0
137 156 0
142 162 0
133 151 0
133 153 0
132 152 0
141 162 0
134 154 0
127 147 0
123 144 0
132 151 0
142 162 0
126 146 0
141 161 0
134 155 0
141 160 0
139 159 0
127 147 0
139 159 0
135 155 0
139 160 0
142 162 0
140 160 0
142 162 0
141 162 0
124 142 0
132 152 0
136 157 0
130 150 0
134 154 0
135 155 0
140 160 0
136 157 0
134 152 0
131 149 0
132 152 0
135 154 0
135 156 0
126 144 0
137 156 0
127 147 0
132 151 0
131 151 0
147 167 0
130 149 0
135 154 0
136 155 0
139 157 0
140 159 0
133 153 0
141 161 0
134 154 0
133 154 0
142 161 0
141 161 0
145 167 0
140 159 0
141 158 0
142 163 0
137 157 0
135 155 0
147 167 0
133 152 0
141 160 0
132 149 0
137 154 0
142 162 0
140 160 0
140 159 0
136 156 0
138 157 0
141 161 0
142 161 0
132 149 0
140 159 0
147 167 0
140 159 0
143 163 0
147 166 0
139 158 0
142 160 0
146 165 0
146 163 0
141 161 0
142 159 0
133 151 0
138 157 0
140 158 0
140 158 0
137 156 0
138 155 0
145 162 0
140 159 0
140 157 0
142 160 0
140 158 0
144 162 0
132 149 0
143 161 0
141 159 0
145 164 0
145 164 0
149 166 0
134 153 0
144 161 0
142 158 0
146 163 0
134 153 0
140 155 0
144 161 0
143 161 0
141 159 0
148 165 0
143 161 0
151 172 0
151 170 0
142 157 0
146 163 0
154 173 0
147 165 0
153 172 0
141 159 0
152 170 0
151 168 0
135 152 0
139 156 0
149 165 0
137 153 0
147 163 0
147 164 0
150 164 0
149 165 0
149 164 0
147 164 0
151 170 0
144 159 0
147 163 0
148 164 0
145 161 0
147 163 0
152 168 0
150 164 0
149 166 0
155 171 0
151 169 0
143 159 0
143 160 0
148 163 0
142 159 0
148 163 0
143 158 0
153 168 0
149 164 0
147 161 0
144 159 0
148 163 0
145 161 0
153 167 0
144 159 0
152 165 0
151 168 0
155 169 0
147 160 0
155 171 0
154 168 0
150 165 0
150 165 0
139 154 0
148 163 0
142 154 0
146 160 0
153 169 0
146 160 0
150 163 0
147 161 0
152 167 0
153 167 0
144 158 0
146 159 0
154 165 0
144 157 0
153 167 0
137 146 0
148 162 0
156 170 0
146 159 0
151 165 0
151 164 0
150 162 0
153 169 0
151 165 0
151 164 0
152 164 0
149 163 0
155 170 0
154 166 0
158 170 0
156 170 0
150 162 0
151 161 0
153 165 0
151 166 0
158 171 0
154 168 0
150 163 0
167 191 0
165 188 0
168 191 0
164 186 0
163 186 0
169 191 0
170 194 0
166 189 0
170 192 0
166 189 0
168 191 0
165 187 0
164 187 0
159 181 0
167 191 0
158 181 0
164 188 0
162 184 0
165 187 0
169 192 0
165 187 0
168 191 0
162 186 0
161 184 0
169 191 0
163 185 0
165 189 0
167 190 0
160 183 0
167 190 0
168 190 0
165 187 0
164 186 0
164 186 0
166 189 0
166 188 0
160 183 0
166 188 0
161 183 0
163 187 0
164 186 0
162 184 0
163 185 0
166 188 0
158 181 0
164 187 0
164 187 0
161 183 0
159 183 0
163 186 0
162 185 0
162 184 0
160 183 0
167 190 0
161 183 0
158 181 0
157 181 0
162 185 0
166 189 0
159 182 0
165 188 0
160 183 0
164 185 0
160 183 0
163 186 0
162 185 0
163 185 0
161 184 0
163 186 0
164 187 0
158 181 0
156 179 0
165 188 0
160 183 0
151 173 0
154 177 0
157 180 0
157 180 0
163 186 0
161 185 0
159 181 0
154 178 0
164 187 0
164 187 0
155 177 0
153 176 0
154 177 0
153 176 0
152 174 0
159 182 0
157 180 0
155 178 0
157 180 0
152 175 0
155 177 0
150 172 0
159 183 0
162 185 0
150 173 0
159 182 0
161 184 0
146 168 0
158 181 0
156 178 0
149 172 0
163 186 0
143 166 0
149 170 0
159 181 0
155 178 0
153 176 0
151 173 0
151 173 0
152 175 0
148 170 0
157 179 0
141 164 0
150 172 0
150 172 0
146 168 0
156 178 0
153 175 0
141 164 0
148 171 0
144 166 0
146 169 0
156 179 0
145 168 0
153 176 0
149 171 0
138 160 0
144 164 0
139 161 0
150 172 0
140 162 0
152 174 0
148 171 0
147 170 0
155 176 0
143 165 0
148 171 0
139 162 0
146 167 0
150 170 0
146 167 0
152 175 0
143 164 0
150 171 0
140 161 0
142 163 0
145 166 0
147 168 0
143 165 0
148 170 0
146 168 0
140 161 0
145 166 0
143 165 0
147 169 0
141 163 0
139 159 0
144 165 0
139 160 0
131 153 0
136 157 0
143 165 0
139 161 0
140 161 0
128 150 0
136 157 0
136 157 0
138 160 0
144 166 0
135 156 0
145 166 0
143 164 0
139 159 0
140 161 0
147 167 0
136 158 0
137 160 0
142 163 0
146 166 0
131 152 0
136 157 0
130 151 0
141 163 0
130 150 0
130 150 0
130 150 0
134 155 0
136 156 0
137 158 0
130 151 0
140 161 0
136 157 0
139 159 0
138 159 0
141 163 0
137 157 0
135 154 0
145 165 0
137 158 0
136 157 0
134 154 0
141 161 0
136 157 0
128 148 0
141 162 0
136 156 0
142 163 0
138 157 0
133 153 0
133 151 0
130 149 0
131 151 0
130 151 0
141 161 0
130 149 0
133 154 0
131 152 0
143 163 0
133 151 0
130 150 0
131 151 0
137 157 0
130 149 0
132 151 0
138 158 0
130 150 0
139 159 0
132 153 0
142 162 0
139 159 0
128 148 0
139 160 0
136 155 0
133 152 0
137 156 0
139 158 0
142 162 0
127 147 0
135 155 0
137 154 0
135 154 0
137 156 0
137 157 0
134 154 0
140 160 0
138 158 0
138 156 0
135 156 0
132 150 0
145 165 0
139 159 0
142 163 0
132 153 0
142 161 0
140 159 0
129 145 0
139 157 0
137 156 0
140 160 0
135 155 0
145 163 0
135 155 0
141 163 0
139 157 0
140 157 0
138 156 0
132 152 0
141 161 0
140 160 0
145 165 0
145 165 0
144 163 0
140 158 0
137 155 0
136 154 0
143 162 0
141 160 0
145 166 0
146 165 0
149 168 0
139 156 0
143 162 0
138 158 0
148 165 0
138 156 0
145 163 0
139 155 0
143 161 0
142 161 0
148 167 0
142 162 0
140 159 0
146 167 0
142 161 0
140 158 0
147 167 0
141 159 0
146 165 0
148 166 0
136 154 0
143 161 0
142 158 0
139 156 0
144 162 0
141 159 0
143 160 0
150 168 0
144 160 0
138 154 0
133 150 0
148 165 0
144 161 0
154 171 0
149 166 0
140 156 0
155 171 0
141 156 0
145 162 0
142 159 0
141 159 0
145 161 0
144 160 0
144 160 0
141 158 0
143 158 0
148 165 0
146 164 0
143 161 0
142 159 0
149 166 0
151 167 0
146 164 0
145 161 0
153 170 0
139 156 0
144 159 0
146 164 0
147 165 0
142 158 0
151 168 0
146 161 0
150 167 0
145 160 0
145 160 0
152 165 0
150 167 0
148 163 0
148 160 0
143 158 0
150 165 0
143 157 0
130 144 0
141 156 0
152 167 0
150 165 0
149 165 0
147 161 0
136 150 0
150 163 0
150 164 0
151 166 0
147 164 0
152 166 0
158 174 0
154 168 0
146 161 0
151 166 0
141 152 0
152 167 0
157 172 0
155 170 0
146 161 0
149 163 0
149 163 0
150 162 0
146 160 0
155 169 0
148 162 0
152 166 0
148 162 0
151 166 0
151 165 0
153 168 0
151 166 0
149 164 0
149 164 0
153 168 0
154 169 0
153 166 0
151 162 0
147 160 0
154 167 0
144 156 0
158 173 0
145 160 0
145 157 0
170 192 0
168 191 0
164 187 0
167 190 0
165 187 0
169 192 0
170 193 0
162 185 0
163 186 0
162 184 0
163 186 0
158 181 0
161 184 0
166 189 0
170 193 0
167 190 0
166 189 0
161 184 0
162 184 0
163 186 0
169 191 0
164 187 0
160 183 0
165 188 0
163 186 0
166 189 0
161 183 0
164 187 0
161 185 0
166 189 0
168 191 0
166 189 0
168 190 0
164 188 0
165 188 0
158 181 0
162 185 0
165 188 0
164 187 0
162 185 0
167 190 0
160 183 0
166 188 0
162 186 0
161 184 0
158 181 0
162 185 0
163 186 0
154 178 0
162 184 0
162 184 0
166 189 0
152 174 0
164 187 0
160 183 0
156 179 0
163 186 0
157 180 0
160 183 0
161 183 0
158 181 0
157 181 0
165 188 0
162 185 0
162 183 0
159 182 0
159 182 0
165 187 0
159 181 0
159 182 0
162 185 0
160 183 0
154 177 0
158 180 0
157 180 0
156 179 0
159 183 0
158 181 0
158 181 0
157 181 0
154 177 0
158 181 0
157 180 0
149 172 0
154 177 0
153 176 0
160 183 0
149 172 0
158 180 0
155 178 0
157 180 0
158 181 0
157 179 0
160 183 0
155 179 0
161 184 0
151 174 0
157 180 0
152 176 0
156 179 0
162 185 0
155 178 0
156 179 0
154 176 0
150 173 0
151 173 0
152 174 0
153 176 0
150 171 0
153 177 0
152 175 0
151 173 0
153 176 0
148 169 0
148 170 0
146 168 0
147 169 0
150 172 0
150 171 0
155 178 0
152 174 0
148 170 0
146 170 0
152 173 0
155 177 0
150 172 0
151 174 0
151 174 0
145 167 0
150 172 0
141 163 0
143 166 0
151 173 0
144 165 0
151 173 0
148 170 0
147 168 0
150 171 0
144 166 0
137 159 0
146 169 0
146 167 0
145 167 0
140 161 0
143 164 0
144 166 0
146 168 0
139 160 0
139 161 0
149 171 0
143 164 0
136 158 0
147 168 0
139 160 0
144 166 0
153 175 0
140 161 0
138 159 0
148 170 0
144 165 0
143 164 0
145 164 0
137 158 0
128 149 0
141 163 0
127 148 0
123 143 0
134 156 0
145 165 0
141 163 0
141 161 0
141 162 0
144 165 0
129 150 0
133 153 0
148 169 0
138 159 0
146 168 0
140 161 0
138 159 0
141 162 0
144 165 0
138 159 0
139 159 0
138 159 0
137 158 0
145 166 0
142 164 0
135 156 0
142 163 0
135 154 0
137 158 0
137 158 0
129 150 0
126 145 0
137 157 0
130 150 0
134 156 0
137 156 0
143 163 0
136 156 0
140 160 0
132 153 0
124 145 0
137 157 0
134 154 0
134 155 0
139 160 0
130 151 0
140 161 0
138 159 0
134 155 0
142 162 0
142 164 0
134 154 0
129 151 0
130 150 0
144 166 0
140 161 0
141 160 0
125 145 0
128 147 0
143 163 0
129 149 0
122 142 0
137 157 0
136 155 0
132 152 0
132 152 0
140 161 0
144 164 0
134 152 0
141 162 0
128 147 0
145 165 0
138 157 0
127 146 0
139 157 0
137 155 0
140 159 0
142 161 0
141 161 0
142 162 0
139 158 0
140 161 0
129 147 0
145 165 0
133 152 0
136 156 0
139 157 0
133 151 0
140 160 0
138 158 0
136 156 0
132 151 0
141 161 0
135 155 0
135 153 0
141 161 0
134 153 0
140 158 0
141 162 0
140 161 0
140 159 0
137 156 0
135 156 0
142 160 0
142 162 0
127 145 0
143 165 0
139 159 0
140 160 0
142 161 0
148 167 0
138 158 0
137 156 0
146 165 0
141 160 0
140 160 0
140 158 0
143 161 0
140 157 0
149 169 0
149 168 0
132 150 0
140 159 0
134 153 0
140 159 0
140 158 0
137 156 0
145 163 0
142 161 0
132 149 0
160 178 0
139 159 0
148 166 0
140 159 0
145 163 0
148 167 0
157 177 0
134 150 0
144 162 0
143 161 0
143 160 0
148 166 0
143 161 0
146 167 0
144 160 0
149 166 0
144 161 0
150 169 0
139 156 0
153 171 0
149 165 0
143 160 0
146 167 0
148 166 0
143 158 0
148 166 0
144 161 0
139 157 0
144 162 0
155 174 0
147 164 0
143 160 0
144 159 0
149 167 0
145 163 0
151 169 0
141 159 0
149 167 0
150 164 0
148 166 0
147 163 0
143 161 0
149 166 0
145 162 0
141 155 0
143 160 0
148 164 0
148 164 0
150 167 0
148 164 0
151 168 0
146 161 0
153 171 0
146 161 0
146 161 0
145 162 0
146 162 0
150 167 0
149 164 0
149 163 0
148 163 0
147 164 0
153 170 0
143 159 0
146 162 0
144 159 0
142 158 0
153 168 0
150 166 0
148 162 0
149 165 0
146 159 0
149 162 0
156 172 0
155 171 0
147 160 0
146 159 0
149 164 0
155 172 0
155 171 0
148 161 0
138 154 0
148 161 0
145 159 0
151 165 0
140 151 0
143 155 0
153 168 0
150 163 0
149 162 0
148 162 0
155 169 0
151 165 0
149 163 0
151 164 0
151 166 0
151 166 0
152 166 0
151 163 0
154 168 0
154 166 0
161 174 0
154 167 0
153 165 0
158 171 0
160 176 0
148 161 0
166 189 0
171 193 0
168 192 0
168 191 0
162 185 0
167 191 0
167 190 0
166 189 0
166 189 0
171 194 0
169 193 0
167 190 0
166 188 0
167 189 0
169 192 0
163 186 0
166 189 0
166 189 0
165 187 0
166 188 0
164 187 0
165 188 0
166 189 0
167 189 0
166 189 0
162 186 0
166 189 0
165 187 0
163 185 0
165 187 0
163 186 0
160 184 0
166 188 0
164 187 0
165 187 0
165 188 0
162 184 0
165 187 0
162 185 0
163 186 0
165 187 0
163 186 0
162 185 0
159 183 0
165 187 0
162 185 0
161 183 0
158 180 0
160 183 0
163 186 0
161 185 0
168 190 0
164 186 0
161 183 0
163 186 0
157 180 0
160 183 0
156 179 0
162 185 0
161 184 0
158 180 0
159 182 0
157 180 0
151 174 0
158 181 0
162 185 0
162 185 0
160 183 0
158 182 0
165 188 0
159 183 0
163 186 0
148 170 0
153 176 0
158 181 0
157 180 0
158 180 0
157 179 0
158 180 0
157 180 0
157 179 0
156 178 0
158 181 0
156 179 0
155 176 0
158 180 0
156 180 0
157 179 0
158 180 0
161 184 0
153 176 0
147 170 0
155 177 0
152 175 0
157 179 0
156 179 0
153 175 0
150 174 0
151 174 0
156 179 0
156 178 0
151 174 0
149 172 0
155 177 0
155 177 0
154 176 0
154 177 0
156 177 0
154 177 0
154 176 0
155 177 0
155 177 0
154 176 0
150 172 0
155 178 0
156 178 0
146 168 0
139 161 0
159 181 0
152 175 0
159 182 0
145 167 0
148 170 0
152 173 0
156 180 0
156 178 0
149 171 0
153 175 0
145 168 0
151 173 0
150 173 0
148 171 0
145 167 0
149 170 0
142 164 0
139 161 0
150 172 0
146 167 0
148 171 0
136 156 0
147 169 0
143 165 0
149 172 0
142 164 0
142 163 0
142 164 0
147 171 0
136 158 0
144 165 0
135 156 0
145 166 0
137 159 0
151 173 0
140 161 0
145 166 0
134 155 0
151 173 0
141 162 0
150 171 0
140 162 0
135 156 0
141 161 0
136 157 0
129 148 0
141 163 0
143 163 0
137 158 0
140 162 0
142 163 0
128 148 0
139 160 0
149 170 0
138 160 0
145 166 0
140 161 0
136 157 0
142 162 0
143 164 0
132 154 0
141 164 0
140 160 0
149 170 0
135 155 0
134 155 0
141 161 0
134 155 0
137 158 0
131 153 0
142 163 0
135 155 0
140 161 0
144 164 0
131 152 0
141 161 0
132 153 0
131 152 0
143 165 0
136 156 0
145 168 0
147 166 0
132 153 0
129 149 0
133 154 0
124 144 0
137 157 0
139 159 0
137 158 0
131 151 0
131 152 0
141 161 0
141 161 0
125 145 0
132 152 0
132 153 0
140 160 0
139 159 0
136 157 0
137 156 0
142 162 0
138 159 0
130 148 0
134 154 0
133 152 0
129 148 0
135 155 0
133 153 0
132 153 0
134 153 0
141 160 0
140 160 0
142 162 0
136 155 0
135 156 0
137 156 0
135 155 0
138 158 0
134 153 0
138 159 0
135 154 0
129 148 0
135 152 0
143 164 0
135 154 0
142 162 0
136 157 0
143 162 0
144 165 0
144 163 0
129 148 0
143 162 0
145 166 0
143 164 0
136 154 0
138 157 0
131 152 0
148 168 0
139 159 0
146 167 0
138 156 0
141 161 0
136 155 0
129 149 0
128 147 0
137 157 0
141 161 0
137 156 0
134 154 0
140 159 0
143 162 0
143 160 0
137 154 0
139 157 0
147 167 0
128 147 0
141 160 0
136 155 0
129 148 0
142 162 0
145 165 0
142 162 0
148 166 0
134 152 0
145 164 0
150 169 0
142 161 0
148 168 0
144 164 0
136 154 0
141 159 0
137 154 0
144 163 0
148 167 0
142 161 0
146 164 0
140 158 0
139 158 0
142 160 0
148 166 0
138 155 0
142 158 0
147 166 0
144 163 0
141 162 0
146 165 0
152 170 0
143 161 0
137 156 0
154 175 0
148 167 0
137 153 0
145 163 0
140 156 0
151 169 0
141 156 0
145 162 0
144 162 0
143 159 0
140 156 0
142 159 0
145 163 0
144 160 0
144 162 0
147 166 0
149 166 0
148 165 0
137 152 0
145 159 0
153 171 0
151 166 0
135 153 0
148 163 0
149 163 0
143 159 0
149 165 0
142 157 0
144 160 0
152 171 0
151 167 0
143 158 0
148 164 0
140 153 0
147 163 0
146 161 0
150 166 0
150 167 0
146 162 0
150 168 0
139 151 0
142 158 0
141 155 0
146 162 0
143 159 0
145 160 0
148 163 0
146 162 0
142 156 0
144 159 0
146 162 0
150 165 0
151 167 0
149 161 0
153 169 0
143 159 0
153 169 0
149 164 0
154 170 0
149 163 0
155 169 0
137 149 0
146 160 0
146 160 0
154 169 0
150 165 0
152 166 0
152 164 0
146 161 0
150 165 0
152 166 0
158 174 0
151 165 0
149 164 0
143 153 0
158 174 0
151 164 0
149 161 0
149 164 0
149 162 0
151 165 0
148 162 0
153 167 0
151 166 0
146 162 0
150 162 0
152 165 0
159 177 0
156 170 0
154 168 0
152 167 0
152 168 0
151 164 0
164 187 0
165 188 0
166 188 0
165 188 0
166 189 0
162 184 0
162 184 0
168 191 0
166 189 0
162 185 0
170 193 0
169 192 0
169 191 0
163 186 0
164 187 0
164 186 0
165 188 0
165 187 0
168 191 0
164 187 0
163 186 0
160 183 0
164 187 0
156 179 0
164 187 0
164 187 0
164 187 0
165 187 0
164 187 0
167 189 0
160 183 0
162 184 0
167 191 0
159 182 0
162 185 0
160 182 0
160 183 0
163 186 0
167 190 0
165 188 0
156 179 0
157 180 0
160 183 0
160 183 0
161 184 0
165 188 0
158 180 0
164 186 0
160 183 0
159 183 0
162 185 0
163 186 0
158 181 0
158 180 0
154 177 0
165 189 0
164 188 0
159 181 0
162 185 0
160 183 0
155 178 0
162 185 0
161 184 0
159 182 0
168 191 0
160 182 0
156 180 0
158 181 0
163 187 0
159 182 0
155 179 0
158 181 0
154 176 0
150 174 0
155 178 0
158 181 0
160 183 0
161 183 0
160 184 0
160 183 0
159 182 0
162 184 0
163 186 0
154 176 0
157 180 0
158 180 0
156 178 0
149 172 0
161 185 0
155 178 0
158 180 0
154 177 0
155 178 0
153 177 0
148 170 0
156 177 0
163 186 0
162 184 0
154 177 0
151 173 0
147 170 0
151 173 0
154 177 0
149 171 0
150 173 0
149 172 0
157 178 0
154 177 0
157 179 0
150 172 0
154 176 0
152 174 0
153 175 0
155 178 0
153 175 0
147 169 0
151 174 0
154 177 0
149 171 0
155 176 0
156 179 0
145 168 0
151 173 0
149 171 0
155 178 0
150 173 0
149 172 0
156 177 0
150 172 0
140 161 0
150 172 0
145 168 0
153 175 0
139 161 0
149 172 0
145 168 0
147 168 0
142 164 0
145 167 0
147 169 0
156 179 0
155 178 0
140 162 0
141 163 0
141 162 0
146 167 0
131 152 0
148 169 0
150 172 0
142 163 0
142 165 0
142 164 0
140 161 0
133 155 0
147 171 0
144 166 0
148 168 0
138 159 0
147 170 0
138 159 0
137 159 0
151 172 0
139 160 0
139 160 0
135 157 0
146 167 0
139 160 0
140 161 0
132 152 0
133 155 0
133 154 0
142 163 0
147 168 0
143 165 0
134 154 0
139 160 0
142 163 0
138 159 0
139 160 0
145 167 0
138 159 0
131 152 0
144 165 0
135 156 0
133 154 0
134 156 0
141 160 0
141 161 0
141 161 0
134 155 0
142 163 0
142 164 0
130 151 0
138 159 0
130 151 0
144 165 0
134 154 0
137 156 0
129 149 0
138 159 0
131 151 0
137 157 0
135 156 0
140 161 0
134 153 0
143 165 0
145 166 0
132 153 0
138 159 0
145 167 0
142 163 0
131 150 0
127 147 0
139 159 0
138 158 0
139 159 0
138 159 0
139 159 0
142 161 0
128 148 0
141 162 0
140 160 0
141 161 0
144 163 0
150 171 0
139 158 0
144 163 0
138 159 0
138 159 0
135 155 0
146 166 0
125 145 0
135 154 0
132 152 0
141 163 0
142 160 0
135 155 0
140 159 0
133 152 0
137 156 0
134 155 0
133 153 0
139 159 0
134 154 0
143 163 0
144 164 0
146 166 0
141 161 0
137 156 0
137 156 0
142 161 0
145 165 0
136 157 0
132 150 0
141 161 0
136 157 0
132 151 0
135 155 0
136 155 0
137 155 0
145 165 0
141 160 0
141 160 0
139 157 0
144 165 0
149 171 0
145 164 0
144 163 0
139 160 0
146 166 0
133 152 0
141 161 0
139 158 0
146 164 0
147 167 0
142 163 0
139 158 0
137 157 0
143 164 0
147 167 0
140 159 0
146 165 0
139 159 0
143 161 0
143 163 0
135 154 0
136 155 0
148 167 0
142 162 0
136 153 0
147 165 0
141 161 0
148 167 0
137 158 0
147 167 0
142 161 0
141 159 0
147 165 0
148 169 0
154 172 0
140 156 0
143 161 0
142 159 0
145 165 0
148 165 0
142 160 0
149 170 0
134 154 0
141 158 0
143 162 0
146 165 0
136 152 0
136 154 0
147 164 0
150 167 0
148 167 0
148 166 0
142 159 0
142 160 0
144 165 0
149 167 0
150 169 0
145 161 0
144 160 0
141 158 0
145 163 0
142 158 0
141 159 0
142 159 0
151 169 0
141 159 0
151 169 0
150 165 0
143 160 0
146 165 0
151 168 0
146 163 0
149 166 0
153 170 0
156 172 0
142 156 0
146 162 0
142 157 0
135 152 0
150 167 0
142 157 0
148 165 0
147 161 0
143 158 0
143 160 0
150 166 0
145 162 0
143 155 0
155 172 0
148 164 0
149 164 0
156 171 0
145 161 0
154 171 0
149 163 0
147 161 0
154 171 0
151 168 0
157 173 0
149 164 0
156 171 0
150 163 0
146 162 0
144 159 0
134 148 0
147 161 0
155 169 0
150 164 0
152 166 0
151 165 0
152 165 0
150 162 0
161 177 0
151 166 0
153 167 0
150 167 0
151 167 0
148 163 0
152 167 0
151 164 0
150 166 0
153 167 0
152 166 0
154 168 0
152 166 0
149 163 0
155 167 0
147 161 0
152 167 0
145 159 0
154 170 0
150 163 0
152 166 0
160 174 0
152 168 0
164 186 0
166 189 0
164 188 0
164 188 0
166 189 0
160 184 0
169 192 0
167 189 0
170 192 0
169 191 0
168 191 0
165 187 0
164 187 0
168 190 0
166 189 0
166 189 0
163 186 0
162 186 0
168 190 0
165 187 0
168 190 0
164 187 0
161 184 0
163 187 0
166 190 0
169 192 0
163 185 0
162 184 0
156 179 0
164 187 0
163 186 0
162 184 0
165 187 0
165 187 0
163 186 0
162 185 0
161 185 0
163 186 0
164 187 0
166 189 0
163 186 0
164 186 0
162 185 0
162 184 0
160 183 0
163 187 0
168 190 0
166 190 0
155 177 0
157 179 0
162 184 0
162 185 0
163 187 0
166 189 0
160 182 0
163 185 0
154 176 0
160 183 0
158 180 0
162 185 0
165 187 0
161 183 0
157 180 0
163 186 0
158 182 0
163 186 0
161 184 0
156 179 0
156 179 0
156 179 0
162 184 0
153 175 0
152 175 0
163 187 0
156 180 0
159 182 0
157 180 0
158 180 0
164 186 0
159 182 0
153 175 0
157 180 0
159 182 0
153 175 0
153 175 0
161 184 0
161 183 0
162 184 0
159 181 0
161 184 0
150 172 0
155 177 0
157 180 0
153 176 0
153 176 0
152 173 0
160 183 0
157 181 0
157 180 0
151 173 0
151 174 0
152 173 0
158 180 0
149 172 0
149 171 0
155 177 0
163 186 0
154 177 0
146 168 0
149 171 0
156 178 0
152 174 0
143 164 0
147 169 0
149 171 0
157 180 0
154 176 0
159 180 0
155 176 0
148 171 0
156 178 0
143 165 0
148 169 0
155 176 0
158 181 0
150 171 0
156 178 0
142 164 0
143 165 0
147 168 0
146 168 0
143 165 0
139 160 0
143 165 0
158 181 0
140 162 0
148 170 0
145 166 0
150 173 0
143 165 0
145 167 0
154 176 0
151 173 0
147 170 0
152 174 0
139 161 0
155 177 0
141 163 0
145 167 0
146 169 0
147 169 0
149 171 0
150 172 0
150 172 0
152 172 0
146 167 0
150 170 0
149 171 0
146 167 0
144 165 0
147 169 0
144 166 0
146 168 0
136 157 0
144 165 0
142 163 0
143 165 0
141 162 0
139 159 0
148 169 0
137 158 0
138 158 0
147 167 0
134 156 0
139 159 0
143 164 0
137 157 0
145 166 0
142 163 0
138 158 0
142 162 0
132 153 0
138 158 0
136 158 0
147 167 0
146 168 0
143 164 0
135 156 0
145 166 0
136 157 0
138 158 0
148 169 0
131 152 0
143 164 0
141 162 0
135 156 0
141 161 0
133 152 0
139 160 0
144 165 0
132 151 0
141 161 0
133 154 0
139 160 0
145 165 0
133 153 0
137 158 0
140 160 0
132 153 0
142 163 0
131 150 0
133 154 0
145 166 0
142 162 0
135 155 0
140 160 0
140 159 0
142 162 0
143 164 0
134 156 0
138 159 0
150 171 0
126 145 0
132 153 0
147 167 0
121 141 0
135 155 0
128 148 0
132 151 0
135 156 0
134 155 0
145 166 0
138 158 0
134 154 0
134 152 0
140 160 0
130 150 0
141 162 0
138 156 0
129 147 0
139 158 0
138 158 0
141 159 0
137 157 0
144 164 0
143 163 0
143 164 0
140 160 0
141 161 0
150 170 0
144 164 0
136 155 0
144 164 0
141 161 0
143 164 0
141 160 0
133 153 0
143 164 0
141 163 0
135 154 0
137 157 0
138 156 0
145 165 0
146 166 0
138 158 0
140 159 0
144 164 0
145 164 0
152 172 0
135 156 0
145 166 0
141 160 0
144 164 0
147 168 0
147 166 0
142 161 0
136 155 0
141 157 0
141 159 0
140 161 0
135 155 0
137 156 0
140 160 0
137 158 0
151 171 0
145 164 0
145 165 0
151 172 0
148 170 0
137 156 0
149 168 0
143 161 0
143 160 0
149 167 0
133 149 0
149 167 0
137 157 0
151 172 0
152 172 0
147 164 0
148 167 0
152 172 0
140 159 0
142 161 0
147 163 0
140 159 0
145 163 0
150 169 0
149 167 0
146 163 0
144 161 0
159 177 0
142 158 0
152 171 0
143 161 0
144 162 0
142 159 0
151 168 0
149 167 0
153 172 0
151 171 0
154 173 0
149 170 0
146 162 0
143 161 0
147 166 0
148 165 0
148 164 0
145 163 0
145 162 0
146 162 0
146 162 0
140 157 0
142 161 0
147 164 0
147 162 0
149 167 0
138 153 0
155 173 0
146 161 0
147 164 0
148 165 0
147 164 0
156 174 0
148 164 0
147 164 0
143 160 0
147 162 0
142 156 0
149 164 0
150 166 0
148 165 0
152 170 0
139 155 0
144 160 0
149 166 0
153 167 0
149 164 0
154 170 0
146 161 0
151 166 0
146 162 0
152 167 0
158 174 0
158 174 0
152 166 0
143 157 0
146 161 0
144 161 0
149 165 0
150 161 0
147 162 0
150 164 0
154 170 0
149 163 0
156 170 0
151 167 0
151 166 0
153 168 0
144 158 0
151 166 0
151 165 0
149 162 0
154 170 0
156 168 0
148 161 0
152 166 0
149 165 0
150 163 0
149 161 0
150 164 0
155 170 0
146 159 0
153 167 0
155 170 0
150 164 0
153 166 0
153 169 0
152 166 0
156 170 0
169 192 0
167 190 0
164 187 0
169 192 0
162 186 0
163 185 0
159 182 0
167 190 0
166 188 0
163 186 0
159 183 0
160 183 0
160 183 0
166 189 0
161 183 0
168 190 0
160 183 0
165 188 0
163 185 0
170 193 0
163 187 0
165 188 0
163 186 0
165 188 0
164 187 0
164 187 0
168 191 0
167 189 0
168 191 0
161 185 0
165 187 0
165 187 0
164 188 0
166 189 0
166 189 0
160 183 0
162 185 0
166 189 0
163 185 0
163 186 0
161 184 0
161 184 0
154 177 0
164 187 0
159 182 0
164 187 0
160 183 0
165 188 0
159 182 0
167 190 0
159 183 0
163 186 0
166 187 0
158 180 0
155 178 0
159 181 0
160 183 0
156 179 0
167 189 0
161 184 0
162 186 0
158 181 0
161 184 0
157 180 0
160 182 0
161 184 0
162 185 0
160 182 0
156 179 0
159 182 0
162 185 0
156 179 0
149 173 0
160 183 0
158 181 0
165 188 0
153 177 0
152 175 0
158 180 0
157 180 0
160 184 0
151 175 0
156 179 0
154 177 0
158 181 0
158 180 0
159 182 0
157 180 0
156 178 0
159 180 0
158 181 0
158 179 0
157 179 0
154 177 0
155 177 0
153 175 0
159 182 0
148 170 0
150 173 0
153 177 0
158 179 0
159 182 0
154 176 0
155 178 0
156 179 0
153 176 0
148 170 0
158 180 0
153 176 0
156 179 0
153 176 0
150 172 0
154 177 0
150 172 0
149 172 0
145 167 0
156 178 0
150 173 0
148 171 0
150 171 0
148 170 0
153 175 0
143 165 0
153 176 0
146 169 0
154 177 0
151 174 0
152 175 0
156 179 0
151 173 0
153 175 0
149 172 0
147 169 0
155 177 0
143 164 0
154 176 0
143 165 0
157 180 0
151 173 0
144 166 0
143 163 0
144 165 0
142 164 0
147 169 0
143 165 0
156 178 0
150 171 0
133 155 0
138 160 0
134 157 0
148 170 0
145 167 0
141 162 0
143 165 0
141 163 0
141 161 0
145 167 0
136 159 0
143 164 0
140 162 0
143 163 0
141 161 0
145 167 0
144 165 0
145 167 0
148 169 0
150 172 0
138 158 0
142 163 0
139 160 0
144 166 0
138 160 0
139 160 0
138 158 0
144 165 0
141 162 0
144 166 0
136 158 0
135 156 0
133 154 0
140 161 0
131 152 0
143 164 0
141 163 0
139 161 0
140 160 0
143 165 0
138 159 0
144 166 0
140 162 0
143 165 0
137 157 0
144 165 0
139 160 0
137 157 0
145 165 0
142 162 0
145 165 0
155 176 0
132 153 0
133 154 0
125 145 0
143 164 0
149 169 0
139 163 0
143 163 0
141 163 0
138 157 0
140 160 0
145 165 0
143 164 0
146 166 0
139 159 0
142 162 0
144 165 0
137 158 0
141 161 0
135 155 0
143 163 0
133 153 0
145 167 0
139 159 0
132 152 0
143 163 0
145 165 0
146 165 0
148 169 0
134 154 0
125 145 0
136 156 0
139 158 0
133 152 0
132 152 0
145 165 0
142 162 0
136 155 0
138 158 0
137 158 0
150 170 0
139 160 0
132 152 0
152 173 0
139 160 0
140 161 0
140 161 0
141 161 0
145 165 0
142 161 0
145 165 0
147 169 0
142 162 0
140 160 0
140 161 0
139 159 0
136 156 0
149 170 0
131 149 0
141 160 0
138 157 0
134 153 0
143 163 0
140 159 0
132 151 0
129 148 0
140 161 0
147 166 0
130 148 0
135 155 0
147 166 0
137 156 0
136 157 0
143 163 0
145 164 0
137 157 0
141 160 0
135 156 0
135 154 0
148 167 0
148 168 0
135 154 0
148 166 0
144 163 0
151 171 0
142 161 0
148 168 0
146 166 0
148 168 0
136 153 0
143 163 0
147 166 0
146 164 0
136 154 0
141 160 0
150 169 0
151 170 0
146 167 0
147 167 0
137 155 0
134 153 0
142 161 0
140 157 0
149 167 0
146 166 0
140 158 0
142 160 0
148 168 0
147 164 0
150 170 0
149 167 0
146 164 0
147 166 0
147 166 0
144 162 0
149 168 0
150 169 0
147 164 0
142 159 0
149 168 0
148 168 0
147 164 0
143 159 0
147 166 0
152 169 0
148 165 0
142 160 0
152 170 0
151 170 0
140 156 0
143 159 0
143 159 0
140 156 0
148 165 0
153 169 0
149 167 0
151 169 0
145 162 0
148 164 0
153 173 0
156 175 0
147 165 0
150 167 0
142 160 0
147 167 0
148 165 0
148 164 0
150 165 0
147 162 0
151 167 0
141 153 0
143 157 0
145 160 0
145 161 0
151 166 0
147 163 0
157 176 0
154 172 0
144 158 0
152 167 0
149 164 0
150 162 0
142 156 0
147 163 0
152 168 0
148 164 0
152 170 0
151 167 0
154 169 0
156 171 0
153 170 0
150 166 0
146 161 0
148 164 0
154 170 0
149 165 0
150 166 0
151 165 0
147 164 0
145 158 0
151 166 0
146 158 0
145 158 0
155 171 0
155 171 0
153 168 0
150 166 0
146 159 0
150 165 0
148 163 0
147 163 0
155 170 0
153 167 0
155 169 0
148 162 0
150 165 0
153 169 0
151 165 0
153 167 0
152 168 0
159 176 0
155 169 0
170 192 0
170 192 0
165 188 0
166 188 0
167 189 0
171 193 0
160 183 0
166 189 0
160 183 0
165 188 0
164 187 0
168 190 0
165 188 0
169 192 0
166 188 0
164 188 0
162 185 0
167 190 0
160 183 0
166 189 0
168 191 0
158 182 0
166 188 0
164 187 0
164 186 0
165 187 0
161 185 0
156 179 0
166 189 0
162 185 0
160 183 0
164 186 0
163 186 0
157 179 0
160 183 0
165 189 0
163 185 0
160 183 0
164 186 0
154 178 0
164 187 0
155 179 0
165 187 0
159 183 0
157 179 0
156 179 0
157 179 0
155 177 0
164 187 0
163 185 0
165 189 0
167 189 0
164 186 0
160 183 0
159 181 0
159 182 0
159 182 0
161 185 0
160 182 0
160 183 0
162 184 0
158 180 0
166 188 0
158 180 0
160 183 0
154 177 0
164 187 0
162 185 0
169 191 0
161 184 0
158 181 0
154 177 0
157 181 0
155 178 0
157 180 0
156 178 0
159 183 0
154 177 0
162 185 0
160 182 0
158 179 0
154 176 0
160 183 0
163 185 0
158 181 0
155 179 0
165 186 0
157 180 0
158 180 0
155 178 0
158 181 0
149 172 0
154 178 0
154 176 0
152 176 0
153 176 0
157 180 0
160 183 0
159 182 0
156 178 0
151 173 0
146 168 0
153 176 0
147 171 0
159 181 0
152 175 0
151 175 0
151 174 0
148 170 0
157 180 0
146 168 0
149 171 0
152 174 0
155 177 0
150 172 0
156 179 0
151 173 0
151 174 0
155 178 0
144 166 0
159 182 0
153 174 0
153 175 0
153 175 0
151 173 0
149 170 0
144 166 0
150 173 0
153 174 0
149 171 0
156 177 0
143 165 0
148 170 0
151 175 0
148 170 0
153 174 0
151 173 0
155 177 0
151 174 0
142 164 0
150 172 0
149 171 0
144 166 0
151 172 0
139 160 0
147 168 0
136 159 0
146 170 0
144 165 0
139 161 0
151 173 0
138 160 0
142 164 0
150 172 0
147 169 0
149 171 0
147 169 0
142 164 0
134 156 0
145 167 0
140 162 0
149 171 0
150 171 0
145 166 0
140 161 0
148 170 0
145 167 0
140 161 0
144 165 0
139 160 0
144 166 0
152 173 0
131 151 0
142 162 0
145 166 0
139 161 0
143 165 0
138 159 0
143 164 0
134 154 0
139 159 0
135 155 0
147 168 0
151 172 0
142 163 0
146 166 0
144 166 0
142 163 0
144 164 0
140 161 0
144 164 0
138 159 0
139 161 0
141 161 0
135 156 0
145 166 0
146 165 0
136 156 0
138 159 0
135 156 0
141 161 0
126 146 0
135 155 0
135 156 0
149 171 0
141 162 0
138 160 0
135 156 0
138 158 0
141 161 0
134 156 0
140 161 0
135 155 0
141 161 0
132 152 0
138 158 0
138 159 0
137 157 0
144 165 0
140 161 0
141 163 0
142 162 0
134 155 0
137 157 0
125 145 0
125 145 0
136 156 0
141 162 0
142 164 0
131 152 0
134 154 0
140 160 0
136 156 0
135 155 0
134 155 0
143 163 0
141 161 0
139 159 0
139 159 0
141 161 0
129 148 0
139 158 0
140 161 0
144 164 0
143 163 0
130 149 0
133 156 0
139 161 0
133 152 0
146 167 0
134 155 0
147 168 0
137 158 0
136 156 0
137 158 0
139 158 0
147 166 0
138 158 0
144 165 0
136 156 0
142 162 0
146 167 0
143 164 0
143 163 0
146 166 0
134 151 0
133 152 0
143 163 0
143 164 0
139 159 0
145 165 0
143 163 0
142 163 0
147 166 0
148 168 0
140 157 0
139 158 0
145 165 0
146 166 0
144 163 0
142 160 0
146 166 0
132 151 0
142 161 0
137 157 0
143 163 0
148 167 0
145 164 0
147 164 0
146 165 0
144 163 0
140 159 0
137 156 0
148 166 0
150 168 0
148 168 0
148 167 0
149 168 0
146 165 0
136 156 0
138 155 0
141 159 0
145 165 0
145 165 0
152 172 0
147 165 0
149 168 0
146 165 0
143 163 0
147 167 0
150 167 0
146 165 0
147 165 0
147 166 0
149 167 0
153 172 0
145 162 0
149 167 0
149 167 0
145 163 0
147 164 0
150 170 0
146 165 0
152 172 0
153 171 0
147 165 0
148 164 0
146 165 0
153 172 0
146 164 0
148 166 0
151 169 0
145 163 0
146 161 0
147 166 0
145 162 0
145 162 0
146 163 0
142 158 0
153 170 0
150 166 0
149 165 0
151 168 0
148 163 0
146 164 0
148 165 0
150 167 0
146 162 0
158 174 0
143 158 0
149 164 0
146 164 0
143 160 0
155 171 0
157 174 0
146 161 0
142 156 0
149 166 0
148 165 0
151 166 0
151 169 0
150 165 0
151 165 0
154 170 0
144 159 0
150 161 0
153 169 0
147 160 0
150 166 0
157 170 0
156 172 0
153 170 0
145 161 0
146 160 0
147 161 0
158 176 0
145 159 0
156 171 0
150 166 0
149 164 0
158 173 0
154 171 0
154 171 0
157 171 0
139 150 0
153 167 0
150 167 0
146 161 0
153 167 0
152 165 0
147 160 0
146 159 0
151 166 0
157 172 0
149 161 0
157 171 0
151 165 0
152 166 0
149 166 0
149 163 0
162 185 0
161 183 0
166 189 0
163 187 0
169 191 0
166 189 0
170 193 0
167 189 0
167 188 0
163 185 0
165 189 0
170 192 0
165 187 0
165 188 0
168 191 0
170 193 0
167 190 0
165 188 0
165 188 0
169 192 0
167 191 0
165 187 0
162 185 0
169 192 0
163 186 0
166 189 0
164 186 0
163 187 0
164 187 0
166 189 0
166 189 0
159 182 0
163 185 0
162 185 0
166 188 0
165 188 0
157 180 0
162 186 0
161 184 0
161 184 0
165 188 0
163 186 0
150 173 0
157 180 0
161 185 0
159 182 0
156 179 0
157 180 0
164 187 0
161 183 0
162 183 0
159 181 0
161 184 0
159 182 0
165 189 0
158 180 0
157 180 0
161 183 0
160 183 0
165 187 0
161 183 0
154 177 0
158 181 0
159 182 0
155 177 0
150 173 0
165 189 0
160 183 0
153 176 0
155 177 0
157 180 0
161 185 0
157 179 0
159 182 0
158 181 0
155 177 0
161 184 0
151 174 0
159 181 0
156 179 0
157 180 0
162 185 0
155 178 0
159 182 0
153 176 0
159 182 0
158 181 0
155 177 0
154 178 0
157 180 0
153 175 0
157 179 0
154 176 0
157 181 0
152 174 0
157 179 0
158 181 0
162 186 0
154 176 0
154 177 0
157 179 0
150 172 0
147 170 0
149 171 0
160 183 0
148 170 0
157 179 0
158 179 0
153 175 0
155 179 0
154 177 0
148 170 0
151 174 0
155 177 0
154 175 0
153 174 0
153 176 0
150 173 0
155 178 0
152 174 0
146 168 0
148 171 0
151 174 0
154 177 0
155 178 0
151 172 0
142 164 0
148 170 0
148 169 0
144 166 0
151 174 0
152 175 0
150 172 0
150 173 0
143 165 0
142 165 0
142 165 0
149 172 0
149 170 0
154 178 0
145 167 0
149 172 0
147 169 0
146 168 0
143 164 0
152 174 0
145 167 0
147 168 0
144 167 0
148 170 0
149 170 0
151 172 0
143 164 0
136 158 0
148 170 0
152 175 0
152 174 0
139 161 0
145 167 0
142 165 0
148 169 0
140 162 0
146 168 0
148 170 0
148 171 0
148 169 0
149 170 0
137 157 0
142 164 0
146 168 0
147 169 0
140 161 0
141 162 0
142 163 0
139 161 0
144 165 0
141 164 0
137 159 0
143 164 0
140 160 0
146 167 0
145 166 0
143 165 0
149 170 0
143 164 0
134 155 0
136 156 0
142 162 0
144 165 0
136 156 0
146 167 0
141 162 0
134 155 0
140 162 0
127 147 0
124 144 0
140 160 0
144 164 0
134 155 0
136 156 0
139 160 0
140 161 0
145 166 0
142 163 0
134 155 0
142 161 0
142 163 0
147 166 0
133 154 0
133 152 0
144 166 0
144 165 0
141 161 0
142 164 0
142 163 0
140 161 0
144 164 0
128 149 0
145 163 0
148 169 0
139 159 0
136 157 0
145 165 0
141 162 0
144 164 0
138 159 0
140 161 0
132 153 0
127 148 0
134 155 0
134 154 0
138 159 0
140 160 0
138 158 0
142 161 0
132 152 0
143 164 0
131 150 0
139 160 0
138 158 0
140 160 0
143 164 0
131 152 0
132 152 0
137 158 0
134 153 0
136 156 0
124 144 0
134 154 0
139 160 0
146 167 0
140 161 0
141 160 0
126 146 0
142 163 0
143 162 0
130 150 0
135 155 0
147 168 0
135 155 0
143 162 0
149 168 0
148 168 0
148 167 0
143 163 0
140 160 0
136 157 0
144 164 0
143 164 0
147 168 0
141 159 0
145 165 0
149 168 0
142 160 0
149 168 0
134 155 0
145 165 0
140 159 0
140 161 0
143 163 0
143 163 0
139 160 0
149 168 0
146 165 0
150 169 0
139 158 0
146 166 0
140 159 0
142 162 0
145 164 0
152 172 0
146 164 0
145 166 0
138 156 0
145 162 0
146 165 0
150 171 0
145 166 0
153 171 0
148 165 0
151 171 0
150 170 0
142 162 0
151 172 0
144 162 0
155 175 0
148 168 0
143 162 0
148 166 0
149 169 0
138 155 0
143 162 0
151 169 0
145 162 0
154 173 0
151 169 0
147 165 0
143 163 0
145 164 0
145 161 0
147 165 0
145 161 0
149 167 0
154 171 0
140 157 0
151 168 0
149 167 0
145 161 0
146 163 0
143 161 0
148 165 0
144 161 0
147 164 0
147 164 0
150 168 0
147 161 0
145 162 0
146 163 0
157 175 0
143 160 0
151 168 0
147 165 0
140 157 0
145 159 0
153 171 0
140 156 0
152 169 0
148 166 0
154 170 0
150 167 0
152 169 0
156 171 0
148 165 0
149 166 0
145 158 0
153 169 0
145 161 0
145 161 0
153 167 0
148 164 0
150 165 0
146 163 0
147 161 0
149 165 0
152 169 0
152 170 0
156 173 0
144 160 0
147 163 0
146 162 0
158 174 0
148 164 0
153 170 0
152 168 0
156 172 0
153 169 0
146 162 0
146 161 0
149 161 0
152 166 0
154 168 0
153 168 0
154 171 0
149 162 0
149 163 0
151 168 0
155 170 0
153 168 0
160 176 0
154 170 0
156 173 0
149 165 0
151 164 0
159 176 0
155 171 0
149 165 0
151 165 0
157 173 0
151 167 0
141 155 0
160 183 0
164 187 0
167 190 0
168 191 0
167 190 0
166 189 0
167 191 0
169 192 0
163 186 0
170 192 0
166 189 0
162 185 0
164 186 0
167 190 0
163 186 0
164 187 0
166 189 0
161 185 0
168 191 0
164 188 0
167 189 0
161 184 0
159 182 0
167 190 0
164 187 0
163 186 0
168 192 0
163 185 0
169 192 0
161 184 0
159 181 0
164 188 0
164 188 0
170 192 0
159 182 0
163 186 0
162 186 0
164 187 0
165 188 0
162 185 0
165 187 0
157 180 0
156 179 0
160 183 0
163 186 0
164 187 0
164 187 0
163 186 0
161 184 0
162 185 0
158 180 0
163 186 0
164 187 0
158 180 0
158 181 0
164 187 0
159 183 0
161 184 0
161 183 0
162 185 0
157 179 0
161 184 0
162 184 0
158 181 0
159 182 0
165 187 0
159 181 0
158 181 0
156 179 0
162 185 0
160 182 0
162 184 0
163 186 0
152 175 0
163 185 0
156 178 0
160 181 0
158 181 0
162 185 0
159 182 0
157 179 0
160 183 0
159 181 0
158 181 0
163 185 0
152 175 0
159 182 0
160 182 0
154 177 0
154 177 0
163 185 0
160 183 0
159 181 0
149 171 0
162 184 0
151 173 0
162 185 0
155 177 0
154 177 0
146 169 0
155 178 0
150 172 0
156 178 0
158 181 0
157 179 0
157 178 0
157 180 0
157 180 0
154 176 0
155 177 0
153 175 0
153 175 0
155 178 0
157 179 0
154 176 0
154 177 0
149 171 0
152 175 0
155 178 0
150 172 0
151 174 0
146 168 0
153 176 0
148 171 0
150 173 0
151 173 0
157 179 0
154 177 0
146 167 0
146 168 0
152 173 0
142 164 0
149 171 0
148 170 0
148 169 0
141 163 0
150 172 0
151 173 0
147 169 0
153 175 0
150 172 0
152 174 0
149 172 0
147 169 0
149 172 0
144 165 0
148 170 0
149 172 0
147 170 0
141 161 0
139 161 0
140 162 0
153 175 0
139 160 0
142 165 0
141 163 0
152 173 0
143 163 0
148 168 0
143 165 0
144 166 0
152 173 0
143 164 0
146 167 0
144 165 0
141 163 0
148 169 0
142 163 0
144 165 0
142 163 0
134 156 0
134 155 0
153 175 0
141 164 0
148 170 0
140 162 0
140 160 0
142 164 0
143 164 0
139 161 0
137 159 0
145 166 0
147 168 0
138 158 0
142 163 0
146 168 0
152 173 0
140 161 0
148 169 0
130 152 0
139 160 0
146 167 0
147 169 0
139 160 0
141 162 0
138 157 0
140 161 0
140 160 0
141 161 0
141 162 0
135 155 0
140 161 0
141 162 0
140 160 0
142 164 0
141 162 0
140 160 0
143 162 0
133 154 0
144 164 0
138 158 0
131 152 0
145 165 0
135 155 0
139 160 0
138 159 0
138 158 0
136 156 0
136 157 0
150 170 0
135 154 0
137 158 0
154 175 0
139 158 0
142 163 0
130 152 0
138 159 0
146 167 0
144 165 0
129 149 0
142 163 0
141 161 0
140 159 0
130 149 0
144 163 0
138 159 0
138 159 0
145 166 0
140 161 0
137 155 0
142 163 0
137 157 0
131 151 0
139 159 0
129 148 0
125 145 0
143 163 0
146 167 0
147 167 0
138 158 0
140 159 0
137 155 0
139 158 0
143 162 0
135 154 0
142 162 0
138 158 0
148 169 0
140 162 0
136 155 0
145 164 0
131 150 0
150 171 0
140 160 0
144 164 0
145 166 0
130 149 0
138 157 0
143 162 0
138 157 0
139 159 0
148 167 0
151 172 0
142 163 0
148 169 0
151 172 0
138 157 0
135 153 0
141 159 0
144 164 0
150 171 0
142 161 0
146 167 0
139 159 0
149 168 0
144 163 0
149 168 0
134 152 0
151 172 0
139 158 0
145 164 0
141 159 0
148 168 0
149 169 0
146 165 0
151 170 0
144 164 0
143 161 0
141 158 0
150 170 0
144 164 0
146 165 0
146 165 0
142 162 0
147 167 0
154 175 0
145 162 0
148 166 0
148 166 0
145 163 0
149 166 0
142 158 0
145 162 0
153 173 0
150 169 0
148 167 0
149 167 0
147 165 0
144 163 0
151 170 0
145 162 0
139 156 0
153 170 0
147 166 0
149 168 0
138 157 0
152 168 0
152 169 0
150 167 0
152 171 0
150 167 0
149 167 0
146 164 0
143 159 0
143 159 0
146 160 0
151 169 0
153 170 0
148 165 0
143 159 0
151 168 0
144 160 0
142 159 0
145 162 0
147 163 0
154 170 0
144 162 0
149 166 0
151 168 0
151 165 0
151 168 0
151 168 0
152 167 0
147 160 0
147 163 0
144 158 0
145 161 0
147 163 0
149 165 0
145 162 0
152 169 0
148 163 0
143 159 0
153 168 0
158 174 0
149 165 0
156 173 0
148 163 0
145 160 0
142 158 0
148 163 0
151 165 0
157 173 0
153 171 0
153 168 0
150 164 0
155 169 0
154 169 0
149 165 0
150 164 0
150 163 0
147 164 0
144 159 0
145 159 0
151 166 0
149 165 0
153 168 0
155 168 0
152 168 0
148 162 0
154 170 0
149 160 0
152 167 0
154 164 0
154 168 0
151 163 0
155 170 0
148 160 0
147 163 0
152 168 0
