P3
400 225
255
163 200 255
163 200 255
163 200 255
163 200 255
163 200 255
163 200 255
163 200 255
163 200 255
163 200 255
163 200 255
162 200 255
162 200 255
162 200 255
162 200 255
162 199 255
162 199 255
162 199 255
162 199 255
162 199 255
162 199 255
162 199 255
161 199 255
161 199 255
161 199 255
161 199 255
161 199 255
161 199 255
161 199 255
161 199 255
161 199 255
161 199 255
161 199 255
160 198 255
160 198 255
160 198 255
160 198 255
160 198 255
160 198 255
160 198 255
160 198 255
160 198 255
160 198 255
159 198 255
159 198 255
159 198 255
159 198 255
159 198 255
159 198 255
159 198 255
159 197 255
159 197 255
159 197 255
158 197 255
158 197 255
158 197 255
158 197 255
158 197 255
158 197 255
158 197 255
158 197 255
158 197 255
157 197 255
157 197 255
157 197 255
157 196 255
157 196 255
157 196 255
157 196 255
157 196 255
157 196 255
157 196 255
156 196 255
156 196 255
156 196 255
156 196 255
156 196 255
156 196 255
156 196 255
156 196 255
156 196 255
155 195 255
155 195 255
155 195 255
155 195 255
155 195 255
155 195 255
155 195 255
155 195 255
155 195 255
154 195 255
154 195 255
154 195 255
154 195 255
154 195 255
154 195 255
154 194 255
154 194 255
154 194 255
153 194 255
153 194 255
153 194 255
153 194 255
153 194 255
153 194 255
153 194 255
153 194 255
153 194 255
152 194 255
152 194 255
152 194 255
152 193 255
152 193 255
152 193 255
152 193 255
152 193 255
152 193 255
152 193 255
151 193 255
151 193 255
151 193 255
151 193 255
151 193 255
151 193 255
151 193 255
151 193 255
151 193 255
151 193 255
150 192 255
150 192 255
150 192 255
150 192 255
150 192 255
150 192 255
150 192 255
150 192 255
150 192 255
150 192 255
149 192 255
149 192 255
149 192 255
149 192 255
149 192 255
149 192 255
149 192 255
149 192 255
149 191 255
149 191 255
149 191 255
149 191 255
148 191 255
148 191 255
148 191 255
148 191 255
148 191 255
148 191 255
148 191 255
148 191 255
148 191 255
148 191 255
148 191 255
148 191 255
148 191 255
148 191 255
147 191 255
147 191 255
147 191 255
147 191 255
147 191 255
147 191 255
147 190 255
147 190 255
147 190 255
147 190 255
147 190 255
147 190 255
147 190 255
147 190 255
147 190 255
147 190 255
147 190 255
147 190 255
147 190 255
147 190 255
147 190 255
147 190 255
147 190 255
147 190 255
146 190 255
146 190 255
146 190 255
146 190 255
146 190 255
146 190 255
146 190 255
146 190 255
146 190 255
146 190 255
146 190 255
146 190 255
146 190 255
146 190 255
146 190 255
146 190 255
146 190 255
146 190 255
146 190 255
146 190 255
146 190 255
146 190 255
146 190 255
146 190 255
146 190 255
146 190 255
147 190 255
147 190 255
147 190 255
147 190 255
147 190 255
147 190 255
147 190 255
147 190 255
147 190 255
147 190 255
147 190 255
147 190 255
147 190 255
147 190 255
147 190 255
147 190 255
147 190 255
147 191 255
147 191 255
147 191 255
147 191 255
147 191 255
147 191 255
147 191 255
148 191 255
148 191 255
148 191 255
148 191 255
148 191 255
148 191 255
148 191 255
148 191 255
148 191 255
148 191 255
148 191 255
148 191 255
148 191 255
148 191 255
149 191 255
149 191 255
149 191 255
149 191 255
149 192 255
149 192 255
149 192 255
149 192 255
149 192 255
149 192 255
149 192 255
149 192 255
150 192 255
150 192 255
150 192 255
150 192 255
150 192 255
150 192 255
150 192 255
150 192 255
150 192 255
150 192 255
151 193 255
151 193 255
151 193 255
151 193 255
151 193 255
151 193 255
151 193 255
151 193 255
151 193 255
151 193 255
152 193 255
152 193 255
152 193 255
152 193 255
152 193 255
152 193 255
152 194 255
152 194 255
152 194 255
152 194 255
153 194 255
153 194 255
153 194 255
153 194 255
153 194 255
153 194 255
153 194 255
153 194 255
153 194 255
154 194 255
154 194 255
154 194 255
154 195 255
154 195 255
154 195 255
154 195 255
154 195 255
154 195 255
155 195 255
155 195 255
155 195 255
155 195 255
155 195 255
155 195 255
155 195 255
155 195 255
155 195 255
156 196 255
156 196 255
156 196 255
156 196 255
156 196 255
156 196 255
156 196 255
156 196 255
156 196 255
157 196 255
157 196 255
157 196 255
157 196 255
157 196 255
157 196 255
157 196 255
157 197 255
157 197 255
157 197 255
158 197 255
158 197 255
158 197 255
158 197 255
158 197 255
158 197 255
158 197 255
158 197 255
158 197 255
159 197 255
159 197 255
159 197 255
159 198 255
159 198 255
159 198 255
159 198 255
159 198 255
159 198 255
159 198 255
160 198 255
160 198 255
160 198 255
160 198 255
160 198 255
160 198 255
160 198 255
160 198 255
160 198 255
160 198 255
161 199 255
161 199 255
161 199 255
161 199 255
161 199 255
161 199 255
161 199 255
161 199 255
161 199 255
161 199 255
161 199 255
162 199 255
162 199 255
162 199 255
162 199 255
162 199 255
162 199 255
162 199 255
162 200 255
162 200 255
162 200 255
162 200 255
163 200 255
163 200 255
163 200 255
163 200 255
163 200 255
163 200 255
163 200 255
163 200 255
163 200 255
163 200 255
164 200 255
164 200 255
163 200 255
163 200 255
163 200 255
163 200 255
163 200 255
163 200 255
163 200 255
163 200 255
163 200 255
163 200 255
163 200 255
162 200 255
162 200 255
162 200 255
162 199 255
162 199 255
162 199 255
162 199 255
162 199 255
162 199 255
162 199 255
162 199 255
161 199 255
161 199 255
161 199 255
161 199 255
161 199 255
161 199 255
161 199 255
161 199 255
161 199 255
161 199 255
160 198 255
160 198 255
160 198 255
160 198 255
160 198 255
160 198 255
160 198 255
160 198 255
160 198 255
160 198 255
159 198 255
159 198 255
159 198 255
159 198 255
159 198 255
159 198 255
159 198 255
159 197 255
159 197 255
159 197 255
158 197 255
158 197 255
158 197 255
158 197 255
158 197 255
158 197 255
158 197 255
158 197 255
158 197 255
157 197 255
157 197 255
157 197 255
157 196 255
157 196 255
157 196 255
157 196 255
157 196 255
157 196 255
157 196 255
156 196 255
156 196 255
156 196 255
156 196 255
156 196 255
156 196 255
156 196 255
156 196 255
156 196 255
155 195 255
155 195 255
155 195 255
155 195 255
155 195 255
155 195 255
155 195 255
155 195 255
155 195 255
154 195 255
154 195 255
154 195 255
154 195 255
154 195 255
154 195 255
154 194 255
154 194 255
154 194 255
153 194 255
153 194 255
153 194 255
153 194 255
153 194 255
153 194 255
153 194 255
153 194 255
153 194 255
152 194 255
152 194 255
152 194 255
152 194 255
152 193 255
152 193 255
152 193 255
152 193 255
152 193 255
152 193 255
151 193 255
151 193 255
151 193 255
151 193 255
151 193 255
151 193 255
151 193 255
151 193 255
151 193 255
151 193 255
150 192 255
150 192 255
150 192 255
150 192 255
150 192 255
150 192 255
150 192 255
150 192 255
150 192 255
150 192 255
150 192 255
149 192 255
149 192 255
149 192 255
149 192 255
149 192 255
149 192 255
149 192 255
149 191 255
149 191 255
149 191 255
149 191 255
149 191 255
148 191 255
148 191 255
148 191 255
148 191 255
148 191 255
148 191 255
148 191 255
148 191 255
148 191 255
148 191 255
148 191 255
148 191 255
148 191 255
148 191 255
148 191 255
147 191 255
147 191 255
147 191 255
147 191 255
147 191 255
147 191 255
147 191 255
147 190 255
147 190 255
147 190 255
147 190 255
147 190 255
147 190 255
147 190 255
147 190 255
147 190 255
147 190 255
147 190 255
147 190 255
147 190 255
147 190 255
147 190 255
147 190 255
147 190 255
147 190 255
147 190 255
147 190 255
147 190 255
147 190 255
147 190 255
147 190 255
147 190 255
147 190 255
147 190 255
147 190 255
147 190 255
147 190 255
147 190 255
147 190 255
147 190 255
147 190 255
147 190 255
147 190 255
147 190 255
147 190 255
147 190 255
147 190 255
147 190 255
147 190 255
147 190 255
147 190 255
147 190 255
147 190 255
147 190 255
147 190 255
147 190 255
147 190 255
147 190 255
147 190 255
147 191 255
147 191 255
147 191 255
147 191 255
147 191 255
147 191 255
147 191 255
148 191 255
148 191 255
148 191 255
148 191 255
148 191 255
148 191 255
148 191 255
148 191 255
148 191 255
148 191 255
148 191 255
148 191 255
148 191 255
148 191 255
148 191 255
149 191 255
149 191 255
149 191 255
149 191 255
149 192 255
149 192 255
149 192 255
149 192 255
149 192 255
149 192 255
149 192 255
149 192 255
150 192 255
150 192 255
150 192 255
150 192 255
150 192 255
150 192 255
150 192 255
150 192 255
150 192 255
150 192 255
150 192 255
151 193 255
151 193 255
151 193 255
151 193 255
151 193 255
151 193 255
151 193 255
151 193 255
151 193 255
151 193 255
152 193 255
152 193 255
152 193 255
152 193 255
152 193 255
152 193 255
152 194 255
152 194 255
152 194 255
152 194 255
153 194 255
153 194 255
153 194 255
153 194 255
153 194 255
153 194 255
153 194 255
153 194 255
153 194 255
154 194 255
154 194 255
154 194 255
154 195 255
154 195 255
154 195 255
154 195 255
154 195 255
154 195 255
155 195 255
155 195 255
155 195 255
155 195 255
155 195 255
155 195 255
155 195 255
155 195 255
155 195 255
156 196 255
156 196 255
156 196 255
156 196 255
156 196 255
156 196 255
156 196 255
156 196 255
156 196 255
157 196 255
157 196 255
157 196 255
157 196 255
157 196 255
157 196 255
157 196 255
157 197 255
157 197 255
157 197 255
158 197 255
158 197 255
158 197 255
158 197 255
158 197 255
158 197 255
158 197 255
158 197 255
158 197 255
159 197 255
159 197 255
159 197 255
159 198 255
159 198 255
159 198 255
159 198 255
159 198 255
159 198 255
159 198 255
160 198 255
160 198 255
160 198 255
160 198 255
160 198 255
160 198 255
160 198 255
160 198 255
160 198 255
160 198 255
161 199 255
161 199 255
161 199 255
161 199 255
161 199 255
161 199 255
161 199 255
161 199 255
161 199 255
161 199 255
162 199 255
162 199 255
162 199 255
162 199 255
162 199 255
162 199 255
162 199 255
162 199 255
162 200 255
162 200 255
162 200 255
163 200 255
163 200 255
163 200 255
163 200 255
163 200 255
163 200 255
163 200 255
163 200 255
163 200 255
163 200 255
163 200 255
164 200 255
164 200 255
164 200 255
164 200 255
164 200 255
164 200 255
163 200 255
163 200 255
163 200 255
163 200 255
163 200 255
163 200 255
163 200 255
163 200 255
163 200 255
163 200 255
163 200 255
162 200 255
162 200 255
162 200 255
162 200 255
162 199 255
162 199 255
162 199 255
162 199 255
162 199 255
162 199 255
162 199 255
161 199 255
161 199 255
161 199 255
161 199 255
161 199 255
161 199 255
161 199 255
161 199 255
161 199 255
161 199 255
160 198 255
160 198 255
160 198 255
160 198 255
160 198 255
160 198 255
160 198 255
160 198 255
160 198 255
160 198 255
159 198 255
159 198 255
159 198 255
159 198 255
159 198 255
159 198 255
159 198 255
159 197 255
159 197 255
159 197 255
158 197 255
158 197 255
158 197 255
158 197 255
158 197 255
158 197 255
158 197 255
158 197 255
158 197 255
157 197 255
157 197 255
157 197 255
157 196 255
157 196 255
157 196 255
157 196 255
157 196 255
157 196 255
157 196 255
156 196 255
156 196 255
156 196 255
156 196 255
156 196 255
156 196 255
156 196 255
156 196 255
156 196 255
155 195 255
155 195 255
155 195 255
155 195 255
155 195 255
155 195 255
155 195 255
155 195 255
155 195 255
154 195 255
154 195 255
154 195 255
154 195 255
154 195 255
154 195 255
154 194 255
154 194 255
154 194 255
153 194 255
153 194 255
153 194 255
153 194 255
153 194 255
153 194 255
153 194 255
153 194 255
153 194 255
152 194 255
152 194 255
152 194 255
152 194 255
152 193 255
152 193 255
152 193 255
152 193 255
152 193 255
152 193 255
151 193 255
151 193 255
151 193 255
151 193 255
151 193 255
151 193 255
151 193 255
151 193 255
151 193 255
151 193 255
150 192 255
150 192 255
150 192 255
150 192 255
150 192 255
150 192 255
150 192 255
150 192 255
150 192 255
150 192 255
150 192 255
149 192 255
149 192 255
149 192 255
149 192 255
149 192 255
149 192 255
149 192 255
149 192 255
149 191 255
149 191 255
149 191 255
149 191 255
149 191 255
148 191 255
148 191 255
148 191 255
148 191 255
148 191 255
148 191 255
148 191 255
148 191 255
148 191 255
148 191 255
148 191 255
148 191 255
148 191 255
148 191 255
148 191 255
148 191 255
147 191 255
147 191 255
147 191 255
147 191 255
147 191 255
147 191 255
147 191 255
147 191 255
147 190 255
147 190 255
147 190 255
147 190 255
147 190 255
147 190 255
147 190 255
147 190 255
147 190 255
147 190 255
147 190 255
147 190 255
147 190 255
147 190 255
147 190 255
147 190 255
147 190 255
147 190 255
147 190 255
147 190 255
147 190 255
147 190 255
147 190 255
147 190 255
147 190 255
147 190 255
147 190 255
147 190 255
147 190 255
147 190 255
147 190 255
147 190 255
147 190 255
147 190 255
147 190 255
147 190 255
147 190 255
147 190 255
147 190 255
147 190 255
147 190 255
147 190 255
147 191 255
147 191 255
147 191 255
147 191 255
147 191 255
147 191 255
147 191 255
147 191 255
148 191 255
148 191 255
148 191 255
148 191 255
148 191 255
148 191 255
148 191 255
148 191 255
148 191 255
148 191 255
148 191 255
148 191 255
148 191 255
148 191 255
148 191 255
148 191 255
149 191 255
149 191 255
149 191 255
149 191 255
149 191 255
149 192 255
149 192 255
149 192 255
149 192 255
149 192 255
149 192 255
149 192 255
149 192 255
150 192 255
150 192 255
150 192 255
150 192 255
150 192 255
150 192 255
150 192 255
150 192 255
150 192 255
150 192 255
150 192 255
151 193 255
151 193 255
151 193 255
151 193 255
151 193 255
151 193 255
151 193 255
151 193 255
151 193 255
151 193 255
152 193 255
152 193 255
152 193 255
152 193 255
152 193 255
152 193 255
152 194 255
152 194 255
152 194 255
153 194 255
153 194 255
153 194 255
153 194 255
153 194 255
153 194 255
153 194 255
153 194 255
153 194 255
153 194 255
154 194 255
154 194 255
154 194 255
154 195 255
154 195 255
154 195 255
154 195 255
154 195 255
154 195 255
155 195 255
155 195 255
155 195 255
155 195 255
155 195 255
155 195 255
155 195 255
155 195 255
155 195 255
156 196 255
156 196 255
156 196 255
156 196 255
156 196 255
156 196 255
156 196 255
156 196 255
156 196 255
157 196 255
157 196 255
157 196 255
157 196 255
157 196 255
157 196 255
157 196 255
157 197 255
157 197 255
157 197 255
158 197 255
158 197 255
158 197 255
158 197 255
158 197 255
158 197 255
158 197 255
158 197 255
158 197 255
159 197 255
159 197 255
159 197 255
159 198 255
159 198 255
159 198 255
159 198 255
159 198 255
159 198 255
159 198 255
160 198 255
160 198 255
160 198 255
160 198 255
160 198 255
160 198 255
160 198 255
160 198 255
160 198 255
160 198 255
161 199 255
161 199 255
161 199 255
161 199 255
161 199 255
161 199 255
161 199 255
161 199 255
161 199 255
161 199 255
162 199 255
162 199 255
162 199 255
162 199 255
162 199 255
162 199 255
162 199 255
162 200 255
162 200 255
162 200 255
162 200 255
163 200 255
163 200 255
163 200 255
163 200 255
163 200 255
163 200 255
163 200 255
163 200 255
163 200 255
163 200 255
163 200 255
164 200 255
164 200 255
164 200 255
164 200 255
164 201 255
164 201 255
164 200 255
164 200 255
164 200 255
164 200 255
163 200 255
163 200 255
163 200 255
163 200 255
163 200 255
163 200 255
163 200 255
163 200 255
163 200 255
163 200 255
163 200 255
162 200 255
162 200 255
162 200 255
162 200 255
162 199 255
162 199 255
162 199 255
162 199 255
162 199 255
162 199 255
162 199 255
161 199 255
161 199 255
161 199 255
161 199 255
161 199 255
161 199 255
161 199 255
161 199 255
161 199 255
161 199 255
160 198 255
160 198 255
160 198 255
160 198 255
160 198 255
160 198 255
160 198 255
160 198 255
160 198 255
160 198 255
159 198 255
159 198 255
159 198 255
159 198 255
159 198 255
159 198 255
159 198 255
159 197 255
159 197 255
159 197 255
158 197 255
158 197 255
158 197 255
158 197 255
158 197 255
158 197 255
158 197 255
158 197 255
158 197 255
157 197 255
157 197 255
157 197 255
157 197 255
157 196 255
157 196 255
157 196 255
157 196 255
157 196 255
157 196 255
156 196 255
156 196 255
156 196 255
156 196 255
156 196 255
156 196 255
156 196 255
156 196 255
156 196 255
155 195 255
155 195 255
155 195 255
155 195 255
155 195 255
155 195 255
155 195 255
155 195 255
155 195 255
154 195 255
154 195 255
154 195 255
154 195 255
154 195 255
154 195 255
154 194 255
154 194 255
154 194 255
153 194 255
153 194 255
153 194 255
153 194 255
153 194 255
153 194 255
153 194 255
153 194 255
153 194 255
153 194 255
152 194 255
152 194 255
152 194 255
152 193 255
152 193 255
152 193 255
152 193 255
152 193 255
152 193 255
151 193 255
151 193 255
151 193 255
151 193 255
151 193 255
151 193 255
151 193 255
151 193 255
151 193 255
151 193 255
151 193 255
150 192 255
150 192 255
150 192 255
150 192 255
150 192 255
150 192 255
150 192 255
150 192 255
150 192 255
150 192 255
150 192 255
149 192 255
149 192 255
149 192 255
149 192 255
149 192 255
149 192 255
149 192 255
149 192 255
149 191 255
149 191 255
149 191 255
149 191 255
149 191 255
148 191 255
148 191 255
148 191 255
148 191 255
148 191 255
148 191 255
148 191 255
148 191 255
148 191 255
148 191 255
148 191 255
148 191 255
148 191 255
148 191 255
148 191 255
148 191 255
148 191 255
148 191 255
147 191 255
147 191 255
147 191 255
147 191 255
147 191 255
147 191 255
147 191 255
147 191 255
147 191 255
147 190 255
147 190 255
147 190 255
147 190 255
147 190 255
147 190 255
147 190 255
147 190 255
147 190 255
147 190 255
147 190 255
147 190 255
147 190 255
147 190 255
147 190 255
147 190 255
147 190 255
147 190 255
147 190 255
147 190 255
147 190 255
147 190 255
147 190 255
147 190 255
147 190 255
147 190 255
147 190 255
147 190 255
147 190 255
147 190 255
147 191 255
147 191 255
147 191 255
147 191 255
147 191 255
147 191 255
147 191 255
147 191 255
147 191 255
147 191 255
148 191 255
148 191 255
148 191 255
148 191 255
148 191 255
148 191 255
148 191 255
148 191 255
148 191 255
148 191 255
148 191 255
148 191 255
148 191 255
148 191 255
148 191 255
148 191 255
148 191 255
149 191 255
149 191 255
149 191 255
149 191 255
149 191 255
149 192 255
149 192 255
149 192 255
149 192 255
149 192 255
149 192 255
149 192 255
149 192 255
150 192 255
150 192 255
150 192 255
150 192 255
150 192 255
150 192 255
150 192 255
150 192 255
150 192 255
150 192 255
150 192 255
151 193 255
151 193 255
151 193 255
151 193 255
151 193 255
151 193 255
151 193 255
151 193 255
151 193 255
151 193 255
151 193 255
152 193 255
152 193 255
152 193 255
152 193 255
152 193 255
152 193 255
152 194 255
152 194 255
152 194 255
153 194 255
153 194 255
153 194 255
153 194 255
153 194 255
153 194 255
153 194 255
153 194 255
153 194 255
153 194 255
154 194 255
154 194 255
154 194 255
154 195 255
154 195 255
154 195 255
154 195 255
154 195 255
154 195 255
155 195 255
155 195 255
155 195 255
155 195 255
155 195 255
155 195 255
155 195 255
155 195 255
155 195 255
156 196 255
156 196 255
156 196 255
156 196 255
156 196 255
156 196 255
156 196 255
156 196 255
156 196 255
157 196 255
157 196 255
157 196 255
157 196 255
157 196 255
157 196 255
157 197 255
157 197 255
157 197 255
157 197 255
158 197 255
158 197 255
158 197 255
158 197 255
158 197 255
158 197 255
158 197 255
158 197 255
158 197 255
159 197 255
159 197 255
159 197 255
159 198 255
159 198 255
159 198 255
159 198 255
159 198 255
159 198 255
159 198 255
160 198 255
160 198 255
160 198 255
160 198 255
160 198 255
160 198 255
160 198 255
160 198 255
160 198 255
160 198 255
161 199 255
161 199 255
161 199 255
161 199 255
161 199 255
161 199 255
161 199 255
161 199 255
161 199 255
161 199 255
162 199 255
162 199 255
162 199 255
162 199 255
162 199 255
162 199 255
162 199 255
162 200 255
162 200 255
162 200 255
162 200 255
163 200 255
163 200 255
163 200 255
163 200 255
163 200 255
163 200 255
163 200 255
163 200 255
163 200 255
163 200 255
163 200 255
164 200 255
164 200 255
164 200 255
164 200 255
164 201 255
164 201 255
164 201 255
164 201 255
164 201 255
164 201 255
164 201 255
164 200 255
164 200 255
164 200 255
164 200 255
163 200 255
163 200 255
163 200 255
163 200 255
163 200 255
163 200 255
163 200 255
163 200 255
163 200 255
163 200 255
163 200 255
162 200 255
162 200 255
162 200 255
162 199 255
162 199 255
162 199 255
162 199 255
162 199 255
162 199 255
162 199 255
161 199 255
161 199 255
161 199 255
161 199 255
161 199 255
161 199 255
161 199 255
161 199 255
161 199 255
161 199 255
161 199 255
160 198 255
160 198 255
160 198 255
160 198 255
160 198 255
160 198 255
160 198 255
160 198 255
160 198 255
159 198 255
159 198 255
159 198 255
159 198 255
159 198 255
159 198 255
159 198 255
159 197 255
159 197 255
159 197 255
158 197 255
158 197 255
158 197 255
158 197 255
158 197 255
158 197 255
158 197 255
158 197 255
158 197 255
158 197 255
157 197 255
157 197 255
157 197 255
157 196 255
157 196 255
157 196 255
157 196 255
157 196 255
157 196 255
156 196 255
156 196 255
156 196 255
156 196 255
156 196 255
156 196 255
156 196 255
156 196 255
156 196 255
155 195 255
155 195 255
155 195 255
155 195 255
155 195 255
155 195 255
155 195 255
155 195 255
155 195 255
154 195 255
154 195 255
154 195 255
154 195 255
154 195 255
154 195 255
154 194 255
154 194 255
154 194 255
153 194 255
153 194 255
153 194 255
153 194 255
153 194 255
153 194 255
153 194 255
153 194 255
153 194 255
153 194 255
152 194 255
152 194 255
152 194 255
152 193 255
152 193 255
152 193 255
152 193 255
152 193 255
152 193 255
151 193 255
151 193 255
151 193 255
151 193 255
151 193 255
151 193 255
151 193 255
151 193 255
151 193 255
151 193 255
151 193 255
150 192 255
150 192 255
150 192 255
150 192 255
150 192 255
150 192 255
150 192 255
150 192 255
150 192 255
150 192 255
150 192 255
149 192 255
149 192 255
149 192 255
149 192 255
149 192 255
149 192 255
149 192 255
149 192 255
149 192 255
149 191 255
149 191 255
149 191 255
149 191 255
149 191 255
148 191 255
148 191 255
148 191 255
148 191 255
148 191 255
148 191 255
148 191 255
148 191 255
148 191 255
148 191 255
148 191 255
148 191 255
148 191 255
148 191 255
148 191 255
148 191 255
148 191 255
148 191 255
148 191 255
148 191 255
147 191 255
147 191 255
147 191 255
147 191 255
147 191 255
147 191 255
147 191 255
147 191 255
147 191 255
147 191 255
147 191 255
147 191 255
147 191 255
147 191 255
147 191 255
147 191 255
147 191 255
147 191 255
147 191 255
147 191 255
147 191 255
147 191 255
147 191 255
147 191 255
147 191 255
147 191 255
147 191 255
147 191 255
147 191 255
147 191 255
147 191 255
147 191 255
147 191 255
147 191 255
147 191 255
147 191 255
147 191 255
147 191 255
148 191 255
148 191 255
148 191 255
148 191 255
148 191 255
148 191 255
148 191 255
148 191 255
148 191 255
148 191 255
148 191 255
148 191 255
148 191 255
148 191 255
148 191 255
148 191 255
148 191 255
148 191 255
148 191 255
148 191 255
149 191 255
149 191 255
149 191 255
149 191 255
149 191 255
149 192 255
149 192 255
149 192 255
149 192 255
149 192 255
149 192 255
149 192 255
149 192 255
149 192 255
150 192 255
150 192 255
150 192 255
150 192 255
150 192 255
150 192 255
150 192 255
150 192 255
150 192 255
150 192 255
150 192 255
151 193 255
151 193 255
151 193 255
151 193 255
151 193 255
151 193 255
151 193 255
151 193 255
151 193 255
151 193 255
152 193 255
152 193 255
152 193 255
152 193 255
152 193 255
152 193 255
152 193 255
152 194 255
152 194 255
152 194 255
153 194 255
153 194 255
153 194 255
153 194 255
153 194 255
153 194 255
153 194 255
153 194 255
153 194 255
153 194 255
154 194 255
154 194 255
154 194 255
154 195 255
154 195 255
154 195 255
154 195 255
154 195 255
154 195 255
155 195 255
155 195 255
155 195 255
155 195 255
155 195 255
155 195 255
155 195 255
155 195 255
155 195 255
156 196 255
156 196 255
156 196 255
156 196 255
156 196 255
156 196 255
156 196 255
156 196 255
156 196 255
157 196 255
157 196 255
157 196 255
157 196 255
157 196 255
157 196 255
157 197 255
157 197 255
157 197 255
158 197 255
158 197 255
158 197 255
158 197 255
158 197 255
158 197 255
158 197 255
158 197 255
158 197 255
158 197 255
159 197 255
159 197 255
159 197 255
159 198 255
159 198 255
159 198 255
159 198 255
159 198 255
159 198 255
160 198 255
160 198 255
160 198 255
160 198 255
160 198 255
160 198 255
160 198 255
160 198 255
160 198 255
160 198 255
161 199 255
161 199 255
161 199 255
161 199 255
161 199 255
161 199 255
161 199 255
161 199 255
161 199 255
161 199 255
161 199 255
162 199 255
162 199 255
162 199 255
162 199 255
162 199 255
162 199 255
162 199 255
162 200 255
162 200 255
162 200 255
163 200 255
163 200 255
163 200 255
163 200 255
163 200 255
163 200 255
163 200 255
163 200 255
163 200 255
163 200 255
163 200 255
164 200 255
164 200 255
164 200 255
164 200 255
164 201 255
164 201 255
164 201 255
164 201 255
164 201 255
164 201 255
164 201 255
164 201 255
164 201 255
164 201 255
164 201 255
164 201 255
164 200 255
164 200 255
164 200 255
164 200 255
163 200 255
163 200 255
163 200 255
163 200 255
163 200 255
163 200 255
163 200 255
163 200 255
163 200 255
163 200 255
163 200 255
162 200 255
162 200 255
162 200 255
162 200 255
162 199 255
162 199 255
162 199 255
162 199 255
162 199 255
162 199 255
162 199 255
161 199 255
161 199 255
161 199 255
161 199 255
161 199 255
161 199 255
161 199 255
161 199 255
161 199 255
161 199 255
160 198 255
160 198 255
160 198 255
160 198 255
160 198 255
160 198 255
160 198 255
160 198 255
160 198 255
160 198 255
159 198 255
159 198 255
159 198 255
159 198 255
159 198 255
159 198 255
159 197 255
159 197 255
159 197 255
158 197 255
158 197 255
158 197 255
158 197 255
158 197 255
158 197 255
158 197 255
158 197 255
158 197 255
158 197 255
157 197 255
157 197 255
157 197 255
157 196 255
157 196 255
157 196 255
157 196 255
157 196 255
157 196 255
156 196 255
156 196 255
156 196 255
156 196 255
156 196 255
156 196 255
156 196 255
156 196 255
156 196 255
155 195 255
155 195 255
155 195 255
155 195 255
155 195 255
155 195 255
155 195 255
155 195 255
155 195 255
154 195 255
154 195 255
154 195 255
154 195 255
154 195 255
154 195 255
154 195 255
154 194 255
154 194 255
154 194 255
153 194 255
153 194 255
153 194 255
153 194 255
153 194 255
153 194 255
153 194 255
153 194 255
153 194 255
152 194 255
152 194 255
152 194 255
152 193 255
152 193 255
152 193 255
152 193 255
152 193 255
152 193 255
152 193 255
151 193 255
151 193 255
151 193 255
151 193 255
151 193 255
151 193 255
151 193 255
151 193 255
151 193 255
151 193 255
150 192 255
150 192 255
150 192 255
150 192 255
150 192 255
150 192 255
150 192 255
150 192 255
150 192 255
150 192 255
150 192 255
150 192 255
149 192 255
149 192 255
149 192 255
149 192 255
149 192 255
149 192 255
149 192 255
149 192 255
149 192 255
149 191 255
149 191 255
149 191 255
149 191 255
149 191 255
149 191 255
148 191 255
148 191 255
148 191 255
148 191 255
148 191 255
148 191 255
148 191 255
148 191 255
148 191 255
148 191 255
148 191 255
148 191 255
148 191 255
148 191 255
148 191 255
148 191 255
148 191 255
148 191 255
148 191 255
148 191 255
148 191 255
148 191 255
148 191 255
148 191 255
147 191 255
147 191 255
147 191 255
147 191 255
147 191 255
147 191 255
147 191 255
147 191 255
147 191 255
147 191 255
147 191 255
147 191 255
147 191 255
147 191 255
147 191 255
147 191 255
147 191 255
147 191 255
147 191 255
147 191 255
147 191 255
148 191 255
148 191 255
148 191 255
148 191 255
148 191 255
148 191 255
148 191 255
148 191 255
148 191 255
148 191 255
148 191 255
148 191 255
148 191 255
148 191 255
148 191 255
148 191 255
148 191 255
148 191 255
148 191 255
148 191 255
148 191 255
148 191 255
148 191 255
148 191 255
148 191 255
149 191 255
149 191 255
149 191 255
149 191 255
149 191 255
149 191 255
149 192 255
149 192 255
149 192 255
149 192 255
149 192 255
149 192 255
149 192 255
149 192 255
149 192 255
150 192 255
150 192 255
150 192 255
150 192 255
150 192 255
150 192 255
150 192 255
150 192 255
150 192 255
150 192 255
150 192 255
150 192 255
151 193 255
151 193 255
151 193 255
151 193 255
151 193 255
151 193 255
151 193 255
151 193 255
151 193 255
151 193 255
152 193 255
152 193 255
152 193 255
152 193 255
152 193 255
152 193 255
152 193 255
152 194 255
152 194 255
152 194 255
153 194 255
153 194 255
153 194 255
153 194 255
153 194 255
153 194 255
153 194 255
153 194 255
153 194 255
154 194 255
154 194 255
154 194 255
154 194 255
154 195 255
154 195 255
154 195 255
154 195 255
154 195 255
154 195 255
155 195 255
155 195 255
155 195 255
155 195 255
155 195 255
155 195 255
155 195 255
155 195 255
155 195 255
156 196 255
156 196 255
156 196 255
156 196 255
156 196 255
156 196 255
156 196 255
156 196 255
156 196 255
157 196 255
157 196 255
157 196 255
157 196 255
157 196 255
157 196 255
157 197 255
157 197 255
157 197 255
158 197 255
158 197 255
158 197 255
158 197 255
158 197 255
158 197 255
158 197 255
158 197 255
158 197 255
158 197 255
159 197 255
159 197 255
159 197 255
159 198 255
159 198 255
159 198 255
159 198 255
159 198 255
159 198 255
160 198 255
160 198 255
160 198 255
160 198 255
160 198 255
160 198 255
160 198 255
160 198 255
160 198 255
160 198 255
161 199 255
161 199 255
161 199 255
161 199 255
161 199 255
161 199 255
161 199 255
161 199 255
161 199 255
161 199 255
162 199 255
162 199 255
162 199 255
162 199 255
162 199 255
162 199 255
162 199 255
162 200 255
162 200 255
162 200 255
162 200 255
163 200 255
163 200 255
163 200 255
163 200 255
163 200 255
163 200 255
163 200 255
163 200 255
163 200 255
163 200 255
163 200 255
164 200 255
164 200 255
164 200 255
164 200 255
164 201 255
164 201 255
164 201 255
164 201 255
164 201 255
164 201 255
164 201 255
165 201 255
165 201 255
164 201 255
164 201 255
164 201 255
164 201 255
164 201 255
164 201 255
164 201 255
164 201 255
164 200 255
164 200 255
164 200 255
163 200 255
163 200 255
163 200 255
163 200 255
163 200 255
163 200 255
163 200 255
163 200 255
163 200 255
163 200 255
163 200 255
162 200 255
162 200 255
162 200 255
162 200 255
162 199 255
162 199 255
162 199 255
162 199 255
162 199 255
162 199 255
162 199 255
161 199 255
161 199 255
161 199 255
161 199 255
161 199 255
161 199 255
161 199 255
161 199 255
161 199 255
161 199 255
160 198 255
160 198 255
160 198 255
160 198 255
160 198 255
160 198 255
160 198 255
160 198 255
160 198 255
160 198 255
159 198 255
159 198 255
159 198 255
159 198 255
159 198 255
159 198 255
159 197 255
159 197 255
159 197 255
158 197 255
158 197 255
158 197 255
158 197 255
158 197 255
158 197 255
158 197 255
158 197 255
158 197 255
158 197 255
157 197 255
157 197 255
157 197 255
157 196 255
157 196 255
157 196 255
157 196 255
157 196 255
157 196 255
156 196 255
156 196 255
156 196 255
156 196 255
156 196 255
156 196 255
156 196 255
156 196 255
156 196 255
155 195 255
155 195 255
155 195 255
155 195 255
155 195 255
155 195 255
155 195 255
155 195 255
155 195 255
154 195 255
154 195 255
154 195 255
154 195 255
154 195 255
154 195 255
154 194 255
154 194 255
154 194 255
154 194 255
153 194 255
153 194 255
153 194 255
153 194 255
153 194 255
153 194 255
153 194 255
153 194 255
153 194 255
152 194 255
152 194 255
152 194 255
152 193 255
152 193 255
152 193 255
152 193 255
152 193 255
152 193 255
152 193 255
151 193 255
151 193 255
151 193 255
151 193 255
151 193 255
151 193 255
151 193 255
151 193 255
151 193 255
151 193 255
151 193 255
150 192 255
150 192 255
150 192 255
150 192 255
150 192 255
150 192 255
150 192 255
150 192 255
150 192 255
150 192 255
150 192 255
150 192 255
149 192 255
149 192 255
149 192 255
149 192 255
149 192 255
149 192 255
149 192 255
149 192 255
149 192 255
149 192 255
149 191 255
149 191 255
149 191 255
149 191 255
149 191 255
148 191 255
148 191 255
148 191 255
148 191 255
148 191 255
148 191 255
148 191 255
148 191 255
148 191 255
148 191 255
148 191 255
148 191 255
148 191 255
148 191 255
148 191 255
148 191 255
148 191 255
148 191 255
148 191 255
148 191 255
148 191 255
148 191 255
148 191 255
148 191 255
148 191 255
148 191 255
148 191 255
148 191 255
148 191 255
148 191 255
148 191 255
148 191 255
148 191 255
148 191 255
148 191 255
148 191 255
148 191 255
148 191 255
148 191 255
148 191 255
148 191 255
148 191 255
148 191 255
148 191 255
148 191 255
148 191 255
148 191 255
148 191 255
148 191 255
148 191 255
148 191 255
148 191 255
148 191 255
148 191 255
148 191 255
148 191 255
148 191 255
148 191 255
148 191 255
148 191 255
148 191 255
148 191 255
148 191 255
149 191 255
149 191 255
149 191 255
149 191 255
149 191 255
149 191 255
149 192 255
149 192 255
149 192 255
149 192 255
149 192 255
149 192 255
149 192 255
149 192 255
149 192 255
149 192 255
150 192 255
150 192 255
150 192 255
150 192 255
150 192 255
150 192 255
150 192 255
150 192 255
150 192 255
150 192 255
150 192 255
150 192 255
151 193 255
151 193 255
151 193 255
151 193 255
151 193 255
151 193 255
151 193 255
151 193 255
151 193 255
151 193 255
151 193 255
152 193 255
152 193 255
152 193 255
152 193 255
152 193 255
152 193 255
152 193 255
152 194 255
152 194 255
152 194 255
153 194 255
153 194 255
153 194 255
153 194 255
153 194 255
153 194 255
153 194 255
153 194 255
153 194 255
154 194 255
154 194 255
154 194 255
154 195 255
154 195 255
154 195 255
154 195 255
154 195 255
154 195 255
154 195 255
155 195 255
155 195 255
155 195 255
155 195 255
155 195 255
155 195 255
155 195 255
155 195 255
155 195 255
156 196 255
156 196 255
156 196 255
156 196 255
156 196 255
156 196 255
156 196 255
156 196 255
156 196 255
157 196 255
157 196 255
157 196 255
157 196 255
157 196 255
157 196 255
157 197 255
157 197 255
157 197 255
158 197 255
158 197 255
158 197 255
158 197 255
158 197 255
158 197 255
158 197 255
158 197 255
158 197 255
159 197 255
159 197 255
159 197 255
159 197 255
159 198 255
159 198 255
159 198 255
159 198 255
159 198 255
159 198 255
160 198 255
160 198 255
160 198 255
160 198 255
160 198 255
160 198 255
160 198 255
160 198 255
160 198 255
160 198 255
161 199 255
161 199 255
161 199 255
161 199 255
161 199 255
161 199 255
161 199 255
161 199 255
161 199 255
161 199 255
162 199 255
162 199 255
162 199 255
162 199 255
162 199 255
162 199 255
162 199 255
162 200 255
162 200 255
162 200 255
162 200 255
163 200 255
163 200 255
163 200 255
163 200 255
163 200 255
163 200 255
163 200 255
163 200 255
163 200 255
163 200 255
163 200 255
164 200 255
164 200 255
164 200 255
164 201 255
164 201 255
164 201 255
164 201 255
164 201 255
164 201 255
164 201 255
164 201 255
165 201 255
165 201 255
165 201 255
165 201 255
165 201 255
165 201 255
164 201 255
164 201 255
164 201 255
164 201 255
164 201 255
164 201 255
164 201 255
164 201 255
164 200 255
164 200 255
164 200 255
164 200 255
163 200 255
163 200 255
163 200 255
163 200 255
163 200 255
163 200 255
163 200 255
163 200 255
163 200 255
163 200 255
163 200 255
162 200 255
162 200 255
162 200 255
162 199 255
162 199 255
162 199 255
162 199 255
162 199 255
162 199 255
162 199 255
161 199 255
161 199 255
161 199 255
161 199 255
161 199 255
161 199 255
161 199 255
161 199 255
161 199 255
161 199 255
160 198 255
160 198 255
160 198 255
160 198 255
160 198 255
160 198 255
160 198 255
160 198 255
160 198 255
160 198 255
159 198 255
159 198 255
159 198 255
159 198 255
159 198 255
159 198 255
159 198 255
159 197 255
159 197 255
159 197 255
158 197 255
158 197 255
158 197 255
158 197 255
158 197 255
158 197 255
158 197 255
158 197 255
158 197 255
157 197 255
157 197 255
157 197 255
157 196 255
157 196 255
157 196 255
157 196 255
157 196 255
157 196 255
156 196 255
156 196 255
156 196 255
156 196 255
156 196 255
156 196 255
156 196 255
156 196 255
156 196 255
155 195 255
155 195 255
155 195 255
155 195 255
155 195 255
155 195 255
155 195 255
155 195 255
155 195 255
154 195 255
154 195 255
154 195 255
154 195 255
154 195 255
154 195 255
154 195 255
154 194 255
154 194 255
154 194 255
153 194 255
153 194 255
153 194 255
153 194 255
153 194 255
153 194 255
153 194 255
153 194 255
153 194 255
152 194 255
152 194 255
152 194 255
152 194 255
152 193 255
152 193 255
152 193 255
152 193 255
152 193 255
152 193 255
152 193 255
151 193 255
151 193 255
151 193 255
151 193 255
151 193 255
151 193 255
151 193 255
151 193 255
151 193 255
151 193 255
151 193 255
150 192 255
150 192 255
150 192 255
150 192 255
150 192 255
150 192 255
150 192 255
150 192 255
150 192 255
150 192 255
150 192 255
150 192 255
149 192 255
149 192 255
149 192 255
149 192 255
149 192 255
149 192 255
149 192 255
149 192 255
149 192 255
149 192 255
149 192 255
149 191 255
149 191 255
149 191 255
149 191 255
149 191 255
149 191 255
148 191 255
148 191 255
148 191 255
148 191 255
148 191 255
148 191 255
148 191 255
148 191 255
148 191 255
148 191 255
148 191 255
148 191 255
148 191 255
148 191 255
148 191 255
148 191 255
148 191 255
148 191 255
148 191 255
148 191 255
148 191 255
148 191 255
148 191 255
148 191 255
148 191 255
148 191 255
148 191 255
148 191 255
148 191 255
148 191 255
148 191 255
148 191 255
148 191 255
148 191 255
148 191 255
148 191 255
148 191 255
148 191 255
148 191 255
148 191 255
148 191 255
148 191 255
148 191 255
148 191 255
148 191 255
148 191 255
148 191 255
148 191 255
148 191 255
148 191 255
148 191 255
148 191 255
148 191 255
148 191 255
149 191 255
149 191 255
149 191 255
149 191 255
149 191 255
149 191 255
149 191 255
149 192 255
149 192 255
149 192 255
149 192 255
149 192 255
149 192 255
149 192 255
149 192 255
149 192 255
149 192 255
150 192 255
150 192 255
150 192 255
150 192 255
150 192 255
150 192 255
150 192 255
150 192 255
150 192 255
150 192 255
150 192 255
150 192 255
151 193 255
151 193 255
151 193 255
151 193 255
151 193 255
151 193 255
151 193 255
151 193 255
151 193 255
151 193 255
151 193 255
151 193 255
152 193 255
152 193 255
152 193 255
152 193 255
152 193 255
152 193 255
152 194 255
152 194 255
152 194 255
153 194 255
153 194 255
153 194 255
153 194 255
153 194 255
153 194 255
153 194 255
153 194 255
153 194 255
153 194 255
154 194 255
154 194 255
154 194 255
154 195 255
154 195 255
154 195 255
154 195 255
154 195 255
154 195 255
155 195 255
155 195 255
155 195 255
155 195 255
155 195 255
155 195 255
155 195 255
155 195 255
155 195 255
155 195 255
156 196 255
156 196 255
156 196 255
156 196 255
156 196 255
156 196 255
156 196 255
156 196 255
156 196 255
157 196 255
157 196 255
157 196 255
157 196 255
157 196 255
157 196 255
157 197 255
157 197 255
157 197 255
158 197 255
158 197 255
158 197 255
158 197 255
158 197 255
158 197 255
158 197 255
158 197 255
158 197 255
159 197 255
159 197 255
159 197 255
159 197 255
159 198 255
159 198 255
159 198 255
159 198 255
159 198 255
159 198 255
160 198 255
160 198 255
160 198 255
160 198 255
160 198 255
160 198 255
160 198 255
160 198 255
160 198 255
160 198 255
161 199 255
161 199 255
161 199 255
161 199 255
161 199 255
161 199 255
161 199 255
161 199 255
161 199 255
161 199 255
162 199 255
162 199 255
162 199 255
162 199 255
162 199 255
162 199 255
162 199 255
162 200 255
162 200 255
162 200 255
163 200 255
163 200 255
163 200 255
163 200 255
163 200 255
163 200 255
163 200 255
163 200 255
163 200 255
163 200 255
163 200 255
164 200 255
164 200 255
164 200 255
164 200 255
164 201 255
164 201 255
164 201 255
164 201 255
164 201 255
164 201 255
164 201 255
164 201 255
165 201 255
165 201 255
165 201 255
165 201 255
165 201 255
165 201 255
165 201 255
165 201 255
165 201 255
165 201 255
165 201 255
164 201 255
164 201 255
164 201 255
164 201 255
164 201 255
164 201 255
164 201 255
164 201 255
164 200 255
164 200 255
164 200 255
163 200 255
163 200 255
163 200 255
163 200 255
163 200 255
163 200 255
163 200 255
163 200 255
163 200 255
163 200 255
163 200 255
162 200 255
162 200 255
162 200 255
162 200 255
162 199 255
162 199 255
162 199 255
162 199 255
162 199 255
162 199 255
161 199 255
161 199 255
161 199 255
161 199 255
161 199 255
161 199 255
161 199 255
161 199 255
161 199 255
161 199 255
160 198 255
160 198 255
160 198 255
160 198 255
160 198 255
160 198 255
160 198 255
160 198 255
160 198 255
160 198 255
159 198 255
159 198 255
159 198 255
159 198 255
159 198 255
159 198 255
159 198 255
159 197 255
159 197 255
159 197 255
158 197 255
158 197 255
158 197 255
158 197 255
158 197 255
158 197 255
158 197 255
158 197 255
158 197 255
157 197 255
157 197 255
157 197 255
157 196 255
157 196 255
157 196 255
157 196 255
157 196 255
157 196 255
156 196 255
156 196 255
156 196 255
156 196 255
156 196 255
156 196 255
156 196 255
156 196 255
156 196 255
155 195 255
155 195 255
155 195 255
155 195 255
155 195 255
155 195 255
155 195 255
155 195 255
155 195 255
155 195 255
154 195 255
154 195 255
154 195 255
154 195 255
154 195 255
154 195 255
154 194 255
154 194 255
154 194 255
153 194 255
153 194 255
153 194 255
153 194 255
153 194 255
153 194 255
153 194 255
153 194 255
153 194 255
153 194 255
152 194 255
152 194 255
152 194 255
152 193 255
152 193 255
152 193 255
152 193 255
152 193 255
152 193 255
152 193 255
151 193 255
151 193 255
151 193 255
151 193 255
151 193 255
151 193 255
151 193 255
151 193 255
151 193 255
151 193 255
151 193 255
150 192 255
150 192 255
150 192 255
150 192 255
150 192 255
150 192 255
150 192 255
150 192 255
150 192 255
150 192 255
150 192 255
150 192 255
150 192 255
150 192 255
149 192 255
149 192 255
149 192 255
149 192 255
149 192 255
149 192 255
149 192 255
149 192 255
149 192 255
149 192 255
149 192 255
149 191 255
149 191 255
149 191 255
149 191 255
149 191 255
149 191 255
149 191 255
148 191 255
148 191 255
148 191 255
148 191 255
148 191 255
148 191 255
148 191 255
148 191 255
148 191 255
148 191 255
148 191 255
148 191 255
148 191 255
148 191 255
148 191 255
148 191 255
148 191 255
148 191 255
148 191 255
148 191 255
148 191 255
148 191 255
148 191 255
148 191 255
148 191 255
148 191 255
148 191 255
148 191 255
148 191 255
148 191 255
148 191 255
148 191 255
148 191 255
148 191 255
148 191 255
148 191 255
148 191 255
148 191 255
148 191 255
148 191 255
148 191 255
148 191 255
148 191 255
148 191 255
149 191 255
149 191 255
149 191 255
149 191 255
149 191 255
149 191 255
149 191 255
149 191 255
149 192 255
149 192 255
149 192 255
149 192 255
149 192 255
149 192 255
149 192 255
149 192 255
149 192 255
149 192 255
149 192 255
150 192 255
150 192 255
150 192 255
150 192 255
150 192 255
150 192 255
150 192 255
150 192 255
150 192 255
150 192 255
150 192 255
150 192 255
150 192 255
151 193 255
151 193 255
151 193 255
151 193 255
151 193 255
151 193 255
151 193 255
151 193 255
151 193 255
151 193 255
151 193 255
152 193 255
152 193 255
152 193 255
152 193 255
152 193 255
152 193 255
152 193 255
152 194 255
152 194 255
152 194 255
153 194 255
153 194 255
153 194 255
153 194 255
153 194 255
153 194 255
153 194 255
153 194 255
153 194 255
153 194 255
154 194 255
154 194 255
154 194 255
154 195 255
154 195 255
154 195 255
154 195 255
154 195 255
154 195 255
155 195 255
155 195 255
155 195 255
155 195 255
155 195 255
155 195 255
155 195 255
155 195 255
155 195 255
155 195 255
156 196 255
156 196 255
156 196 255
156 196 255
156 196 255
156 196 255
156 196 255
156 196 255
156 196 255
157 196 255
157 196 255
157 196 255
157 196 255
157 196 255
157 196 255
157 197 255
157 197 255
157 197 255
158 197 255
158 197 255
158 197 255
158 197 255
158 197 255
158 197 255
158 197 255
158 197 255
158 197 255
159 197 255
159 197 255
159 197 255
159 198 255
159 198 255
159 198 255
159 198 255
159 198 255
159 198 255
159 198 255
160 198 255
160 198 255
160 198 255
160 198 255
160 198 255
160 198 255
160 198 255
160 198 255
160 198 255
161 199 255
161 199 255
161 199 255
161 199 255
161 199 255
161 199 255
161 199 255
161 199 255
161 199 255
161 199 255
162 199 255
162 199 255
162 199 255
162 199 255
162 199 255
162 199 255
162 199 255
162 200 255
162 200 255
162 200 255
162 200 255
163 200 255
163 200 255
163 200 255
163 200 255
163 200 255
163 200 255
163 200 255
163 200 255
163 200 255
163 200 255
163 200 255
164 200 255
164 200 255
164 200 255
164 200 255
164 201 255
164 201 255
164 201 255
164 201 255
164 201 255
164 201 255
164 201 255
165 201 255
165 201 255
165 201 255
165 201 255
165 201 255
165 201 255
165 201 255
165 201 255
165 201 255
165 201 255
165 201 255
165 201 255
165 201 255
165 201 255
165 201 255
165 201 255
164 201 255
164 201 255
164 201 255
164 201 255
164 201 255
164 201 255
164 201 255
164 201 255
164 200 255
164 200 255
164 200 255
164 200 255
163 200 255
163 200 255
163 200 255
163 200 255
163 200 255
163 200 255
163 200 255
163 200 255
163 200 255
163 200 255
162 200 255
162 200 255
162 200 255
162 200 255
162 199 255
162 199 255
162 199 255
162 199 255
162 199 255
162 199 255
162 199 255
161 199 255
161 199 255
161 199 255
161 199 255
161 199 255
161 199 255
161 199 255
161 199 255
161 199 255
161 199 255
160 198 255
160 198 255
160 198 255
160 198 255
160 198 255
160 198 255
160 198 255
160 198 255
160 198 255
159 198 255
159 198 255
159 198 255
159 198 255
159 198 255
159 198 255
159 198 255
159 197 255
159 197 255
159 197 255
158 197 255
158 197 255
158 197 255
158 197 255
158 197 255
158 197 255
158 197 255
158 197 255
158 197 255
157 197 255
157 197 255
157 197 255
157 196 255
157 196 255
157 196 255
157 196 255
157 196 255
157 196 255
156 196 255
156 196 255
156 196 255
156 196 255
156 196 255
156 196 255
156 196 255
156 196 255
156 196 255
156 196 255
155 195 255
155 195 255
155 195 255
155 195 255
155 195 255
155 195 255
155 195 255
155 195 255
155 195 255
154 195 255
154 195 255
154 195 255
154 195 255
154 195 255
154 195 255
154 194 255
154 194 255
154 194 255
153 194 255
153 194 255
153 194 255
153 194 255
153 194 255
153 194 255
153 194 255
153 194 255
153 194 255
153 194 255
152 194 255
152 194 255
152 194 255
152 194 255
152 193 255
152 193 255
152 193 255
152 193 255
152 193 255
152 193 255
152 193 255
151 193 255
151 193 255
151 193 255
151 193 255
151 193 255
151 193 255
151 193 255
151 193 255
151 193 255
151 193 255
151 193 255
150 192 255
150 192 255
150 192 255
150 192 255
150 192 255
150 192 255
150 192 255
150 192 255
150 192 255
150 192 255
150 192 255
150 192 255
150 192 255
150 192 255
149 192 255
149 192 255
149 192 255
149 192 255
149 192 255
149 192 255
149 192 255
149 192 255
149 192 255
149 192 255
149 192 255
149 192 255
149 192 255
149 191 255
149 191 255
149 191 255
149 191 255
149 191 255
149 191 255
149 191 255
149 191 255
148 191 255
148 191 255
148 191 255
148 191 255
148 191 255
148 191 255
148 191 255
148 191 255
148 191 255
148 191 255
148 191 255
148 191 255
148 191 255
148 191 255
148 191 255
148 191 255
148 191 255
148 191 255
148 191 255
148 191 255
148 191 255
148 191 255
148 191 255
148 191 255
148 191 255
148 191 255
148 191 255
148 191 255
148 191 255
148 191 255
148 191 255
149 191 255
149 191 255
149 191 255
149 191 255
149 191 255
149 191 255
149 191 255
149 191 255
149 191 255
149 191 255
149 192 255
149 192 255
149 192 255
149 192 255
149 192 255
149 192 255
149 192 255
149 192 255
149 192 255
149 192 255
149 192 255
149 192 255
150 192 255
150 192 255
150 192 255
150 192 255
150 192 255
150 192 255
150 192 255
150 192 255
150 192 255
150 192 255
150 192 255
150 192 255
150 192 255
150 192 255
151 193 255
151 193 255
151 193 255
151 193 255
151 193 255
151 193 255
151 193 255
151 193 255
151 193 255
151 193 255
151 193 255
152 193 255
152 193 255
152 193 255
152 193 255
152 193 255
152 193 255
152 193 255
152 194 255
152 194 255
152 194 255
152 194 255
153 194 255
153 194 255
153 194 255
153 194 255
153 194 255
153 194 255
153 194 255
153 194 255
153 194 255
153 194 255
154 194 255
154 194 255
154 194 255
154 195 255
154 195 255
154 195 255
154 195 255
154 195 255
154 195 255
155 195 255
155 195 255
155 195 255
155 195 255
155 195 255
155 195 255
155 195 255
155 195 255
155 195 255
156 196 255
156 196 255
156 196 255
156 196 255
156 196 255
156 196 255
156 196 255
156 196 255
156 196 255
156 196 255
157 196 255
157 196 255
157 196 255
157 196 255
157 196 255
157 196 255
157 197 255
157 197 255
157 197 255
158 197 255
158 197 255
158 197 255
158 197 255
158 197 255
158 197 255
158 197 255
158 197 255
158 197 255
159 197 255
159 197 255
159 197 255
159 198 255
159 198 255
159 198 255
159 198 255
159 198 255
159 198 255
160 198 255
160 198 255
160 198 255
160 198 255
160 198 255
160 198 255
160 198 255
160 198 255
160 198 255
160 198 255
161 199 255
161 199 255
161 199 255
161 199 255
161 199 255
161 199 255
161 199 255
161 199 255
161 199 255
161 199 255
162 199 255
162 199 255
162 199 255
162 199 255
162 199 255
162 199 255
162 199 255
162 200 255
162 200 255
162 200 255
162 200 255
163 200 255
163 200 255
163 200 255
163 200 255
163 200 255
163 200 255
163 200 255
163 200 255
163 200 255
163 200 255
164 200 255
164 200 255
164 200 255
164 200 255
164 201 255
164 201 255
164 201 255
164 201 255
164 201 255
164 201 255
164 201 255
164 201 255
165 201 255
165 201 255
165 201 255
165 201 255
165 201 255
165 201 255
165 201 255
165 201 255
165 201 255
165 201 255
165 201 255
165 201 255
165 201 255
165 201 255
165 201 255
165 201 255
165 201 255
165 201 255
165 201 255
165 201 255
165 201 255
164 201 255
164 201 255
164 201 255
164 201 255
164 201 255
164 201 255
164 201 255
164 201 255
164 200 255
164 200 255
164 200 255
163 200 255
163 200 255
163 200 255
163 200 255
163 200 255
163 200 255
163 200 255
163 200 255
163 200 255
163 200 255
163 200 255
162 200 255
162 200 255
162 200 255
162 199 255
162 199 255
162 199 255
162 199 255
162 199 255
162 199 255
162 199 255
161 199 255
161 199 255
161 199 255
161 199 255
161 199 255
161 199 255
161 199 255
161 199 255
161 199 255
161 199 255
160 198 255
160 198 255
160 198 255
160 198 255
160 198 255
160 198 255
160 198 255
160 198 255
160 198 255
160 198 255
159 198 255
159 198 255
159 198 255
159 198 255
159 198 255
159 198 255
159 197 255
159 197 255
159 197 255
158 197 255
158 197 255
158 197 255
158 197 255
158 197 255
158 197 255
158 197 255
158 197 255
158 197 255
158 197 255
157 197 255
157 197 255
157 197 255
157 196 255
157 196 255
157 196 255
157 196 255
157 196 255
157 196 255
156 196 255
156 196 255
156 196 255
156 196 255
156 196 255
156 196 255
156 196 255
156 196 255
156 196 255
155 195 255
155 195 255
155 195 255
155 195 255
155 195 255
155 195 255
155 195 255
155 195 255
155 195 255
154 195 255
154 195 255
154 195 255
154 195 255
154 195 255
154 195 255
154 194 255
154 194 255
154 194 255
154 194 255
153 194 255
153 194 255
153 194 255
153 194 255
153 194 255
153 194 255
153 194 255
153 194 255
153 194 255
152 194 255
152 194 255
152 194 255
152 194 255
152 193 255
152 193 255
152 193 255
152 193 255
152 193 255
152 193 255
152 193 255
151 193 255
151 193 255
151 193 255
151 193 255
151 193 255
151 193 255
151 193 255
151 193 255
151 193 255
151 193 255
151 193 255
151 193 255
150 192 255
150 192 255
150 192 255
150 192 255
150 192 255
150 192 255
150 192 255
150 192 255
150 192 255
150 192 255
150 192 255
150 192 255
150 192 255
150 192 255
150 192 255
149 192 255
149 192 255
149 192 255
149 192 255
149 192 255
149 192 255
149 192 255
149 192 255
149 192 255
149 192 255
149 192 255
149 192 255
149 192 255
149 192 255
149 191 255
149 191 255
149 191 255
149 191 255
149 191 255
149 191 255
149 191 255
149 191 255
149 191 255
149 191 255
149 191 255
149 191 255
149 191 255
149 191 255
149 191 255
149 191 255
149 191 255
149 191 255
149 191 255
149 191 255
149 191 255
149 191 255
149 191 255
149 191 255
149 191 255
149 191 255
149 191 255
149 191 255
149 191 255
149 191 255
149 191 255
149 191 255
149 191 255
149 191 255
149 191 255
149 191 255
149 191 255
149 191 255
149 192 255
149 192 255
149 192 255
149 192 255
149 192 255
149 192 255
149 192 255
149 192 255
149 192 255
149 192 255
149 192 255
149 192 255
149 192 255
149 192 255
150 192 255
150 192 255
150 192 255
150 192 255
150 192 255
150 192 255
150 192 255
150 192 255
150 192 255
150 192 255
150 192 255
150 192 255
150 192 255
150 192 255
150 192 255
151 193 255
151 193 255
151 193 255
151 193 255
151 193 255
151 193 255
151 193 255
151 193 255
151 193 255
151 193 255
151 193 255
151 193 255
152 193 255
152 193 255
152 193 255
152 193 255
152 193 255
152 193 255
152 193 255
152 194 255
152 194 255
152 194 255
153 194 255
153 194 255
153 194 255
153 194 255
153 194 255
153 194 255
153 194 255
153 194 255
153 194 255
153 194 255
154 194 255
154 194 255
154 194 255
154 194 255
154 195 255
154 195 255
154 195 255
154 195 255
154 195 255
154 195 255
155 195 255
155 195 255
155 195 255
155 195 255
155 195 255
155 195 255
155 195 255
155 195 255
155 195 255
156 196 255
156 196 255
156 196 255
156 196 255
156 196 255
156 196 255
156 196 255
156 196 255
156 196 255
157 196 255
157 196 255
157 196 255
157 196 255
157 196 255
157 196 255
157 197 255
157 197 255
157 197 255
158 197 255
158 197 255
158 197 255
158 197 255
158 197 255
158 197 255
158 197 255
158 197 255
158 197 255
158 197 255
159 197 255
159 197 255
159 197 255
159 198 255
159 198 255
159 198 255
159 198 255
159 198 255
159 198 255
160 198 255
160 198 255
160 198 255
160 198 255
160 198 255
160 198 255
160 198 255
160 198 255
160 198 255
160 198 255
161 199 255
161 199 255
161 199 255
161 199 255
161 199 255
161 199 255
161 199 255
161 199 255
161 199 255
161 199 255
162 199 255
162 199 255
162 199 255
162 199 255
162 199 255
162 199 255
162 199 255
162 200 255
162 200 255
162 200 255
163 200 255
163 200 255
163 200 255
163 200 255
163 200 255
163 200 255
163 200 255
163 200 255
163 200 255
163 200 255
163 200 255
164 200 255
164 200 255
164 200 255
164 200 255
164 201 255
164 201 255
164 201 255
164 201 255
164 201 255
164 201 255
164 201 255
165 201 255
165 201 255
165 201 255
165 201 255
165 201 255
165 201 255
165 201 255
165 201 255
165 201 255
165 201 255
165 201 255
165 201 255
166 202 255
166 202 255
166 202 255
165 201 255
165 201 255
165 201 255
165 201 255
165 201 255
165 201 255
165 201 255
165 201 255
165 201 255
165 201 255
165 201 255
164 201 255
164 201 255
164 201 255
164 201 255
164 201 255
164 201 255
164 201 255
164 201 255
164 200 255
164 200 255
164 200 255
164 200 255
163 200 255
163 200 255
163 200 255
163 200 255
163 200 255
163 200 255
163 200 255
163 200 255
163 200 255
163 200 255
162 200 255
162 200 255
162 200 255
162 200 255
162 199 255
162 199 255
162 199 255
162 199 255
162 199 255
162 199 255
162 199 255
161 199 255
161 199 255
161 199 255
161 199 255
161 199 255
161 199 255
161 199 255
161 199 255
161 199 255
161 199 255
160 198 255
160 198 255
160 198 255
160 198 255
160 198 255
160 198 255
160 198 255
160 198 255
160 198 255
159 198 255
159 198 255
159 198 255
159 198 255
159 198 255
159 198 255
159 197 255
159 197 255
159 197 255
158 197 255
158 197 255
158 197 255
158 197 255
158 197 255
158 197 255
158 197 255
158 197 255
158 197 255
158 197 255
157 197 255
157 197 255
157 197 255
157 196 255
157 196 255
157 196 255
157 196 255
157 196 255
157 196 255
156 196 255
156 196 255
156 196 255
156 196 255
156 196 255
156 196 255
156 196 255
156 196 255
156 196 255
155 195 255
155 195 255
155 195 255
155 195 255
155 195 255
155 195 255
155 195 255
155 195 255
155 195 255
155 195 255
154 195 255
154 195 255
154 195 255
154 195 255
154 195 255
154 195 255
154 194 255
154 194 255
154 194 255
153 194 255
153 194 255
153 194 255
153 194 255
153 194 255
153 194 255
153 194 255
153 194 255
153 194 255
153 194 255
152 194 255
152 194 255
152 194 255
152 193 255
152 193 255
152 193 255
152 193 255
152 193 255
152 193 255
152 193 255
152 193 255
151 193 255
151 193 255
151 193 255
151 193 255
151 193 255
151 193 255
151 193 255
151 193 255
151 193 255
151 193 255
151 193 255
151 193 255
150 192 255
150 192 255
150 192 255
150 192 255
150 192 255
150 192 255
150 192 255
150 192 255
150 192 255
150 192 255
150 192 255
150 192 255
150 192 255
150 192 255
150 192 255
150 192 255
149 192 255
149 192 255
149 192 255
149 192 255
149 192 255
149 192 255
149 192 255
149 192 255
149 192 255
149 192 255
149 192 255
149 192 255
149 192 255
149 192 255
149 192 255
149 192 255
149 192 255
149 192 255
149 192 255
149 192 255
149 191 255
149 191 255
149 191 255
149 191 255
149 191 255
149 191 255
149 191 255
149 191 255
149 191 255
149 191 255
149 191 255
149 191 255
149 191 255
149 191 255
149 191 255
149 191 255
149 191 255
149 191 255
149 192 255
149 192 255
149 192 255
149 192 255
149 192 255
149 192 255
149 192 255
149 192 255
149 192 255
149 192 255
149 192 255
149 192 255
149 192 255
149 192 255
149 192 255
149 192 255
149 192 255
149 192 255
149 192 255
149 192 255
150 192 255
150 192 255
150 192 255
150 192 255
150 192 255
150 192 255
150 192 255
150 192 255
150 192 255
150 192 255
150 192 255
150 192 255
150 192 255
150 192 255
150 192 255
150 192 255
151 193 255
151 193 255
151 193 255
151 193 255
151 193 255
151 193 255
151 193 255
151 193 255
151 193 255
151 193 255
151 193 255
151 193 255
152 193 255
152 193 255
152 193 255
152 193 255
152 193 255
152 193 255
152 193 255
152 194 255
152 194 255
152 194 255
152 194 255
153 194 255
153 194 255
153 194 255
153 194 255
153 194 255
153 194 255
153 194 255
153 194 255
153 194 255
153 194 255
154 194 255
154 194 255
154 194 255
154 195 255
154 195 255
154 195 255
154 195 255
154 195 255
154 195 255
154 195 255
155 195 255
155 195 255
155 195 255
155 195 255
155 195 255
155 195 255
155 195 255
155 195 255
155 195 255
156 196 255
156 196 255
156 196 255
156 196 255
156 196 255
156 196 255
156 196 255
156 196 255
156 196 255
157 196 255
157 196 255
157 196 255
157 196 255
157 196 255
157 196 255
157 197 255
157 197 255
157 197 255
158 197 255
158 197 255
158 197 255
158 197 255
158 197 255
158 197 255
158 197 255
158 197 255
158 197 255
158 197 255
159 197 255
159 197 255
159 197 255
159 198 255
159 198 255
159 198 255
159 198 255
159 198 255
159 198 255
160 198 255
160 198 255
160 198 255
160 198 255
160 198 255
160 198 255
160 198 255
160 198 255
160 198 255
160 198 255
161 199 255
161 199 255
161 199 255
161 199 255
161 199 255
161 199 255
161 199 255
161 199 255
161 199 255
161 199 255
162 199 255
162 199 255
162 199 255
162 199 255
162 199 255
162 199 255
162 200 255
162 200 255
162 200 255
162 200 255
163 200 255
163 200 255
163 200 255
163 200 255
163 200 255
163 200 255
163 200 255
163 200 255
163 200 255
163 200 255
164 200 255
164 200 255
164 200 255
164 200 255
164 201 255
164 201 255
164 201 255
164 201 255
164 201 255
164 201 255
164 201 255
164 201 255
165 201 255
165 201 255
165 201 255
165 201 255
165 201 255
165 201 255
165 201 255
165 201 255
165 201 255
165 201 255
165 201 255
166 202 255
166 202 255
166 202 255
166 202 255
166 202 255
166 202 255
166 202 255
166 202 255
165 201 255
165 201 255
165 201 255
165 201 255
165 201 255
165 201 255
165 201 255
165 201 255
165 201 255
165 201 255
165 201 255
165 201 255
164 201 255
164 201 255
164 201 255
164 201 255
164 201 255
164 201 255
164 201 255
164 200 255
164 200 255
164 200 255
164 200 255
163 200 255
163 200 255
163 200 255
163 200 255
163 200 255
163 200 255
163 200 255
163 200 255
163 200 255
163 200 255
163 200 255
162 200 255
162 200 255
162 200 255
162 199 255
162 199 255
162 199 255
162 199 255
162 199 255
162 199 255
162 199 255
161 199 255
161 199 255
161 199 255
161 199 255
161 199 255
161 199 255
161 199 255
161 199 255
161 199 255
161 199 255
160 198 255
160 198 255
160 198 255
160 198 255
160 198 255
160 198 255
160 198 255
160 198 255
160 198 255
159 198 255
159 198 255
159 198 255
159 198 255
159 198 255
159 198 255
159 198 255
159 197 255
159 197 255
159 197 255
158 197 255
158 197 255
158 197 255
158 197 255
158 197 255
158 197 255
158 197 255
158 197 255
158 197 255
157 197 255
157 197 255
157 197 255
157 196 255
157 196 255
157 196 255
157 196 255
157 196 255
157 196 255
156 196 255
156 196 255
156 196 255
156 196 255
156 196 255
156 196 255
156 196 255
156 196 255
156 196 255
155 195 255
155 195 255
155 195 255
155 195 255
155 195 255
155 195 255
155 195 255
155 195 255
155 195 255
155 195 255
154 195 255
154 195 255
154 195 255
154 195 255
154 195 255
154 195 255
154 194 255
154 194 255
154 194 255
153 194 255
153 194 255
153 194 255
153 194 255
153 194 255
153 194 255
153 194 255
153 194 255
153 194 255
153 194 255
153 194 255
152 194 255
152 194 255
152 194 255
152 193 255
152 193 255
152 193 255
152 193 255
152 193 255
152 193 255
152 193 255
152 193 255
151 193 255
151 193 255
151 193 255
151 193 255
151 193 255
151 193 255
151 193 255
151 193 255
151 193 255
151 193 255
151 193 255
151 193 255
150 192 255
150 192 255
150 192 255
150 192 255
150 192 255
150 192 255
150 192 255
150 192 255
150 192 255
150 192 255
150 192 255
150 192 255
150 192 255
150 192 255
150 192 255
150 192 255
150 192 255
150 192 255
149 192 255
149 192 255
149 192 255
149 192 255
149 192 255
149 192 255
149 192 255
149 192 255
149 192 255
149 192 255
149 192 255
149 192 255
149 192 255
149 192 255
149 192 255
149 192 255
149 192 255
149 192 255
149 192 255
149 192 255
149 192 255
149 192 255
149 192 255
149 192 255
149 192 255
149 192 255
149 192 255
149 192 255
149 192 255
149 192 255
149 192 255
149 192 255
149 192 255
149 192 255
149 192 255
149 192 255
149 192 255
149 192 255
149 192 255
149 192 255
149 192 255
149 192 255
149 192 255
149 192 255
149 192 255
149 192 255
149 192 255
149 192 255
150 192 255
150 192 255
150 192 255
150 192 255
150 192 255
150 192 255
150 192 255
150 192 255
150 192 255
150 192 255
150 192 255
150 192 255
150 192 255
150 192 255
150 192 255
150 192 255
150 192 255
151 193 255
151 193 255
151 193 255
151 193 255
151 193 255
151 193 255
151 193 255
151 193 255
151 193 255
151 193 255
151 193 255
151 193 255
151 193 255
152 193 255
152 193 255
152 193 255
152 193 255
152 193 255
152 193 255
152 193 255
152 193 255
152 194 255
152 194 255
152 194 255
153 194 255
153 194 255
153 194 255
153 194 255
153 194 255
153 194 255
153 194 255
153 194 255
153 194 255
153 194 255
153 194 255
154 194 255
154 194 255
154 194 255
154 195 255
154 195 255
154 195 255
154 195 255
154 195 255
154 195 255
155 195 255
155 195 255
155 195 255
155 195 255
155 195 255
155 195 255
155 195 255
155 195 255
155 195 255
155 195 255
156 196 255
156 196 255
156 196 255
156 196 255
156 196 255
156 196 255
156 196 255
156 196 255
156 196 255
157 196 255
157 196 255
157 196 255
157 196 255
157 196 255
157 196 255
157 197 255
157 197 255
157 197 255
158 197 255
158 197 255
158 197 255
158 197 255
158 197 255
158 197 255
158 197 255
158 197 255
158 197 255
159 197 255
159 197 255
159 197 255
159 198 255
159 198 255
159 198 255
159 198 255
159 198 255
159 198 255
159 198 255
160 198 255
160 198 255
160 198 255
160 198 255
160 198 255
160 198 255
160 198 255
160 198 255
160 198 255
161 199 255
161 199 255
161 199 255
161 199 255
161 199 255
161 199 255
161 199 255
161 199 255
161 199 255
161 199 255
162 199 255
162 199 255
162 199 255
162 199 255
162 199 255
162 199 255
162 199 255
162 200 255
162 200 255
162 200 255
163 200 255
163 200 255
163 200 255
163 200 255
163 200 255
163 200 255
163 200 255
163 200 255
163 200 255
163 200 255
163 200 255
164 200 255
164 200 255
164 200 255
164 200 255
164 201 255
164 201 255
164 201 255
164 201 255
164 201 255
164 201 255
164 201 255
165 201 255
165 201 255
165 201 255
165 201 255
165 201 255
165 201 255
165 201 255
165 201 255
165 201 255
165 201 255
165 201 255
165 201 255
166 202 255
166 202 255
166 202 255
166 202 255
166 202 255
166 202 255
166 202 255
166 202 255
166 202 255
166 202 255
166 202 255
166 202 255
166 202 255
165 201 255
165 201 255
165 201 255
165 201 255
165 201 255
165 201 255
165 201 255
165 201 255
165 201 255
165 201 255
165 201 255
164 201 255
164 201 255
164 201 255
164 201 255
164 201 255
164 201 255
164 201 255
164 201 255
164 200 255
164 200 255
164 200 255
163 200 255
163 200 255
163 200 255
163 200 255
163 200 255
163 200 255
163 200 255
163 200 255
163 200 255
163 200 255
163 200 255
162 200 255
162 200 255
162 200 255
162 200 255
162 199 255
162 199 255
162 199 255
162 199 255
162 199 255
162 199 255
161 199 255
161 199 255
161 199 255
161 199 255
161 199 255
161 199 255
161 199 255
161 199 255
161 199 255
161 199 255
160 198 255
160 198 255
160 198 255
160 198 255
160 198 255
160 198 255
160 198 255
160 198 255
160 198 255
160 198 255
159 198 255
159 198 255
159 198 255
159 198 255
159 198 255
159 198 255
159 197 255
159 197 255
159 197 255
158 197 255
158 197 255
158 197 255
158 197 255
158 197 255
158 197 255
158 197 255
158 197 255
158 197 255
157 197 255
157 197 255
157 197 255
157 196 255
157 196 255
157 196 255
157 196 255
157 196 255
157 196 255
156 196 255
156 196 255
156 196 255
156 196 255
156 196 255
156 196 255
156 196 255
156 196 255
156 196 255
156 196 255
155 195 255
155 195 255
155 195 255
155 195 255
155 195 255
155 195 255
155 195 255
155 195 255
155 195 255
154 195 255
154 195 255
154 195 255
154 195 255
154 195 255
154 195 255
154 195 255
154 194 255
154 194 255
154 194 255
153 194 255
153 194 255
153 194 255
153 194 255
153 194 255
153 194 255
153 194 255
153 194 255
153 194 255
153 194 255
152 194 255
152 194 255
152 194 255
152 194 255
152 193 255
152 193 255
152 193 255
152 193 255
152 193 255
152 193 255
152 193 255
152 193 255
151 193 255
151 193 255
151 193 255
151 193 255
151 193 255
151 193 255
151 193 255
151 193 255
151 193 255
151 193 255
151 193 255
151 193 255
151 193 255
150 192 255
150 192 255
150 192 255
150 192 255
150 192 255
150 192 255
150 192 255
150 192 255
150 192 255
150 192 255
150 192 255
150 192 255
150 192 255
150 192 255
150 192 255
150 192 255
150 192 255
150 192 255
150 192 255
150 192 255
150 192 255
149 192 255
149 192 255
149 192 255
149 192 255
149 192 255
149 192 255
149 192 255
149 192 255
149 192 255
149 192 255
149 192 255
149 192 255
149 192 255
149 192 255
149 192 255
149 192 255
149 192 255
149 192 255
149 192 255
149 192 255
149 192 255
149 192 255
149 192 255
149 192 255
149 192 255
149 192 255
149 192 255
149 192 255
149 192 255
149 192 255
149 192 255
149 192 255
149 192 255
149 192 255
150 192 255
150 192 255
150 192 255
150 192 255
150 192 255
150 192 255
150 192 255
150 192 255
150 192 255
150 192 255
150 192 255
150 192 255
150 192 255
150 192 255
150 192 255
150 192 255
150 192 255
150 192 255
150 192 255
150 192 255
150 192 255
151 193 255
151 193 255
151 193 255
151 193 255
151 193 255
151 193 255
151 193 255
151 193 255
151 193 255
151 193 255
151 193 255
151 193 255
151 193 255
152 193 255
152 193 255
152 193 255
152 193 255
152 193 255
152 193 255
152 193 255
152 193 255
152 194 255
152 194 255
152 194 255
152 194 255
153 194 255
153 194 255
153 194 255
153 194 255
153 194 255
153 194 255
153 194 255
153 194 255
153 194 255
153 194 255
154 194 255
154 194 255
154 194 255
154 194 255
154 195 255
154 195 255
154 195 255
154 195 255
154 195 255
154 195 255
155 195 255
155 195 255
155 195 255
155 195 255
155 195 255
155 195 255
155 195 255
155 195 255
155 195 255
156 196 255
156 196 255
156 196 255
156 196 255
156 196 255
156 196 255
156 196 255
156 196 255
156 196 255
156 196 255
157 196 255
157 196 255
157 196 255
157 196 255
157 196 255
157 196 255
157 197 255
157 197 255
157 197 255
158 197 255
158 197 255
158 197 255
158 197 255
158 197 255
158 197 255
158 197 255
158 197 255
158 197 255
159 197 255
159 197 255
159 197 255
159 198 255
159 198 255
159 198 255
159 198 255
159 198 255
159 198 255
160 198 255
160 198 255
160 198 255
160 198 255
160 198 255
160 198 255
160 198 255
160 198 255
160 198 255
160 198 255
161 199 255
161 199 255
161 199 255
161 199 255
161 199 255
161 199 255
161 199 255
161 199 255
161 199 255
161 199 255
162 199 255
162 199 255
162 199 255
162 199 255
162 199 255
162 199 255
162 200 255
162 200 255
162 200 255
162 200 255
163 200 255
163 200 255
163 200 255
163 200 255
163 200 255
163 200 255
163 200 255
163 200 255
163 200 255
163 200 255
163 200 255
164 200 255
164 200 255
164 200 255
164 201 255
164 201 255
164 201 255
164 201 255
164 201 255
164 201 255
164 201 255
164 201 255
165 201 255
165 201 255
165 201 255
165 201 255
165 201 255
165 201 255
165 201 255
165 201 255
165 201 255
165 201 255
165 201 255
166 202 255
166 202 255
166 202 255
166 202 255
166 202 255
166 202 255
166 202 255
166 202 255
166 202 255
166 202 255
166 202 255
166 202 255
166 202 255
166 202 255
166 202 255
166 202 255
166 202 255
166 202 255
165 201 255
165 201 255
165 201 255
165 201 255
165 201 255
165 201 255
165 201 255
165 201 255
165 201 255
165 201 255
165 201 255
165 201 255
164 201 255
164 201 255
164 201 255
164 201 255
164 201 255
164 201 255
164 201 255
164 200 255
164 200 255
164 200 255
164 200 255
163 200 255
163 200 255
163 200 255
163 200 255
163 200 255
163 200 255
163 200 255
163 200 255
163 200 255
163 200 255
162 200 255
162 200 255
162 200 255
162 200 255
162 199 255
162 199 255
162 199 255
162 199 255
162 199 255
162 199 255
161 199 255
161 199 255
161 199 255
161 199 255
161 199 255
161 199 255
161 199 255
161 199 255
161 199 255
161 199 255
160 198 255
160 198 255
160 198 255
160 198 255
160 198 255
160 198 255
160 198 255
160 198 255
160 198 255
160 198 255
159 198 255
159 198 255
159 198 255
159 198 255
159 198 255
159 198 255
159 197 255
159 197 255
159 197 255
158 197 255
158 197 255
158 197 255
158 197 255
158 197 255
158 197 255
158 197 255
158 197 255
158 197 255
157 197 255
157 197 255
157 197 255
157 197 255
157 196 255
157 196 255
157 196 255
157 196 255
157 196 255
157 196 255
156 196 255
156 196 255
156 196 255
156 196 255
156 196 255
156 196 255
156 196 255
156 196 255
156 196 255
155 195 255
155 195 255
155 195 255
155 195 255
155 195 255
155 195 255
155 195 255
155 195 255
155 195 255
154 195 255
154 195 255
154 195 255
154 195 255
154 195 255
154 195 255
154 195 255
154 194 255
154 194 255
154 194 255
154 194 255
153 194 255
153 194 255
153 194 255
153 194 255
153 194 255
153 194 255
153 194 255
153 194 255
153 194 255
153 194 255
152 194 255
152 194 255
152 194 255
152 194 255
152 193 255
152 193 255
152 193 255
152 193 255
152 193 255
152 193 255
152 193 255
152 193 255
151 193 255
151 193 255
151 193 255
151 193 255
151 193 255
151 193 255
151 193 255
151 193 255
151 193 255
151 193 255
151 193 255
151 193 255
151 193 255
151 193 255
150 192 255
150 192 255
150 192 255
150 192 255
150 192 255
150 192 255
150 192 255
150 192 255
150 192 255
150 192 255
150 192 255
150 192 255
150 192 255
150 192 255
150 192 255
150 192 255
150 192 255
150 192 255
150 192 255
150 192 255
150 192 255
150 192 255
150 192 255
150 192 255
150 192 255
150 192 255
150 192 255
150 192 255
149 192 255
149 192 255
149 192 255
149 192 255
149 192 255
149 192 255
149 192 255
149 192 255
149 192 255
149 192 255
149 192 255
149 192 255
149 192 255
150 192 255
150 192 255
150 192 255
150 192 255
150 192 255
150 192 255
150 192 255
150 192 255
150 192 255
150 192 255
150 192 255
150 192 255
150 192 255
150 192 255
150 192 255
150 192 255
150 192 255
150 192 255
150 192 255
150 192 255
150 192 255
150 192 255
150 192 255
150 192 255
150 192 255
150 192 255
150 192 255
151 193 255
151 193 255
151 193 255
151 193 255
151 193 255
151 193 255
151 193 255
151 193 255
151 193 255
151 193 255
151 193 255
151 193 255
151 193 255
151 193 255
152 193 255
152 193 255
152 193 255
152 193 255
152 193 255
152 193 255
152 193 255
152 193 255
152 194 255
152 194 255
152 194 255
152 194 255
153 194 255
153 194 255
153 194 255
153 194 255
153 194 255
153 194 255
153 194 255
153 194 255
153 194 255
153 194 255
153 194 255
154 194 255
154 194 255
154 194 255
154 195 255
154 195 255
154 195 255
154 195 255
154 195 255
154 195 255
155 195 255
155 195 255
155 195 255
155 195 255
155 195 255
155 195 255
155 195 255
155 195 255
155 195 255
155 195 255
156 196 255
156 196 255
156 196 255
156 196 255
156 196 255
156 196 255
156 196 255
156 196 255
156 196 255
157 196 255
157 196 255
157 196 255
157 196 255
157 196 255
157 196 255
157 197 255
157 197 255
157 197 255
157 197 255
158 197 255
158 197 255
158 197 255
158 197 255
158 197 255
158 197 255
158 197 255
158 197 255
158 197 255
159 197 255
159 197 255
159 197 255
159 198 255
159 198 255
159 198 255
159 198 255
159 198 255
159 198 255
160 198 255
160 198 255
160 198 255
160 198 255
160 198 255
160 198 255
160 198 255
160 198 255
160 198 255
160 198 255
161 199 255
161 199 255
161 199 255
161 199 255
161 199 255
161 199 255
161 199 255
161 199 255
161 199 255
161 199 255
162 199 255
162 199 255
162 199 255
162 199 255
162 199 255
162 199 255
162 200 255
162 200 255
162 200 255
162 200 255
163 200 255
163 200 255
163 200 255
163 200 255
163 200 255
163 200 255
163 200 255
163 200 255
163 200 255
163 200 255
164 200 255
164 200 255
164 200 255
164 200 255
164 201 255
164 201 255
164 201 255
164 201 255
164 201 255
164 201 255
164 201 255
165 201 255
165 201 255
165 201 255
165 201 255
165 201 255
165 201 255
165 201 255
165 201 255
165 201 255
165 201 255
165 201 255
165 201 255
166 202 255
166 202 255
166 202 255
166 202 255
166 202 255
166 202 255
166 202 255
166 202 255
166 202 255
166 202 255
167 202 255
166 202 255
166 202 255
166 202 255
166 202 255
166 202 255
166 202 255
166 202 255
166 202 255
166 202 255
166 202 255
166 202 255
166 202 255
165 201 255
165 201 255
165 201 255
165 201 255
165 201 255
165 201 255
165 201 255
165 201 255
165 201 255
165 201 255
165 201 255
165 201 255
164 201 255
164 201 255
164 201 255
164 201 255
164 201 255
164 201 255
164 201 255
164 200 255
164 200 255
164 200 255
163 200 255
163 200 255
163 200 255
163 200 255
163 200 255
163 200 255
163 200 255
163 200 255
163 200 255
163 200 255
163 200 255
162 200 255
162 200 255
162 200 255
162 199 255
162 199 255
162 199 255
162 199 255
162 199 255
162 199 255
162 199 255
161 199 255
161 199 255
161 199 255
161 199 255
161 199 255
161 199 255
161 199 255
161 199 255
161 199 255
161 199 255
160 198 255
160 198 255
160 198 255
160 198 255
160 198 255
160 198 255
160 198 255
160 198 255
160 198 255
159 198 255
159 198 255
159 198 255
159 198 255
159 198 255
159 198 255
159 198 255
159 197 255
159 197 255
159 197 255
158 197 255
158 197 255
158 197 255
158 197 255
158 197 255
158 197 255
158 197 255
158 197 255
158 197 255
157 197 255
157 197 255
157 197 255
157 196 255
157 196 255
157 196 255
157 196 255
157 196 255
157 196 255
156 196 255
156 196 255
156 196 255
156 196 255
156 196 255
156 196 255
156 196 255
156 196 255
156 196 255
155 195 255
155 195 255
155 195 255
155 195 255
155 195 255
155 195 255
155 195 255
155 195 255
155 195 255
155 195 255
154 195 255
154 195 255
154 195 255
154 195 255
154 195 255
154 195 255
154 195 255
154 194 255
154 194 255
154 194 255
153 194 255
153 194 255
153 194 255
153 194 255
153 194 255
153 194 255
153 194 255
153 194 255
153 194 255
153 194 255
153 194 255
152 194 255
152 194 255
152 194 255
152 194 255
152 193 255
152 193 255
152 193 255
152 193 255
152 193 255
152 193 255
152 193 255
152 193 255
151 193 255
151 193 255
151 193 255
151 193 255
151 193 255
151 193 255
151 193 255
151 193 255
151 193 255
151 193 255
151 193 255
151 193 255
151 193 255
151 193 255
151 193 255
151 193 255
150 192 255
150 192 255
150 192 255
150 192 255
150 192 255
150 192 255
150 192 255
150 192 255
150 192 255
150 192 255
150 192 255
150 192 255
150 192 255
150 192 255
150 192 255
150 192 255
150 192 255
150 192 255
150 192 255
150 192 255
150 192 255
150 192 255
150 192 255
150 192 255
150 192 255
150 192 255
150 192 255
150 192 255
150 192 255
150 192 255
150 192 255
150 192 255
150 192 255
150 192 255
150 192 255
150 192 255
150 192 255
150 192 255
150 192 255
150 192 255
150 192 255
150 192 255
150 192 255
150 192 255
150 192 255
150 192 255
150 192 255
150 192 255
150 192 255
150 192 255
150 192 255
150 192 255
150 192 255
150 192 255
150 192 255
150 192 255
150 192 255
150 192 255
151 193 255
151 193 255
151 193 255
151 193 255
151 193 255
151 193 255
151 193 255
151 193 255
151 193 255
151 193 255
151 193 255
151 193 255
151 193 255
151 193 255
151 193 255
151 193 255
152 193 255
152 193 255
152 193 255
152 193 255
152 193 255
152 193 255
152 193 255
152 193 255
152 194 255
152 194 255
152 194 255
152 194 255
153 194 255
153 194 255
153 194 255
153 194 255
153 194 255
153 194 255
153 194 255
153 194 255
153 194 255
153 194 255
153 194 255
154 194 255
154 194 255
154 194 255
154 195 255
154 195 255
154 195 255
154 195 255
154 195 255
154 195 255
154 195 255
155 195 255
155 195 255
155 195 255
155 195 255
155 195 255
155 195 255
155 195 255
155 195 255
155 195 255
155 195 255
156 196 255
156 196 255
156 196 255
156 196 255
156 196 255
156 196 255
156 196 255
156 196 255
156 196 255
157 196 255
157 196 255
157 196 255
157 196 255
157 196 255
157 196 255
157 197 255
157 197 255
157 197 255
158 197 255
158 197 255
158 197 255
158 197 255
158 197 255
158 197 255
158 197 255
158 197 255
158 197 255
159 197 255
159 197 255
159 197 255
159 197 255
159 198 255
159 198 255
159 198 255
159 198 255
159 198 255
159 198 255
160 198 255
160 198 255
160 198 255
160 198 255
160 198 255
160 198 255
160 198 255
160 198 255
160 198 255
161 199 255
161 199 255
161 199 255
161 199 255
161 199 255
161 199 255
161 199 255
161 199 255
161 199 255
161 199 255
162 199 255
162 199 255
162 199 255
162 199 255
162 199 255
162 199 255
162 199 255
162 200 255
162 200 255
162 200 255
163 200 255
163 200 255
163 200 255
163 200 255
163 200 255
163 200 255
163 200 255
163 200 255
163 200 255
163 200 255
163 200 255
164 200 255
164 200 255
164 200 255
164 201 255
164 201 255
164 201 255
164 201 255
164 201 255
164 201 255
164 201 255
164 201 255
165 201 255
165 201 255
165 201 255
165 201 255
165 201 255
165 201 255
165 201 255
165 201 255
165 201 255
165 201 255
165 201 255
166 202 255
166 202 255
166 202 255
166 202 255
166 202 255
166 202 255
166 202 255
166 202 255
166 202 255
166 202 255
166 202 255
166 202 255
167 202 255
167 202 255
167 202 255
167 202 255
167 202 255
166 202 255
166 202 255
166 202 255
166 202 255
166 202 255
166 202 255
166 202 255
166 202 255
166 202 255
166 202 255
166 202 255
166 202 255
165 201 255
165 201 255
165 201 255
165 201 255
165 201 255
165 201 255
165 201 255
165 201 255
165 201 255
165 201 255
165 201 255
164 201 255
164 201 255
164 201 255
164 201 255
164 201 255
164 201 255
164 201 255
164 200 255
164 200 255
164 200 255
164 200 255
163 200 255
163 200 255
163 200 255
163 200 255
163 200 255
163 200 255
163 200 255
163 200 255
163 200 255
163 200 255
162 200 255
162 200 255
162 200 255
162 200 255
162 199 255
162 199 255
162 199 255
162 199 255
162 199 255
162 199 255
161 199 255
161 199 255
161 199 255
161 199 255
161 199 255
161 199 255
161 199 255
161 199 255
161 199 255
161 199 255
160 198 255
160 198 255
160 198 255
160 198 255
160 198 255
160 198 255
160 198 255
160 198 255
160 198 255
160 198 255
159 198 255
159 198 255
159 198 255
159 198 255
159 198 255
159 198 255
159 197 255
159 197 255
159 197 255
158 197 255
158 197 255
158 197 255
158 197 255
158 197 255
158 197 255
158 197 255
158 197 255
158 197 255
157 197 255
157 197 255
157 197 255
157 196 255
157 196 255
157 196 255
157 196 255
157 196 255
157 196 255
157 196 255
156 196 255
156 196 255
156 196 255
156 196 255
156 196 255
156 196 255
156 196 255
156 196 255
156 196 255
155 195 255
155 195 255
155 195 255
155 195 255
155 195 255
155 195 255
155 195 255
155 195 255
155 195 255
155 195 255
154 195 255
154 195 255
154 195 255
154 195 255
154 195 255
154 195 255
154 194 255
154 194 255
154 194 255
154 194 255
153 194 255
153 194 255
153 194 255
153 194 255
153 194 255
153 194 255
153 194 255
153 194 255
153 194 255
153 194 255
153 194 255
152 194 255
152 194 255
152 194 255
152 194 255
152 193 255
152 193 255
152 193 255
152 193 255
152 193 255
152 193 255
152 193 255
152 193 255
152 193 255
151 193 255
151 193 255
151 193 255
151 193 255
151 193 255
151 193 255
151 193 255
151 193 255
151 193 255
151 193 255
151 193 255
151 193 255
151 193 255
151 193 255
151 193 255
151 193 255
151 193 255
150 192 255
150 192 255
150 192 255
150 192 255
150 192 255
150 192 255
150 192 255
150 192 255
150 192 255
150 192 255
150 192 255
150 192 255
150 192 255
150 192 255
150 192 255
150 192 255
150 192 255
150 192 255
150 192 255
150 192 255
150 192 255
150 192 255
150 192 255
150 192 255
150 192 255
150 192 255
150 192 255
150 192 255
150 192 255
150 192 255
150 192 255
150 192 255
150 192 255
150 192 255
150 192 255
150 192 255
150 192 255
150 192 255
150 192 255
150 192 255
150 192 255
150 192 255
150 192 255
150 192 255
150 192 255
150 192 255
150 192 255
150 192 255
151 193 255
151 193 255
151 193 255
151 193 255
151 193 255
151 193 255
151 193 255
151 193 255
151 193 255
151 193 255
151 193 255
151 193 255
151 193 255
151 193 255
151 193 255
151 193 255
151 193 255
151 193 255
152 193 255
152 193 255
152 193 255
152 193 255
152 193 255
152 193 255
152 193 255
152 193 255
152 194 255
152 194 255
152 194 255
152 194 255
153 194 255
153 194 255
153 194 255
153 194 255
153 194 255
153 194 255
153 194 255
153 194 255
153 194 255
153 194 255
153 194 255
154 194 255
154 194 255
154 194 255
154 194 255
154 195 255
154 195 255
154 195 255
154 195 255
154 195 255
154 195 255
154 195 255
155 195 255
155 195 255
155 195 255
155 195 255
155 195 255
155 195 255
155 195 255
155 195 255
155 195 255
156 196 255
156 196 255
156 196 255
156 196 255
156 196 255
156 196 255
156 196 255
156 196 255
156 196 255
156 196 255
157 196 255
157 196 255
157 196 255
157 196 255
157 196 255
157 196 255
157 197 255
157 197 255
157 197 255
158 197 255
158 197 255
158 197 255
158 197 255
158 197 255
158 197 255
158 197 255
158 197 255
158 197 255
159 197 255
159 197 255
159 197 255
159 198 255
159 198 255
159 198 255
159 198 255
159 198 255
159 198 255
159 198 255
160 198 255
160 198 255
160 198 255
160 198 255
160 198 255
160 198 255
160 198 255
160 198 255
160 198 255
161 199 255
161 199 255
161 199 255
161 199 255
161 199 255
161 199 255
161 199 255
161 199 255
161 199 255
161 199 255
162 199 255
162 199 255
162 199 255
162 199 255
162 199 255
162 199 255
162 200 255
162 200 255
162 200 255
162 200 255
163 200 255
163 200 255
163 200 255
163 200 255
163 200 255
163 200 255
163 200 255
163 200 255
163 200 255
163 200 255
164 200 255
164 200 255
164 200 255
164 200 255
164 201 255
164 201 255
164 201 255
164 201 255
164 201 255
164 201 255
164 201 255
165 201 255
165 201 255
165 201 255
165 201 255
165 201 255
165 201 255
165 201 255
165 201 255
165 201 255
165 201 255
165 201 255
166 202 255
166 202 255
166 202 255
166 202 255
166 202 255
166 202 255
166 202 255
166 202 255
166 202 255
166 202 255
166 202 255
166 202 255
167 202 255
167 202 255
167 202 255
167 202 255
167 202 255
167 202 255
167 202 255
167 202 255
167 202 255
167 202 255
166 202 255
166 202 255
166 202 255
166 202 255
166 202 255
166 202 255
166 202 255
166 202 255
166 202 255
166 202 255
166 202 255
166 202 255
165 201 255
165 201 255
165 201 255
165 201 255
165 201 255
165 201 255
165 201 255
165 201 255
165 201 255
165 201 255
165 201 255
165 201 255
164 201 255
164 201 255
164 201 255
164 201 255
164 201 255
164 201 255
164 201 255
164 200 255
164 200 255
164 200 255
163 200 255
163 200 255
163 200 255
163 200 255
163 200 255
163 200 255
163 200 255
163 200 255
163 200 255
163 200 255
163 200 255
162 200 255
162 200 255
162 200 255
162 199 255
162 199 255
162 199 255
162 199 255
162 199 255
162 199 255
162 199 255
161 199 255
161 199 255
161 199 255
161 199 255
161 199 255
161 199 255
161 199 255
161 199 255
161 199 255
160 198 255
160 198 255
160 198 255
160 198 255
160 198 255
160 198 255
160 198 255
160 198 255
160 198 255
160 198 255
159 198 255
159 198 255
159 198 255
159 198 255
159 198 255
159 198 255
159 197 255
159 197 255
159 197 255
158 197 255
158 197 255
158 197 255
158 197 255
158 197 255
158 197 255
158 197 255
158 197 255
158 197 255
157 197 255
157 197 255
157 197 255
157 197 255
157 196 255
157 196 255
157 196 255
157 196 255
157 196 255
157 196 255
156 196 255
156 196 255
156 196 255
156 196 255
156 196 255
156 196 255
156 196 255
156 196 255
156 196 255
155 195 255
155 195 255
155 195 255
155 195 255
155 195 255
155 195 255
155 195 255
155 195 255
155 195 255
155 195 255
154 195 255
154 195 255
154 195 255
154 195 255
154 195 255
154 195 255
154 195 255
154 194 255
154 194 255
154 194 255
153 194 255
153 194 255
153 194 255
153 194 255
153 194 255
153 194 255
153 194 255
153 194 255
153 194 255
153 194 255
153 194 255
153 194 255
152 194 255
152 194 255
152 194 255
152 194 255
152 193 255
152 193 255
152 193 255
152 193 255
152 193 255
152 193 255
152 193 255
152 193 255
152 193 255
151 193 255
151 193 255
151 193 255
151 193 255
151 193 255
151 193 255
151 193 255
151 193 255
151 193 255
151 193 255
151 193 255
151 193 255
151 193 255
151 193 255
151 193 255
151 193 255
151 193 255
151 193 255
151 193 255
151 193 255
150 192 255
150 192 255
150 192 255
150 192 255
150 192 255
150 192 255
150 192 255
150 192 255
150 192 255
150 192 255
150 192 255
150 192 255
150 192 255
150 192 255
150 192 255
150 192 255
150 192 255
150 192 255
150 192 255
150 192 255
150 192 255
150 192 255
150 192 255
150 192 255
150 192 255
150 192 255
150 192 255
150 192 255
150 192 255
150 192 255
150 192 255
150 192 255
150 192 255
150 192 255
150 192 255
150 192 255
151 193 255
151 193 255
151 193 255
151 193 255
151 193 255
151 193 255
151 193 255
151 193 255
151 193 255
151 193 255
151 193 255
151 193 255
151 193 255
151 193 255
151 193 255
151 193 255
151 193 255
151 193 255
151 193 255
151 193 255
152 193 255
152 193 255
152 193 255
152 193 255
152 193 255
152 193 255
152 193 255
152 193 255
152 193 255
152 194 255
152 194 255
152 194 255
152 194 255
153 194 255
153 194 255
153 194 255
153 194 255
153 194 255
153 194 255
153 194 255
153 194 255
153 194 255
153 194 255
153 194 255
153 194 255
154 194 255
154 194 255
154 194 255
154 195 255
154 195 255
154 195 255
154 195 255
154 195 255
154 195 255
154 195 255
155 195 255
155 195 255
155 195 255
155 195 255
155 195 255
155 195 255
155 195 255
155 195 255
155 195 255
155 195 255
156 196 255
156 196 255
156 196 255
156 196 255
156 196 255
156 196 255
156 196 255
156 196 255
156 196 255
157 196 255
157 196 255
157 196 255
157 196 255
157 196 255
157 196 255
157 197 255
157 197 255
157 197 255
158 197 255
158 197 255
158 197 255
158 197 255
158 197 255
158 197 255
158 197 255
158 197 255
158 197 255
158 197 255
159 197 255
159 197 255
159 197 255
159 198 255
159 198 255
159 198 255
159 198 255
159 198 255
159 198 255
160 198 255
160 198 255
160 198 255
160 198 255
160 198 255
160 198 255
160 198 255
160 198 255
160 198 255
160 198 255
161 199 255
161 199 255
161 199 255
161 199 255
161 199 255
161 199 255
161 199 255
161 199 255
161 199 255
162 199 255
162 199 255
162 199 255
162 199 255
162 199 255
162 199 255
162 199 255
162 200 255
162 200 255
162 200 255
163 200 255
163 200 255
163 200 255
163 200 255
163 200 255
163 200 255
163 200 255
163 200 255
163 200 255
163 200 255
163 200 255
164 200 255
164 200 255
164 200 255
164 201 255
164 201 255
164 201 255
164 201 255
164 201 255
164 201 255
164 201 255
165 201 255
165 201 255
165 201 255
165 201 255
165 201 255
165 201 255
165 201 255
165 201 255
165 201 255
165 201 255
165 201 255
165 201 255
166 202 255
166 202 255
166 202 255
166 202 255
166 202 255
166 202 255
166 202 255
166 202 255
166 202 255
166 202 255
166 202 255
166 202 255
167 202 255
167 202 255
167 202 255
167 202 255
167 202 255
167 202 255
167 203 255
167 202 255
167 202 255
167 202 255
167 202 255
167 202 255
167 202 255
167 202 255
167 202 255
166 202 255
166 202 255
166 202 255
166 202 255
166 202 255
166 202 255
166 202 255
166 202 255
166 202 255
166 202 255
166 202 255
166 202 255
165 201 255
165 201 255
165 201 255
165 201 255
165 201 255
165 201 255
165 201 255
165 201 255
165 201 255
165 201 255
165 201 255
164 201 255
164 201 255
164 201 255
164 201 255
164 201 255
164 201 255
164 201 255
164 200 255
164 200 255
164 200 255
164 200 255
163 200 255
163 200 255
163 200 255
163 200 255
163 200 255
163 200 255
163 200 255
163 200 255
163 200 255
163 200 255
162 200 255
162 200 255
162 200 255
162 200 255
162 199 255
162 199 255
162 199 255
162 199 255
162 199 255
162 199 255
161 199 255
161 199 255
161 199 255
161 199 255
161 199 255
161 199 255
161 199 255
161 199 255
161 199 255
161 199 255
160 198 255
160 198 255
160 198 255
160 198 255
160 198 255
160 198 255
160 198 255
160 198 255
160 198 255
159 198 255
159 198 255
159 198 255
159 198 255
159 198 255
159 198 255
159 198 255
159 197 255
159 197 255
159 197 255
158 197 255
158 197 255
158 197 255
158 197 255
158 197 255
158 197 255
158 197 255
158 197 255
158 197 255
157 197 255
157 197 255
157 197 255
157 196 255
157 196 255
157 196 255
157 196 255
157 196 255
157 196 255
156 196 255
156 196 255
156 196 255
156 196 255
156 196 255
156 196 255
156 196 255
156 196 255
156 196 255
156 196 255
155 195 255
155 195 255
155 195 255
155 195 255
155 195 255
155 195 255
155 195 255
155 195 255
155 195 255
155 195 255
154 195 255
154 195 255
154 195 255
154 195 255
154 195 255
154 195 255
154 195 255
154 194 255
154 194 255
154 194 255
153 194 255
153 194 255
153 194 255
153 194 255
153 194 255
153 194 255
153 194 255
153 194 255
153 194 255
153 194 255
153 194 255
153 194 255
152 194 255
152 194 255
152 194 255
152 194 255
152 193 255
152 193 255
152 193 255
152 193 255
152 193 255
152 193 255
152 193 255
152 193 255
152 193 255
152 193 255
151 193 255
151 193 255
151 193 255
151 193 255
151 193 255
151 193 255
151 193 255
151 193 255
151 193 255
151 193 255
151 193 255
151 193 255
151 193 255
151 193 255
151 193 255
151 193 255
151 193 255
151 193 255
151 193 255
151 193 255
151 193 255
151 193 255
151 193 255
151 193 255
151 193 255
151 193 255
151 193 255
150 192 255
150 192 255
150 192 255
150 192 255
150 192 255
150 192 255
150 192 255
150 192 255
150 192 255
150 192 255
150 192 255
150 192 255
151 193 255
150 192 255
151 193 255
151 193 255
151 193 255
151 193 255
151 193 255
151 193 255
151 193 255
151 193 255
151 193 255
151 193 255
151 193 255
151 193 255
151 193 255
151 193 255
151 193 255
151 193 255
151 193 255
151 193 255
151 193 255
151 193 255
151 193 255
151 193 255
151 193 255
151 193 255
151 193 255
151 193 255
151 193 255
152 193 255
152 193 255
152 193 255
152 193 255
152 193 255
152 193 255
152 193 255
152 193 255
152 193 255
152 193 255
152 194 255
152 194 255
152 194 255
152 194 255
153 194 255
153 194 255
153 194 255
153 194 255
153 194 255
153 194 255
153 194 255
153 194 255
153 194 255
153 194 255
153 194 255
153 194 255
154 194 255
154 194 255
154 194 255
154 195 255
154 195 255
154 195 255
154 195 255
154 195 255
154 195 255
154 195 255
155 195 255
155 195 255
155 195 255
155 195 255
155 195 255
155 195 255
155 195 255
155 195 255
155 195 255
155 195 255
156 196 255
156 196 255
156 196 255
156 196 255
156 196 255
156 196 255
156 196 255
156 196 255
156 196 255
156 196 255
157 196 255
157 196 255
157 196 255
157 196 255
157 196 255
157 196 255
157 197 255
157 197 255
157 197 255
158 197 255
158 197 255
158 197 255
158 197 255
158 197 255
158 197 255
158 197 255
158 197 255
158 197 255
159 197 255
159 197 255
159 197 255
159 198 255
159 198 255
159 198 255
159 198 255
159 198 255
159 198 255
159 198 255
160 198 255
160 198 255
160 198 255
160 198 255
160 198 255
160 198 255
160 198 255
160 198 255
160 198 255
161 199 255
161 199 255
161 199 255
161 199 255
161 199 255
161 199 255
161 199 255
161 199 255
161 199 255
161 199 255
162 199 255
162 199 255
162 199 255
162 199 255
162 199 255
162 199 255
162 199 255
162 200 255
162 200 255
162 200 255
163 200 255
163 200 255
163 200 255
163 200 255
163 200 255
163 200 255
163 200 255
163 200 255
163 200 255
163 200 255
164 200 255
164 200 255
164 200 255
164 200 255
164 201 255
164 201 255
164 201 255
164 201 255
164 201 255
164 201 255
164 201 255
165 201 255
165 201 255
165 201 255
165 201 255
165 201 255
165 201 255
165 201 255
165 201 255
165 201 255
165 201 255
165 201 255
166 202 255
166 202 255
166 202 255
166 202 255
166 202 255
166 202 255
166 202 255
166 202 255
166 202 255
166 202 255
166 202 255
166 202 255
167 202 255
167 202 255
167 202 255
167 202 255
167 202 255
167 202 255
167 202 255
167 202 255
167 203 255
167 203 255
167 203 255
167 203 255
167 203 255
167 202 255
167 202 255
167 202 255
167 202 255
167 202 255
167 202 255
167 202 255
167 202 255
166 202 255
166 202 255
166 202 255
166 202 255
166 202 255
166 202 255
166 202 255
166 202 255
166 202 255
166 202 255
166 202 255
166 202 255
165 201 255
165 201 255
165 201 255
165 201 255
165 201 255
165 201 255
165 201 255
165 201 255
165 201 255
165 201 255
165 201 255
164 201 255
164 201 255
164 201 255
164 201 255
164 201 255
164 201 255
164 201 255
164 200 255
164 200 255
164 200 255
163 200 255
163 200 255
163 200 255
163 200 255
163 200 255
163 200 255
163 200 255
163 200 255
163 200 255
163 200 255
163 200 255
162 200 255
162 200 255
162 200 255
162 199 255
162 199 255
162 199 255
162 199 255
162 199 255
162 199 255
162 199 255
161 199 255
161 199 255
161 199 255
161 199 255
161 199 255
161 199 255
161 199 255
161 199 255
161 199 255
160 198 255
160 198 255
160 198 255
160 198 255
160 198 255
160 198 255
160 198 255
160 198 255
160 198 255
160 198 255
159 198 255
159 198 255
159 198 255
159 198 255
159 198 255
159 198 255
159 197 255
159 197 255
159 197 255
158 197 255
158 197 255
158 197 255
158 197 255
158 197 255
158 197 255
158 197 255
158 197 255
158 197 255
157 197 255
157 197 255
157 197 255
157 197 255
157 196 255
157 196 255
157 196 255
157 196 255
157 196 255
157 196 255
156 196 255
156 196 255
156 196 255
156 196 255
156 196 255
156 196 255
156 196 255
156 196 255
156 196 255
155 195 255
155 195 255
155 195 255
155 195 255
155 195 255
155 195 255
155 195 255
155 195 255
155 195 255
155 195 255
154 195 255
154 195 255
154 195 255
154 195 255
154 195 255
154 195 255
154 195 255
154 195 255
154 194 255
154 194 255
154 194 255
153 194 255
153 194 255
153 194 255
153 194 255
153 194 255
153 194 255
153 194 255
153 194 255
153 194 255
153 194 255
153 194 255
153 194 255
152 194 255
152 194 255
152 194 255
152 194 255
152 194 255
152 193 255
152 193 255
152 193 255
152 193 255
152 193 255
152 193 255
152 193 255
152 193 255
152 193 255
152 193 255
152 193 255
151 193 255
151 193 255
151 193 255
151 193 255
151 193 255
151 193 255
151 193 255
151 193 255
151 193 255
151 193 255
151 193 255
151 193 255
151 193 255
151 193 255
151 193 255
151 193 255
151 193 255
151 193 255
151 193 255
151 193 255
151 193 255
151 193 255
151 193 255
151 193 255
151 193 255
151 193 255
151 193 255
151 193 255
151 193 255
151 193 255
151 193 255
151 193 255
151 193 255
151 193 255
151 193 255
151 193 255
151 193 255
151 193 255
151 193 255
151 193 255
151 193 255
151 193 255
151 193 255
151 193 255
151 193 255
151 193 255
151 193 255
151 193 255
151 193 255
151 193 255
151 193 255
151 193 255
151 193 255
151 193 255
151 193 255
151 193 255
151 193 255
151 193 255
152 193 255
152 193 255
152 193 255
152 193 255
152 193 255
152 193 255
152 193 255
152 193 255
152 193 255
152 193 255
152 193 255
152 194 255
152 194 255
152 194 255
152 194 255
152 194 255
153 194 255
153 194 255
153 194 255
153 194 255
153 194 255
153 194 255
153 194 255
153 194 255
153 194 255
153 194 255
153 194 255
153 194 255
154 194 255
154 194 255
154 194 255
154 195 255
154 195 255
154 195 255
154 195 255
154 195 255
154 195 255
154 195 255
154 195 255
155 195 255
155 195 255
155 195 255
155 195 255
155 195 255
155 195 255
155 195 255
155 195 255
155 195 255
155 195 255
156 196 255
156 196 255
156 196 255
156 196 255
156 196 255
156 196 255
156 196 255
156 196 255
156 196 255
157 196 255
157 196 255
157 196 255
157 196 255
157 196 255
157 196 255
157 196 255
157 197 255
157 197 255
157 197 255
158 197 255
158 197 255
158 197 255
158 197 255
158 197 255
158 197 255
158 197 255
158 197 255
158 197 255
159 197 255
159 197 255
159 197 255
159 198 255
159 198 255
159 198 255
159 198 255
159 198 255
159 198 255
160 198 255
160 198 255
160 198 255
160 198 255
160 198 255
160 198 255
160 198 255
160 198 255
160 198 255
160 198 255
161 199 255
161 199 255
161 199 255
161 199 255
161 199 255
161 199 255
161 199 255
161 199 255
161 199 255
162 199 255
162 199 255
162 199 255
162 199 255
162 199 255
162 199 255
162 199 255
162 200 255
162 200 255
162 200 255
163 200 255
163 200 255
163 200 255
163 200 255
163 200 255
163 200 255
163 200 255
163 200 255
163 200 255
163 200 255
163 200 255
164 200 255
164 200 255
164 200 255
164 201 255
164 201 255
164 201 255
164 201 255
164 201 255
164 201 255
164 201 255
165 201 255
165 201 255
165 201 255
165 201 255
165 201 255
165 201 255
165 201 255
165 201 255
165 201 255
165 201 255
165 201 255
166 202 255
166 202 255
166 202 255
166 202 255
166 202 255
166 202 255
166 202 255
166 202 255
166 202 255
166 202 255
166 202 255
166 202 255
167 202 255
167 202 255
167 202 255
167 202 255
167 202 255
167 202 255
167 202 255
167 202 255
167 203 255
167 203 255
167 203 255
167 203 255
168 203 255
168 203 255
167 203 255
167 203 255
167 203 255
167 203 255
167 203 255
167 202 255
167 202 255
167 202 255
167 202 255
167 202 255
167 202 255
167 202 255
167 202 255
166 202 255
166 202 255
166 202 255
166 202 255
166 202 255
166 202 255
166 202 255
166 202 255
166 202 255
166 202 255
166 202 255
165 201 255
165 201 255
165 201 255
165 201 255
165 201 255
165 201 255
165 201 255
165 201 255
165 201 255
165 201 255
165 201 255
164 201 255
164 201 255
164 201 255
164 201 255
164 201 255
164 201 255
164 201 255
164 201 255
164 200 255
164 200 255
164 200 255
163 200 255
163 200 255
163 200 255
163 200 255
163 200 255
163 200 255
163 200 255
163 200 255
163 200 255
163 200 255
162 200 255
162 200 255
162 200 255
162 200 255
162 199 255
162 199 255
162 199 255
162 199 255
162 199 255
162 199 255
161 199 255
161 199 255
161 199 255
161 199 255
161 199 255
161 199 255
161 199 255
161 199 255
161 199 255
161 199 255
160 198 255
160 198 255
160 198 255
160 198 255
160 198 255
160 198 255
160 198 255
160 198 255
160 198 255
159 198 255
159 198 255
159 198 255
159 198 255
159 198 255
159 198 255
159 197 255
159 197 255
159 197 255
159 197 255
158 197 255
158 197 255
158 197 255
158 197 255
158 197 255
158 197 255
158 197 255
158 197 255
158 197 255
157 197 255
157 197 255
157 197 255
157 196 255
157 196 255
157 196 255
157 196 255
157 196 255
157 196 255
156 196 255
156 196 255
156 196 255
156 196 255
156 196 255
156 196 255
156 196 255
156 196 255
156 196 255
156 196 255
155 195 255
155 195 255
155 195 255
155 195 255
155 195 255
155 195 255
155 195 255
155 195 255
155 195 255
155 195 255
154 195 255
154 195 255
154 195 255
154 195 255
154 195 255
154 195 255
154 195 255
154 195 255
154 194 255
154 194 255
154 194 255
153 194 255
153 194 255
153 194 255
153 194 255
153 194 255
153 194 255
153 194 255
153 194 255
153 194 255
153 194 255
153 194 255
153 194 255
153 194 255
152 194 255
152 194 255
152 194 255
152 194 255
152 194 255
152 193 255
152 193 255
152 193 255
152 193 255
152 193 255
152 193 255
152 193 255
152 193 255
152 193 255
152 193 255
152 193 255
152 193 255
152 193 255
151 193 255
151 193 255
151 193 255
151 193 255
151 193 255
151 193 255
151 193 255
151 193 255
151 193 255
151 193 255
151 193 255
151 193 255
151 193 255
151 193 255
151 193 255
151 193 255
151 193 255
151 193 255
151 193 255
151 193 255
151 193 255
151 193 255
151 193 255
151 193 255
151 193 255
151 193 255
151 193 255
151 193 255
151 193 255
151 193 255
151 193 255
151 193 255
151 193 255
151 193 255
151 193 255
151 193 255
151 193 255
151 193 255
151 193 255
151 193 255
151 193 255
151 193 255
151 193 255
151 193 255
151 193 255
151 193 255
152 193 255
152 193 255
152 193 255
152 193 255
152 193 255
152 193 255
152 193 255
152 193 255
152 193 255
152 193 255
152 193 255
152 193 255
152 193 255
152 194 255
152 194 255
152 194 255
152 194 255
152 194 255
153 194 255
153 194 255
153 194 255
153 194 255
153 194 255
153 194 255
153 194 255
153 194 255
153 194 255
153 194 255
153 194 255
153 194 255
153 194 255
154 194 255
154 194 255
154 194 255
154 194 255
154 195 255
154 195 255
154 195 255
154 195 255
154 195 255
154 195 255
154 195 255
155 195 255
155 195 255
155 195 255
155 195 255
155 195 255
155 195 255
155 195 255
155 195 255
155 195 255
155 195 255
156 196 255
156 196 255
156 196 255
156 196 255
156 196 255
156 196 255
156 196 255
156 196 255
156 196 255
156 196 255
157 196 255
157 196 255
157 196 255
157 196 255
157 196 255
157 196 255
157 197 255
157 197 255
157 197 255
158 197 255
158 197 255
158 197 255
158 197 255
158 197 255
158 197 255
158 197 255
158 197 255
158 197 255
158 197 255
159 197 255
159 197 255
159 197 255
159 198 255
159 198 255
159 198 255
159 198 255
159 198 255
159 198 255
160 198 255
160 198 255
160 198 255
160 198 255
160 198 255
160 198 255
160 198 255
160 198 255
160 198 255
161 199 255
161 199 255
161 199 255
161 199 255
161 199 255
161 199 255
161 199 255
161 199 255
161 199 255
161 199 255
162 199 255
162 199 255
162 199 255
162 199 255
162 199 255
162 199 255
162 200 255
162 200 255
162 200 255
162 200 255
163 200 255
163 200 255
163 200 255
163 200 255
163 200 255
163 200 255
163 200 255
163 200 255
163 200 255
163 200 255
164 200 255
164 200 255
164 200 255
164 201 255
164 201 255
164 201 255
164 201 255
164 201 255
164 201 255
164 201 255
164 201 255
165 201 255
165 201 255
165 201 255
165 201 255
165 201 255
165 201 255
165 201 255
165 201 255
165 201 255
165 201 255
165 201 255
166 202 255
166 202 255
166 202 255
166 202 255
166 202 255
166 202 255
166 202 255
166 202 255
166 202 255
166 202 255
166 202 255
167 202 255
167 202 255
167 202 255
167 202 255
167 202 255
167 202 255
167 202 255
167 202 255
167 202 255
167 203 255
167 203 255
167 203 255
167 203 255
168 203 255
168 203 255
168 203 255
168 203 255
168 203 255
168 203 255
168 203 255
167 203 255
167 203 255
167 203 255
167 203 255
167 202 255
167 202 255
167 202 255
167 202 255
167 202 255
167 202 255
167 202 255
167 202 255
166 202 255
166 202 255
166 202 255
166 202 255
166 202 255
166 202 255
166 202 255
166 202 255
166 202 255
166 202 255
166 202 255
166 202 255
165 201 255
165 201 255
165 201 255
165 201 255
165 201 255
165 201 255
165 201 255
165 201 255
165 201 255
165 201 255
165 201 255
164 201 255
164 201 255
164 201 255
164 201 255
164 201 255
164 201 255
164 201 255
164 200 255
164 200 255
164 200 255
164 200 255
163 200 255
163 200 255
163 200 255
163 200 255
163 200 255
163 200 255
163 200 255
163 200 255
163 200 255
163 200 255
162 200 255
162 200 255
162 200 255
162 199 255
162 199 255
162 199 255
162 199 255
162 199 255
162 199 255
162 199 255
161 199 255
161 199 255
161 199 255
161 199 255
161 199 255
161 199 255
161 199 255
161 199 255
161 199 255
160 198 255
160 198 255
160 198 255
160 198 255
160 198 255
160 198 255
160 198 255
160 198 255
160 198 255
160 198 255
159 198 255
159 198 255
159 198 255
159 198 255
159 198 255
159 198 255
159 197 255
159 197 255
159 197 255
158 197 255
158 197 255
158 197 255
158 197 255
158 197 255
158 197 255
158 197 255
158 197 255
158 197 255
157 197 255
157 197 255
157 197 255
157 197 255
157 196 255
157 196 255
157 196 255
157 196 255
157 196 255
157 196 255
156 196 255
156 196 255
156 196 255
156 196 255
156 196 255
156 196 255
156 196 255
156 196 255
156 196 255
156 196 255
155 195 255
155 195 255
155 195 255
155 195 255
155 195 255
155 195 255
155 195 255
155 195 255
155 195 255
155 195 255
154 195 255
154 195 255
154 195 255
154 195 255
154 195 255
154 195 255
154 195 255
154 195 255
154 194 255
154 194 255
154 194 255
153 194 255
153 194 255
153 194 255
153 194 255
153 194 255
153 194 255
153 194 255
153 194 255
153 194 255
153 194 255
153 194 255
153 194 255
153 194 255
153 194 255
152 194 255
152 194 255
152 194 255
152 194 255
152 194 255
152 194 255
152 193 255
152 193 255
152 193 255
152 193 255
152 193 255
152 193 255
152 193 255
152 193 255
152 193 255
152 193 255
152 193 255
152 193 255
152 193 255
152 193 255
152 193 255
151 193 255
151 193 255
151 193 255
151 193 255
151 193 255
151 193 255
151 193 255
151 193 255
151 193 255
151 193 255
151 193 255
151 193 255
151 193 255
151 193 255
151 193 255
151 193 255
151 193 255
151 193 255
151 193 255
151 193 255
151 193 255
151 193 255
151 193 255
151 193 255
151 193 255
151 193 255
151 193 255
151 193 255
151 193 255
151 193 255
151 193 255
151 193 255
152 193 255
152 193 255
152 193 255
152 193 255
152 193 255
152 193 255
152 193 255
152 193 255
152 193 255
152 193 255
152 193 255
152 193 255
152 193 255
152 193 255
152 193 255
152 194 255
152 194 255
152 194 255
152 194 255
152 194 255
152 194 255
153 194 255
153 194 255
153 194 255
153 194 255
153 194 255
153 194 255
153 194 255
153 194 255
153 194 255
153 194 255
153 194 255
153 194 255
153 194 255
154 194 255
154 194 255
154 194 255
154 194 255
154 195 255
154 195 255
154 195 255
154 195 255
154 195 255
154 195 255
154 195 255
154 195 255
155 195 255
155 195 255
155 195 255
155 195 255
155 195 255
155 195 255
155 195 255
155 195 255
155 195 255
155 195 255
156 196 255
156 196 255
156 196 255
156 196 255
156 196 255
156 196 255
156 196 255
156 196 255
156 196 255
156 196 255
157 196 255
157 196 255
157 196 255
157 196 255
157 196 255
157 196 255
157 196 255
157 197 255
157 197 255
157 197 255
158 197 255
158 197 255
158 197 255
158 197 255
158 197 255
158 197 255
158 197 255
158 197 255
158 197 255
159 197 255
159 197 255
159 197 255
159 198 255
159 198 255
159 198 255
159 198 255
159 198 255
159 198 255
160 198 255
160 198 255
160 198 255
160 198 255
160 198 255
160 198 255
160 198 255
160 198 255
160 198 255
160 198 255
161 199 255
161 199 255
161 199 255
161 199 255
161 199 255
161 199 255
161 199 255
161 199 255
161 199 255
161 199 255
162 199 255
162 199 255
162 199 255
162 199 255
162 199 255
162 199 255
162 200 255
162 200 255
162 200 255
163 200 255
163 200 255
163 200 255
163 200 255
163 200 255
163 200 255
163 200 255
163 200 255
163 200 255
163 200 255
164 200 255
164 200 255
164 200 255
164 200 255
164 201 255
164 201 255
164 201 255
164 201 255
164 201 255
164 201 255
164 201 255
165 201 255
165 201 255
165 201 255
165 201 255
165 201 255
165 201 255
165 201 255
165 201 255
165 201 255
165 201 255
165 201 255
166 202 255
166 202 255
166 202 255
166 202 255
166 202 255
166 202 255
166 202 255
166 202 255
166 202 255
166 202 255
166 202 255
166 202 255
167 202 255
167 202 255
167 202 255
167 202 255
167 202 255
167 202 255
167 202 255
167 202 255
167 203 255
167 203 255
167 203 255
167 203 255
168 203 255
168 203 255
168 203 255
168 203 255
168 203 255
168 203 255
168 203 255
168 203 255
168 203 255
168 203 255
168 203 255
168 203 255
168 203 255
167 203 255
167 203 255
167 203 255
167 203 255
167 202 255
167 202 255
167 202 255
167 202 255
167 202 255
167 202 255
167 202 255
167 202 255
166 202 255
166 202 255
166 202 255
166 202 255
166 202 255
166 202 255
166 202 255
166 202 255
166 202 255
166 202 255
166 202 255
166 202 255
165 201 255
165 201 255
165 201 255
165 201 255
165 201 255
165 201 255
165 201 255
165 201 255
165 201 255
165 201 255
165 201 255
164 201 255
164 201 255
164 201 255
164 201 255
164 201 255
164 201 255
164 201 255
164 200 255
164 200 255
164 200 255
163 200 255
163 200 255
163 200 255
163 200 255
163 200 255
163 200 255
163 200 255
163 200 255
163 200 255
163 200 255
162 200 255
162 200 255
162 200 255
162 200 255
162 199 255
162 199 255
162 199 255
162 199 255
162 199 255
162 199 255
161 199 255
161 199 255
161 199 255
161 199 255
161 199 255
161 199 255
161 199 255
161 199 255
161 199 255
161 199 255
160 198 255
160 198 255
160 198 255
160 198 255
160 198 255
160 198 255
160 198 255
160 198 255
160 198 255
159 198 255
159 198 255
159 198 255
159 198 255
159 198 255
159 198 255
159 197 255
159 197 255
159 197 255
159 197 255
158 197 255
158 197 255
158 197 255
158 197 255
158 197 255
158 197 255
158 197 255
158 197 255
158 197 255
157 197 255
157 197 255
157 197 255
157 196 255
157 196 255
157 196 255
157 196 255
157 196 255
157 196 255
157 196 255
156 196 255
156 196 255
156 196 255
156 196 255
156 196 255
156 196 255
156 196 255
156 196 255
156 196 255
155 195 255
155 195 255
155 195 255
155 195 255
155 195 255
155 195 255
155 195 255
155 195 255
155 195 255
155 195 255
155 195 255
154 195 255
154 195 255
154 195 255
154 195 255
154 195 255
154 195 255
154 195 255
154 195 255
154 194 255
154 194 255
154 194 255
154 194 255
153 194 255
153 194 255
153 194 255
153 194 255
153 194 255
153 194 255
153 194 255
153 194 255
153 194 255
153 194 255
153 194 255
153 194 255
153 194 255
153 194 255
153 194 255
152 194 255
152 194 255
152 194 255
152 194 255
152 194 255
152 194 255
152 193 255
152 193 255
152 193 255
152 193 255
152 193 255
152 193 255
152 193 255
152 193 255
152 193 255
152 193 255
152 193 255
152 193 255
152 193 255
152 193 255
152 193 255
152 193 255
152 193 255
152 193 255
152 193 255
152 193 255
152 193 255
152 193 255
152 193 255
152 193 255
152 193 255
152 193 255
152 193 255
152 193 255
152 193 255
152 193 255
152 193 255
152 193 255
152 193 255
152 193 255
152 193 255
152 193 255
152 193 255
152 193 255
152 193 255
152 193 255
152 193 255
152 193 255
152 193 255
152 193 255
152 193 255
152 193 255
152 193 255
152 193 255
152 193 255
152 193 255
152 193 255
152 193 255
152 194 255
152 194 255
152 194 255
152 194 255
152 194 255
152 194 255
152 194 255
153 194 255
153 194 255
153 194 255
153 194 255
153 194 255
153 194 255
153 194 255
153 194 255
153 194 255
153 194 255
153 194 255
153 194 255
153 194 255
153 194 255
154 194 255
154 194 255
154 194 255
154 194 255
154 195 255
154 195 255
154 195 255
154 195 255
154 195 255
154 195 255
154 195 255
154 195 255
155 195 255
155 195 255
155 195 255
155 195 255
155 195 255
155 195 255
155 195 255
155 195 255
155 195 255
155 195 255
155 195 255
156 196 255
156 196 255
156 196 255
156 196 255
156 196 255
156 196 255
156 196 255
156 196 255
156 196 255
157 196 255
157 196 255
157 196 255
157 196 255
157 196 255
157 196 255
157 196 255
157 197 255
157 197 255
157 197 255
158 197 255
158 197 255
158 197 255
158 197 255
158 197 255
158 197 255
158 197 255
158 197 255
158 197 255
158 197 255
159 197 255
159 197 255
159 197 255
159 198 255
159 198 255
159 198 255
159 198 255
159 198 255
159 198 255
160 198 255
160 198 255
160 198 255
160 198 255
160 198 255
160 198 255
160 198 255
160 198 255
160 198 255
161 199 255
161 199 255
161 199 255
161 199 255
161 199 255
161 199 255
161 199 255
161 199 255
161 199 255
161 199 255
162 199 255
162 199 255
162 199 255
162 199 255
162 199 255
162 199 255
162 200 255
162 200 255
162 200 255
162 200 255
163 200 255
163 200 255
163 200 255
163 200 255
163 200 255
163 200 255
163 200 255
163 200 255
163 200 255
163 200 255
164 200 255
164 200 255
164 200 255
164 201 255
164 201 255
164 201 255
164 201 255
164 201 255
164 201 255
164 201 255
165 201 255
165 201 255
165 201 255
165 201 255
165 201 255
165 201 255
165 201 255
165 201 255
165 201 255
165 201 255
165 201 255
166 202 255
166 202 255
166 202 255
166 202 255
166 202 255
166 202 255
166 202 255
166 202 255
166 202 255
166 202 255
166 202 255
166 202 255
167 202 255
167 202 255
167 202 255
167 202 255
167 202 255
167 202 255
167 202 255
167 202 255
167 203 255
167 203 255
167 203 255
167 203 255
168 203 255
168 203 255
168 203 255
168 203 255
168 203 255
168 203 255
168 203 255
168 203 255
168 203 255
168 203 255
168 203 255
168 203 255
168 203 255
168 203 255
168 203 255
168 203 255
168 203 255
168 203 255
168 203 255
167 203 255
167 203 255
167 203 255
167 203 255
167 202 255
167 202 255
167 202 255
167 202 255
167 202 255
167 202 255
167 202 255
167 202 255
166 202 255
166 202 255
166 202 255
166 202 255
166 202 255
166 202 255
166 202 255
166 202 255
166 202 255
166 202 255
166 202 255
165 201 255
165 201 255
165 201 255
165 201 255
165 201 255
165 201 255
165 201 255
165 201 255
165 201 255
165 201 255
165 201 255
164 201 255
164 201 255
164 201 255
164 201 255
164 201 255
164 201 255
164 201 255
164 200 255
164 200 255
164 200 255
164 200 255
163 200 255
163 200 255
163 200 255
163 200 255
163 200 255
163 200 255
163 200 255
163 200 255
163 200 255
163 200 255
162 200 255
162 200 255
162 200 255
162 199 255
162 199 255
162 199 255
162 199 255
162 199 255
162 199 255
162 199 255
161 199 255
161 199 255
161 199 255
161 199 255
161 199 255
161 199 255
161 199 255
161 199 255
161 199 255
160 198 255
160 198 255
160 198 255
160 198 255
160 198 255
160 198 255
160 198 255
160 198 255
160 198 255
160 198 255
159 198 255
159 198 255
159 198 255
159 198 255
159 198 255
159 198 255
159 197 255
159 197 255
159 197 255
158 197 255
158 197 255
158 197 255
158 197 255
158 197 255
158 197 255
158 197 255
158 197 255
158 197 255
158 197 255
157 197 255
157 197 255
157 197 255
157 196 255
157 196 255
157 196 255
157 196 255
157 196 255
157 196 255
156 196 255
156 196 255
156 196 255
156 196 255
156 196 255
156 196 255
156 196 255
156 196 255
156 196 255
156 196 255
155 195 255
155 195 255
155 195 255
155 195 255
155 195 255
155 195 255
155 195 255
155 195 255
155 195 255
155 195 255
155 195 255
154 195 255
154 195 255
154 195 255
154 195 255
154 195 255
154 195 255
154 195 255
154 195 255
154 194 255
154 194 255
154 194 255
154 194 255
154 194 255
153 194 255
153 194 255
153 194 255
153 194 255
153 194 255
153 194 255
153 194 255
153 194 255
153 194 255
153 194 255
153 194 255
153 194 255
153 194 255
153 194 255
153 194 255
152 194 255
152 194 255
152 194 255
152 194 255
152 194 255
152 194 255
152 194 255
152 194 255
152 193 255
152 193 255
152 193 255
152 193 255
152 193 255
152 193 255
152 193 255
152 193 255
152 193 255
152 193 255
152 193 255
152 193 255
152 193 255
152 193 255
152 193 255
152 193 255
152 193 255
152 193 255
152 193 255
152 193 255
152 193 255
152 193 255
152 193 255
152 193 255
152 193 255
152 193 255
152 193 255
152 193 255
152 193 255
152 193 255
152 193 255
152 193 255
152 193 255
152 193 255
152 193 255
152 193 255
152 193 255
152 193 255
152 193 255
152 193 255
152 194 255
152 194 255
152 194 255
152 194 255
152 194 255
152 194 255
152 194 255
153 194 255
153 194 255
153 194 255
153 194 255
153 194 255
153 194 255
153 194 255
153 194 255
153 194 255
153 194 255
153 194 255
153 194 255
153 194 255
153 194 255
153 194 255
153 194 255
154 194 255
154 194 255
154 194 255
154 194 255
154 194 255
154 195 255
154 195 255
154 195 255
154 195 255
154 195 255
154 195 255
154 195 255
154 195 255
155 195 255
155 195 255
155 195 255
155 195 255
155 195 255
155 195 255
155 195 255
155 195 255
155 195 255
155 195 255
155 195 255
156 196 255
156 196 255
156 196 255
156 196 255
156 196 255
156 196 255
156 196 255
156 196 255
156 196 255
156 196 255
157 196 255
157 196 255
157 196 255
157 196 255
157 196 255
157 196 255
157 197 255
157 197 255
157 197 255
157 197 255
158 197 255
158 197 255
158 197 255
158 197 255
158 197 255
158 197 255
158 197 255
158 197 255
158 197 255
159 197 255
159 197 255
159 197 255
159 198 255
159 198 255
159 198 255
159 198 255
159 198 255
159 198 255
160 198 255
160 198 255
160 198 255
160 198 255
160 198 255
160 198 255
160 198 255
160 198 255
160 198 255
160 198 255
161 199 255
161 199 255
161 199 255
161 199 255
161 199 255
161 199 255
161 199 255
161 199 255
161 199 255
162 199 255
162 199 255
162 199 255
162 199 255
162 199 255
162 199 255
162 199 255
162 200 255
162 200 255
162 200 255
163 200 255
163 200 255
163 200 255
163 200 255
163 200 255
163 200 255
163 200 255
163 200 255
163 200 255
163 200 255
164 200 255
164 200 255
164 200 255
164 200 255
164 201 255
164 201 255
164 201 255
164 201 255
164 201 255
164 201 255
164 201 255
165 201 255
165 201 255
165 201 255
165 201 255
165 201 255
165 201 255
165 201 255
165 201 255
165 201 255
165 201 255
165 201 255
166 202 255
166 202 255
166 202 255
166 202 255
166 202 255
166 202 255
166 202 255
166 202 255
166 202 255
166 202 255
166 202 255
167 202 255
167 202 255
167 202 255
167 202 255
167 202 255
167 202 255
167 202 255
167 202 255
167 203 255
167 203 255
167 203 255
167 203 255
168 203 255
168 203 255
168 203 255
168 203 255
168 203 255
168 203 255
168 203 255
168 203 255
168 203 255
168 203 255
168 203 255
169 203 255
168 203 255
168 203 255
168 203 255
168 203 255
168 203 255
168 203 255
168 203 255
168 203 255
168 203 255
168 203 255
168 203 255
168 203 255
168 203 255
167 203 255
167 203 255
167 203 255
167 203 255
167 202 255
167 202 255
167 202 255
167 202 255
167 202 255
167 202 255
167 202 255
167 202 255
166 202 255
166 202 255
166 202 255
166 202 255
166 202 255
166 202 255
166 202 255
166 202 255
166 202 255
166 202 255
166 202 255
165 201 255
165 201 255
165 201 255
165 201 255
165 201 255
165 201 255
165 201 255
165 201 255
165 201 255
165 201 255
165 201 255
164 201 255
164 201 255
164 201 255
164 201 255
164 201 255
164 201 255
164 201 255
164 200 255
164 200 255
164 200 255
163 200 255
163 200 255
163 200 255
163 200 255
163 200 255
163 200 255
163 200 255
163 200 255
163 200 255
163 200 255
162 200 255
162 200 255
162 200 255
162 200 255
162 199 255
162 199 255
162 199 255
162 199 255
162 199 255
162 199 255
161 199 255
161 199 255
161 199 255
161 199 255
161 199 255
161 199 255
161 199 255
161 199 255
161 199 255
161 199 255
160 198 255
160 198 255
160 198 255
160 198 255
160 198 255
160 198 255
160 198 255
160 198 255
160 198 255
159 198 255
159 198 255
159 198 255
159 198 255
159 198 255
159 198 255
159 198 255
159 197 255
159 197 255
159 197 255
158 197 255
158 197 255
158 197 255
158 197 255
158 197 255
158 197 255
158 197 255
158 197 255
158 197 255
157 197 255
157 197 255
157 197 255
157 196 255
157 196 255
157 196 255
157 196 255
157 196 255
157 196 255
157 196 255
156 196 255
156 196 255
156 196 255
156 196 255
156 196 255
156 196 255
156 196 255
156 196 255
156 196 255
156 196 255
155 195 255
155 195 255
155 195 255
155 195 255
155 195 255
155 195 255
155 195 255
155 195 255
155 195 255
155 195 255
155 195 255
154 195 255
154 195 255
154 195 255
154 195 255
154 195 255
154 195 255
154 195 255
154 195 255
154 195 255
154 194 255
154 194 255
154 194 255
154 194 255
153 194 255
153 194 255
153 194 255
153 194 255
153 194 255
153 194 255
153 194 255
153 194 255
153 194 255
153 194 255
153 194 255
153 194 255
153 194 255
153 194 255
153 194 255
153 194 255
153 194 255
153 194 255
153 194 255
152 194 255
152 194 255
152 194 255
152 194 255
152 194 255
152 194 255
152 194 255
152 194 255
152 194 255
152 194 255
152 194 255
152 193 255
152 193 255
152 193 255
152 193 255
152 193 255
152 193 255
152 193 255
152 193 255
152 193 255
152 193 255
152 193 255
152 193 255
152 193 255
152 193 255
152 193 255
152 193 255
152 193 255
152 193 255
152 193 255
152 193 255
152 194 255
152 194 255
152 194 255
152 194 255
152 194 255
152 194 255
152 194 255
152 194 255
152 194 255
152 194 255
152 194 255
153 194 255
153 194 255
153 194 255
153 194 255
153 194 255
153 194 255
153 194 255
153 194 255
153 194 255
153 194 255
153 194 255
153 194 255
153 194 255
153 194 255
153 194 255
153 194 255
153 194 255
153 194 255
153 194 255
154 194 255
154 194 255
154 194 255
154 194 255
154 195 255
154 195 255
154 195 255
154 195 255
154 195 255
154 195 255
154 195 255
154 195 255
154 195 255
155 195 255
155 195 255
155 195 255
155 195 255
155 195 255
155 195 255
155 195 255
155 195 255
155 195 255
155 195 255
155 195 255
156 196 255
156 196 255
156 196 255
156 196 255
156 196 255
156 196 255
156 196 255
156 196 255
156 196 255
156 196 255
157 196 255
157 196 255
157 196 255
157 196 255
157 196 255
157 196 255
157 196 255
157 197 255
157 197 255
157 197 255
158 197 255
158 197 255
158 197 255
158 197 255
158 197 255
158 197 255
158 197 255
158 197 255
158 197 255
158 197 255
159 197 255
159 197 255
159 198 255
159 198 255
159 198 255
159 198 255
159 198 255
159 198 255
159 198 255
160 198 255
160 198 255
160 198 255
160 198 255
160 198 255
160 198 255
160 198 255
160 198 255
160 198 255
161 199 255
161 199 255
161 199 255
161 199 255
161 199 255
161 199 255
161 199 255
161 199 255
161 199 255
161 199 255
162 199 255
162 199 255
162 199 255
162 199 255
162 199 255
162 199 255
162 200 255
162 200 255
162 200 255
162 200 255
163 200 255
163 200 255
163 200 255
163 200 255
163 200 255
163 200 255
163 200 255
163 200 255
163 200 255
163 200 255
164 200 255
164 200 255
164 200 255
164 201 255
164 201 255
164 201 255
164 201 255
164 201 255
164 201 255
164 201 255
165 201 255
165 201 255
165 201 255
165 201 255
165 201 255
165 201 255
165 201 255
165 201 255
165 201 255
165 201 255
165 201 255
166 202 255
166 202 255
166 202 255
166 202 255
166 202 255
166 202 255
166 202 255
166 202 255
166 202 255
166 202 255
166 202 255
167 202 255
167 202 255
167 202 255
167 202 255
167 202 255
167 202 255
167 202 255
167 202 255
167 203 255
167 203 255
167 203 255
167 203 255
168 203 255
168 203 255
168 203 255
168 203 255
168 203 255
168 203 255
168 203 255
168 203 255
168 203 255
168 203 255
168 203 255
168 203 255
168 203 255
169 203 255
169 203 255
169 203 255
169 203 255
169 203 255
168 203 255
168 203 255
168 203 255
168 203 255
168 203 255
168 203 255
168 203 255
168 203 255
168 203 255
168 203 255
168 203 255
168 203 255
168 203 255
167 203 255
167 203 255
167 203 255
167 203 255
167 202 255
167 202 255
167 202 255
167 202 255
167 202 255
167 202 255
167 202 255
167 202 255
166 202 255
166 202 255
166 202 255
166 202 255
166 202 255
166 202 255
166 202 255
166 202 255
166 202 255
166 202 255
166 202 255
165 201 255
165 201 255
165 201 255
165 201 255
165 201 255
165 201 255
165 201 255
165 201 255
165 201 255
165 201 255
165 201 255
164 201 255
164 201 255
164 201 255
164 201 255
164 201 255
164 201 255
164 201 255
164 200 255
164 200 255
164 200 255
163 200 255
163 200 255
163 200 255
163 200 255
163 200 255
163 200 255
163 200 255
163 200 255
163 200 255
163 200 255
162 200 255
162 200 255
162 200 255
162 199 255
162 199 255
162 199 255
162 199 255
162 199 255
162 199 255
162 199 255
161 199 255
161 199 255
161 199 255
161 199 255
161 199 255
161 199 255
161 199 255
161 199 255
161 199 255
160 198 255
160 198 255
160 198 255
160 198 255
160 198 255
160 198 255
160 198 255
160 198 255
160 198 255
160 198 255
159 198 255
159 198 255
159 198 255
159 198 255
159 198 255
159 198 255
159 197 255
159 197 255
159 197 255
158 197 255
158 197 255
158 197 255
158 197 255
158 197 255
158 197 255
158 197 255
158 197 255
158 197 255
158 197 255
157 197 255
157 197 255
157 197 255
157 196 255
157 196 255
157 196 255
157 196 255
157 196 255
157 196 255
157 196 255
156 196 255
156 196 255
156 196 255
156 196 255
156 196 255
156 196 255
156 196 255
156 196 255
156 196 255
156 196 255
155 195 255
155 195 255
155 195 255
155 195 255
155 195 255
155 195 255
155 195 255
155 195 255
155 195 255
155 195 255
155 195 255
155 195 255
154 195 255
154 195 255
154 195 255
154 195 255
154 195 255
154 195 255
154 195 255
154 195 255
154 194 255
154 194 255
154 194 255
154 194 255
154 194 255
154 194 255
153 194 255
153 194 255
153 194 255
153 194 255
153 194 255
153 194 255
153 194 255
153 194 255
153 194 255
153 194 255
153 194 255
153 194 255
153 194 255
153 194 255
153 194 255
153 194 255
153 194 255
153 194 255
153 194 255
153 194 255
153 194 255
153 194 255
152 194 255
152 194 255
152 194 255
152 194 255
152 194 255
152 194 255
152 194 255
152 194 255
152 194 255
152 194 255
152 194 255
152 194 255
152 194 255
152 194 255
152 194 255
152 194 255
152 194 255
152 194 255
152 194 255
152 194 255
152 194 255
152 194 255
152 194 255
152 194 255
152 194 255
153 194 255
153 194 255
153 194 255
153 194 255
153 194 255
153 194 255
153 194 255
153 194 255
153 194 255
153 194 255
153 194 255
153 194 255
153 194 255
153 194 255
153 194 255
153 194 255
153 194 255
153 194 255
153 194 255
153 194 255
153 194 255
153 194 255
153 194 255
153 194 255
154 194 255
154 194 255
154 194 255
154 194 255
154 195 255
154 195 255
154 195 255
154 195 255
154 195 255
154 195 255
154 195 255
154 195 255
154 195 255
155 195 255
155 195 255
155 195 255
155 195 255
155 195 255
155 195 255
155 195 255
155 195 255
155 195 255
155 195 255
155 195 255
155 195 255
156 196 255
156 196 255
156 196 255
156 196 255
156 196 255
156 196 255
156 196 255
156 196 255
156 196 255
156 196 255
157 196 255
157 196 255
157 196 255
157 196 255
157 196 255
157 196 255
157 196 255
157 197 255
157 197 255
157 197 255
158 197 255
158 197 255
158 197 255
158 197 255
158 197 255
158 197 255
158 197 255
158 197 255
158 197 255
158 197 255
159 197 255
159 197 255
159 197 255
159 198 255
159 198 255
159 198 255
159 198 255
159 198 255
159 198 255
160 198 255
160 198 255
160 198 255
160 198 255
160 198 255
160 198 255
160 198 255
160 198 255
160 198 255
160 198 255
161 199 255
161 199 255
161 199 255
161 199 255
161 199 255
161 199 255
161 199 255
161 199 255
161 199 255
162 199 255
162 199 255
162 199 255
162 199 255
162 199 255
162 199 255
162 199 255
162 200 255
162 200 255
162 200 255
163 200 255
163 200 255
163 200 255
163 200 255
163 200 255
163 200 255
163 200 255
163 200 255
163 200 255
163 200 255
164 200 255
164 200 255
164 200 255
164 201 255
164 201 255
164 201 255
164 201 255
164 201 255
164 201 255
164 201 255
165 201 255
165 201 255
165 201 255
165 201 255
165 201 255
165 201 255
165 201 255
165 201 255
165 201 255
165 201 255
165 201 255
166 202 255
166 202 255
166 202 255
166 202 255
166 202 255
166 202 255
166 202 255
166 202 255
166 202 255
166 202 255
166 202 255
167 202 255
167 202 255
167 202 255
167 202 255
167 202 255
167 202 255
167 202 255
167 202 255
167 203 255
167 203 255
167 203 255
167 203 255
168 203 255
168 203 255
168 203 255
168 203 255
168 203 255
168 203 255
168 203 255
168 203 255
168 203 255
168 203 255
168 203 255
168 203 255
168 203 255
169 203 255
169 203 255
169 203 255
169 203 255
169 204 255
169 204 255
169 204 255
169 203 255
169 203 255
169 203 255
169 203 255
168 203 255
168 203 255
168 203 255
168 203 255
168 203 255
168 203 255
168 203 255
168 203 255
168 203 255
168 203 255
168 203 255
168 203 255
168 203 255
167 203 255
167 203 255
167 203 255
167 203 255
167 202 255
167 202 255
167 202 255
167 202 255
167 202 255
167 202 255
167 202 255
167 202 255
166 202 255
166 202 255
166 202 255
166 202 255
166 202 255
166 202 255
166 202 255
166 202 255
166 202 255
166 202 255
166 202 255
165 201 255
165 201 255
165 201 255
165 201 255
165 201 255
165 201 255
165 201 255
165 201 255
165 201 255
165 201 255
164 201 255
164 201 255
164 201 255
164 201 255
164 201 255
164 201 255
164 201 255
164 200 255
164 200 255
164 200 255
164 200 255
163 200 255
163 200 255
163 200 255
163 200 255
163 200 255
163 200 255
163 200 255
163 200 255
163 200 255
163 200 255
162 200 255
162 200 255
162 200 255
162 199 255
162 199 255
162 199 255
162 199 255
162 199 255
162 199 255
161 199 255
161 199 255
161 199 255
161 199 255
161 199 255
161 199 255
161 199 255
161 199 255
161 199 255
161 199 255
160 198 255
160 198 255
160 198 255
160 198 255
160 198 255
160 198 255
160 198 255
160 198 255
160 198 255
159 198 255
159 198 255
159 198 255
159 198 255
159 198 255
159 198 255
159 198 255
159 197 255
159 197 255
159 197 255
158 197 255
158 197 255
158 197 255
158 197 255
158 197 255
158 197 255
158 197 255
158 197 255
158 197 255
158 197 255
157 197 255
157 197 255
157 197 255
157 196 255
157 196 255
157 196 255
157 196 255
157 196 255
157 196 255
156 196 255
156 196 255
156 196 255
156 196 255
156 196 255
156 196 255
156 196 255
156 196 255
156 196 255
156 196 255
156 196 255
155 195 255
155 195 255
155 195 255
155 195 255
155 195 255
155 195 255
155 195 255
155 195 255
155 195 255
155 195 255
155 195 255
155 195 255
154 195 255
154 195 255
154 195 255
154 195 255
154 195 255
154 195 255
154 195 255
154 195 255
154 195 255
154 195 255
154 194 255
154 194 255
154 194 255
154 194 255
154 194 255
153 194 255
153 194 255
153 194 255
153 194 255
153 194 255
153 194 255
153 194 255
153 194 255
153 194 255
153 194 255
153 194 255
153 194 255
153 194 255
153 194 255
153 194 255
153 194 255
153 194 255
153 194 255
153 194 255
153 194 255
153 194 255
153 194 255
153 194 255
153 194 255
153 194 255
153 194 255
153 194 255
153 194 255
153 194 255
153 194 255
153 194 255
153 194 255
153 194 255
153 194 255
153 194 255
153 194 255
153 194 255
153 194 255
153 194 255
153 194 255
153 194 255
153 194 255
153 194 255
153 194 255
153 194 255
153 194 255
153 194 255
153 194 255
153 194 255
153 194 255
153 194 255
153 194 255
153 194 255
153 194 255
153 194 255
153 194 255
153 194 255
153 194 255
153 194 255
153 194 255
153 194 255
153 194 255
154 194 255
154 194 255
154 194 255
154 194 255
154 194 255
154 195 255
154 195 255
154 195 255
154 195 255
154 195 255
154 195 255
154 195 255
154 195 255
154 195 255
154 195 255
155 195 255
155 195 255
155 195 255
155 195 255
155 195 255
155 195 255
155 195 255
155 195 255
155 195 255
155 195 255
155 195 255
155 195 255
156 196 255
156 196 255
156 196 255
156 196 255
156 196 255
156 196 255
156 196 255
156 196 255
156 196 255
156 196 255
157 196 255
157 196 255
157 196 255
157 196 255
157 196 255
157 196 255
157 196 255
157 197 255
157 197 255
157 197 255
158 197 255
158 197 255
158 197 255
158 197 255
158 197 255
158 197 255
158 197 255
158 197 255
158 197 255
158 197 255
159 197 255
159 197 255
159 197 255
159 198 255
159 198 255
159 198 255
159 198 255
159 198 255
159 198 255
159 198 255
160 198 255
160 198 255
160 198 255
160 198 255
160 198 255
160 198 255
160 198 255
160 198 255
160 198 255
161 199 255
161 199 255
161 199 255
161 199 255
161 199 255
161 199 255
161 199 255
161 199 255
161 199 255
161 199 255
162 199 255
162 199 255
162 199 255
162 199 255
162 199 255
162 199 255
162 200 255
162 200 255
162 200 255
163 200 255
163 200 255
163 200 255
163 200 255
163 200 255
163 200 255
163 200 255
163 200 255
163 200 255
163 200 255
164 200 255
164 200 255
164 200 255
164 200 255
164 201 255
164 201 255
164 201 255
164 201 255
164 201 255
164 201 255
164 201 255
165 201 255
165 201 255
165 201 255
165 201 255
165 201 255
165 201 255
165 201 255
165 201 255
165 201 255
165 201 255
166 202 255
166 202 255
166 202 255
166 202 255
166 202 255
166 202 255
166 202 255
166 202 255
166 202 255
166 202 255
166 202 255
166 202 255
167 202 255
167 202 255
167 202 255
167 202 255
167 202 255
167 202 255
167 202 255
167 203 255
167 203 255
167 203 255
167 203 255
167 203 255
168 203 255
168 203 255
168 203 255
168 203 255
168 203 255
168 203 255
168 203 255
168 203 255
168 203 255
168 203 255
168 203 255
168 203 255
169 203 255
169 203 255
169 203 255
169 203 255
169 204 255
169 204 255
169 204 255
169 204 255
169 204 255
169 204 255
169 204 255
169 204 255
169 204 255
169 203 255
169 203 255
169 203 255
169 203 255
168 203 255
168 203 255
168 203 255
168 203 255
168 203 255
168 203 255
168 203 255
168 203 255
168 203 255
168 203 255
168 203 255
168 203 255
167 203 255
167 203 255
167 203 255
167 203 255
167 203 255
167 202 255
167 202 255
167 202 255
167 202 255
167 202 255
167 202 255
167 202 255
166 202 255
166 202 255
166 202 255
166 202 255
166 202 255
166 202 255
166 202 255
166 202 255
166 202 255
166 202 255
166 202 255
165 201 255
165 201 255
165 201 255
165 201 255
165 201 255
165 201 255
165 201 255
165 201 255
165 201 255
165 201 255
165 201 255
164 201 255
164 201 255
164 201 255
164 201 255
164 201 255
164 201 255
164 201 255
164 200 255
164 200 255
164 200 255
163 200 255
163 200 255
163 200 255
163 200 255
163 200 255
163 200 255
163 200 255
163 200 255
163 200 255
163 200 255
162 200 255
162 200 255
162 200 255
162 200 255
162 199 255
162 199 255
162 199 255
162 199 255
162 199 255
162 199 255
161 199 255
161 199 255
161 199 255
161 199 255
161 199 255
161 199 255
161 199 255
161 199 255
161 199 255
161 199 255
160 198 255
160 198 255
160 198 255
160 198 255
160 198 255
160 198 255
160 198 255
160 198 255
160 198 255
159 198 255
159 198 255
159 198 255
159 198 255
159 198 255
159 198 255
159 197 255
159 197 255
159 197 255
159 197 255
158 197 255
158 197 255
158 197 255
158 197 255
158 197 255
158 197 255
158 197 255
158 197 255
158 197 255
157 197 255
157 197 255
157 197 255
157 197 255
157 196 255
157 196 255
157 196 255
157 196 255
157 196 255
157 196 255
157 196 255
156 196 255
156 196 255
156 196 255
156 196 255
156 196 255
156 196 255
156 196 255
156 196 255
156 196 255
156 196 255
156 196 255
155 195 255
155 195 255
155 195 255
155 195 255
155 195 255
155 195 255
155 195 255
155 195 255
155 195 255
155 195 255
155 195 255
155 195 255
154 195 255
154 195 255
154 195 255
154 195 255
154 195 255
154 195 255
154 195 255
154 195 255
154 195 255
154 195 255
154 195 255
154 194 255
154 194 255
154 194 255
154 194 255
154 194 255
154 194 255
153 194 255
153 194 255
153 194 255
153 194 255
153 194 255
153 194 255
153 194 255
153 194 255
153 194 255
153 194 255
153 194 255
153 194 255
153 194 255
153 194 255
153 194 255
153 194 255
153 194 255
153 194 255
153 194 255
153 194 255
153 194 255
153 194 255
153 194 255
153 194 255
153 194 255
153 194 255
153 194 255
153 194 255
153 194 255
153 194 255
153 194 255
153 194 255
153 194 255
153 194 255
153 194 255
153 194 255
153 194 255
153 194 255
153 194 255
153 194 255
153 194 255
153 194 255
153 194 255
153 194 255
153 194 255
153 194 255
153 194 255
153 194 255
153 194 255
153 194 255
154 194 255
154 194 255
154 194 255
154 194 255
154 194 255
154 194 255
154 195 255
154 195 255
154 195 255
154 195 255
154 195 255
154 195 255
154 195 255
154 195 255
154 195 255
154 195 255
154 195 255
155 195 255
155 195 255
155 195 255
155 195 255
155 195 255
155 195 255
155 195 255
155 195 255
155 195 255
155 195 255
155 195 255
155 195 255
156 196 255
156 196 255
156 196 255
156 196 255
156 196 255
156 196 255
156 196 255
156 196 255
156 196 255
156 196 255
156 196 255
156 196 255
157 196 255
157 196 255
157 196 255
157 196 255
157 196 255
157 196 255
157 197 255
157 197 255
157 197 255
157 197 255
158 197 255
158 197 255
158 197 255
158 197 255
158 197 255
158 197 255
158 197 255
158 197 255
158 197 255
159 197 255
159 197 255
159 197 255
159 197 255
159 198 255
159 198 255
159 198 255
159 198 255
159 198 255
159 198 255
160 198 255
160 198 255
160 198 255
160 198 255
160 198 255
160 198 255
160 198 255
160 198 255
160 198 255
160 198 255
161 199 255
161 199 255
161 199 255
161 199 255
161 199 255
161 199 255
161 199 255
161 199 255
161 199 255
162 199 255
162 199 255
162 199 255
162 199 255
162 199 255
162 199 255
162 200 255
162 200 255
162 200 255
162 200 255
163 200 255
163 200 255
163 200 255
163 200 255
163 200 255
163 200 255
163 200 255
163 200 255
163 200 255
163 200 255
164 200 255
164 200 255
164 200 255
164 201 255
164 201 255
164 201 255
164 201 255
164 201 255
164 201 255
164 201 255
165 201 255
165 201 255
165 201 255
165 201 255
165 201 255
165 201 255
165 201 255
165 201 255
165 201 255
165 201 255
166 202 255
166 202 255
166 202 255
166 202 255
166 202 255
166 202 255
166 202 255
166 202 255
166 202 255
166 202 255
166 202 255
166 202 255
167 202 255
167 202 255
167 202 255
167 202 255
167 202 255
167 202 255
167 202 255
167 202 255
167 203 255
167 203 255
167 203 255
168 203 255
168 203 255
168 203 255
168 203 255
168 203 255
168 203 255
168 203 255
168 203 255
168 203 255
168 203 255
168 203 255
168 203 255
168 203 255
169 203 255
169 203 255
169 203 255
169 203 255
169 204 255
169 204 255
169 204 255
169 204 255
169 204 255
169 204 255
169 204 255
169 204 255
169 204 255
169 204 255
169 204 255
169 204 255
169 204 255
169 204 255
169 204 255
169 203 255
169 203 255
169 203 255
169 203 255
168 203 255
168 203 255
168 203 255
168 203 255
168 203 255
168 203 255
168 203 255
168 203 255
168 203 255
168 203 255
168 203 255
168 203 255
167 203 255
167 203 255
167 203 255
167 203 255
167 202 255
167 202 255
167 202 255
167 202 255
167 202 255
167 202 255
167 202 255
167 202 255
166 202 255
166 202 255
166 202 255
166 202 255
166 202 255
166 202 255
166 202 255
166 202 255
166 202 255
166 202 255
166 202 255
165 201 255
165 201 255
165 201 255
165 201 255
165 201 255
165 201 255
165 201 255
165 201 255
165 201 255
165 201 255
165 201 255
164 201 255
164 201 255
164 201 255
164 201 255
164 201 255
164 201 255
164 201 255
164 200 255
164 200 255
164 200 255
163 200 255
163 200 255
163 200 255
163 200 255
163 200 255
163 200 255
163 200 255
163 200 255
163 200 255
163 200 255
162 200 255
162 200 255
162 200 255
162 199 255
162 199 255
162 199 255
162 199 255
162 199 255
162 199 255
162 199 255
161 199 255
161 199 255
161 199 255
161 199 255
161 199 255
161 199 255
161 199 255
161 199 255
161 199 255
160 198 255
160 198 255
160 198 255
160 198 255
160 198 255
160 198 255
160 198 255
160 198 255
160 198 255
160 198 255
159 198 255
159 198 255
159 198 255
159 198 255
159 198 255
159 198 255
159 197 255
159 197 255
159 197 255
158 197 255
158 197 255
158 197 255
158 197 255
158 197 255
158 197 255
158 197 255
158 197 255
158 197 255
158 197 255
157 197 255
157 197 255
157 197 255
157 197 255
157 196 255
157 196 255
157 196 255
157 196 255
157 196 255
157 196 255
157 196 255
156 196 255
156 196 255
156 196 255
156 196 255
156 196 255
156 196 255
156 196 255
156 196 255
156 196 255
156 196 255
156 196 255
155 195 255
155 195 255
155 195 255
155 195 255
155 195 255
155 195 255
155 195 255
155 195 255
155 195 255
155 195 255
155 195 255
155 195 255
155 195 255
155 195 255
154 195 255
154 195 255
154 195 255
154 195 255
154 195 255
154 195 255
154 195 255
154 195 255
154 195 255
154 195 255
154 195 255
154 194 255
154 194 255
154 194 255
154 194 255
154 194 255
154 194 255
154 194 255
154 194 255
154 194 255
153 194 255
153 194 255
153 194 255
153 194 255
153 194 255
153 194 255
153 194 255
153 194 255
153 194 255
153 194 255
153 194 255
153 194 255
153 194 255
153 194 255
153 194 255
153 194 255
153 194 255
153 194 255
153 194 255
153 194 255
153 194 255
153 194 255
153 194 255
153 194 255
153 194 255
153 194 255
153 194 255
153 194 255
153 194 255
153 194 255
153 194 255
153 194 255
153 194 255
153 194 255
153 194 255
154 194 255
154 194 255
154 194 255
154 194 255
154 194 255
154 194 255
154 194 255
154 195 255
154 195 255
154 195 255
154 195 255
154 195 255
154 195 255
154 195 255
154 195 255
154 195 255
154 195 255
154 195 255
154 195 255
155 195 255
155 195 255
155 195 255
155 195 255
155 195 255
155 195 255
155 195 255
155 195 255
155 195 255
155 195 255
155 195 255
155 195 255
155 195 255
155 195 255
156 196 255
156 196 255
156 196 255
156 196 255
156 196 255
156 196 255
156 196 255
156 196 255
156 196 255
156 196 255
156 196 255
157 196 255
157 196 255
157 196 255
157 196 255
157 196 255
157 196 255
157 196 255
157 197 255
157 197 255
157 197 255
157 197 255
158 197 255
158 197 255
158 197 255
158 197 255
158 197 255
158 197 255
158 197 255
158 197 255
158 197 255
158 197 255
159 197 255
159 197 255
159 197 255
159 198 255
159 198 255
159 198 255
159 198 255
159 198 255
159 198 255
160 198 255
160 198 255
160 198 255
160 198 255
160 198 255
160 198 255
160 198 255
160 198 255
160 198 255
160 198 255
161 199 255
161 199 255
161 199 255
161 199 255
161 199 255
161 199 255
161 199 255
161 199 255
161 199 255
162 199 255
162 199 255
162 199 255
162 199 255
162 199 255
162 199 255
162 199 255
162 200 255
162 200 255
162 200 255
163 200 255
163 200 255
163 200 255
163 200 255
163 200 255
163 200 255
163 200 255
163 200 255
163 200 255
163 200 255
164 200 255
164 200 255
164 200 255
164 201 255
164 201 255
164 201 255
164 201 255
164 201 255
164 201 255
164 201 255
165 201 255
165 201 255
165 201 255
165 201 255
165 201 255
165 201 255
165 201 255
165 201 255
165 201 255
165 201 255
165 201 255
166 202 255
166 202 255
166 202 255
166 202 255
166 202 255
166 202 255
166 202 255
166 202 255
166 202 255
166 202 255
166 202 255
167 202 255
167 202 255
167 202 255
167 202 255
167 202 255
167 202 255
167 202 255
167 202 255
167 203 255
167 203 255
167 203 255
167 203 255
168 203 255
168 203 255
168 203 255
168 203 255
168 203 255
168 203 255
168 203 255
168 203 255
168 203 255
168 203 255
168 203 255
168 203 255
169 203 255
169 203 255
169 203 255
169 203 255
169 204 255
169 204 255
169 204 255
169 204 255
169 204 255
169 204 255
169 204 255
169 204 255
169 204 255
170 204 255
170 204 255
170 204 255
169 204 255
169 204 255
169 204 255
169 204 255
169 204 255
169 204 255
169 204 255
169 204 255
169 204 255
169 203 255
169 203 255
169 203 255
169 203 255
168 203 255
168 203 255
168 203 255
168 203 255
168 203 255
168 203 255
168 203 255
168 203 255
168 203 255
168 203 255
168 203 255
168 203 255
167 203 255
167 203 255
167 203 255
167 203 255
167 202 255
167 202 255
167 202 255
167 202 255
167 202 255
167 202 255
167 202 255
167 202 255
166 202 255
166 202 255
166 202 255
166 202 255
166 202 255
166 202 255
166 202 255
166 202 255
166 202 255
166 202 255
166 202 255
165 201 255
165 201 255
165 201 255
165 201 255
165 201 255
165 201 255
165 201 255
165 201 255
165 201 255
165 201 255
165 201 255
164 201 255
164 201 255
164 201 255
164 201 255
164 201 255
164 201 255
164 200 255
164 200 255
164 200 255
164 200 255
163 200 255
163 200 255
163 200 255
163 200 255
163 200 255
163 200 255
163 200 255
163 200 255
163 200 255
163 200 255
162 200 255
162 200 255
162 200 255
162 199 255
162 199 255
162 199 255
162 199 255
162 199 255
162 199 255
161 199 255
161 199 255
161 199 255
161 199 255
161 199 255
161 199 255
161 199 255
161 199 255
161 199 255
161 199 255
160 198 255
160 198 255
160 198 255
160 198 255
160 198 255
160 198 255
160 198 255
160 198 255
160 198 255
159 198 255
159 198 255
159 198 255
159 198 255
159 198 255
159 198 255
159 198 255
159 197 255
159 197 255
159 197 255
158 197 255
158 197 255
158 197 255
158 197 255
158 197 255
158 197 255
158 197 255
158 197 255
158 197 255
158 197 255
157 197 255
157 197 255
157 197 255
157 197 255
157 196 255
157 196 255
157 196 255
157 196 255
157 196 255
157 196 255
157 196 255
156 196 255
156 196 255
156 196 255
156 196 255
156 196 255
156 196 255
156 196 255
156 196 255
156 196 255
156 196 255
156 196 255
156 196 255
155 195 255
155 195 255
155 195 255
155 195 255
155 195 255
155 195 255
155 195 255
155 195 255
155 195 255
155 195 255
155 195 255
155 195 255
155 195 255
155 195 255
154 195 255
154 195 255
154 195 255
154 195 255
154 195 255
154 195 255
154 195 255
154 195 255
154 195 255
154 195 255
154 195 255
154 195 255
154 195 255
154 195 255
154 195 255
154 194 255
154 194 255
154 194 255
154 194 255
154 194 255
154 194 255
154 194 255
154 194 255
154 194 255
154 194 255
154 194 255
154 194 255
154 194 255
154 194 255
154 194 255
154 194 255
154 194 255
154 194 255
154 194 255
153 194 255
154 194 255
153 194 255
154 194 255
154 194 255
154 194 255
154 194 255
154 194 255
154 194 255
154 194 255
154 194 255
154 194 255
154 194 255
154 194 255
154 194 255
154 194 255
154 194 255
154 194 255
154 195 255
154 195 255
154 195 255
154 195 255
154 195 255
154 195 255
154 195 255
154 195 255
154 195 255
154 195 255
154 195 255
154 195 255
154 195 255
154 195 255
155 195 255
155 195 255
155 195 255
155 195 255
155 195 255
155 195 255
155 195 255
155 195 255
155 195 255
155 195 255
155 195 255
155 195 255
155 195 255
155 195 255
156 196 255
156 196 255
156 196 255
156 196 255
156 196 255
156 196 255
156 196 255
156 196 255
156 196 255
156 196 255
156 196 255
156 196 255
157 196 255
157 196 255
157 196 255
157 196 255
157 196 255
157 196 255
157 196 255
157 197 255
157 197 255
157 197 255
157 197 255
158 197 255
158 197 255
158 197 255
158 197 255
158 197 255
158 197 255
158 197 255
158 197 255
158 197 255
158 197 255
159 197 255
159 197 255
159 197 255
159 198 255
159 198 255
159 198 255
159 198 255
159 198 255
159 198 255
160 198 255
160 198 255
160 198 255
160 198 255
160 198 255
160 198 255
160 198 255
160 198 255
160 198 255
160 198 255
161 199 255
161 199 255
161 199 255
161 199 255
161 199 255
161 199 255
161 199 255
161 199 255
161 199 255
161 199 255
162 199 255
162 199 255
162 199 255
162 199 255
162 199 255
162 199 255
162 200 255
162 200 255
162 200 255
163 200 255
163 200 255
163 200 255
163 200 255
163 200 255
163 200 255
163 200 255
163 200 255
163 200 255
163 200 255
164 200 255
164 200 255
164 200 255
164 200 255
164 201 255
164 201 255
164 201 255
164 201 255
164 201 255
164 201 255
165 201 255
165 201 255
165 201 255
165 201 255
165 201 255
165 201 255
165 201 255
165 201 255
165 201 255
165 201 255
165 201 255
166 202 255
166 202 255
166 202 255
166 202 255
166 202 255
166 202 255
166 202 255
166 202 255
166 202 255
166 202 255
166 202 255
167 202 255
167 202 255
167 202 255
167 202 255
167 202 255
167 202 255
167 202 255
167 202 255
167 203 255
167 203 255
167 203 255
167 203 255
168 203 255
168 203 255
168 203 255
168 203 255
168 203 255
168 203 255
168 203 255
168 203 255
168 203 255
168 203 255
168 203 255
168 203 255
169 203 255
169 203 255
169 203 255
169 203 255
169 204 255
169 204 255
169 204 255
169 204 255
169 204 255
169 204 255
169 204 255
169 204 255
169 204 255
170 204 255
170 204 255
170 204 255
170 204 255
170 204 255
170 204 255
170 204 255
170 204 255
170 204 255
169 204 255
169 204 255
169 204 255
169 204 255
169 204 255
169 204 255
169 204 255
169 204 255
169 204 255
169 203 255
169 203 255
169 203 255
169 203 255
168 203 255
168 203 255
168 203 255
168 203 255
168 203 255
168 203 255
168 203 255
168 203 255
168 203 255
168 203 255
168 203 255
168 203 255
167 203 255
167 203 255
167 203 255
167 203 255
167 202 255
167 202 255
167 202 255
167 202 255
167 202 255
167 202 255
167 202 255
167 202 255
166 202 255
166 202 255
166 202 255
166 202 255
166 202 255
166 202 255
166 202 255
166 202 255
166 202 255
166 202 255
166 202 255
165 201 255
165 201 255
165 201 255
165 201 255
165 201 255
165 201 255
165 201 255
165 201 255
165 201 255
165 201 255
164 201 255
164 201 255
164 201 255
164 201 255
164 201 255
164 201 255
164 201 255
164 200 255
164 200 255
164 200 255
164 200 255
163 200 255
163 200 255
163 200 255
163 200 255
163 200 255
163 200 255
163 200 255
163 200 255
163 200 255
162 200 255
162 200 255
162 200 255
162 200 255
162 199 255
162 199 255
162 199 255
162 199 255
162 199 255
162 199 255
161 199 255
161 199 255
161 199 255
161 199 255
161 199 255
161 199 255
161 199 255
161 199 255
161 199 255
161 199 255
160 198 255
160 198 255
160 198 255
160 198 255
160 198 255
160 198 255
160 198 255
160 198 255
160 198 255
159 198 255
159 198 255
159 198 255
159 198 255
159 198 255
159 198 255
159 198 255
159 197 255
159 197 255
159 197 255
158 197 255
158 197 255
158 197 255
158 197 255
158 197 255
158 197 255
158 197 255
158 197 255
158 197 255
158 197 255
157 197 255
157 197 255
157 197 255
157 197 255
157 196 255
157 196 255
157 196 255
157 196 255
157 196 255
157 196 255
157 196 255
156 196 255
156 196 255
156 196 255
156 196 255
156 196 255
156 196 255
156 196 255
156 196 255
156 196 255
156 196 255
156 196 255
156 196 255
156 196 255
155 195 255
155 195 255
155 195 255
155 195 255
155 195 255
155 195 255
155 195 255
155 195 255
155 195 255
155 195 255
155 195 255
155 195 255
155 195 255
155 195 255
155 195 255
155 195 255
154 195 255
154 195 255
154 195 255
154 195 255
154 195 255
154 195 255
154 195 255
154 195 255
154 195 255
154 195 255
154 195 255
154 195 255
154 195 255
154 195 255
154 195 255
154 195 255
154 195 255
154 195 255
154 195 255
154 195 255
154 195 255
154 194 255
154 194 255
154 194 255
154 194 255
154 194 255
154 194 255
154 194 255
154 194 255
154 194 255
154 194 255
154 194 255
154 194 255
154 195 255
154 195 255
154 195 255
154 195 255
154 195 255
154 195 255
154 195 255
154 195 255
154 195 255
154 195 255
154 195 255
154 195 255
154 195 255
154 195 255
154 195 255
154 195 255
154 195 255
154 195 255
154 195 255
154 195 255
154 195 255
155 195 255
155 195 255
155 195 255
155 195 255
155 195 255
155 195 255
155 195 255
155 195 255
155 195 255
155 195 255
155 195 255
155 195 255
155 195 255
155 195 255
155 195 255
155 195 255
156 196 255
156 196 255
156 196 255
156 196 255
156 196 255
156 196 255
156 196 255
156 196 255
156 196 255
156 196 255
156 196 255
156 196 255
157 196 255
157 196 255
157 196 255
157 196 255
157 196 255
157 196 255
157 196 255
157 196 255
157 197 255
157 197 255
157 197 255
157 197 255
158 197 255
158 197 255
158 197 255
158 197 255
158 197 255
158 197 255
158 197 255
158 197 255
158 197 255
158 197 255
159 197 255
159 197 255
159 197 255
159 198 255
159 198 255
159 198 255
159 198 255
159 198 255
159 198 255
159 198 255
160 198 255
160 198 255
160 198 255
160 198 255
160 198 255
160 198 255
160 198 255
160 198 255
160 198 255
161 199 255
161 199 255
161 199 255
161 199 255
161 199 255
161 199 255
161 199 255
161 199 255
161 199 255
161 199 255
162 199 255
162 199 255
162 199 255
162 199 255
162 199 255
162 199 255
162 200 255
162 200 255
162 200 255
162 200 255
163 200 255
163 200 255
163 200 255
163 200 255
163 200 255
163 200 255
163 200 255
163 200 255
163 200 255
163 200 255
164 200 255
164 200 255
164 200 255
164 201 255
164 201 255
164 201 255
164 201 255
164 201 255
164 201 255
164 201 255
165 201 255
165 201 255
165 201 255
165 201 255
165 201 255
165 201 255
165 201 255
165 201 255
165 201 255
165 201 255
166 202 255
166 202 255
166 202 255
166 202 255
166 202 255
166 202 255
166 202 255
166 202 255
166 202 255
166 202 255
166 202 255
167 202 255
167 202 255
167 202 255
167 202 255
167 202 255
167 202 255
167 202 255
167 202 255
167 203 255
167 203 255
167 203 255
167 203 255
168 203 255
168 203 255
168 203 255
168 203 255
168 203 255
168 203 255
168 203 255
168 203 255
168 203 255
168 203 255
168 203 255
168 203 255
169 203 255
169 203 255
169 203 255
169 203 255
169 204 255
169 204 255
169 204 255
169 204 255
169 204 255
169 204 255
169 204 255
169 204 255
169 204 255
170 204 255
170 204 255
170 204 255
170 204 255
170 204 255
170 204 255
170 204 255
170 204 255
170 204 255
170 204 255
170 204 255
170 204 255
170 204 255
170 204 255
170 204 255
169 204 255
169 204 255
169 204 255
169 204 255
169 204 255
169 204 255
169 204 255
169 204 255
169 204 255
169 203 255
169 203 255
169 203 255
169 203 255
168 203 255
168 203 255
168 203 255
168 203 255
168 203 255
168 203 255
168 203 255
168 203 255
168 203 255
168 203 255
168 203 255
168 203 255
167 203 255
167 203 255
167 203 255
167 203 255
167 202 255
167 202 255
167 202 255
167 202 255
167 202 255
167 202 255
167 202 255
167 202 255
166 202 255
166 202 255
166 202 255
166 202 255
166 202 255
166 202 255
166 202 255
166 202 255
166 202 255
166 202 255
166 202 255
165 201 255
165 201 255
165 201 255
165 201 255
165 201 255
165 201 255
165 201 255
165 201 255
165 201 255
165 201 255
164 201 255
164 201 255
164 201 255
164 201 255
164 201 255
164 201 255
164 201 255
164 200 255
164 200 255
164 200 255
163 200 255
163 200 255
163 200 255
163 200 255
163 200 255
163 200 255
163 200 255
163 200 255
163 200 255
163 200 255
162 200 255
162 200 255
162 200 255
162 199 255
162 199 255
162 199 255
162 199 255
162 199 255
162 199 255
162 199 255
161 199 255
161 199 255
161 199 255
161 199 255
161 199 255
161 199 255
161 199 255
161 199 255
161 199 255
160 198 255
160 198 255
160 198 255
160 198 255
160 198 255
160 198 255
160 198 255
160 198 255
160 198 255
160 198 255
159 198 255
159 198 255
159 198 255
159 198 255
159 198 255
159 198 255
159 198 255
159 197 255
159 197 255
159 197 255
158 197 255
158 197 255
158 197 255
158 197 255
158 197 255
158 197 255
158 197 255
158 197 255
158 197 255
158 197 255
158 197 255
157 197 255
157 197 255
157 197 255
157 196 255
157 196 255
157 196 255
157 196 255
157 196 255
157 196 255
157 196 255
157 196 255
156 196 255
156 196 255
156 196 255
156 196 255
156 196 255
156 196 255
156 196 255
156 196 255
156 196 255
156 196 255
156 196 255
156 196 255
156 196 255
155 195 255
155 195 255
155 195 255
155 195 255
155 195 255
155 195 255
155 195 255
155 195 255
155 195 255
155 195 255
155 195 255
155 195 255
155 195 255
155 195 255
155 195 255
155 195 255
155 195 255
155 195 255
155 195 255
154 195 255
154 195 255
154 195 255
154 195 255
154 195 255
154 195 255
154 195 255
154 195 255
154 195 255
154 195 255
154 195 255
154 195 255
154 195 255
154 195 255
154 195 255
154 195 255
154 195 255
154 195 255
154 195 255
154 195 255
154 195 255
154 195 255
154 195 255
154 195 255
154 195 255
154 195 255
154 195 255
154 195 255
154 195 255
154 195 255
154 195 255
154 195 255
154 195 255
154 195 255
154 195 255
154 195 255
154 195 255
154 195 255
154 195 255
154 195 255
154 195 255
155 195 255
155 195 255
155 195 255
155 195 255
155 195 255
155 195 255
155 195 255
155 195 255
155 195 255
155 195 255
155 195 255
155 195 255
155 195 255
155 195 255
155 195 255
155 195 255
155 195 255
155 195 255
156 196 255
156 196 255
156 196 255
156 196 255
156 196 255
156 196 255
156 196 255
156 196 255
156 196 255
156 196 255
156 196 255
156 196 255
156 196 255
157 196 255
157 196 255
157 196 255
157 196 255
157 196 255
157 196 255
157 196 255
157 196 255
157 197 255
157 197 255
157 197 255
157 197 255
158 197 255
158 197 255
158 197 255
158 197 255
158 197 255
158 197 255
158 197 255
158 197 255
158 197 255
158 197 255
159 197 255
159 197 255
159 197 255
159 198 255
159 198 255
159 198 255
159 198 255
159 198 255
159 198 255
159 198 255
160 198 255
160 198 255
160 198 255
160 198 255
160 198 255
160 198 255
160 198 255
160 198 255
160 198 255
161 199 255
161 199 255
161 199 255
161 199 255
161 199 255
161 199 255
161 199 255
161 199 255
161 199 255
161 199 255
162 199 255
162 199 255
162 199 255
162 199 255
162 199 255
162 199 255
162 199 255
162 200 255
162 200 255
162 200 255
163 200 255
163 200 255
163 200 255
163 200 255
163 200 255
163 200 255
163 200 255
163 200 255
163 200 255
163 200 255
164 200 255
164 200 255
164 200 255
164 201 255
164 201 255
164 201 255
164 201 255
164 201 255
164 201 255
164 201 255
165 201 255
165 201 255
165 201 255
165 201 255
165 201 255
165 201 255
165 201 255
165 201 255
165 201 255
165 201 255
166 202 255
166 202 255
166 202 255
166 202 255
166 202 255
166 202 255
166 202 255
166 202 255
166 202 255
166 202 255
166 202 255
167 202 255
167 202 255
167 202 255
167 202 255
167 202 255
167 202 255
167 202 255
167 202 255
167 203 255
167 203 255
167 203 255
167 203 255
168 203 255
168 203 255
168 203 255
168 203 255
168 203 255
168 203 255
168 203 255
168 203 255
168 203 255
168 203 255
168 203 255
168 203 255
169 203 255
169 203 255
169 203 255
169 203 255
169 204 255
169 204 255
169 204 255
169 204 255
169 204 255
169 204 255
169 204 255
169 204 255
169 204 255
170 204 255
170 204 255
170 204 255
170 204 255
170 204 255
170 204 255
170 204 255
170 204 255
170 204 255
170 204 255
170 204 255
170 204 255
170 204 255
170 204 255
170 204 255
170 204 255
170 204 255
170 204 255
170 204 255
170 204 255
170 204 255
170 204 255
169 204 255
169 204 255
169 204 255
169 204 255
169 204 255
169 204 255
169 204 255
169 204 255
169 203 255
169 203 255
169 203 255
169 203 255
169 203 255
168 203 255
168 203 255
168 203 255
168 203 255
168 203 255
168 203 255
168 203 255
168 203 255
168 203 255
168 203 255
168 203 255
167 203 255
167 203 255
167 203 255
167 203 255
167 202 255
167 202 255
167 202 255
167 202 255
167 202 255
167 202 255
167 202 255
167 202 255
166 202 255
166 202 255
166 202 255
166 202 255
166 202 255
166 202 255
166 202 255
166 202 255
166 202 255
166 202 255
166 202 255
165 201 255
165 201 255
165 201 255
165 201 255
165 201 255
165 201 255
165 201 255
165 201 255
165 201 255
165 201 255
164 201 255
164 201 255
164 201 255
164 201 255
164 201 255
164 201 255
164 201 255
164 200 255
164 200 255
164 200 255
163 200 255
163 200 255
163 200 255
163 200 255
163 200 255
163 200 255
163 200 255
163 200 255
163 200 255
163 200 255
162 200 255
162 200 255
162 200 255
162 199 255
162 199 255
162 199 255
162 199 255
162 199 255
162 199 255
162 199 255
161 199 255
161 199 255
161 199 255
161 199 255
161 199 255
161 199 255
161 199 255
161 199 255
161 199 255
160 198 255
160 198 255
160 198 255
160 198 255
160 198 255
160 198 255
160 198 255
160 198 255
160 198 255
160 198 255
159 198 255
159 198 255
159 198 255
159 198 255
159 198 255
159 198 255
159 198 255
159 197 255
159 197 255
159 197 255
158 197 255
158 197 255
158 197 255
158 197 255
158 197 255
158 197 255
158 197 255
158 197 255
158 197 255
158 197 255
158 197 255
157 197 255
157 197 255
157 197 255
157 197 255
157 196 255
157 196 255
157 196 255
157 196 255
157 196 255
157 196 255
157 196 255
157 196 255
156 196 255
156 196 255
156 196 255
156 196 255
156 196 255
156 196 255
156 196 255
156 196 255
156 196 255
156 196 255
156 196 255
156 196 255
156 196 255
156 196 255
155 195 255
155 195 255
155 195 255
155 195 255
155 195 255
155 195 255
155 195 255
155 195 255
155 195 255
155 195 255
155 195 255
155 195 255
155 195 255
155 195 255
155 195 255
155 195 255
155 195 255
155 195 255
155 195 255
155 195 255
155 195 255
155 195 255
155 195 255
155 195 255
155 195 255
154 195 255
154 195 255
154 195 255
154 195 255
154 195 255
154 195 255
154 195 255
154 195 255
154 195 255
154 195 255
154 195 255
154 195 255
154 195 255
154 195 255
154 195 255
154 195 255
154 195 255
154 195 255
155 195 255
155 195 255
155 195 255
155 195 255
155 195 255
155 195 255
155 195 255
155 195 255
155 195 255
155 195 255
155 195 255
155 195 255
155 195 255
155 195 255
155 195 255
155 195 255
155 195 255
155 195 255
155 195 255
155 195 255
155 195 255
155 195 255
155 195 255
155 195 255
155 195 255
156 196 255
156 196 255
156 196 255
156 196 255
156 196 255
156 196 255
156 196 255
156 196 255
156 196 255
156 196 255
156 196 255
156 196 255
156 196 255
156 196 255
157 196 255
157 196 255
157 196 255
157 196 255
157 196 255
157 196 255
157 196 255
157 196 255
157 197 255
157 197 255
157 197 255
157 197 255
158 197 255
158 197 255
158 197 255
158 197 255
158 197 255
158 197 255
158 197 255
158 197 255
158 197 255
158 197 255
158 197 255
159 197 255
159 197 255
159 197 255
159 198 255
159 198 255
159 198 255
159 198 255
159 198 255
159 198 255
159 198 255
160 198 255
160 198 255
160 198 255
160 198 255
160 198 255
160 198 255
160 198 255
160 198 255
160 198 255
160 198 255
161 199 255
161 199 255
161 199 255
161 199 255
161 199 255
161 199 255
161 199 255
161 199 255
161 199 255
162 199 255
162 199 255
162 199 255
162 199 255
162 199 255
162 199 255
162 199 255
162 200 255
162 200 255
162 200 255
163 200 255
163 200 255
163 200 255
163 200 255
163 200 255
163 200 255
163 200 255
163 200 255
163 200 255
163 200 255
164 200 255
164 200 255
164 200 255
164 201 255
164 201 255
164 201 255
164 201 255
164 201 255
164 201 255
164 201 255
165 201 255
165 201 255
165 201 255
165 201 255
165 201 255
165 201 255
165 201 255
165 201 255
165 201 255
165 201 255
166 202 255
166 202 255
166 202 255
166 202 255
166 202 255
166 202 255
166 202 255
166 202 255
166 202 255
166 202 255
166 202 255
167 202 255
167 202 255
167 202 255
167 202 255
167 202 255
167 202 255
167 202 255
167 202 255
167 203 255
167 203 255
167 203 255
167 203 255
168 203 255
168 203 255
168 203 255
168 203 255
168 203 255
168 203 255
168 203 255
168 203 255
168 203 255
168 203 255
168 203 255
168 203 255
169 203 255
169 203 255
169 203 255
169 203 255
169 204 255
169 204 255
169 204 255
169 204 255
169 204 255
169 204 255
169 204 255
169 204 255
170 204 255
170 204 255
170 204 255
170 204 255
170 204 255
170 204 255
170 204 255
170 204 255
170 204 255
170 204 255
170 204 255
170 204 255
170 204 255
171 205 255
171 205 255
170 204 255
170 204 255
170 204 255
170 204 255
170 204 255
170 204 255
170 204 255
170 204 255
170 204 255
170 204 255
170 204 255
170 204 255
170 204 255
170 204 255
169 204 255
169 204 255
169 204 255
169 204 255
169 204 255
169 204 255
169 204 255
169 204 255
169 203 255
169 203 255
169 203 255
169 203 255
168 203 255
168 203 255
168 203 255
168 203 255
168 203 255
168 203 255
168 203 255
168 203 255
168 203 255
168 203 255
168 203 255
168 203 255
167 203 255
167 203 255
167 203 255
167 203 255
167 202 255
167 202 255
167 202 255
167 202 255
167 202 255
167 202 255
167 202 255
167 202 255
166 202 255
166 202 255
166 202 255
166 202 255
166 202 255
166 202 255
166 202 255
166 202 255
166 202 255
166 202 255
165 201 255
165 201 255
165 201 255
165 201 255
165 201 255
165 201 255
165 201 255
165 201 255
165 201 255
165 201 255
165 201 255
164 201 255
164 201 255
164 201 255
164 201 255
164 201 255
164 201 255
164 200 255
164 200 255
164 200 255
164 200 255
163 200 255
163 200 255
163 200 255
163 200 255
163 200 255
163 200 255
163 200 255
163 200 255
163 200 255
163 200 255
162 200 255
162 200 255
162 200 255
162 199 255
162 199 255
162 199 255
162 199 255
162 199 255
162 199 255
162 199 255
161 199 255
161 199 255
161 199 255
161 199 255
161 199 255
161 199 255
161 199 255
161 199 255
161 199 255
160 198 255
160 198 255
160 198 255
160 198 255
160 198 255
160 198 255
160 198 255
160 198 255
160 198 255
160 198 255
159 198 255
159 198 255
159 198 255
159 198 255
159 198 255
159 198 255
159 198 255
159 197 255
159 197 255
159 197 255
159 197 255
158 197 255
158 197 255
158 197 255
158 197 255
158 197 255
158 197 255
158 197 255
158 197 255
158 197 255
158 197 255
157 197 255
157 197 255
157 197 255
157 197 255
157 196 255
157 196 255
157 196 255
157 196 255
157 196 255
157 196 255
157 196 255
157 196 255
156 196 255
156 196 255
156 196 255
156 196 255
156 196 255
156 196 255
156 196 255
156 196 255
156 196 255
156 196 255
156 196 255
156 196 255
156 196 255
156 196 255
156 196 255
156 196 255
155 195 255
155 195 255
155 195 255
155 195 255
155 195 255
155 195 255
155 195 255
155 195 255
155 195 255
155 195 255
155 195 255
155 195 255
155 195 255
155 195 255
155 195 255
155 195 255
155 195 255
155 195 255
155 195 255
155 195 255
155 195 255
155 195 255
155 195 255
155 195 255
155 195 255
155 195 255
155 195 255
155 195 255
155 195 255
155 195 255
155 195 255
155 195 255
155 195 255
155 195 255
155 195 255
155 195 255
155 195 255
155 195 255
155 195 255
155 195 255
155 195 255
155 195 255
155 195 255
155 195 255
155 195 255
155 195 255
155 195 255
155 195 255
155 195 255
155 195 255
155 195 255
155 195 255
155 195 255
155 195 255
155 195 255
155 195 255
155 195 255
155 195 255
156 196 255
156 196 255
156 196 255
156 196 255
156 196 255
156 196 255
156 196 255
156 196 255
156 196 255
156 196 255
156 196 255
156 196 255
156 196 255
156 196 255
156 196 255
157 196 255
157 196 255
157 196 255
157 196 255
157 196 255
157 196 255
157 196 255
157 196 255
157 196 255
157 197 255
157 197 255
157 197 255
157 197 255
158 197 255
158 197 255
158 197 255
158 197 255
158 197 255
158 197 255
158 197 255
158 197 255
158 197 255
158 197 255
158 197 255
159 197 255
159 197 255
159 197 255
159 198 255
159 198 255
159 198 255
159 198 255
159 198 255
159 198 255
159 198 255
160 198 255
160 198 255
160 198 255
160 198 255
160 198 255
160 198 255
160 198 255
160 198 255
160 198 255
160 198 255
161 199 255
161 199 255
161 199 255
161 199 255
161 199 255
161 199 255
161 199 255
161 199 255
161 199 255
161 199 255
162 199 255
162 199 255
162 199 255
162 199 255
162 199 255
162 199 255
162 200 255
162 200 255
162 200 255
163 200 255
163 200 255
163 200 255
163 200 255
163 200 255
163 200 255
163 200 255
163 200 255
163 200 255
163 200 255
164 200 255
164 200 255
164 200 255
164 201 255
164 201 255
164 201 255
164 201 255
164 201 255
164 201 255
164 201 255
165 201 255
165 201 255
165 201 255
165 201 255
165 201 255
165 201 255
165 201 255
165 201 255
165 201 255
165 201 255
165 201 255
166 202 255
166 202 255
166 202 255
166 202 255
166 202 255
166 202 255
166 202 255
166 202 255
166 202 255
166 202 255
167 202 255
167 202 255
167 202 255
167 202 255
167 202 255
167 202 255
167 202 255
167 202 255
167 203 255
167 203 255
167 203 255
167 203 255
168 203 255
168 203 255
168 203 255
168 203 255
168 203 255
168 203 255
168 203 255
168 203 255
168 203 255
168 203 255
168 203 255
169 203 255
169 203 255
169 203 255
169 203 255
169 203 255
169 204 255
169 204 255
169 204 255
169 204 255
169 204 255
169 204 255
169 204 255
169 204 255
170 204 255
170 204 255
170 204 255
170 204 255
170 204 255
170 204 255
170 204 255
170 204 255
170 204 255
170 204 255
170 204 255
170 204 255
170 204 255
170 204 255
171 205 255
171 205 255
171 205 255
171 205 255
171 205 255
171 205 255
171 205 255
171 205 255
170 204 255
170 204 255
170 204 255
170 204 255
170 204 255
170 204 255
170 204 255
170 204 255
170 204 255
170 204 255
170 204 255
170 204 255
170 204 255
169 204 255
169 204 255
169 204 255
169 204 255
169 204 255
169 204 255
169 204 255
169 204 255
169 204 255
169 203 255
169 203 255
169 203 255
169 203 255
168 203 255
168 203 255
168 203 255
168 203 255
168 203 255
168 203 255
168 203 255
168 203 255
168 203 255
168 203 255
168 203 255
167 203 255
167 203 255
167 203 255
167 203 255
167 202 255
167 202 255
167 202 255
167 202 255
167 202 255
167 202 255
167 202 255
167 202 255
166 202 255
166 202 255
166 202 255
166 202 255
166 202 255
166 202 255
166 202 255
166 202 255
166 202 255
166 202 255
165 201 255
165 201 255
165 201 255
165 201 255
165 201 255
165 201 255
165 201 255
165 201 255
165 201 255
165 201 255
165 201 255
164 201 255
164 201 255
164 201 255
164 201 255
164 201 255
164 201 255
164 200 255
164 200 255
164 200 255
164 200 255
163 200 255
163 200 255
163 200 255
163 200 255
163 200 255
163 200 255
163 200 255
163 200 255
163 200 255
163 200 255
162 200 255
162 200 255
162 200 255
162 199 255
162 199 255
162 199 255
162 199 255
162 199 255
162 199 255
161 199 255
161 199 255
161 199 255
161 199 255
161 199 255
161 199 255
161 199 255
161 199 255
161 199 255
161 199 255
160 198 255
160 198 255
160 198 255
160 198 255
160 198 255
160 198 255
160 198 255
160 198 255
160 198 255
160 198 255
159 198 255
159 198 255
159 198 255
159 198 255
159 198 255
159 198 255
159 198 255
159 197 255
159 197 255
159 197 255
159 197 255
158 197 255
158 197 255
158 197 255
158 197 255
158 197 255
158 197 255
158 197 255
158 197 255
158 197 255
158 197 255
158 197 255
157 197 255
157 197 255
157 197 255
157 197 255
157 196 255
157 196 255
157 196 255
157 196 255
157 196 255
157 196 255
157 196 255
157 196 255
157 196 255
156 196 255
156 196 255
156 196 255
156 196 255
156 196 255
156 196 255
156 196 255
156 196 255
156 196 255
156 196 255
156 196 255
156 196 255
156 196 255
156 196 255
156 196 255
156 196 255
156 196 255
156 196 255
155 195 255
155 195 255
155 195 255
155 195 255
155 195 255
155 195 255
155 195 255
155 195 255
155 195 255
155 195 255
155 195 255
155 195 255
155 195 255
155 195 255
155 195 255
155 195 255
155 195 255
155 195 255
155 195 255
155 195 255
155 195 255
155 195 255
155 195 255
155 195 255
155 195 255
155 195 255
155 195 255
155 195 255
155 195 255
155 195 255
155 195 255
155 195 255
155 195 255
155 195 255
155 195 255
155 195 255
155 195 255
155 195 255
155 195 255
155 195 255
155 195 255
155 195 255
155 195 255
155 195 255
156 196 255
156 196 255
156 196 255
156 196 255
156 196 255
156 196 255
156 196 255
156 196 255
156 196 255
156 196 255
156 196 255
156 196 255
156 196 255
156 196 255
156 196 255
156 196 255
156 196 255
156 196 255
157 196 255
157 196 255
157 196 255
157 196 255
157 196 255
157 196 255
157 196 255
157 196 255
157 196 255
157 197 255
157 197 255
157 197 255
157 197 255
158 197 255
158 197 255
158 197 255
158 197 255
158 197 255
158 197 255
158 197 255
158 197 255
158 197 255
158 197 255
158 197 255
159 197 255
159 197 255
159 197 255
159 197 255
159 198 255
159 198 255
159 198 255
159 198 255
159 198 255
159 198 255
159 198 255
160 198 255
160 198 255
160 198 255
160 198 255
160 198 255
160 198 255
160 198 255
160 198 255
160 198 255
160 198 255
161 199 255
161 199 255
161 199 255
161 199 255
161 199 255
161 199 255
161 199 255
161 199 255
161 199 255
161 199 255
162 199 255
162 199 255
162 199 255
162 199 255
162 199 255
162 199 255
162 200 255
162 200 255
162 200 255
163 200 255
163 200 255
163 200 255
163 200 255
163 200 255
163 200 255
163 200 255
163 200 255
163 200 255
163 200 255
164 200 255
164 200 255
164 200 255
164 200 255
164 201 255
164 201 255
164 201 255
164 201 255
164 201 255
164 201 255
165 201 255
165 201 255
165 201 255
165 201 255
165 201 255
165 201 255
165 201 255
165 201 255
165 201 255
165 201 255
165 201 255
166 202 255
166 202 255
166 202 255
166 202 255
166 202 255
166 202 255
166 202 255
166 202 255
166 202 255
166 202 255
166 202 255
167 202 255
167 202 255
167 202 255
167 202 255
167 202 255
167 202 255
167 202 255
167 203 255
167 203 255
167 203 255
167 203 255
168 203 255
168 203 255
168 203 255
168 203 255
168 203 255
168 203 255
168 203 255
168 203 255
168 203 255
168 203 255
168 203 255
169 203 255
169 203 255
169 203 255
169 203 255
169 203 255
169 204 255
169 204 255
169 204 255
169 204 255
169 204 255
169 204 255
169 204 255
169 204 255
170 204 255
170 204 255
170 204 255
170 204 255
170 204 255
170 204 255
170 204 255
170 204 255
170 204 255
170 204 255
170 204 255
170 204 255
170 204 255
171 205 255
171 205 255
171 205 255
171 205 255
171 205 255
171 205 255
171 205 255
171 205 255
171 205 255
171 205 255
171 205 255
171 205 255
171 205 255
171 205 255
171 205 255
170 204 255
170 204 255
170 204 255
170 204 255
170 204 255
170 204 255
170 204 255
170 204 255
170 204 255
170 204 255
170 204 255
170 204 255
170 204 255
169 204 255
169 204 255
169 204 255
169 204 255
169 204 255
169 204 255
169 204 255
169 204 255
169 204 255
169 203 255
169 203 255
169 203 255
169 203 255
168 203 255
168 203 255
168 203 255
168 203 255
168 203 255
168 203 255
168 203 255
168 203 255
168 203 255
168 203 255
168 203 255
167 203 255
167 203 255
167 203 255
167 203 255
167 202 255
167 202 255
167 202 255
167 202 255
167 202 255
167 202 255
167 202 255
167 202 255
166 202 255
166 202 255
166 202 255
166 202 255
166 202 255
166 202 255
166 202 255
166 202 255
166 202 255
166 202 255
165 201 255
165 201 255
165 201 255
165 201 255
165 201 255
165 201 255
165 201 255
165 201 255
165 201 255
165 201 255
165 201 255
164 201 255
164 201 255
164 201 255
164 201 255
164 201 255
164 201 255
164 200 255
164 200 255
164 200 255
164 200 255
163 200 255
163 200 255
163 200 255
163 200 255
163 200 255
163 200 255
163 200 255
163 200 255
163 200 255
162 200 255
162 200 255
162 200 255
162 200 255
162 199 255
162 199 255
162 199 255
162 199 255
162 199 255
162 199 255
161 199 255
161 199 255
161 199 255
161 199 255
161 199 255
161 199 255
161 199 255
161 199 255
161 199 255
161 199 255
160 198 255
160 198 255
160 198 255
160 198 255
160 198 255
160 198 255
160 198 255
160 198 255
160 198 255
160 198 255
159 198 255
159 198 255
159 198 255
159 198 255
159 198 255
159 198 255
159 198 255
159 197 255
159 197 255
159 197 255
159 197 255
158 197 255
158 197 255
158 197 255
158 197 255
158 197 255
158 197 255
158 197 255
158 197 255
158 197 255
158 197 255
158 197 255
158 197 255
157 197 255
157 197 255
157 197 255
157 197 255
157 196 255
157 196 255
157 196 255
157 196 255
157 196 255
157 196 255
157 196 255
157 196 255
157 196 255
157 196 255
156 196 255
156 196 255
156 196 255
156 196 255
156 196 255
156 196 255
156 196 255
156 196 255
156 196 255
156 196 255
156 196 255
156 196 255
156 196 255
156 196 255
156 196 255
156 196 255
156 196 255
156 196 255
156 196 255
156 196 255
156 196 255
156 196 255
155 195 255
155 195 255
155 195 255
155 195 255
155 195 255
155 195 255
155 195 255
155 195 255
155 195 255
155 195 255
155 195 255
155 195 255
155 195 255
155 195 255
155 195 255
155 195 255
155 195 255
155 195 255
155 195 255
155 195 255
155 195 255
155 195 255
155 195 255
155 195 255
155 195 255
156 196 255
156 196 255
156 196 255
156 196 255
156 196 255
156 196 255
156 196 255
156 196 255
156 196 255
156 196 255
156 196 255
156 196 255
156 196 255
156 196 255
156 196 255
156 196 255
156 196 255
156 196 255
156 196 255
156 196 255
156 196 255
156 196 255
156 196 255
157 196 255
157 196 255
157 196 255
157 196 255
157 196 255
157 196 255
157 196 255
157 196 255
157 196 255
157 196 255
157 197 255
157 197 255
157 197 255
157 197 255
158 197 255
158 197 255
158 197 255
158 197 255
158 197 255
158 197 255
158 197 255
158 197 255
158 197 255
158 197 255
158 197 255
158 197 255
159 197 255
159 197 255
159 197 255
159 197 255
159 198 255
159 198 255
159 198 255
159 198 255
159 198 255
159 198 255
159 198 255
160 198 255
160 198 255
160 198 255
160 198 255
160 198 255
160 198 255
160 198 255
160 198 255
160 198 255
160 198 255
161 199 255
161 199 255
161 199 255
161 199 255
161 199 255
161 199 255
161 199 255
161 199 255
161 199 255
162 199 255
162 199 255
162 199 255
162 199 255
162 199 255
162 199 255
162 199 255
162 200 255
162 200 255
162 200 255
163 200 255
163 200 255
163 200 255
163 200 255
163 200 255
163 200 255
163 200 255
163 200 255
163 200 255
163 200 255
164 200 255
164 200 255
164 200 255
164 200 255
164 201 255
164 201 255
164 201 255
164 201 255
164 201 255
164 201 255
164 201 255
165 201 255
165 201 255
165 201 255
165 201 255
165 201 255
165 201 255
165 201 255
165 201 255
165 201 255
165 201 255
166 202 255
166 202 255
166 202 255
166 202 255
166 202 255
166 202 255
166 202 255
166 202 255
166 202 255
166 202 255
167 202 255
167 202 255
167 202 255
167 202 255
167 202 255
167 202 255
167 202 255
167 202 255
167 203 255
167 203 255
167 203 255
167 203 255
168 203 255
168 203 255
168 203 255
168 203 255
168 203 255
168 203 255
168 203 255
168 203 255
168 203 255
168 203 255
168 203 255
169 203 255
169 203 255
169 203 255
169 203 255
169 204 255
169 204 255
169 204 255
169 204 255
169 204 255
169 204 255
169 204 255
169 204 255
169 204 255
170 204 255
170 204 255
170 204 255
170 204 255
170 204 255
170 204 255
170 204 255
170 204 255
170 204 255
170 204 255
170 204 255
170 204 255
170 204 255
171 205 255
171 205 255
171 205 255
171 205 255
171 205 255
171 205 255
171 205 255
171 205 255
171 205 255
171 205 255
171 205 255
171 205 255
171 205 255
171 205 255
171 205 255
171 205 255
171 205 255
171 205 255
171 205 255
171 205 255
171 205 255
170 204 255
170 204 255
170 204 255
170 204 255
170 204 255
170 204 255
170 204 255
170 204 255
170 204 255
170 204 255
170 204 255
170 204 255
170 204 255
169 204 255
169 204 255
169 204 255
169 204 255
169 204 255
169 204 255
169 204 255
169 204 255
169 204 255
169 203 255
169 203 255
169 203 255
169 203 255
168 203 255
168 203 255
168 203 255
168 203 255
168 203 255
168 203 255
168 203 255
168 203 255
168 203 255
168 203 255
168 203 255
168 203 255
167 203 255
167 203 255
167 203 255
167 202 255
167 202 255
167 202 255
167 202 255
167 202 255
167 202 255
167 202 255
167 202 255
166 202 255
166 202 255
166 202 255
166 202 255
166 202 255
166 202 255
166 202 255
166 202 255
166 202 255
166 202 255
165 201 255
165 201 255
165 201 255
165 201 255
165 201 255
165 201 255
165 201 255
165 201 255
165 201 255
165 201 255
165 201 255
164 201 255
164 201 255
164 201 255
164 201 255
164 201 255
164 201 255
164 200 255
164 200 255
164 200 255
164 200 255
163 200 255
163 200 255
163 200 255
163 200 255
163 200 255
163 200 255
163 200 255
163 200 255
163 200 255
162 200 255
162 200 255
162 200 255
162 200 255
162 199 255
162 199 255
162 199 255
162 199 255
162 199 255
162 199 255
161 199 255
161 199 255
161 199 255
161 199 255
161 199 255
161 199 255
161 199 255
161 199 255
161 199 255
161 199 255
160 198 255
160 198 255
160 198 255
160 198 255
160 198 255
160 198 255
160 198 255
160 198 255
160 198 255
160 198 255
160 198 255
159 198 255
159 198 255
159 198 255
159 198 255
159 198 255
159 198 255
159 198 255
159 197 255
159 197 255
159 197 255
158 197 255
158 197 255
158 197 255
158 197 255
158 197 255
158 197 255
158 197 255
158 197 255
158 197 255
158 197 255
158 197 255
158 197 255
158 197 255
157 197 255
157 197 255
157 197 255
157 197 255
157 197 255
157 196 255
157 196 255
157 196 255
157 196 255
157 196 255
157 196 255
157 196 255
157 196 255
157 196 255
157 196 255
157 196 255
156 196 255
156 196 255
156 196 255
156 196 255
156 196 255
156 196 255
156 196 255
156 196 255
156 196 255
156 196 255
156 196 255
156 196 255
156 196 255
156 196 255
156 196 255
156 196 255
156 196 255
156 196 255
156 196 255
156 196 255
156 196 255
156 196 255
156 196 255
156 196 255
156 196 255
156 196 255
156 196 255
156 196 255
156 196 255
156 196 255
156 196 255
156 196 255
156 196 255
156 196 255
156 196 255
156 196 255
156 196 255
156 196 255
156 196 255
156 196 255
156 196 255
156 196 255
156 196 255
156 196 255
156 196 255
156 196 255
156 196 255
156 196 255
156 196 255
156 196 255
156 196 255
156 196 255
156 196 255
156 196 255
156 196 255
156 196 255
156 196 255
156 196 255
156 196 255
157 196 255
157 196 255
157 196 255
157 196 255
157 196 255
157 196 255
157 196 255
157 196 255
157 196 255
157 196 255
157 197 255
157 197 255
157 197 255
157 197 255
157 197 255
158 197 255
158 197 255
158 197 255
158 197 255
158 197 255
158 197 255
158 197 255
158 197 255
158 197 255
158 197 255
158 197 255
158 197 255
159 197 255
159 197 255
159 197 255
159 197 255
159 198 255
159 198 255
159 198 255
159 198 255
159 198 255
159 198 255
159 198 255
160 198 255
160 198 255
160 198 255
160 198 255
160 198 255
160 198 255
160 198 255
160 198 255
160 198 255
160 198 255
160 198 255
161 199 255
161 199 255
161 199 255
161 199 255
161 199 255
161 199 255
161 199 255
161 199 255
161 199 255
161 199 255
162 199 255
162 199 255
162 199 255
162 199 255
162 199 255
162 199 255
162 200 255
162 200 255
162 200 255
162 200 255
163 200 255
163 200 255
163 200 255
163 200 255
163 200 255
163 200 255
163 200 255
163 200 255
163 200 255
163 200 255
164 200 255
164 200 255
164 200 255
164 201 255
164 201 255
164 201 255
164 201 255
164 201 255
164 201 255
165 201 255
165 201 255
165 201 255
165 201 255
165 201 255
165 201 255
165 201 255
165 201 255
165 201 255
165 201 255
165 201 255
166 202 255
166 202 255
166 202 255
166 202 255
166 202 255
166 202 255
166 202 255
166 202 255
166 202 255
166 202 255
167 202 255
167 202 255
167 202 255
167 202 255
167 202 255
167 202 255
167 202 255
167 202 255
167 203 255
167 203 255
167 203 255
167 203 255
168 203 255
168 203 255
168 203 255
168 203 255
168 203 255
168 203 255
168 203 255
168 203 255
168 203 255
168 203 255
168 203 255
169 203 255
169 203 255
169 203 255
169 203 255
169 204 255
169 204 255
169 204 255
169 204 255
169 204 255
169 204 255
169 204 255
169 204 255
170 204 255
170 204 255
170 204 255
170 204 255
170 204 255
170 204 255
170 204 255
170 204 255
170 204 255
170 204 255
170 204 255
170 204 255
170 204 255
170 204 255
171 205 255
171 205 255
171 205 255
171 205 255
171 205 255
171 205 255
171 205 255
171 205 255
171 205 255
171 205 255
171 205 255
171 205 255
172 205 255
172 205 255
171 205 255
171 205 255
171 205 255
171 205 255
171 205 255
171 205 255
171 205 255
171 205 255
171 205 255
171 205 255
171 205 255
171 205 255
171 205 255
171 205 255
170 204 255
170 204 255
170 204 255
170 204 255
170 204 255
170 204 255
170 204 255
170 204 255
170 204 255
170 204 255
170 204 255
170 204 255
170 204 255
169 204 255
169 204 255
169 204 255
169 204 255
169 204 255
169 204 255
169 204 255
169 204 255
169 203 255
169 203 255
169 203 255
169 203 255
168 203 255
168 203 255
168 203 255
168 203 255
168 203 255
168 203 255
168 203 255
168 203 255
168 203 255
168 203 255
168 203 255
168 203 255
167 203 255
167 203 255
167 203 255
167 202 255
167 202 255
167 202 255
167 202 255
167 202 255
167 202 255
167 202 255
167 202 255
166 202 255
166 202 255
166 202 255
166 202 255
166 202 255
166 202 255
166 202 255
166 202 255
166 202 255
166 202 255
165 201 255
165 201 255
165 201 255
165 201 255
165 201 255
165 201 255
165 201 255
165 201 255
165 201 255
165 201 255
165 201 255
164 201 255
164 201 255
164 201 255
164 201 255
164 201 255
164 201 255
164 200 255
164 200 255
164 200 255
163 200 255
163 200 255
163 200 255
163 200 255
163 200 255
163 200 255
163 200 255
163 200 255
163 200 255
163 200 255
163 200 255
162 200 255
162 200 255
162 200 255
162 199 255
162 199 255
162 199 255
162 199 255
162 199 255
162 199 255
161 199 255
161 199 255
161 199 255
161 199 255
161 199 255
161 199 255
161 199 255
161 199 255
161 199 255
161 199 255
161 199 255
160 198 255
160 198 255
160 198 255
160 198 255
160 198 255
160 198 255
160 198 255
160 198 255
160 198 255
160 198 255
159 198 255
159 198 255
159 198 255
159 198 255
159 198 255
159 198 255
159 198 255
159 197 255
159 197 255
159 197 255
159 197 255
158 197 255
158 197 255
158 197 255
158 197 255
158 197 255
158 197 255
158 197 255
158 197 255
158 197 255
158 197 255
158 197 255
158 197 255
158 197 255
157 197 255
157 197 255
157 197 255
157 197 255
157 197 255
157 196 255
157 196 255
157 196 255
157 196 255
157 196 255
157 196 255
157 196 255
157 196 255
157 196 255
157 196 255
157 196 255
157 196 255
157 196 255
156 196 255
156 196 255
156 196 255
156 196 255
156 196 255
156 196 255
156 196 255
156 196 255
156 196 255
156 196 255
156 196 255
156 196 255
156 196 255
156 196 255
156 196 255
156 196 255
156 196 255
156 196 255
156 196 255
156 196 255
156 196 255
156 196 255
156 196 255
156 196 255
156 196 255
156 196 255
156 196 255
156 196 255
156 196 255
156 196 255
156 196 255
156 196 255
156 196 255
156 196 255
156 196 255
156 196 255
156 196 255
156 196 255
156 196 255
156 196 255
156 196 255
156 196 255
156 196 255
156 196 255
156 196 255
156 196 255
157 196 255
157 196 255
157 196 255
157 196 255
157 196 255
157 196 255
157 196 255
157 196 255
157 196 255
157 196 255
157 196 255
157 196 255
157 196 255
157 197 255
157 197 255
157 197 255
157 197 255
158 197 255
158 197 255
158 197 255
158 197 255
158 197 255
158 197 255
158 197 255
158 197 255
158 197 255
158 197 255
158 197 255
158 197 255
158 197 255
158 197 255
159 197 255
159 197 255
159 197 255
159 197 255
159 198 255
159 198 255
159 198 255
159 198 255
159 198 255
159 198 255
159 198 255
160 198 255
160 198 255
160 198 255
160 198 255
160 198 255
160 198 255
160 198 255
160 198 255
160 198 255
160 198 255
161 199 255
161 199 255
161 199 255
161 199 255
161 199 255
161 199 255
161 199 255
161 199 255
161 199 255
161 199 255
162 199 255
162 199 255
162 199 255
162 199 255
162 199 255
162 199 255
162 199 255
162 200 255
162 200 255
162 200 255
163 200 255
163 200 255
163 200 255
163 200 255
163 200 255
163 200 255
163 200 255
163 200 255
163 200 255
163 200 255
164 200 255
164 200 255
164 200 255
164 200 255
164 201 255
164 201 255
164 201 255
164 201 255
164 201 255
164 201 255
165 201 255
165 201 255
165 201 255
165 201 255
165 201 255
165 201 255
165 201 255
165 201 255
165 201 255
165 201 255
165 201 255
166 202 255
166 202 255
166 202 255
166 202 255
166 202 255
166 202 255
166 202 255
166 202 255
166 202 255
166 202 255
167 202 255
167 202 255
167 202 255
167 202 255
167 202 255
167 202 255
167 202 255
167 202 255
167 203 255
167 203 255
167 203 255
168 203 255
168 203 255
168 203 255
168 203 255
168 203 255
168 203 255
168 203 255
168 203 255
168 203 255
168 203 255
168 203 255
168 203 255
169 203 255
169 203 255
169 203 255
169 203 255
169 204 255
169 204 255
169 204 255
169 204 255
169 204 255
169 204 255
169 204 255
169 204 255
170 204 255
170 204 255
170 204 255
170 204 255
170 204 255
170 204 255
170 204 255
170 204 255
170 204 255
170 204 255
170 204 255
170 204 255
170 204 255
171 205 255
171 205 255
171 205 255
171 205 255
171 205 255
171 205 255
171 205 255
171 205 255
171 205 255
171 205 255
171 205 255
171 205 255
171 205 255
171 205 255
172 205 255
172 205 255
172 205 255
172 205 255
172 205 255
172 205 255
172 205 255
171 205 255
171 205 255
171 205 255
171 205 255
171 205 255
171 205 255
171 205 255
171 205 255
171 205 255
171 205 255
171 205 255
171 205 255
171 205 255
171 205 255
170 204 255
170 204 255
170 204 255
170 204 255
170 204 255
170 204 255
170 204 255
170 204 255
170 204 255
170 204 255
170 204 255
170 204 255
170 204 255
169 204 255
169 204 255
169 204 255
169 204 255
169 204 255
169 204 255
169 204 255
169 204 255
169 203 255
169 203 255
169 203 255
169 203 255
168 203 255
168 203 255
168 203 255
168 203 255
168 203 255
168 203 255
168 203 255
168 203 255
168 203 255
168 203 255
168 203 255
168 203 255
167 203 255
167 203 255
167 203 255
167 202 255
167 202 255
167 202 255
167 202 255
167 202 255
167 202 255
167 202 255
167 202 255
166 202 255
166 202 255
166 202 255
166 202 255
166 202 255
166 202 255
166 202 255
166 202 255
166 202 255
166 202 255
165 201 255
165 201 255
165 201 255
165 201 255
165 201 255
165 201 255
165 201 255
165 201 255
165 201 255
165 201 255
165 201 255
164 201 255
164 201 255
164 201 255
164 201 255
164 201 255
164 201 255
164 200 255
164 200 255
164 200 255
164 200 255
163 200 255
163 200 255
163 200 255
163 200 255
163 200 255
163 200 255
163 200 255
163 200 255
163 200 255
163 200 255
162 200 255
162 200 255
162 200 255
162 199 255
162 199 255
162 199 255
162 199 255
162 199 255
162 199 255
162 199 255
161 199 255
161 199 255
161 199 255
161 199 255
161 199 255
161 199 255
161 199 255
161 199 255
161 199 255
161 199 255
160 198 255
160 198 255
160 198 255
160 198 255
160 198 255
160 198 255
160 198 255
160 198 255
160 198 255
160 198 255
160 198 255
159 198 255
159 198 255
159 198 255
159 198 255
159 198 255
159 198 255
159 198 255
159 197 255
159 197 255
159 197 255
159 197 255
158 197 255
158 197 255
158 197 255
158 197 255
158 197 255
158 197 255
158 197 255
158 197 255
158 197 255
158 197 255
158 197 255
158 197 255
158 197 255
158 197 255
158 197 255
157 197 255
157 197 255
157 197 255
157 197 255
157 197 255
157 196 255
157 196 255
157 196 255
157 196 255
157 196 255
157 196 255
157 196 255
157 196 255
157 196 255
157 196 255
157 196 255
157 196 255
157 196 255
157 196 255
157 196 255
157 196 255
157 196 255
156 196 255
156 196 255
156 196 255
156 196 255
156 196 255
156 196 255
156 196 255
156 196 255
156 196 255
156 196 255
156 196 255
156 196 255
156 196 255
156 196 255
156 196 255
156 196 255
156 196 255
156 196 255
156 196 255
156 196 255
156 196 255
156 196 255
156 196 255
156 196 255
156 196 255
156 196 255
157 196 255
157 196 255
157 196 255
157 196 255
157 196 255
157 196 255
157 196 255
157 196 255
157 196 255
157 196 255
157 196 255
157 196 255
157 196 255
157 196 255
157 196 255
157 196 255
157 196 255
157 197 255
157 197 255
157 197 255
157 197 255
157 197 255
157 197 255
158 197 255
158 197 255
158 197 255
158 197 255
158 197 255
158 197 255
158 197 255
158 197 255
158 197 255
158 197 255
158 197 255
158 197 255
158 197 255
158 197 255
159 197 255
159 197 255
159 197 255
159 197 255
159 198 255
159 198 255
159 198 255
159 198 255
159 198 255
159 198 255
159 198 255
159 198 255
160 198 255
160 198 255
160 198 255
160 198 255
160 198 255
160 198 255
160 198 255
160 198 255
160 198 255
160 198 255
161 199 255
161 199 255
161 199 255
161 199 255
161 199 255
161 199 255
161 199 255
161 199 255
161 199 255
161 199 255
161 199 255
162 199 255
162 199 255
162 199 255
162 199 255
162 199 255
162 199 255
162 200 255
162 200 255
162 200 255
163 200 255
163 200 255
163 200 255
163 200 255
163 200 255
163 200 255
163 200 255
163 200 255
163 200 255
163 200 255
164 200 255
164 200 255
164 200 255
164 200 255
164 201 255
164 201 255
164 201 255
164 201 255
164 201 255
164 201 255
165 201 255
165 201 255
165 201 255
165 201 255
165 201 255
165 201 255
165 201 255
165 201 255
165 201 255
165 201 255
165 201 255
166 202 255
166 202 255
166 202 255
166 202 255
166 202 255
166 202 255
166 202 255
166 202 255
166 202 255
166 202 255
167 202 255
167 202 255
167 202 255
167 202 255
167 202 255
167 202 255
167 202 255
167 202 255
167 203 255
167 203 255
167 203 255
168 203 255
168 203 255
168 203 255
168 203 255
168 203 255
168 203 255
168 203 255
168 203 255
168 203 255
168 203 255
168 203 255
168 203 255
169 203 255
169 203 255
169 203 255
169 203 255
169 204 255
169 204 255
169 204 255
169 204 255
169 204 255
169 204 255
169 204 255
169 204 255
170 204 255
170 204 255
170 204 255
170 204 255
170 204 255
170 204 255
170 204 255
170 204 255
170 204 255
170 204 255
170 204 255
170 204 255
170 204 255
171 205 255
171 205 255
171 205 255
171 205 255
171 205 255
171 205 255
171 205 255
171 205 255
171 205 255
171 205 255
171 205 255
171 205 255
171 205 255
171 205 255
172 205 255
172 205 255
172 205 255
172 205 255
172 205 255
172 205 255
172 205 255
172 205 255
172 205 255
172 205 255
172 205 255
172 205 255
172 205 255
172 205 255
171 205 255
171 205 255
171 205 255
171 205 255
171 205 255
171 205 255
171 205 255
171 205 255
171 205 255
171 205 255
171 205 255
171 205 255
171 205 255
171 205 255
170 204 255
170 204 255
170 204 255
170 204 255
170 204 255
170 204 255
170 204 255
170 204 255
170 204 255
170 204 255
170 204 255
170 204 255
169 204 255
169 204 255
169 204 255
169 204 255
169 204 255
169 204 255
169 204 255
169 204 255
169 204 255
169 203 255
169 203 255
169 203 255
168 203 255
168 203 255
168 203 255
168 203 255
168 203 255
168 203 255
168 203 255
168 203 255
168 203 255
168 203 255
168 203 255
168 203 255
167 203 255
167 203 255
167 203 255
167 202 255
167 202 255
167 202 255
167 202 255
167 202 255
167 202 255
167 202 255
167 202 255
166 202 255
166 202 255
166 202 255
166 202 255
166 202 255
166 202 255
166 202 255
166 202 255
166 202 255
166 202 255
165 201 255
165 201 255
165 201 255
165 201 255
165 201 255
165 201 255
165 201 255
165 201 255
165 201 255
165 201 255
165 201 255
164 201 255
164 201 255
164 201 255
164 201 255
164 201 255
164 201 255
164 200 255
164 200 255
164 200 255
164 200 255
163 200 255
163 200 255
163 200 255
163 200 255
163 200 255
163 200 255
163 200 255
163 200 255
163 200 255
163 200 255
162 200 255
162 200 255
162 200 255
162 199 255
162 199 255
162 199 255
162 199 255
162 199 255
162 199 255
162 199 255
161 199 255
161 199 255
161 199 255
161 199 255
161 199 255
161 199 255
161 199 255
161 199 255
161 199 255
161 199 255
160 198 255
160 198 255
160 198 255
160 198 255
160 198 255
160 198 255
160 198 255
160 198 255
160 198 255
160 198 255
160 198 255
159 198 255
159 198 255
159 198 255
159 198 255
159 198 255
159 198 255
159 198 255
159 198 255
159 197 255
159 197 255
159 197 255
159 197 255
158 197 255
158 197 255
158 197 255
158 197 255
158 197 255
158 197 255
158 197 255
158 197 255
158 197 255
158 197 255
158 197 255
158 197 255
158 197 255
158 197 255
158 197 255
158 197 255
157 197 255
157 197 255
157 197 255
157 197 255
157 197 255
157 197 255
157 197 255
157 196 255
157 196 255
157 196 255
157 196 255
157 196 255
157 196 255
157 196 255
157 196 255
157 196 255
157 196 255
157 196 255
157 196 255
157 196 255
157 196 255
157 196 255
157 196 255
157 196 255
157 196 255
157 196 255
157 196 255
157 196 255
157 196 255
157 196 255
157 196 255
157 196 255
157 196 255
157 196 255
157 196 255
157 196 255
157 196 255
157 196 255
157 196 255
157 196 255
157 196 255
157 196 255
157 196 255
157 196 255
157 196 255
157 196 255
157 196 255
157 196 255
157 196 255
157 196 255
157 196 255
157 196 255
157 196 255
157 197 255
157 197 255
157 197 255
157 197 255
157 197 255
157 197 255
157 197 255
158 197 255
158 197 255
158 197 255
158 197 255
158 197 255
158 197 255
158 197 255
158 197 255
158 197 255
158 197 255
158 197 255
158 197 255
158 197 255
158 197 255
158 197 255
159 197 255
159 197 255
159 197 255
159 197 255
159 197 255
159 198 255
159 198 255
159 198 255
159 198 255
159 198 255
159 198 255
159 198 255
159 198 255
160 198 255
160 198 255
160 198 255
160 198 255
160 198 255
160 198 255
160 198 255
160 198 255
160 198 255
160 198 255
160 198 255
161 199 255
161 199 255
161 199 255
161 199 255
161 199 255
161 199 255
161 199 255
161 199 255
161 199 255
161 199 255
162 199 255
162 199 255
162 199 255
162 199 255
162 199 255
162 199 255
162 199 255
162 200 255
162 200 255
162 200 255
163 200 255
163 200 255
163 200 255
163 200 255
163 200 255
163 200 255
163 200 255
163 200 255
163 200 255
163 200 255
164 200 255
164 200 255
164 200 255
164 200 255
164 201 255
164 201 255
164 201 255
164 201 255
164 201 255
164 201 255
165 201 255
165 201 255
165 201 255
165 201 255
165 201 255
165 201 255
165 201 255
165 201 255
165 201 255
165 201 255
165 201 255
166 202 255
166 202 255
166 202 255
166 202 255
166 202 255
166 202 255
166 202 255
166 202 255
166 202 255
166 202 255
167 202 255
167 202 255
167 202 255
167 202 255
167 202 255
167 202 255
167 202 255
167 203 255
167 203 255
167 203 255
167 203 255
168 203 255
168 203 255
168 203 255
168 203 255
168 203 255
168 203 255
168 203 255
168 203 255
168 203 255
168 203 255
168 203 255
168 203 255
169 203 255
169 203 255
169 203 255
169 204 255
169 204 255
169 204 255
169 204 255
169 204 255
169 204 255
169 204 255
169 204 255
169 204 255
170 204 255
170 204 255
170 204 255
170 204 255
170 204 255
170 204 255
170 204 255
170 204 255
170 204 255
170 204 255
170 204 255
170 204 255
170 204 255
171 205 255
171 205 255
171 205 255
171 205 255
171 205 255
171 205 255
171 205 255
171 205 255
171 205 255
171 205 255
171 205 255
171 205 255
171 205 255
172 205 255
172 205 255
172 205 255
172 205 255
172 205 255
172 205 255
172 205 255
172 205 255
172 205 255
172 206 255
172 206 255
172 206 255
172 205 255
172 205 255
172 205 255
172 205 255
172 205 255
172 205 255
172 205 255
172 205 255
172 205 255
171 205 255
171 205 255
171 205 255
171 205 255
171 205 255
171 205 255
171 205 255
171 205 255
171 205 255
171 205 255
171 205 255
171 205 255
171 205 255
171 205 255
170 204 255
170 204 255
170 204 255
170 204 255
170 204 255
170 204 255
170 204 255
170 204 255
170 204 255
170 204 255
170 204 255
170 204 255
170 204 255
169 204 255
169 204 255
169 204 255
169 204 255
169 204 255
169 204 255
169 204 255
169 204 255
169 203 255
169 203 255
169 203 255
169 203 255
168 203 255
168 203 255
168 203 255
168 203 255
168 203 255
168 203 255
168 203 255
168 203 255
168 203 255
168 203 255
168 203 255
167 203 255
167 203 255
167 203 255
167 203 255
167 202 255
167 202 255
167 202 255
167 202 255
167 202 255
167 202 255
167 202 255
166 202 255
166 202 255
166 202 255
166 202 255
166 202 255
166 202 255
166 202 255
166 202 255
166 202 255
166 202 255
165 201 255
165 201 255
165 201 255
165 201 255
165 201 255
165 201 255
165 201 255
165 201 255
165 201 255
165 201 255
165 201 255
164 201 255
164 201 255
164 201 255
164 201 255
164 201 255
164 201 255
164 201 255
164 200 255
164 200 255
164 200 255
163 200 255
163 200 255
163 200 255
163 200 255
163 200 255
163 200 255
163 200 255
163 200 255
163 200 255
163 200 255
162 200 255
162 200 255
162 200 255
162 199 255
162 199 255
162 199 255
162 199 255
162 199 255
162 199 255
162 199 255
161 199 255
161 199 255
161 199 255
161 199 255
161 199 255
161 199 255
161 199 255
161 199 255
161 199 255
161 199 255
161 199 255
160 198 255
160 198 255
160 198 255
160 198 255
160 198 255
160 198 255
160 198 255
160 198 255
160 198 255
160 198 255
160 198 255
159 198 255
159 198 255
159 198 255
159 198 255
159 198 255
159 198 255
159 198 255
159 198 255
159 198 255
159 197 255
159 197 255
159 197 255
159 197 255
158 197 255
158 197 255
158 197 255
158 197 255
158 197 255
158 197 255
158 197 255
158 197 255
158 197 255
158 197 255
158 197 255
158 197 255
158 197 255
158 197 255
158 197 255
158 197 255
158 197 255
158 197 255
157 197 255
157 197 255
157 197 255
157 197 255
157 197 255
157 197 255
157 197 255
157 197 255
157 197 255
157 196 255
157 196 255
157 196 255
157 196 255
157 196 255
157 196 255
157 196 255
157 196 255
157 196 255
157 196 255
157 196 255
157 196 255
157 196 255
157 196 255
157 196 255
157 196 255
157 196 255
157 196 255
157 196 255
157 196 255
157 196 255
157 196 255
157 196 255
157 196 255
157 196 255
157 196 255
157 196 255
157 197 255
157 197 255
157 197 255
157 197 255
157 197 255
157 197 255
157 197 255
157 197 255
157 197 255
157 197 255
158 197 255
158 197 255
158 197 255
158 197 255
158 197 255
158 197 255
158 197 255
158 197 255
158 197 255
158 197 255
158 197 255
158 197 255
158 197 255
158 197 255
158 197 255
158 197 255
158 197 255
158 197 255
159 197 255
159 197 255
159 197 255
159 197 255
159 198 255
159 198 255
159 198 255
159 198 255
159 198 255
159 198 255
159 198 255
159 198 255
159 198 255
160 198 255
160 198 255
160 198 255
160 198 255
160 198 255
160 198 255
160 198 255
160 198 255
160 198 255
160 198 255
160 198 255
161 199 255
161 199 255
161 199 255
161 199 255
161 199 255
161 199 255
161 199 255
161 199 255
161 199 255
161 199 255
161 199 255
162 199 255
162 199 255
162 199 255
162 199 255
162 199 255
162 199 255
162 199 255
162 200 255
162 200 255
162 200 255
163 200 255
163 200 255
163 200 255
163 200 255
163 200 255
163 200 255
163 200 255
163 200 255
163 200 255
163 200 255
164 200 255
164 200 255
164 200 255
164 201 255
164 201 255
164 201 255
164 201 255
164 201 255
164 201 255
164 201 255
165 201 255
165 201 255
165 201 255
165 201 255
165 201 255
165 201 255
165 201 255
165 201 255
165 201 255
165 201 255
165 201 255
166 202 255
166 202 255
166 202 255
166 202 255
166 202 255
166 202 255
166 202 255
166 202 255
166 202 255
166 202 255
167 202 255
167 202 255
167 202 255
167 202 255
167 202 255
167 202 255
167 202 255
167 203 255
167 203 255
167 203 255
167 203 255
168 203 255
168 203 255
168 203 255
168 203 255
168 203 255
168 203 255
168 203 255
168 203 255
168 203 255
168 203 255
168 203 255
168 203 255
169 203 255
169 203 255
169 203 255
169 204 255
169 204 255
169 204 255
169 204 255
169 204 255
169 204 255
169 204 255
169 204 255
170 204 255
170 204 255
170 204 255
170 204 255
170 204 255
170 204 255
170 204 255
170 204 255
170 204 255
170 204 255
170 204 255
170 204 255
170 204 255
171 205 255
171 205 255
171 205 255
171 205 255
171 205 255
171 205 255
171 205 255
171 205 255
171 205 255
171 205 255
171 205 255
171 205 255
171 205 255
171 205 255
172 205 255
172 205 255
172 205 255
172 205 255
172 205 255
172 205 255
172 205 255
172 205 255
172 205 255
172 206 255
172 206 255
172 206 255
173 206 255
172 206 255
172 206 255
172 206 255
172 206 255
172 206 255
172 205 255
172 205 255
172 205 255
172 205 255
172 205 255
172 205 255
172 205 255
172 205 255
172 205 255
172 205 255
171 205 255
171 205 255
171 205 255
171 205 255
171 205 255
171 205 255
171 205 255
171 205 255
171 205 255
171 205 255
171 205 255
171 205 255
171 205 255
170 204 255
170 204 255
170 204 255
170 204 255
170 204 255
170 204 255
170 204 255
170 204 255
170 204 255
170 204 255
170 204 255
170 204 255
170 204 255
169 204 255
169 204 255
169 204 255
169 204 255
169 204 255
169 204 255
169 204 255
169 204 255
169 203 255
169 203 255
169 203 255
169 203 255
168 203 255
168 203 255
168 203 255
168 203 255
168 203 255
168 203 255
168 203 255
168 203 255
168 203 255
168 203 255
168 203 255
167 203 255
167 203 255
167 203 255
167 203 255
167 202 255
167 202 255
167 202 255
167 202 255
167 202 255
167 202 255
167 202 255
166 202 255
166 202 255
166 202 255
166 202 255
166 202 255
166 202 255
166 202 255
166 202 255
166 202 255
166 202 255
166 202 255
165 201 255
165 201 255
165 201 255
165 201 255
165 201 255
165 201 255
165 201 255
165 201 255
165 201 255
165 201 255
164 201 255
164 201 255
164 201 255
164 201 255
164 201 255
164 201 255
164 201 255
164 200 255
164 200 255
164 200 255
163 200 255
163 200 255
163 200 255
163 200 255
163 200 255
163 200 255
163 200 255
163 200 255
163 200 255
163 200 255
162 200 255
162 200 255
162 200 255
162 200 255
162 199 255
162 199 255
162 199 255
162 199 255
162 199 255
162 199 255
162 199 255
161 199 255
161 199 255
161 199 255
161 199 255
161 199 255
161 199 255
161 199 255
161 199 255
161 199 255
161 199 255
161 199 255
160 198 255
160 198 255
160 198 255
160 198 255
160 198 255
160 198 255
160 198 255
160 198 255
160 198 255
160 198 255
160 198 255
159 198 255
159 198 255
159 198 255
159 198 255
159 198 255
159 198 255
159 198 255
159 198 255
159 198 255
159 197 255
159 197 255
159 197 255
159 197 255
159 197 255
159 197 255
158 197 255
158 197 255
158 197 255
158 197 255
158 197 255
158 197 255
158 197 255
158 197 255
158 197 255
158 197 255
158 197 255
158 197 255
158 197 255
158 197 255
158 197 255
158 197 255
158 197 255
158 197 255
158 197 255
158 197 255
158 197 255
158 197 255
158 197 255
157 197 255
157 197 255
157 197 255
157 197 255
157 197 255
157 197 255
157 197 255
157 197 255
157 197 255
157 197 255
157 197 255
157 197 255
157 197 255
157 197 255
157 197 255
157 197 255
157 197 255
157 197 255
157 197 255
157 197 255
157 197 255
157 197 255
157 197 255
157 197 255
157 197 255
158 197 255
158 197 255
158 197 255
158 197 255
158 197 255
158 197 255
158 197 255
158 197 255
158 197 255
158 197 255
158 197 255
158 197 255
158 197 255
158 197 255
158 197 255
158 197 255
158 197 255
158 197 255
158 197 255
158 197 255
158 197 255
158 197 255
158 197 255
159 197 255
159 197 255
159 197 255
159 197 255
159 197 255
159 198 255
159 198 255
159 198 255
159 198 255
159 198 255
159 198 255
159 198 255
159 198 255
159 198 255
160 198 255
160 198 255
160 198 255
160 198 255
160 198 255
160 198 255
160 198 255
160 198 255
160 198 255
160 198 255
160 198 255
161 199 255
161 199 255
161 199 255
161 199 255
161 199 255
161 199 255
161 199 255
161 199 255
161 199 255
161 199 255
161 199 255
162 199 255
162 199 255
162 199 255
162 199 255
162 199 255
162 199 255
162 199 255
162 200 255
162 200 255
162 200 255
162 200 255
163 200 255
163 200 255
163 200 255
163 200 255
163 200 255
163 200 255
163 200 255
163 200 255
163 200 255
163 200 255
164 200 255
164 200 255
164 200 255
164 201 255
164 201 255
164 201 255
164 201 255
164 201 255
164 201 255
164 201 255
165 201 255
165 201 255
165 201 255
165 201 255
165 201 255
165 201 255
165 201 255
165 201 255
165 201 255
165 201 255
166 202 255
166 202 255
166 202 255
166 202 255
166 202 255
166 202 255
166 202 255
166 202 255
166 202 255
166 202 255
166 202 255
167 202 255
167 202 255
167 202 255
167 202 255
167 202 255
167 202 255
167 202 255
167 203 255
167 203 255
167 203 255
167 203 255
168 203 255
168 203 255
168 203 255
168 203 255
168 203 255
168 203 255
168 203 255
168 203 255
168 203 255
168 203 255
168 203 255
169 203 255
169 203 255
169 203 255
169 203 255
169 204 255
169 204 255
169 204 255
169 204 255
169 204 255
169 204 255
169 204 255
169 204 255
170 204 255
170 204 255
170 204 255
170 204 255
170 204 255
170 204 255
170 204 255
170 204 255
170 204 255
170 204 255
170 204 255
170 204 255
170 204 255
171 205 255
171 205 255
171 205 255
171 205 255
171 205 255
171 205 255
171 205 255
171 205 255
171 205 255
171 205 255
171 205 255
171 205 255
171 205 255
172 205 255
172 205 255
172 205 255
172 205 255
172 205 255
172 205 255
172 205 255
172 205 255
172 205 255
172 205 255
172 206 255
172 206 255
172 206 255
172 206 255
172 206 255
173 206 255
173 206 255
173 206 255
173 206 255
173 206 255
173 206 255
172 206 255
172 206 255
172 206 255
172 206 255
172 206 255
172 205 255
172 205 255
172 205 255
172 205 255
172 205 255
172 205 255
172 205 255
172 205 255
172 205 255
171 205 255
171 205 255
171 205 255
171 205 255
171 205 255
171 205 255
171 205 255
171 205 255
171 205 255
171 205 255
171 205 255
171 205 255
171 205 255
171 205 255
170 204 255
170 204 255
170 204 255
170 204 255
170 204 255
170 204 255
170 204 255
170 204 255
170 204 255
170 204 255
170 204 255
170 204 255
169 204 255
169 204 255
169 204 255
169 204 255
169 204 255
169 204 255
169 204 255
169 204 255
169 203 255
169 203 255
169 203 255
169 203 255
168 203 255
168 203 255
168 203 255
168 203 255
168 203 255
168 203 255
168 203 255
168 203 255
168 203 255
168 203 255
168 203 255
168 203 255
167 203 255
167 203 255
167 203 255
167 202 255
167 202 255
167 202 255
167 202 255
167 202 255
167 202 255
167 202 255
166 202 255
166 202 255
166 202 255
166 202 255
166 202 255
166 202 255
166 202 255
166 202 255
166 202 255
166 202 255
166 202 255
165 201 255
165 201 255
165 201 255
165 201 255
165 201 255
165 201 255
165 201 255
165 201 255
165 201 255
165 201 255
164 201 255
164 201 255
164 201 255
164 201 255
164 201 255
164 201 255
164 201 255
164 200 255
164 200 255
164 200 255
163 200 255
163 200 255
163 200 255
163 200 255
163 200 255
163 200 255
163 200 255
163 200 255
163 200 255
163 200 255
163 200 255
162 200 255
162 200 255
162 200 255
162 199 255
162 199 255
162 199 255
162 199 255
162 199 255
162 199 255
162 199 255
161 199 255
161 199 255
161 199 255
161 199 255
161 199 255
161 199 255
161 199 255
161 199 255
161 199 255
161 199 255
161 199 255
160 198 255
160 198 255
160 198 255
160 198 255
160 198 255
160 198 255
160 198 255
160 198 255
160 198 255
160 198 255
160 198 255
160 198 255
160 198 255
159 198 255
159 198 255
159 198 255
159 198 255
159 198 255
159 198 255
159 198 255
159 198 255
159 198 255
159 198 255
159 197 255
159 197 255
159 197 255
159 197 255
159 197 255
159 197 255
158 197 255
158 197 255
158 197 255
158 197 255
158 197 255
158 197 255
158 197 255
158 197 255
158 197 255
158 197 255
158 197 255
158 197 255
158 197 255
158 197 255
158 197 255
158 197 255
158 197 255
158 197 255
158 197 255
158 197 255
158 197 255
158 197 255
158 197 255
158 197 255
158 197 255
158 197 255
158 197 255
158 197 255
158 197 255
158 197 255
158 197 255
158 197 255
158 197 255
158 197 255
158 197 255
158 197 255
158 197 255
158 197 255
158 197 255
158 197 255
158 197 255
158 197 255
158 197 255
158 197 255
158 197 255
158 197 255
158 197 255
158 197 255
158 197 255
158 197 255
158 197 255
158 197 255
158 197 255
158 197 255
158 197 255
158 197 255
158 197 255
158 197 255
158 197 255
159 197 255
159 197 255
159 197 255
159 197 255
159 197 255
159 197 255
159 198 255
159 198 255
159 198 255
159 198 255
159 198 255
159 198 255
159 198 255
159 198 255
159 198 255
159 198 255
160 198 255
160 198 255
160 198 255
160 198 255
160 198 255
160 198 255
160 198 255
160 198 255
160 198 255
160 198 255
160 198 255
160 198 255
161 199 255
161 199 255
161 199 255
161 199 255
161 199 255
161 199 255
161 199 255
161 199 255
161 199 255
161 199 255
161 199 255
162 199 255
162 199 255
162 199 255
162 199 255
162 199 255
162 199 255
162 199 255
162 200 255
162 200 255
162 200 255
163 200 255
163 200 255
163 200 255
163 200 255
163 200 255
163 200 255
163 200 255
163 200 255
163 200 255
163 200 255
163 200 255
164 200 255
164 200 255
164 200 255
164 201 255
164 201 255
164 201 255
164 201 255
164 201 255
164 201 255
164 201 255
165 201 255
165 201 255
165 201 255
165 201 255
165 201 255
165 201 255
165 201 255
165 201 255
165 201 255
165 201 255
166 202 255
166 202 255
166 202 255
166 202 255
166 202 255
166 202 255
166 202 255
166 202 255
166 202 255
166 202 255
166 202 255
167 202 255
167 202 255
167 202 255
167 202 255
167 202 255
167 202 255
167 202 255
167 203 255
167 203 255
167 203 255
167 203 255
168 203 255
168 203 255
168 203 255
168 203 255
168 203 255
168 203 255
168 203 255
168 203 255
168 203 255
168 203 255
168 203 255
169 203 255
169 203 255
169 203 255
169 203 255
169 204 255
169 204 255
169 204 255
169 204 255
169 204 255
169 204 255
169 204 255
169 204 255
170 204 255
170 204 255
170 204 255
170 204 255
170 204 255
170 204 255
170 204 255
170 204 255
170 204 255
170 204 255
170 204 255
170 204 255
171 205 255
171 205 255
171 205 255
171 205 255
171 205 255
171 205 255
171 205 255
171 205 255
171 205 255
171 205 255
171 205 255
171 205 255
171 205 255
171 205 255
172 205 255
172 205 255
172 205 255
172 205 255
172 205 255
172 205 255
172 205 255
172 205 255
172 205 255
172 206 255
172 206 255
172 206 255
172 206 255
172 206 255
173 206 255
173 206 255
173 206 255
173 206 255
173 206 255
173 206 255
173 206 255
173 206 255
173 206 255
173 206 255
173 206 255
173 206 255
173 206 255
173 206 255
172 206 255
172 206 255
172 206 255
172 206 255
172 206 255
172 205 255
172 205 255
172 205 255
172 205 255
172 205 255
172 205 255
172 205 255
172 205 255
172 205 255
171 205 255
171 205 255
171 205 255
171 205 255
171 205 255
171 205 255
171 205 255
171 205 255
171 205 255
171 205 255
171 205 255
171 205 255
171 205 255
170 204 255
170 204 255
170 204 255
170 204 255
170 204 255
170 204 255
170 204 255
170 204 255
170 204 255
170 204 255
170 204 255
170 204 255
170 204 255
169 204 255
169 204 255
169 204 255
169 204 255
169 204 255
169 204 255
169 204 255
169 204 255
169 203 255
169 203 255
169 203 255
169 203 255
168 203 255
168 203 255
168 203 255
168 203 255
168 203 255
168 203 255
168 203 255
168 203 255
168 203 255
168 203 255
168 203 255
167 203 255
167 203 255
167 203 255
167 202 255
167 202 255
167 202 255
167 202 255
167 202 255
167 202 255
167 202 255
167 202 255
166 202 255
166 202 255
166 202 255
166 202 255
166 202 255
166 202 255
166 202 255
166 202 255
166 202 255
166 202 255
165 201 255
165 201 255
165 201 255
165 201 255
165 201 255
165 201 255
165 201 255
165 201 255
165 201 255
165 201 255
164 201 255
164 201 255
164 201 255
164 201 255
164 201 255
164 201 255
164 201 255
164 200 255
164 200 255
164 200 255
164 200 255
163 200 255
163 200 255
163 200 255
163 200 255
163 200 255
163 200 255
163 200 255
163 200 255
163 200 255
163 200 255
162 200 255
162 200 255
162 200 255
162 200 255
162 199 255
162 199 255
162 199 255
162 199 255
162 199 255
162 199 255
162 199 255
161 199 255
161 199 255
161 199 255
161 199 255
161 199 255
161 199 255
161 199 255
161 199 255
161 199 255
161 199 255
161 199 255
160 198 255
160 198 255
160 198 255
160 198 255
160 198 255
160 198 255
160 198 255
160 198 255
160 198 255
160 198 255
160 198 255
160 198 255
160 198 255
160 198 255
159 198 255
159 198 255
159 198 255
159 198 255
159 198 255
159 198 255
159 198 255
159 198 255
159 198 255
159 198 255
159 198 255
159 197 255
159 197 255
159 197 255
159 197 255
159 197 255
159 197 255
159 197 255
158 197 255
158 197 255
158 197 255
158 197 255
158 197 255
158 197 255
158 197 255
158 197 255
158 197 255
158 197 255
158 197 255
158 197 255
158 197 255
158 197 255
158 197 255
158 197 255
158 197 255
158 197 255
158 197 255
158 197 255
158 197 255
158 197 255
158 197 255
158 197 255
158 197 255
158 197 255
158 197 255
158 197 255
158 197 255
158 197 255
158 197 255
158 197 255
158 197 255
158 197 255
158 197 255
158 197 255
158 197 255
158 197 255
158 197 255
158 197 255
158 197 255
158 197 255
158 197 255
158 197 255
159 197 255
159 197 255
159 197 255
159 197 255
159 197 255
159 197 255
159 197 255
159 198 255
159 198 255
159 198 255
159 198 255
159 198 255
159 198 255
159 198 255
159 198 255
159 198 255
159 198 255
159 198 255
160 198 255
160 198 255
160 198 255
160 198 255
160 198 255
160 198 255
160 198 255
160 198 255
160 198 255
160 198 255
160 198 255
160 198 255
160 198 255
160 198 255
161 199 255
161 199 255
161 199 255
161 199 255
161 199 255
161 199 255
161 199 255
161 199 255
161 199 255
161 199 255
161 199 255
162 199 255
162 199 255
162 199 255
162 199 255
162 199 255
162 199 255
162 199 255
162 200 255
162 200 255
162 200 255
162 200 255
163 200 255
163 200 255
163 200 255
163 200 255
163 200 255
163 200 255
163 200 255
163 200 255
163 200 255
163 200 255
164 200 255
164 200 255
164 200 255
164 200 255
164 201 255
164 201 255
164 201 255
164 201 255
164 201 255
164 201 255
165 201 255
165 201 255
165 201 255
165 201 255
165 201 255
165 201 255
165 201 255
165 201 255
165 201 255
165 201 255
165 201 255
166 202 255
166 202 255
166 202 255
166 202 255
166 202 255
166 202 255
166 202 255
166 202 255
166 202 255
166 202 255
167 202 255
167 202 255
167 202 255
167 202 255
167 202 255
167 202 255
167 202 255
167 203 255
167 203 255
167 203 255
167 203 255
168 203 255
168 203 255
168 203 255
168 203 255
168 203 255
168 203 255
168 203 255
168 203 255
168 203 255
168 203 255
168 203 255
169 203 255
169 203 255
169 203 255
169 203 255
169 204 255
169 204 255
169 204 255
169 204 255
169 204 255
169 204 255
169 204 255
169 204 255
170 204 255
170 204 255
170 204 255
170 204 255
170 204 255
170 204 255
170 204 255
170 204 255
170 204 255
170 204 255
170 204 255
170 204 255
170 204 255
171 205 255
171 205 255
171 205 255
171 205 255
171 205 255
171 205 255
171 205 255
171 205 255
171 205 255
171 205 255
171 205 255
171 205 255
171 205 255
172 205 255
172 205 255
172 205 255
172 205 255
172 205 255
172 205 255
172 205 255
172 205 255
172 205 255
172 205 255
172 206 255
172 206 255
172 206 255
172 206 255
173 206 255
173 206 255
173 206 255
173 206 255
173 206 255
173 206 255
173 206 255
173 206 255
173 206 255
173 206 255
173 206 255
173 206 255
173 206 255
173 206 255
173 206 255
173 206 255
173 206 255
173 206 255
173 206 255
173 206 255
173 206 255
172 206 255
172 206 255
172 206 255
172 206 255
172 206 255
172 205 255
172 205 255
172 205 255
172 205 255
172 205 255
172 205 255
172 205 255
172 205 255
172 205 255
172 205 255
171 205 255
171 205 255
171 205 255
171 205 255
171 205 255
171 205 255
171 205 255
171 205 255
171 205 255
171 205 255
171 205 255
171 205 255
171 205 255
170 204 255
170 204 255
170 204 255
170 204 255
170 204 255
170 204 255
170 204 255
170 204 255
170 204 255
170 204 255
170 204 255
170 204 255
169 204 255
169 204 255
169 204 255
169 204 255
169 204 255
169 204 255
169 204 255
169 204 255
169 203 255
169 203 255
169 203 255
169 203 255
168 203 255
168 203 255
168 203 255
168 203 255
168 203 255
168 203 255
168 203 255
168 203 255
168 203 255
168 203 255
168 203 255
167 203 255
167 203 255
167 203 255
167 203 255
167 202 255
167 202 255
167 202 255
167 202 255
167 202 255
167 202 255
167 202 255
166 202 255
166 202 255
166 202 255
166 202 255
166 202 255
166 202 255
166 202 255
166 202 255
166 202 255
166 202 255
165 201 255
165 201 255
165 201 255
165 201 255
165 201 255
165 201 255
165 201 255
165 201 255
165 201 255
165 201 255
165 201 255
164 201 255
164 201 255
164 201 255
164 201 255
164 201 255
164 201 255
164 200 255
164 200 255
164 200 255
164 200 255
163 200 255
163 200 255
163 200 255
163 200 255
163 200 255
163 200 255
163 200 255
163 200 255
163 200 255
163 200 255
162 200 255
162 200 255
162 200 255
162 200 255
162 199 255
162 199 255
162 199 255
162 199 255
162 199 255
162 199 255
162 199 255
162 199 255
161 199 255
161 199 255
161 199 255
161 199 255
161 199 255
161 199 255
161 199 255
161 199 255
161 199 255
161 199 255
161 199 255
161 199 255
160 198 255
160 198 255
160 198 255
160 198 255
160 198 255
160 198 255
160 198 255
160 198 255
160 198 255
160 198 255
160 198 255
160 198 255
160 198 255
160 198 255
159 198 255
159 198 255
159 198 255
159 198 255
159 198 255
159 198 255
159 198 255
159 198 255
159 198 255
159 198 255
159 198 255
159 198 255
159 198 255
159 198 255
159 197 255
159 197 255
159 197 255
159 197 255
159 197 255
159 197 255
159 197 255
159 197 255
159 197 255
159 197 255
158 197 255
158 197 255
158 197 255
158 197 255
158 197 255
158 197 255
158 197 255
158 197 255
158 197 255
158 197 255
158 197 255
158 197 255
158 197 255
158 197 255
158 197 255
158 197 255
158 197 255
158 197 255
158 197 255
158 197 255
158 197 255
158 197 255
159 197 255
159 197 255
159 197 255
159 197 255
159 197 255
159 197 255
159 197 255
159 197 255
159 197 255
159 197 255
159 197 255
159 198 255
159 198 255
159 198 255
159 198 255
159 198 255
159 198 255
159 198 255
159 198 255
159 198 255
159 198 255
159 198 255
159 198 255
159 198 255
160 198 255
160 198 255
160 198 255
160 198 255
160 198 255
160 198 255
160 198 255
160 198 255
160 198 255
160 198 255
160 198 255
160 198 255
160 198 255
160 198 255
161 199 255
161 199 255
161 199 255
161 199 255
161 199 255
161 199 255
161 199 255
161 199 255
161 199 255
161 199 255
161 199 255
161 199 255
162 199 255
162 199 255
162 199 255
162 199 255
162 199 255
162 199 255
162 199 255
162 199 255
162 200 255
162 200 255
162 200 255
163 200 255
163 200 255
163 200 255
163 200 255
163 200 255
163 200 255
163 200 255
163 200 255
163 200 255
163 200 255
163 200 255
164 200 255
164 200 255
164 200 255
164 201 255
164 201 255
164 201 255
164 201 255
164 201 255
164 201 255
164 201 255
165 201 255
165 201 255
165 201 255
165 201 255
165 201 255
165 201 255
165 201 255
165 201 255
165 201 255
165 201 255
165 201 255
166 202 255
166 202 255
166 202 255
166 202 255
166 202 255
166 202 255
166 202 255
166 202 255
166 202 255
166 202 255
167 202 255
167 202 255
167 202 255
167 202 255
167 202 255
167 202 255
167 202 255
167 203 255
167 203 255
167 203 255
167 203 255
168 203 255
168 203 255
168 203 255
168 203 255
168 203 255
168 203 255
168 203 255
168 203 255
168 203 255
168 203 255
168 203 255
169 203 255
169 203 255
169 203 255
169 203 255
169 204 255
169 204 255
169 204 255
169 204 255
169 204 255
169 204 255
169 204 255
169 204 255
170 204 255
170 204 255
170 204 255
170 204 255
170 204 255
170 204 255
170 204 255
170 204 255
170 204 255
170 204 255
170 204 255
170 204 255
171 205 255
171 205 255
171 205 255
171 205 255
171 205 255
171 205 255
171 205 255
171 205 255
171 205 255
171 205 255
171 205 255
171 205 255
171 205 255
172 205 255
172 205 255
172 205 255
172 205 255
172 205 255
172 205 255
172 205 255
172 205 255
172 205 255
172 205 255
172 206 255
172 206 255
172 206 255
172 206 255
172 206 255
173 206 255
173 206 255
173 206 255
173 206 255
173 206 255
173 206 255
173 206 255
173 206 255
173 206 255
173 206 255
173 206 255
173 206 255
174 206 255
173 206 255
173 206 255
173 206 255
173 206 255
173 206 255
173 206 255
173 206 255
173 206 255
173 206 255
173 206 255
173 206 255
173 206 255
173 206 255
173 206 255
173 206 255
172 206 255
172 206 255
172 206 255
172 206 255
172 206 255
172 205 255
172 205 255
172 205 255
172 205 255
172 205 255
172 205 255
172 205 255
172 205 255
172 205 255
171 205 255
171 205 255
171 205 255
171 205 255
171 205 255
171 205 255
171 205 255
171 205 255
171 205 255
171 205 255
171 205 255
171 205 255
171 205 255
170 204 255
170 204 255
170 204 255
170 204 255
170 204 255
170 204 255
170 204 255
170 204 255
170 204 255
170 204 255
170 204 255
170 204 255
170 204 255
169 204 255
169 204 255
169 204 255
169 204 255
169 204 255
169 204 255
169 204 255
169 204 255
169 203 255
169 203 255
169 203 255
168 203 255
168 203 255
168 203 255
168 203 255
168 203 255
168 203 255
168 203 255
168 203 255
168 203 255
168 203 255
168 203 255
167 203 255
167 203 255
167 203 255
167 203 255
167 202 255
167 202 255
167 202 255
167 202 255
167 202 255
167 202 255
167 202 255
166 202 255
166 202 255
166 202 255
166 202 255
166 202 255
166 202 255
166 202 255
166 202 255
166 202 255
166 202 255
166 202 255
165 201 255
165 201 255
165 201 255
165 201 255
165 201 255
165 201 255
165 201 255
165 201 255
165 201 255
165 201 255
164 201 255
164 201 255
164 201 255
164 201 255
164 201 255
164 201 255
164 201 255
164 200 255
164 200 255
164 200 255
164 200 255
163 200 255
163 200 255
163 200 255
163 200 255
163 200 255
163 200 255
163 200 255
163 200 255
163 200 255
163 200 255
162 200 255
162 200 255
162 200 255
162 200 255
162 199 255
162 199 255
162 199 255
162 199 255
162 199 255
162 199 255
162 199 255
162 199 255
161 199 255
161 199 255
161 199 255
161 199 255
161 199 255
161 199 255
161 199 255
161 199 255
161 199 255
161 199 255
161 199 255
161 199 255
161 199 255
160 198 255
160 198 255
160 198 255
160 198 255
160 198 255
160 198 255
160 198 255
160 198 255
160 198 255
160 198 255
160 198 255
160 198 255
160 198 255
160 198 255
160 198 255
160 198 255
159 198 255
159 198 255
159 198 255
159 198 255
159 198 255
159 198 255
159 198 255
159 198 255
159 198 255
159 198 255
159 198 255
159 198 255
159 198 255
159 198 255
159 198 255
159 198 255
159 198 255
159 198 255
159 198 255
159 198 255
159 197 255
159 197 255
159 197 255
159 197 255
159 197 255
159 197 255
159 197 255
159 197 255
159 197 255
159 197 255
159 197 255
159 197 255
159 197 255
159 197 255
159 197 255
159 197 255
159 197 255
159 198 255
159 198 255
159 198 255
159 198 255
159 198 255
159 198 255
159 198 255
159 198 255
159 198 255
159 198 255
159 198 255
159 198 255
159 198 255
159 198 255
159 198 255
159 198 255
159 198 255
159 198 255
159 198 255
159 198 255
160 198 255
160 198 255
160 198 255
160 198 255
160 198 255
160 198 255
160 198 255
160 198 255
160 198 255
160 198 255
160 198 255
160 198 255
160 198 255
160 198 255
160 198 255
160 198 255
161 199 255
161 199 255
161 199 255
161 199 255
161 199 255
161 199 255
161 199 255
161 199 255
161 199 255
161 199 255
161 199 255
161 199 255
162 199 255
162 199 255
162 199 255
162 199 255
162 199 255
162 199 255
162 199 255
162 199 255
162 200 255
162 200 255
162 200 255
162 200 255
163 200 255
163 200 255
163 200 255
163 200 255
163 200 255
163 200 255
163 200 255
163 200 255
163 200 255
163 200 255
164 200 255
164 200 255
164 200 255
164 200 255
164 201 255
164 201 255
164 201 255
164 201 255
164 201 255
164 201 255
164 201 255
165 201 255
165 201 255
165 201 255
165 201 255
165 201 255
165 201 255
165 201 255
165 201 255
165 201 255
165 201 255
166 202 255
166 202 255
166 202 255
166 202 255
166 202 255
166 202 255
166 202 255
166 202 255
166 202 255
166 202 255
166 202 255
167 202 255
167 202 255
167 202 255
167 202 255
167 202 255
167 202 255
167 202 255
167 203 255
167 203 255
167 203 255
168 203 255
168 203 255
168 203 255
168 203 255
168 203 255
168 203 255
168 203 255
168 203 255
168 203 255
168 203 255
168 203 255
168 203 255
169 203 255
169 203 255
169 203 255
169 203 255
169 204 255
169 204 255
169 204 255
169 204 255
169 204 255
169 204 255
169 204 255
170 204 255
170 204 255
170 204 255
170 204 255
170 204 255
170 204 255
170 204 255
170 204 255
170 204 255
170 204 255
170 204 255
170 204 255
170 204 255
171 205 255
171 205 255
171 205 255
171 205 255
171 205 255
171 205 255
171 205 255
171 205 255
171 205 255
171 205 255
171 205 255
171 205 255
171 205 255
172 205 255
172 205 255
172 205 255
172 205 255
172 205 255
172 205 255
172 205 255
172 205 255
172 205 255
172 206 255
172 206 255
172 206 255
172 206 255
172 206 255
173 206 255
173 206 255
173 206 255
173 206 255
173 206 255
173 206 255
173 206 255
173 206 255
173 206 255
173 206 255
173 206 255
173 206 255
173 206 255
173 206 255
173 206 255
174 206 255
174 206 255
174 206 255
174 206 255
174 206 255
174 206 255
173 206 255
173 206 255
173 206 255
173 206 255
173 206 255
173 206 255
173 206 255
173 206 255
173 206 255
173 206 255
173 206 255
173 206 255
173 206 255
173 206 255
173 206 255
172 206 255
172 206 255
172 206 255
172 206 255
172 206 255
172 205 255
172 205 255
172 205 255
172 205 255
172 205 255
172 205 255
172 205 255
172 205 255
172 205 255
171 205 255
171 205 255
171 205 255
171 205 255
171 205 255
171 205 255
171 205 255
171 205 255
171 205 255
171 205 255
171 205 255
171 205 255
171 205 255
170 204 255
170 204 255
170 204 255
170 204 255
170 204 255
170 204 255
170 204 255
170 204 255
170 204 255
170 204 255
170 204 255
170 204 255
169 204 255
169 204 255
169 204 255
169 204 255
169 204 255
169 204 255
169 204 255
169 204 255
169 203 255
169 203 255
169 203 255
169 203 255
168 203 255
168 203 255
168 203 255
168 203 255
168 203 255
168 203 255
168 203 255
168 203 255
168 203 255
168 203 255
168 203 255
167 203 255
167 203 255
167 203 255
167 202 255
167 202 255
167 202 255
167 202 255
167 202 255
167 202 255
167 202 255
167 202 255
166 202 255
166 202 255
166 202 255
166 202 255
166 202 255
166 202 255
166 202 255
166 202 255
166 202 255
166 202 255
165 201 255
165 201 255
165 201 255
165 201 255
165 201 255
165 201 255
165 201 255
165 201 255
165 201 255
165 201 255
165 201 255
164 201 255
164 201 255
164 201 255
164 201 255
164 201 255
164 201 255
164 201 255
164 200 255
164 200 255
164 200 255
163 200 255
163 200 255
163 200 255
163 200 255
163 200 255
163 200 255
163 200 255
163 200 255
163 200 255
163 200 255
163 200 255
162 200 255
162 200 255
162 200 255
162 200 255
162 199 255
162 199 255
162 199 255
162 199 255
162 199 255
162 199 255
162 199 255
162 199 255
161 199 255
161 199 255
161 199 255
161 199 255
161 199 255
161 199 255
161 199 255
161 199 255
161 199 255
161 199 255
161 199 255
161 199 255
161 199 255
161 199 255
160 198 255
160 198 255
160 198 255
160 198 255
160 198 255
160 198 255
160 198 255
160 198 255
160 198 255
160 198 255
160 198 255
160 198 255
160 198 255
160 198 255
160 198 255
160 198 255
160 198 255
160 198 255
160 198 255
159 198 255
159 198 255
159 198 255
159 198 255
159 198 255
159 198 255
159 198 255
159 198 255
159 198 255
159 198 255
159 198 255
159 198 255
159 198 255
159 198 255
159 198 255
159 198 255
159 198 255
159 198 255
159 198 255
159 198 255
159 198 255
159 198 255
159 198 255
159 198 255
159 198 255
159 198 255
159 198 255
159 198 255
159 198 255
159 198 255
159 198 255
159 198 255
159 198 255
159 198 255
159 198 255
159 198 255
159 198 255
159 198 255
159 198 255
159 198 255
160 198 255
160 198 255
160 198 255
160 198 255
160 198 255
160 198 255
160 198 255
160 198 255
160 198 255
160 198 255
160 198 255
160 198 255
160 198 255
160 198 255
160 198 255
160 198 255
160 198 255
160 198 255
160 198 255
160 198 255
161 199 255
161 199 255
161 199 255
161 199 255
161 199 255
161 199 255
161 199 255
161 199 255
161 199 255
161 199 255
161 199 255
161 199 255
161 199 255
162 199 255
162 199 255
162 199 255
162 199 255
162 199 255
162 199 255
162 199 255
162 199 255
162 200 255
162 200 255
162 200 255
162 200 255
163 200 255
163 200 255
163 200 255
163 200 255
163 200 255
163 200 255
163 200 255
163 200 255
163 200 255
163 200 255
163 200 255
164 200 255
164 200 255
164 200 255
164 201 255
164 201 255
164 201 255
164 201 255
164 201 255
164 201 255
164 201 255
165 201 255
165 201 255
165 201 255
165 201 255
165 201 255
165 201 255
165 201 255
165 201 255
165 201 255
165 201 255
165 201 255
166 202 255
166 202 255
166 202 255
166 202 255
166 202 255
166 202 255
166 202 255
166 202 255
166 202 255
166 202 255
167 202 255
167 202 255
167 202 255
167 202 255
167 202 255
167 202 255
167 202 255
167 203 255
167 203 255
167 203 255
167 203 255
168 203 255
168 203 255
168 203 255
168 203 255
168 203 255
168 203 255
168 203 255
168 203 255
168 203 255
168 203 255
168 203 255
169 203 255
169 203 255
169 203 255
169 203 255
169 204 255
169 204 255
169 204 255
169 204 255
169 204 255
169 204 255
169 204 255
169 204 255
170 204 255
170 204 255
170 204 255
170 204 255
170 204 255
170 204 255
170 204 255
170 204 255
170 204 255
170 204 255
170 204 255
170 204 255
171 205 255
171 205 255
171 205 255
171 205 255
171 205 255
171 205 255
171 205 255
171 205 255
171 205 255
171 205 255
171 205 255
171 205 255
171 205 255
172 205 255
172 205 255
172 205 255
172 205 255
172 205 255
172 205 255
172 205 255
172 205 255
172 205 255
172 206 255
172 206 255
172 206 255
172 206 255
172 206 255
173 206 255
173 206 255
173 206 255
173 206 255
173 206 255
173 206 255
173 206 255
173 206 255
173 206 255
173 206 255
173 206 255
173 206 255
173 206 255
173 206 255
173 206 255
174 206 255
174 206 255
174 206 255
174 206 255
174 206 255
174 207 255
174 207 255
174 207 255
174 206 255
174 206 255
174 206 255
174 206 255
174 206 255
174 206 255
173 206 255
173 206 255
173 206 255
173 206 255
173 206 255
173 206 255
173 206 255
173 206 255
173 206 255
173 206 255
173 206 255
173 206 255
173 206 255
173 206 255
173 206 255
172 206 255
172 206 255
172 206 255
172 206 255
172 205 255
172 205 255
172 205 255
172 205 255
172 205 255
172 205 255
172 205 255
172 205 255
172 205 255
172 205 255
171 205 255
155 185 231
150 180 225
141 169 212
147 177 221
143 172 216
134 161 201
122 148 187
116 140 177
125 150 189
107 129 164
104 126 160
121 145 183
123 148 186
112 136 172
120 144 181
119 145 183
128 154 195
130 157 198
142 171 215
143 173 218
149 179 225
157 190 238
167 201 252
169 204 255
169 204 255
169 204 255
169 204 255
169 204 255
169 204 255
169 204 255
169 204 255
169 204 255
169 203 255
169 203 255
169 203 255
168 203 255
168 203 255
168 203 255
168 203 255
168 203 255
168 203 255
168 203 255
168 203 255
168 203 255
168 203 255
168 203 255
167 203 255
167 203 255
167 203 255
167 203 255
167 202 255
167 202 255
167 202 255
167 202 255
167 202 255
167 202 255
167 202 255
166 202 255
166 202 255
166 202 255
166 202 255
166 202 255
166 202 255
166 202 255
166 202 255
166 202 255
166 202 255
166 202 255
165 201 255
165 201 255
165 201 255
165 201 255
165 201 255
165 201 255
165 201 255
165 201 255
165 201 255
165 201 255
164 201 255
164 201 255
164 201 255
164 201 255
164 201 255
164 201 255
164 201 255
164 201 255
164 200 255
164 200 255
164 200 255
163 200 255
163 200 255
163 200 255
163 200 255
163 200 255
163 200 255
163 200 255
163 200 255
163 200 255
163 200 255
163 200 255
162 200 255
162 200 255
162 200 255
162 200 255
162 199 255
162 199 255
162 199 255
162 199 255
162 199 255
162 199 255
162 199 255
162 199 255
162 199 255
161 199 255
161 199 255
161 199 255
161 199 255
161 199 255
161 199 255
161 199 255
161 199 255
161 199 255
161 199 255
161 199 255
161 199 255
161 199 255
161 199 255
160 198 255
160 198 255
160 198 255
160 198 255
160 198 255
160 198 255
160 198 255
160 198 255
160 198 255
160 198 255
160 198 255
160 198 255
160 198 255
160 198 255
160 198 255
160 198 255
160 198 255
160 198 255
160 198 255
160 198 255
160 198 255
160 198 255
160 198 255
160 198 255
160 198 255
160 198 255
157 194 251
145 179 231
140 173 224
136 169 218
126 157 204
115 144 186
118 147 190
119 148 192
102 126 163
114 142 184
123 153 198
121 151 195
132 164 211
138 171 221
152 188 243
160 198 255
160 198 255
160 198 255
160 198 255
160 198 255
160 198 255
160 198 255
160 198 255
160 198 255
160 198 255
160 198 255
160 198 255
160 198 255
160 198 255
160 198 255
160 198 255
160 198 255
160 198 255
160 198 255
160 198 255
160 198 255
160 198 255
160 198 255
160 198 255
160 198 255
160 198 255
160 198 255
161 199 255
161 199 255
161 199 255
161 199 255
161 199 255
161 199 255
161 199 255
161 199 255
161 199 255
161 199 255
161 199 255
161 199 255
161 199 255
161 199 255
162 199 255
162 199 255
162 199 255
162 199 255
162 199 255
162 199 255
162 199 255
162 199 255
162 199 255
162 200 255
162 200 255
162 200 255
162 200 255
163 200 255
163 200 255
163 200 255
163 200 255
163 200 255
163 200 255
163 200 255
163 200 255
163 200 255
163 200 255
163 200 255
164 200 255
164 200 255
164 200 255
164 200 255
164 201 255
164 201 255
164 201 255
164 201 255
164 201 255
164 201 255
164 201 255
165 201 255
165 201 255
165 201 255
165 201 255
165 201 255
165 201 255
165 201 255
165 201 255
165 201 255
165 201 255
166 202 255
166 202 255
166 202 255
166 202 255
166 202 255
166 202 255
166 202 255
166 202 255
166 202 255
166 202 255
166 202 255
167 202 255
167 202 255
167 202 255
167 202 255
167 202 255
167 202 255
167 202 255
167 203 255
167 203 255
167 203 255
167 203 255
168 203 255
168 203 255
168 203 255
168 203 255
168 203 255
168 203 255
168 203 255
168 203 255
168 203 255
168 203 255
168 203 255
169 203 255
169 203 255
169 203 255
169 204 255
169 204 255
169 204 255
169 204 255
169 204 255
169 204 255
169 204 255
169 204 255
169 204 255
166 199 250
164 198 248
151 182 228
141 170 213
141 170 214
129 156 197
137 165 207
124 150 189
124 150 189
119 144 181
118 143 181
117 141 178
127 154 194
115 139 175
124 150 188
117 141 178
129 156 196
131 158 198
124 149 188
135 163 204
153 184 230
158 190 237
158 189 237
170 204 254
172 205 255
172 205 255
172 205 255
172 205 255
172 205 255
172 205 255
172 205 255
172 205 255
172 205 255
172 205 255
172 206 255
172 206 255
172 206 255
172 206 255
173 206 255
173 206 255
173 206 255
173 206 255
173 206 255
173 206 255
173 206 255
173 206 255
173 206 255
173 206 255
173 206 255
173 206 255
173 206 255
173 206 255
173 206 255
174 206 255
174 206 255
174 206 255
174 206 255
174 206 255
174 207 255
174 207 255
174 207 255
174 207 255
174 207 255
174 207 255
174 207 255
174 207 255
174 207 255
174 207 255
174 207 255
174 207 255
174 206 255
174 206 255
174 206 255
174 206 255
174 206 255
173 206 255
173 206 255
173 206 255
173 206 255
173 206 255
173 206 255
173 206 255
173 206 255
173 206 255
173 206 255
173 206 255
173 206 255
173 206 255
173 206 255
173 206 255
172 206 255
163 195 243
150 180 225
132 158 198
110 132 165
106 128 161
101 122 154
86 105 133
67 82 106
58 72 92
51 64 84
51 63 81
54 68 89
53 68 90
50 63 82
55 69 90
50 63 82
54 67 86
48 60 76
54 68 88
50 62 80
48 60 78
55 68 88
52 65 85
58 72 93
53 66 86
51 63 82
51 63 82
57 72 93
54 67 88
51 64 83
50 62 81
56 70 92
58 73 94
63 78 102
71 88 113
89 109 139
98 119 152
104 127 162
125 152 192
134 162 204
144 174 219
164 197 248
169 204 255
169 204 255
169 204 255
169 203 255
169 203 255
169 203 255
169 203 255
168 203 255
168 203 255
168 203 255
168 203 255
168 203 255
168 203 255
168 203 255
168 203 255
168 203 255
168 203 255
168 203 255
167 203 255
167 203 255
167 203 255
167 202 255
167 202 255
167 202 255
167 202 255
167 202 255
167 202 255
167 202 255
166 202 255
166 202 255
166 202 255
166 202 255
166 202 255
166 202 255
166 202 255
166 202 255
166 202 255
166 202 255
166 202 255
165 201 255
165 201 255
165 201 255
165 201 255
165 201 255
165 201 255
165 201 255
165 201 255
165 201 255
165 201 255
165 201 255
164 201 255
164 201 255
164 201 255
164 201 255
164 201 255
164 201 255
164 201 255
164 200 255
164 200 255
164 200 255
164 200 255
163 200 255
163 200 255
163 200 255
163 200 255
163 200 255
163 200 255
163 200 255
163 200 255
163 200 255
163 200 255
163 200 255
162 200 255
162 200 255
162 200 255
162 200 255
162 200 255
162 199 255
162 199 255
162 199 255
162 199 255
162 199 255
162 199 255
162 199 255
162 199 255
162 199 255
161 199 255
161 199 255
161 199 255
161 199 255
161 199 255
161 199 255
161 199 255
161 199 255
161 199 255
161 199 255
161 199 255
161 199 255
161 199 255
161 199 255
161 199 255
161 199 255
161 199 255
160 198 255
160 198 255
160 198 255
160 198 255
160 198 255
160 198 255
160 198 255
160 198 255
160 198 255
160 198 255
160 198 255
160 198 255
153 189 244
133 166 214
112 140 181
97 121 156
83 102 132
72 90 117
51 64 84
57 72 93
48 61 80
59 73 94
55 69 90
53 66 85
58 72 94
56 70 92
57 70 90
55 69 90
55 69 89
56 70 90
58 73 95
53 66 86
58 72 95
54 67 87
67 83 108
89 111 143
90 112 146
107 134 174
137 169 218
154 191 247
160 198 255
160 198 255
160 198 255
160 198 255
160 198 255
160 198 255
160 198 255
160 198 255
160 198 255
160 198 255
160 198 255
160 198 255
161 199 255
161 199 255
161 199 255
161 199 255
161 199 255
161 199 255
161 199 255
161 199 255
161 199 255
161 199 255
161 199 255
161 199 255
161 199 255
161 199 255
161 199 255
161 199 255
161 199 255
162 199 255
162 199 255
162 199 255
162 199 255
162 199 255
162 199 255
162 199 255
162 199 255
162 199 255
162 200 255
162 200 255
162 200 255
162 200 255
163 200 255
163 200 255
163 200 255
163 200 255
163 200 255
163 200 255
163 200 255
163 200 255
163 200 255
163 200 255
163 200 255
163 200 255
164 200 255
164 200 255
164 200 255
164 200 255
164 201 255
164 201 255
164 201 255
164 201 255
164 201 255
164 201 255
164 201 255
165 201 255
165 201 255
165 201 255
165 201 255
165 201 255
165 201 255
165 201 255
165 201 255
165 201 255
165 201 255
165 201 255
166 202 255
166 202 255
166 202 255
166 202 255
166 202 255
166 202 255
166 202 255
166 202 255
166 202 255
166 202 255
167 202 255
167 202 255
167 202 255
167 202 255
167 202 255
167 202 255
167 202 255
167 202 255
167 203 255
167 203 255
167 203 255
168 203 255
168 203 255
168 203 255
168 203 255
168 203 255
168 203 255
168 203 255
168 203 255
168 203 255
168 203 255
168 203 255
168 203 255
169 203 255
169 203 255
169 203 255
169 204 255
169 204 255
169 204 255
165 199 250
155 186 234
131 159 200
111 135 172
108 132 167
92 113 143
81 99 126
70 86 110
58 72 92
52 65 85
50 62 80
53 66 87
46 58 76
47 59 76
48 60 79
47 60 78
51 64 83
49 63 83
50 63 81
50 63 83
52 65 85
52 65 84
57 70 89
51 63 81
48 60 79
52 64 84
53 66 86
52 66 87
50 62 81
51 64 84
50 63 83
54 67 86
49 61 80
57 71 92
74 90 115
71 88 113
91 111 141
111 134 169
120 145 182
143 171 214
143 171 214
161 192 239
172 206 255
172 206 255
173 206 255
173 206 255
173 206 255
173 206 255
173 206 255
173 206 255
173 206 255
173 206 255
173 206 255
173 206 255
173 206 255
173 206 255
173 206 255
173 206 255
174 206 255
174 206 255
174 206 255
174 206 255
174 206 255
174 207 255
174 207 255
174 207 255
174 207 255
174 207 255
174 207 255
174 207 255
174 207 255
175 207 255
174 207 255
174 207 255
174 207 255
174 207 255
174 207 255
174 207 255
174 207 255
174 207 255
174 207 255
174 207 255
174 207 255
174 206 255
174 206 255
174 206 255
174 206 255
174 206 255
173 206 255
173 206 255
173 206 255
173 206 255
173 206 255
173 206 255
168 200 249
143 171 212
123 147 183
108 130 163
84 102 129
57 70 90
52 65 85
52 65 85
52 64 82
52 66 86
48 60 77
51 64 83
47 58 76
49 61 79
50 62 81
51 64 83
58 74 96
48 59 76
45 56 73
54 68 89
49 61 80
57 71 91
51 64 83
52 65 86
51 64 85
52 65 84
53 66 85
50 63 82
51 63 83
50 63 82
51 65 85
50 63 83
50 63 81
48 60 79
55 68 89
51 64 83
52 65 84
52 65 84
52 66 86
50 62 81
54 67 87
56 69 89
53 66 86
57 70 91
51 64 82
53 66 87
49 61 80
55 70 93
68 84 108
71 87 111
101 122 154
119 145 183
143 173 217
162 196 246
169 203 255
169 203 255
169 203 255
169 203 255
168 203 255
168 203 255
168 203 255
168 203 255
168 203 255
168 203 255
168 203 255
168 203 255
168 203 255
168 203 255
168 203 255
167 203 255
167 203 255
167 203 255
167 203 255
167 202 255
167 202 255
167 202 255
167 202 255
167 202 255
167 202 255
167 202 255
166 202 255
166 202 255
166 202 255
166 202 255
166 202 255
166 202 255
166 202 255
166 202 255
166 202 255
166 202 255
166 202 255
165 201 255
165 201 255
165 201 255
165 201 255
165 201 255
165 201 255
165 201 255
165 201 255
165 201 255
165 201 255
165 201 255
164 201 255
164 201 255
164 201 255
164 201 255
164 201 255
164 201 255
164 201 255
164 200 255
164 200 255
164 200 255
164 200 255
163 200 255
163 200 255
163 200 255
163 200 255
163 200 255
163 200 255
163 200 255
163 200 255
163 200 255
163 200 255
163 200 255
163 200 255
162 200 255
162 200 255
162 200 255
162 200 255
162 200 255
162 199 255
162 199 255
162 199 255
162 199 255
162 199 255
162 199 255
162 199 255
162 199 255
162 199 255
161 199 255
161 199 255
161 199 255
161 199 255
161 199 255
161 199 255
161 199 255
161 199 255
161 199 255
161 199 255
161 199 255
161 199 255
161 199 255
161 199 255
161 199 255
161 199 255
161 199 255
161 199 255
161 199 255
161 199 255
151 187 241
134 166 214
102 127 165
80 100 128
55 69 89
51 64 83
56 69 89
57 71 92
57 71 93
55 69 90
56 70 91
52 65 85
51 64 83
51 64 83
56 70 91
52 65 85
56 71 93
56 70 92
54 67 88
55 69 90
55 68 88
53 66 86
54 68 89
58 73 94
55 69 89
56 71 93
55 69 90
52 66 85
56 69 90
57 71 91
54 68 88
55 69 90
78 97 125
95 118 153
126 156 201
154 190 245
161 199 255
161 199 255
161 199 255
161 199 255
161 199 255
161 199 255
161 199 255
161 199 255
161 199 255
161 199 255
161 199 255
161 199 255
161 199 255
161 199 255
161 199 255
161 199 255
161 199 255
161 199 255
161 199 255
161 199 255
162 199 255
162 199 255
162 199 255
162 199 255
162 199 255
162 199 255
162 199 255
162 199 255
162 199 255
162 199 255
162 200 255
162 200 255
162 200 255
162 200 255
163 200 255
163 200 255
163 200 255
163 200 255
163 200 255
163 200 255
163 200 255
163 200 255
163 200 255
163 200 255
163 200 255
163 200 255
164 200 255
164 200 255
164 200 255
164 200 255
164 201 255
164 201 255
164 201 255
164 201 255
164 201 255
164 201 255
164 201 255
165 201 255
165 201 255
165 201 255
165 201 255
165 201 255
165 201 255
165 201 255
165 201 255
165 201 255
165 201 255
165 201 255
166 202 255
166 202 255
166 202 255
166 202 255
166 202 255
166 202 255
166 202 255
166 202 255
166 202 255
166 202 255
166 202 255
167 202 255
167 202 255
167 202 255
167 202 255
167 202 255
167 202 255
167 202 255
167 203 255
167 203 255
167 203 255
167 203 255
168 203 255
168 203 255
168 203 255
168 203 255
168 203 255
168 203 255
168 203 255
168 203 255
168 203 255
168 203 255
168 203 255
169 203 255
169 203 255
169 203 255
169 204 255
163 196 246
134 162 203
118 143 182
96 118 151
81 100 129
62 76 98
56 70 91
54 68 88
50 62 81
54 67 86
48 59 76
50 62 82
52 65 85
52 64 83
47 59 76
53 66 87
51 63 82
54 67 87
51 64 84
53 66 87
50 61 79
48 60 78
48 61 79
51 63 82
50 63 82
56 69 90
50 63 82
49 61 80
46 57 74
50 63 81
49 60 78
50 63 82
55 70 93
49 62 83
53 65 84
49 62 82
55 68 88
53 67 88
53 66 86
53 66 85
46 58 76
48 59 77
52 65 84
43 54 71
52 64 83
47 59 76
55 69 90
51 64 83
64 78 100
78 97 124
97 117 147
125 150 188
138 165 206
167 198 246
173 206 255
173 206 255
173 206 255
173 206 255
173 206 255
173 206 255
174 206 255
174 206 255
174 206 255
174 206 255
174 206 255
174 207 255
174 207 255
174 207 255
174 207 255
174 207 255
174 207 255
174 207 255
174 207 255
174 207 255
174 207 255
174 207 255
175 207 255
175 207 255
175 207 255
175 207 255
175 207 255
175 207 255
174 207 255
174 207 255
174 207 255
174 207 255
174 207 255
174 207 255
174 207 255
174 207 255
174 207 255
174 207 255
174 207 255
174 206 255
174 206 255
163 194 241
134 161 201
115 139 174
86 105 133
71 88 113
55 69 89
54 67 87
50 63 82
49 61 78
55 68 87
53 65 84
47 58 75
51 63 82
54 68 88
55 68 87
52 65 84
55 68 88
54 68 88
49 61 80
52 63 81
52 64 83
47 59 76
51 63 82
51 64 84
50 63 83
52 64 84
52 64 82
54 68 88
53 67 88
52 66 88
50 63 83
53 67 87
52 64 83
52 65 85
54 67 86
50 62 80
47 58 75
53 66 86
50 63 82
49 62 81
53 67 88
55 68 87
57 71 92
51 64 83
51 64 84
52 65 84
44 56 72
52 65 85
53 66 86
52 65 86
53 67 87
50 63 82
50 62 80
53 65 84
55 69 90
54 68 88
50 63 83
50 63 82
53 66 86
62 77 100
76 93 118
115 140 178
139 168 212
161 195 245
169 203 255
169 203 255
169 203 255
168 203 255
168 203 255
168 203 255
168 203 255
168 203 255
168 203 255
168 203 255
168 203 255
168 203 255
168 203 255
168 203 255
167 203 255
167 203 255
167 203 255
167 202 255
167 202 255
167 202 255
167 202 255
167 202 255
167 202 255
167 202 255
167 202 255
166 202 255
166 202 255
166 202 255
166 202 255
166 202 255
166 202 255
166 202 255
166 202 255
166 202 255
166 202 255
165 201 255
165 201 255
165 201 255
165 201 255
165 201 255
165 201 255
165 201 255
165 201 255
165 201 255
165 201 255
165 201 255
165 201 255
164 201 255
164 201 255
164 201 255
164 201 255
164 201 255
164 201 255
164 201 255
164 200 255
164 200 255
164 200 255
164 200 255
163 200 255
163 200 255
163 200 255
163 200 255
163 200 255
163 200 255
163 200 255
163 200 255
163 200 255
163 200 255
163 200 255
163 200 255
163 200 255
162 200 255
162 200 255
162 200 255
162 200 255
162 199 255
162 199 255
162 199 255
162 199 255
162 199 255
162 199 255
162 199 255
162 199 255
162 199 255
162 199 255
162 199 255
162 199 255
161 199 255
161 199 255
161 199 255
161 199 255
161 199 255
161 199 255
161 199 255
161 199 255
161 199 255
161 199 255
146 181 233
109 135 174
82 102 132
58 73 95
51 65 85
51 63 82
59 74 96
51 63 82
54 68 89
51 63 82
51 64 84
52 65 85
56 70 90
51 64 83
52 65 85
53 67 86
53 66 84
54 66 85
53 66 86
56 70 91
52 66 87
57 71 93
57 72 93
52 67 89
51 64 84
50 63 82
54 67 87
51 64 84
56 69 90
49 62 81
53 66 86
58 72 93
59 73 96
51 64 83
55 68 89
57 72 95
49 61 80
54 67 87
54 67 88
84 105 135
124 153 198
145 179 231
161 199 255
161 199 255
161 199 255
161 199 255
161 199 255
161 199 255
161 199 255
161 199 255
161 199 255
161 199 255
161 199 255
162 199 255
162 199 255
162 199 255
162 199 255
162 199 255
162 199 255
162 199 255
162 199 255
162 199 255
162 199 255
162 200 255
162 200 255
162 200 255
162 200 255
162 200 255
163 200 255
163 200 255
163 200 255
163 200 255
163 200 255
163 200 255
163 200 255
163 200 255
163 200 255
163 200 255
163 200 255
163 200 255
163 200 255
164 200 255
164 200 255
164 200 255
164 200 255
164 201 255
164 201 255
164 201 255
164 201 255
164 201 255
164 201 255
164 201 255
164 201 255
165 201 255
165 201 255
165 201 255
165 201 255
165 201 255
165 201 255
165 201 255
165 201 255
165 201 255
165 201 255
166 202 255
166 202 255
166 202 255
166 202 255
166 202 255
166 202 255
166 202 255
166 202 255
166 202 255
166 202 255
166 202 255
167 202 255
167 202 255
167 202 255
167 202 255
167 202 255
167 202 255
167 202 255
167 203 255
167 203 255
167 203 255
167 203 255
168 203 255
168 203 255
168 203 255
168 203 255
168 203 255
168 203 255
168 203 255
168 203 255
168 203 255
168 203 255
168 203 255
169 203 255
169 203 255
169 203 255
163 197 247
131 158 198
97 118 150
80 99 126
69 87 112
52 65 85
53 67 88
51 63 80
53 66 86
53 65 84
53 66 86
52 65 85
53 66 85
54 67 87
55 69 89
52 65 84
55 68 87
50 63 82
51 64 84
50 63 81
51 64 84
49 61 80
55 70 91
52 64 83
49 62 81
49 61 80
50 64 84
50 62 81
49 63 83
49 62 80
53 65 83
53 65 84
51 63 81
48 59 76
52 65 85
56 69 89
48 61 80
49 61 81
50 62 81
51 64 82
47 60 78
53 66 86
48 60 78
48 60 78
51 63 81
53 67 88
52 65 84
51 63 82
50 63 82
52 65 84
49 62 80
51 64 82
53 66 85
50 63 82
46 58 75
46 58 76
46 58 76
51 63 80
49 61 80
66 81 104
80 97 122
107 128 160
125 151 189
164 195 242
174 206 255
174 206 255
174 207 255
174 207 255
174 207 255
174 207 255
174 207 255
174 207 255
174 207 255
174 207 255
174 207 255
174 207 255
174 207 255
175 207 255
175 207 255
175 207 255
175 207 255
175 207 255
175 207 255
175 207 255
175 207 255
175 207 255
175 207 255
175 207 255
175 207 255
175 207 255
175 207 255
174 207 255
174 207 255
174 207 255
174 207 255
174 207 255
160 190 236
126 151 188
94 114 143
74 90 114
55 68 88
49 61 79
51 63 81
51 64 83
52 66 86
51 64 84
49 61 79
48 60 78
49 61 80
49 61 79
49 61 79
47 58 75
59 73 96
47 60 79
51 64 83
48 60 79
51 63 82
46 57 74
52 65 84
56 71 92
48 59 77
50 63 83
50 63 83
53 66 86
54 68 88
45 56 73
46 58 75
49 61 79
54 68 88
52 66 86
53 67 87
53 66 85
49 62 81
53 67 88
55 68 89
51 64 84
48 61 81
49 62 81
49 61 80
50 63 83
52 65 84
49 62 80
53 66 86
54 68 87
50 63 83
53 66 86
49 60 78
56 69 89
51 64 83
54 67 87
49 61 80
55 69 89
45 56 72
51 64 84
47 58 74
56 70 90
56 70 91
50 62 81
56 70 91
54 67 88
52 65 85
50 63 82
55 68 88
53 66 85
70 86 111
97 117 149
131 159 201
158 191 240
168 202 254
169 203 255
168 203 255
168 203 255
168 203 255
168 203 255
168 203 255
168 203 255
168 203 255
168 203 255
168 203 255
168 203 255
168 203 255
168 203 255
167 203 255
167 203 255
167 203 255
167 202 255
167 202 255
167 202 255
167 202 255
167 202 255
167 202 255
167 202 255
167 202 255
166 202 255
166 202 255
166 202 255
166 202 255
166 202 255
166 202 255
166 202 255
166 202 255
166 202 255
166 202 255
165 201 255
165 201 255
165 201 255
165 201 255
165 201 255
165 201 255
165 201 255
165 201 255
165 201 255
165 201 255
165 201 255
165 201 255
164 201 255
164 201 255
164 201 255
164 201 255
164 201 255
164 201 255
164 201 255
164 201 255
164 200 255
164 200 255
164 200 255
163 200 255
163 200 255
163 200 255
163 200 255
163 200 255
163 200 255
163 200 255
163 200 255
163 200 255
163 200 255
163 200 255
163 200 255
163 200 255
163 200 255
162 200 255
162 200 255
162 200 255
162 200 255
162 200 255
162 199 255
162 199 255
162 199 255
162 199 255
162 199 255
162 199 255
162 199 255
162 199 255
162 199 255
162 199 255
162 199 255
162 199 255
162 199 255
155 192 246
114 142 183
71 89 115
55 68 89
51 64 83
54 68 88
55 69 89
54 68 89
53 67 87
52 64 83
52 66 86
54 69 90
56 70 90
52 65 83
51 65 84
50 62 80
53 66 86
53 66 85
55 68 88
56 69 89
53 67 87
55 69 89
55 69 90
54 67 86
54 67 87
52 66 86
51 64 84
51 65 85
55 69 89
60 74 94
52 66 86
58 72 93
51 65 85
55 69 90
50 63 82
55 68 88
49 62 81
51 63 82
57 70 91
52 65 84
59 74 96
52 65 85
52 66 87
56 71 93
54 68 89
75 93 120
106 131 169
159 196 251
162 199 255
162 199 255
162 199 255
162 199 255
162 199 255
162 199 255
162 199 255
162 199 255
162 199 255
162 199 255
162 199 255
162 199 255
162 199 255
162 200 255
162 200 255
162 200 255
162 200 255
162 200 255
163 200 255
163 200 255
163 200 255
163 200 255
163 200 255
163 200 255
163 200 255
163 200 255
163 200 255
163 200 255
163 200 255
163 200 255
163 200 255
164 200 255
164 200 255
164 200 255
164 200 255
164 201 255
164 201 255
164 201 255
164 201 255
164 201 255
164 201 255
164 201 255
164 201 255
165 201 255
165 201 255
165 201 255
165 201 255
165 201 255
165 201 255
165 201 255
165 201 255
165 201 255
165 201 255
165 201 255
166 202 255
166 202 255
166 202 255
166 202 255
166 202 255
166 202 255
166 202 255
166 202 255
166 202 255
166 202 255
166 202 255
167 202 255
167 202 255
167 202 255
167 202 255
167 202 255
167 202 255
167 202 255
167 202 255
167 203 255
167 203 255
167 203 255
168 203 255
168 203 255
168 203 255
168 203 255
168 203 255
168 203 255
168 203 255
168 203 255
168 203 255
168 203 255
168 203 255
169 203 255
169 203 255
169 203 255
141 170 214
140 169 213
103 125 159
68 85 110
50 62 81
49 61 80
54 67 87
51 63 82
52 65 85
53 66 86
53 65 84
47 58 74
51 63 83
46 58 76
46 58 77
52 64 83
45 56 73
54 66 86
52 65 85
53 66 85
49 62 81
48 60 78
54 68 88
51 64 84
52 65 86
48 60 78
51 63 82
48 60 78
52 64 82
54 67 87
53 66 86
52 65 85
45 57 75
45 56 72
48 60 78
48 61 79
50 63 82
51 63 81
46 58 75
48 60 78
51 64 83
49 63 83
45 57 75
46 57 74
45 56 74
48 61 79
50 63 81
50 61 78
47 58 76
46 57 74
50 63 83
47 58 75
55 69 89
46 58 75
47 60 78
48 59 77
48 60 78
46 57 74
52 65 85
46 58 75
50 62 80
49 61 79
56 69 90
48 60 78
50 62 80
56 68 87
48 60 78
52 64 83
64 79 102
89 107 135
118 142 177
153 182 225
174 207 255
174 207 255
174 207 255
174 207 255
174 207 255
175 207 255
175 207 255
175 207 255
175 207 255
175 207 255
175 207 255
175 207 255
175 207 255
175 207 255
175 207 255
175 207 255
175 207 255
175 207 255
175 207 255
175 207 255
175 207 255
175 207 255
175 207 255
175 207 255
165 196 242
123 146 182
94 114 142
61 74 95
55 69 90
51 63 82
49 61 80
55 68 88
51 63 81
46 57 73
49 62 82
50 63 81
43 53 69
55 69 90
52 64 82
50 62 80
51 64 82
50 62 80
52 64 83
54 67 87
46 58 76
49 61 78
53 66 85
48 60 78
48 59 77
51 63 81
49 61 79
52 65 84
48 60 79
53 66 86
48 61 81
52 65 84
47 59 77
52 65 84
51 63 82
45 57 75
45 57 75
49 61 80
50 63 82
52 65 85
49 61 79
50 62 81
53 66 85
45 57 75
48 60 79
42 52 69
52 66 87
52 65 85
51 63 82
56 70 92
46 59 77
51 64 82
50 62 80
49 62 82
57 71 93
50 63 82
48 60 78
48 60 78
51 64 83
50 62 80
53 66 86
45 57 75
55 69 89
49 61 80
52 64 83
51 65 85
54 67 87
54 67 87
55 68 88
50 62 81
53 66 87
49 62 80
50 63 82
51 64 84
56 70 91
51 64 83
73 90 115
91 111 142
116 141 179
164 198 249
169 203 255
169 203 255
168 203 255
168 203 255
168 203 255
168 203 255
168 203 255
168 203 255
168 203 255
168 203 255
168 203 255
168 203 255
168 203 255
167 203 255
167 203 255
167 203 255
167 203 255
167 202 255
167 202 255
167 202 255
167 202 255
167 202 255
167 202 255
167 202 255
166 202 255
166 202 255
166 202 255
166 202 255
166 202 255
166 202 255
166 202 255
166 202 255
166 202 255
166 202 255
166 202 255
165 201 255
165 201 255
165 201 255
165 201 255
165 201 255
165 201 255
165 201 255
165 201 255
165 201 255
165 201 255
165 201 255
165 201 255
164 201 255
164 201 255
164 201 255
164 201 255
164 201 255
164 201 255
164 201 255
164 201 255
164 200 255
164 200 255
164 200 255
164 200 255
164 200 255
163 200 255
163 200 255
163 200 255
163 200 255
163 200 255
163 200 255
163 200 255
163 200 255
163 200 255
163 200 255
163 200 255
163 200 255
163 200 255
163 200 255
162 200 255
162 200 255
162 200 255
162 200 255
162 200 255
162 200 255
162 200 255
162 199 255
162 199 255
162 199 255
136 168 216
82 102 132
57 71 93
57 72 93
51 65 85
54 70 93
51 64 84
56 69 90
47 58 75
49 63 83
51 64 83
55 69 89
54 69 90
51 64 82
57 72 94
54 68 89
55 68 89
54 67 87
50 63 81
50 62 81
53 66 86
54 67 87
56 69 90
55 68 88
47 59 77
55 69 91
48 60 79
55 68 89
60 75 96
54 68 88
57 72 94
51 64 84
56 70 90
55 69 88
52 65 85
54 67 86
56 70 91
53 67 86
55 69 90
60 74 95
57 71 93
53 66 86
50 62 81
57 72 93
53 67 87
59 72 92
53 67 88
55 69 90
54 68 90
58 73 95
87 107 138
135 166 213
162 199 255
162 199 255
162 199 255
162 199 255
162 200 255
162 200 255
162 200 255
162 200 255
162 200 255
163 200 255
163 200 255
163 200 255
163 200 255
163 200 255
163 200 255
163 200 255
163 200 255
163 200 255
163 200 255
163 200 255
163 200 255
163 200 255
163 200 255
163 200 255
163 200 255
164 200 255
164 200 255
164 200 255
164 200 255
164 201 255
164 201 255
164 201 255
164 201 255
164 201 255
164 201 255
164 201 255
164 201 255
165 201 255
165 201 255
165 201 255
165 201 255
165 201 255
165 201 255
165 201 255
165 201 255
165 201 255
165 201 255
165 201 255
165 201 255
166 202 255
166 202 255
166 202 255
166 202 255
166 202 255
166 202 255
166 202 255
166 202 255
166 202 255
166 202 255
166 202 255
167 202 255
167 202 255
167 202 255
167 202 255
167 202 255
167 202 255
167 202 255
167 203 255
167 203 255
167 203 255
167 203 255
168 203 255
168 203 255
168 203 255
168 203 255
168 203 255
168 203 255
168 203 255
168 203 255
168 203 255
168 203 255
168 203 255
169 203 255
169 203 255
159 192 242
124 151 190
98 119 152
67 82 106
49 61 79
55 70 91
56 70 92
50 62 81
48 60 80
50 62 81
50 64 84
51 63 82
56 70 90
45 57 74
52 65 85
48 59 77
49 61 80
55 69 91
46 58 76
42 53 70
47 59 77
52 65 84
46 58 75
51 65 85
49 61 80
52 64 84
46 58 75
49 61 78
48 60 79
50 62 81
43 54 69
52 65 85
50 62 81
53 67 87
50 62 80
52 64 83
49 61 80
54 66 85
45 56 72
47 59 76
49 62 80
48 61 79
47 59 77
48 60 78
42 53 70
50 63 81
52 65 83
47 60 78
49 62 81
47 59 77
47 60 78
50 62 81
51 64 84
52 65 85
43 54 70
51 63 81
51 64 84
48 60 77
51 62 80
44 54 69
47 60 78
43 54 70
49 61 79
46 59 77
48 60 78
53 66 86
49 61 79
53 66 85
44 55 72
46 58 75
48 61 81
48 60 77
52 65 84
50 63 81
50 62 81
46 58 75
65 80 103
88 107 135
130 156 194
165 195 241
175 207 255
175 207 255
175 207 255
175 207 255
175 207 255
175 207 255
175 207 255
175 207 255
175 207 255
175 207 255
176 208 255
175 207 255
175 207 255
175 207 255
175 207 255
175 207 255
174 206 254
153 181 224
94 114 142
75 92 118
52 65 84
49 61 78
50 62 80
48 60 77
49 60 78
53 67 87
50 63 81
42 53 70
50 63 83
48 60 79
54 66 85
46 58 75
47 58 76
50 62 81
52 64 83
48 60 77
51 64 84
48 60 78
47 59 76
48 60 78
54 67 86
49 60 78
47 59 78
48 59 77
47 59 77
48 61 80
50 62 81
52 65 84
55 69 91
51 63 82
52 65 85
54 67 86
49 61 79
45 56 73
52 65 84
44 55 72
45 56 73
51 63 80
46 58 76
49 61 80
51 64 83
51 63 81
50 62 80
52 65 84
47 59 76
49 62 81
50 63 82
47 59 78
49 62 82
49 60 77
54 67 88
54 68 88
52 65 84
48 60 78
46 57 75
48 61 80
51 64 84
50 62 80
52 64 82
50 62 82
44 56 73
52 66 86
44 56 73
51 63 82
57 71 93
48 61 80
53 66 87
53 66 87
50 63 84
53 67 87
54 67 87
50 63 81
53 67 87
48 61 79
50 63 83
53 66 86
51 63 81
52 64 83
50 62 81
52 65 84
82 101 129
104 127 161
142 171 216
168 202 254
169 203 255
169 203 255
168 203 255
168 203 255
168 203 255
168 203 255
168 203 255
168 203 255
168 203 255
168 203 255
168 203 255
168 203 255
168 203 255
167 203 255
167 203 255
167 203 255
167 203 255
167 202 255
167 202 255
167 202 255
167 202 255
167 202 255
167 202 255
167 202 255
166 202 255
166 202 255
166 202 255
166 202 255
166 202 255
166 202 255
166 202 255
166 202 255
166 202 255
166 202 255
166 202 255
166 202 255
165 201 255
165 201 255
165 201 255
165 201 255
165 201 255
165 201 255
165 201 255
165 201 255
165 201 255
165 201 255
165 201 255
165 201 255
164 201 255
164 201 255
164 201 255
164 201 255
164 201 255
164 201 255
164 201 255
164 201 255
164 200 255
164 200 255
164 200 255
164 200 255
164 200 255
163 200 255
163 200 255
163 200 255
163 200 255
163 200 255
163 200 255
163 200 255
163 200 255
163 200 255
163 200 255
163 200 255
163 200 255
163 200 255
163 200 255
163 200 255
163 200 255
160 197 252
119 146 188
79 97 125
54 68 89
51 64 84
57 71 91
50 63 83
54 69 90
52 66 86
47 59 78
53 66 86
45 56 74
55 70 91
55 68 88
53 66 85
56 70 90
50 63 81
59 73 95
53 67 89
52 66 87
52 64 83
48 61 80
59 73 95
54 67 87
55 69 89
48 61 81
52 64 83
53 67 87
50 63 82
55 69 91
53 66 86
55 69 91
54 68 88
60 75 97
55 69 90
58 72 94
61 75 95
56 70 92
54 68 88
48 62 82
51 64 84
48 61 79
54 68 89
53 66 85
50 63 82
58 71 90
53 66 86
52 65 85
54 67 86
51 63 81
46 58 75
53 66 86
54 67 87
53 66 85
52 65 84
69 86 111
120 148 190
161 198 254
163 200 255
163 200 255
163 200 255
163 200 255
163 200 255
163 200 255
163 200 255
163 200 255
163 200 255
163 200 255
163 200 255
163 200 255
163 200 255
163 200 255
163 200 255
163 200 255
163 200 255
164 200 255
164 200 255
164 200 255
164 200 255
164 201 255
164 201 255
164 201 255
164 201 255
164 201 255
164 201 255
164 201 255
164 201 255
164 201 255
165 201 255
165 201 255
165 201 255
165 201 255
165 201 255
165 201 255
165 201 255
165 201 255
165 201 255
165 201 255
165 201 255
165 201 255
166 202 255
166 202 255
166 202 255
166 202 255
166 202 255
166 202 255
166 202 255
166 202 255
166 202 255
166 202 255
166 202 255
167 202 255
167 202 255
167 202 255
167 202 255
167 202 255
167 202 255
167 202 255
167 203 255
167 203 255
167 203 255
167 203 255
168 203 255
168 203 255
168 203 255
168 203 255
168 203 255
168 203 255
168 203 255
168 203 255
168 203 255
168 203 255
168 203 255
169 203 255
169 203 255
169 203 255
149 180 226
109 133 168
78 96 124
55 68 89
52 66 86
53 66 86
54 67 86
49 62 81
53 69 91
46 58 76
50 63 83
52 65 85
52 65 85
53 67 87
51 64 83
51 63 81
50 63 81
53 67 88
48 60 79
49 61 80
49 61 79
47 59 77
50 63 81
45 57 74
51 64 83
52 65 84
56 69 88
48 61 79
49 62 82
48 60 78
50 62 81
46 57 75
44 56 73
48 61 79
45 56 72
51 64 84
48 59 77
53 65 83
47 58 76
49 61 79
49 62 81
47 58 76
52 65 85
48 60 77
48 61 81
50 62 79
47 59 77
49 60 78
51 64 82
52 65 84
50 63 82
49 60 77
48 59 77
48 60 78
45 57 74
45 57 74
45 56 73
49 61 80
49 61 79
51 64 83
45 58 76
50 63 82
50 62 81
47 58 75
50 63 82
47 58 75
50 63 81
46 57 74
48 59 77
48 60 79
44 55 71
47 60 78
48 59 76
47 59 78
49 61 78
48 60 78
51 64 84
46 57 74
46 58 74
47 59 76
51 63 81
52 64 83
53 66 85
75 90 113
123 147 184
154 183 226
174 205 253
175 207 255
175 207 255
175 207 255
175 207 255
175 207 255
176 208 255
176 208 255
176 208 255
176 208 255
175 206 254
150 178 220
112 135 168
69 84 106
50 62 80
48 59 77
47 59 76
50 63 81
50 63 81
46 58 75
52 65 84
51 64 83
49 61 79
47 58 75
49 61 80
48 60 77
48 60 78
48 60 77
51 64 83
51 64 83
50 63 82
50 63 82
50 62 80
53 66 86
50 63 82
50 62 79
51 63 83
48 60 77
50 62 80
52 64 82
43 54 69
50 62 81
48 60 78
55 69 91
48 61 79
53 66 86
48 60 78
52 66 85
49 62 81
45 57 74
51 63 81
52 65 84
48 60 78
48 60 79
54 67 88
52 65 84
47 59 77
48 60 78
50 62 80
44 56 73
48 60 78
50 62 80
51 64 84
46 56 73
49 62 81
48 60 79
48 61 79
52 65 86
52 65 84
46 58 76
47 59 77
49 62 82
55 68 87
55 69 90
51 64 82
49 62 81
48 60 79
48 60 78
48 61 80
49 61 80
48 59 76
47 59 77
51 64 82
55 69 90
50 63 83
47 59 77
53 66 86
44 55 71
48 60 79
57 70 91
46 58 75
50 62 79
52 65 84
53 67 87
51 63 83
55 69 90
51 65 85
51 64 83
56 71 93
56 70 91
61 76 98
103 126 160
142 172 217
169 203 255
169 203 255
169 203 255
169 203 255
168 203 255
168 203 255
168 203 255
168 203 255
168 203 255
168 203 255
168 203 255
168 203 255
168 203 255
168 203 255
168 203 255
167 203 255
167 203 255
167 203 255
167 203 255
167 202 255
167 202 255
167 202 255
167 202 255
167 202 255
167 202 255
167 202 255
166 202 255
166 202 255
166 202 255
166 202 255
166 202 255
166 202 255
166 202 255
166 202 255
166 202 255
166 202 255
166 202 255
166 202 255
165 201 255
165 201 255
165 201 255
165 201 255
165 201 255
165 201 255
165 201 255
165 201 255
165 201 255
165 201 255
165 201 255
165 201 255
164 201 255
164 201 255
164 201 255
164 201 255
164 201 255
164 201 255
164 201 255
164 201 255
164 201 255
164 201 255
164 200 255
164 200 255
164 200 255
164 200 255
164 200 255
163 200 255
163 200 255
163 200 255
163 200 255
163 200 255
163 200 255
163 200 255
163 200 255
162 198 254
132 163 209
68 84 109
56 70 91
58 73 95
55 69 89
53 66 85
49 62 82
52 66 87
56 70 91
49 61 79
55 68 88
53 66 85
52 65 84
53 65 83
56 70 90
57 71 92
54 67 87
49 62 80
50 63 81
56 69 90
53 66 85
56 69 90
52 66 87
46 56 72
50 62 81
49 61 80
53 66 85
51 63 82
51 63 81
52 65 86
48 60 79
54 68 88
53 66 85
53 67 87
56 70 91
50 62 80
53 66 85
53 66 85
50 63 82
51 64 84
55 69 91
54 68 89
52 66 86
52 65 83
53 67 87
52 65 84
51 64 84
52 66 86
54 66 85
59 73 94
56 69 89
52 65 86
49 62 81
56 70 91
57 72 94
51 65 85
56 70 90
54 68 89
76 94 122
130 160 205
159 195 250
163 200 255
163 200 255
163 200 255
163 200 255
163 200 255
163 200 255
163 200 255
163 200 255
163 200 255
164 200 255
164 200 255
164 200 255
164 200 255
164 201 255
164 201 255
164 201 255
164 201 255
164 201 255
164 201 255
164 201 255
164 201 255
164 201 255
164 201 255
165 201 255
165 201 255
165 201 255
165 201 255
165 201 255
165 201 255
165 201 255
165 201 255
165 201 255
165 201 255
165 201 255
165 201 255
166 202 255
166 202 255
166 202 255
166 202 255
166 202 255
166 202 255
166 202 255
166 202 255
166 202 255
166 202 255
166 202 255
166 202 255
167 202 255
167 202 255
167 202 255
167 202 255
167 202 255
167 202 255
167 202 255
167 203 255
167 203 255
167 203 255
167 203 255
168 203 255
168 203 255
168 203 255
168 203 255
168 203 255
168 203 255
168 203 255
168 203 255
168 203 255
168 203 255
168 203 255
169 203 255
169 203 255
169 203 255
167 202 254
141 171 216
103 126 160
65 80 104
57 71 93
49 61 80
51 64 84
53 67 88
54 68 89
51 64 84
49 61 79
56 71 93
50 62 81
48 60 78
46 58 75
48 60 78
46 57 74
52 66 86
49 61 80
46 57 74
44 56 72
48 59 77
48 60 78
49 62 82
52 65 85
46 58 76
42 53 70
45 57 75
43 55 72
50 62 81
44 56 73
50 63 82
46 58 76
47 59 78
48 61 80
48 60 77
49 62 81
45 58 76
48 60 77
49 61 79
48 60 78
45 56 73
49 61 80
48 61 79
52 64 83
46 57 75
45 57 74
46 58 76
40 51 67
44 55 72
48 60 79
49 61 78
47 59 76
49 61 79
47 59 76
48 60 77
48 61 80
46 57 75
52 65 85
45 56 73
48 61 79
49 61 79
51 63 82
51 62 79
46 57 74
51 64 83
50 63 83
46 57 75
46 58 76
51 64 83
45 56 73
49 60 76
49 61 78
48 60 78
49 60 78
48 59 77
47 59 76
50 63 82
49 60 76
47 58 75
48 61 79
49 61 79
49 61 79
53 65 85
52 64 82
46 57 73
49 61 80
51 63 82
46 57 74
47 58 75
58 72 92
102 123 153
143 170 210
176 208 255
176 208 255
176 208 255
176 208 255
176 208 255
145 173 214
109 131 163
71 87 109
46 57 74
51 65 84
47 59 76
52 64 82
53 66 86
52 65 84
51 64 82
49 61 80
52 66 86
52 64 83
52 65 85
46 58 75
49 61 80
50 62 82
48 61 79
48 59 77
50 62 80
50 62 80
49 62 81
51 64 82
49 60 78
48 60 77
51 64 82
53 66 85
53 65 83
52 65 85
47 58 76
44 55 72
52 65 84
50 63 82
45 57 75
51 64 83
46 58 76
53 67 86
46 58 75
45 56 73
52 64 83
43 54 70
46 58 76
48 60 78
46 57 74
53 65 84
51 62 80
52 66 85
47 59 78
46 57 75
49 62 81
48 61 80
51 63 82
53 66 85
44 55 72
52 64 83
49 61 79
46 57 74
50 62 81
49 62 82
46 58 76
45 57 74
49 61 80
47 59 77
42 53 70
50 63 82
45 57 74
55 68 88
47 59 77
53 65 83
46 58 77
46 58 76
50 61 79
50 64 83
50 62 81
54 67 87
52 65 84
48 62 81
58 73 95
55 69 89
48 61 80
50 63 82
49 60 78
44 56 74
49 61 79
51 65 85
53 67 87
50 62 82
55 69 90
51 64 84
48 60 78
49 62 80
47 59 78
46 57 74
51 64 85
55 68 89
69 86 111
107 130 164
146 176 222
169 204 255
169 203 255
169 203 255
169 203 255
169 203 255
168 203 255
168 203 255
168 203 255
168 203 255
168 203 255
168 203 255
168 203 255
168 203 255
168 203 255
168 203 255
168 203 255
167 203 255
167 203 255
167 203 255
167 203 255
167 202 255
167 202 255
167 202 255
167 202 255
167 202 255
167 202 255
167 202 255
167 202 255
166 202 255
166 202 255
166 202 255
166 202 255
166 202 255
166 202 255
166 202 255
166 202 255
166 202 255
166 202 255
166 202 255
165 201 255
165 201 255
165 201 255
165 201 255
165 201 255
165 201 255
165 201 255
165 201 255
165 201 255
165 201 255
165 201 255
165 201 255
165 201 255
164 201 255
164 201 255
164 201 255
164 201 255
164 201 255
164 201 255
164 201 255
164 201 255
164 201 255
164 201 255
164 201 255
164 200 255
164 200 255
164 200 255
164 200 255
164 200 255
163 200 255
133 164 210
68 84 109
51 64 83
51 63 82
53 66 85
49 62 82
52 64 83
56 70 91
50 63 81
55 69 90
53 66 86
55 69 90
52 65 85
52 65 83
50 63 82
51 64 83
54 69 91
49 62 82
55 69 89
53 65 84
51 65 85
52 65 85
52 66 86
50 63 82
51 64 82
56 70 91
54 67 86
51 62 79
52 66 86
50 64 84
49 61 79
52 65 85
53 65 84
52 66 85
50 62 80
55 68 88
52 65 85
55 68 88
54 67 86
55 68 89
54 68 89
54 67 87
52 64 82
52 66 86
56 70 93
53 66 86
53 67 89
52 65 86
53 66 86
51 64 84
56 70 91
54 66 85
54 68 89
51 63 82
54 68 88
55 69 91
54 67 87
49 62 80
55 68 88
53 67 87
50 63 84
57 71 92
70 88 115
134 164 211
163 200 255
164 200 255
164 200 255
164 200 255
164 200 255
164 200 255
164 200 255
164 201 255
164 201 255
164 201 255
164 201 255
164 201 255
164 201 255
164 201 255
164 201 255
164 201 255
164 201 255
165 201 255
165 201 255
165 201 255
165 201 255
165 201 255
165 201 255
165 201 255
165 201 255
165 201 255
165 201 255
165 201 255
165 201 255
166 202 255
166 202 255
166 202 255
166 202 255
166 202 255
166 202 255
166 202 255
166 202 255
166 202 255
166 202 255
166 202 255
166 202 255
166 202 255
167 202 255
167 202 255
167 202 255
167 202 255
167 202 255
167 202 255
167 202 255
167 203 255
167 203 255
167 203 255
167 203 255
168 203 255
168 203 255
168 203 255
168 203 255
168 203 255
168 203 255
168 203 255
168 203 255
168 203 255
168 203 255
168 203 255
169 203 255
169 203 255
169 203 255
169 203 255
169 204 255
153 186 234
111 135 171
73 90 116
57 71 93
50 63 83
55 68 89
55 68 88
49 61 80
52 65 86
48 60 78
54 67 88
50 62 80
53 65 84
50 63 82
45 58 78
48 61 79
48 60 78
50 63 82
48 60 79
46 58 75
44 56 74
52 65 85
45 56 72
51 63 82
48 60 78
43 53 69
48 60 79
47 59 76
48 59 77
52 65 84
49 62 80
46 57 75
49 62 82
46 58 77
46 58 76
47 59 77
43 55 72
54 68 90
49 61 80
45 57 74
50 64 84
51 63 81
49 61 79
49 61 78
49 61 79
47 58 76
47 59 77
44 56 73
43 53 69
50 63 82
49 61 78
49 61 78
56 70 91
48 60 78
48 61 79
48 60 78
50 63 83
50 63 82
49 62 80
50 62 80
51 63 82
44 56 75
44 55 72
46 57 73
51 62 80
52 65 84
46 58 76
46 58 76
48 59 76
48 60 78
48 60 78
47 60 80
50 62 81
50 63 81
49 60 78
50 62 81
52 65 84
52 64 82
50 63 82
49 62 80
53 65 84
48 60 78
49 61 78
49 62 80
44 56 73
49 61 80
51 62 80
54 67 87
48 60 78
49 61 79
47 58 76
45 56 73
48 60 78
44 55 72
49 60 78
68 83 106
105 126 157
145 171 212
176 208 255
78 95 122
48 60 78
45 57 75
49 61 79
53 65 84
44 55 71
51 63 82
47 60 80
49 61 78
49 61 80
49 61 80
49 62 81
49 61 79
47 59 77
46 57 74
51 64 84
48 59 77
51 64 83
49 62 80
44 54 69
44 55 72
52 65 85
47 60 79
52 64 83
47 59 77
51 63 82
47 60 79
52 64 83
48 60 78
46 57 74
52 64 83
49 61 79
52 66 86
49 60 77
45 56 72
48 61 79
51 64 85
46 58 77
51 63 81
47 58 75
52 65 83
49 61 79
45 57 74
47 59 78
46 58 75
47 59 77
49 62 80
49 61 79
47 59 78
51 64 83
49 61 78
41 51 66
43 55 72
48 61 80
47 60 78
44 55 72
52 64 82
49 61 80
55 69 91
48 61 79
46 58 75
52 65 85
50 61 79
49 61 79
49 61 80
50 62 81
44 54 71
51 63 82
47 58 76
47 59 77
52 65 84
45 56 74
44 55 72
46 58 76
52 65 85
49 61 79
48 60 79
51 64 83
55 69 89
47 59 78
49 61 79
48 59 77
56 69 90
48 60 79
47 59 78
49 61 80
47 59 78
47 59 78
50 63 83
50 63 83
54 68 88
53 66 85
50 63 82
56 71 92
51 63 81
48 60 79
54 68 88
52 65 86
56 70 92
75 92 119
120 146 184
160 193 243
169 204 255
169 204 255
169 203 255
169 203 255
169 203 255
169 203 255
168 203 255
168 203 255
168 203 255
168 203 255
168 203 255
168 203 255
168 203 255
168 203 255
168 203 255
168 203 255
168 203 255
167 203 255
167 203 255
167 203 255
167 203 255
167 202 255
167 202 255
167 202 255
167 202 255
167 202 255
167 202 255
167 202 255
167 202 255
166 202 255
166 202 255
166 202 255
166 202 255
166 202 255
166 202 255
166 202 255
166 202 255
166 202 255
166 202 255
166 202 255
166 202 255
165 201 255
165 201 255
165 201 255
165 201 255
165 201 255
165 201 255
165 201 255
165 201 255
165 201 255
165 201 255
165 201 255
165 201 255
165 201 255
165 201 255
164 201 255
164 201 255
164 201 255
164 201 255
164 201 255
164 201 255
164 201 255
164 201 255
164 201 255
144 177 226
82 102 133
49 62 81
50 63 83
55 68 88
53 67 87
50 63 81
50 63 83
54 66 86
47 59 76
51 64 84
55 68 88
55 69 89
52 65 84
54 67 87
54 67 87
53 66 85
55 67 86
50 61 77
54 67 86
52 64 83
53 65 84
52 65 86
53 65 84
49 62 81
50 62 80
51 64 84
50 62 80
56 71 93
52 65 85
49 62 82
51 64 84
60 75 97
56 70 91
53 67 87
53 66 86
54 67 85
51 64 83
53 66 86
50 63 81
55 69 90
50 62 80
54 68 88
55 68 87
50 62 81
51 64 83
50 62 79
49 61 80
46 58 76
51 64 84
54 68 88
55 70 93
50 63 82
51 64 84
51 63 81
51 64 84
51 65 85
51 64 83
54 68 89
53 66 87
54 68 89
48 61 82
52 66 85
49 62 82
58 72 93
55 68 88
79 99 128
143 175 224
164 201 255
164 201 255
164 201 255
164 201 255
164 201 255
164 201 255
164 201 255
164 201 255
164 201 255
165 201 255
165 201 255
165 201 255
165 201 255
165 201 255
165 201 255
165 201 255
165 201 255
165 201 255
165 201 255
165 201 255
165 201 255
165 201 255
165 201 255
166 202 255
166 202 255
166 202 255
166 202 255
166 202 255
166 202 255
166 202 255
166 202 255
166 202 255
166 202 255
166 202 255
166 202 255
167 202 255
167 202 255
167 202 255
167 202 255
167 202 255
167 202 255
167 202 255
167 202 255
167 203 255
167 203 255
167 203 255
168 203 255
168 203 255
168 203 255
168 203 255
168 203 255
168 203 255
168 203 255
168 203 255
168 203 255
168 203 255
168 203 255
168 203 255
169 203 255
169 203 255
169 203 255
169 203 255
169 204 255
169 204 255
161 194 244
115 140 178
74 91 117
54 68 88
50 63 83
48 59 77
55 70 93
51 64 83
52 65 85
49 61 80
52 64 84
50 63 82
47 59 77
57 72 93
46 57 75
47 59 77
47 58 76
51 65 85
47 59 77
50 63 82
46 58 76
47 58 75
47 58 75
45 57 75
46 58 76
48 61 81
51 65 84
44 55 72
47 59 77
45 57 74
49 62 80
41 51 67
50 62 81
48 59 76
51 64 83
43 54 71
52 64 83
50 63 82
44 56 73
47 58 76
48 61 79
42 53 69
43 53 69
50 61 78
45 57 74
54 68 88
48 61 80
48 60 79
42 51 66
49 61 79
52 66 86
47 59 76
48 60 78
51 63 82
44 55 72
46 58 75
47 59 77
49 61 79
47 59 77
44 56 72
50 63 81
45 56 72
49 61 80
54 67 85
45 56 72
43 53 69
48 60 78
43 54 71
45 57 73
46 57 74
47 59 78
44 55 71
48 61 80
47 58 76
46 58 77
51 64 84
49 61 79
49 61 79
46 57 75
46 57 74
49 61 80
51 64 83
49 60 78
50 62 81
46 57 73
47 58 75
45 56 73
49 62 81
48 59 76
46 57 73
47 59 77
50 61 79
51 63 81
45 56 73
42 53 68
43 54 71
45 56 72
48 60 79
49 60 78
50 62 80
45 56 73
75 90 114
45 56 73
46 57 74
46 58 76
48 60 79
44 55 71
52 65 84
53 65 83
50 62 81
47 59 76
48 60 79
48 60 78
46 58 76
49 61 78
48 60 79
51 64 84
49 61 80
45 57 76
46 58 75
48 60 78
47 58 76
46 58 75
50 63 82
48 60 78
46 57 74
47 59 76
54 67 86
44 55 70
50 62 81
47 58 75
47 59 78
47 58 76
45 56 72
44 56 73
51 63 81
47 59 76
50 63 81
48 59 76
52 63 81
46 57 74
46 59 78
47 59 77
51 64 83
50 62 80
47 59 78
49 61 80
51 64 82
51 64 82
42 53 70
49 61 78
53 65 82
49 62 81
48 60 78
52 65 84
48 60 78
51 63 83
48 59 77
44 56 74
46 57 73
51 64 83
48 60 79
43 54 70
45 57 75
47 60 78
48 60 79
48 60 78
48 60 79
44 55 71
39 49 64
51 64 83
45 58 76
46 58 75
51 64 84
49 61 79
45 57 74
47 58 76
49 61 79
47 59 78
50 63 82
49 62 81
48 59 77
51 65 86
49 60 78
49 60 78
49 61 80
49 62 81
46 57 74
51 63 82
53 66 87
50 62 80
46 59 78
53 67 87
53 66 85
53 65 83
53 66 85
50 63 83
48 60 78
50 62 80
51 64 83
52 65 86
53 65 85
54 68 90
58 72 93
109 133 168
139 168 211
169 204 255
169 204 255
169 204 255
169 204 255
169 203 255
169 203 255
169 203 255
169 203 255
168 203 255
168 203 255
168 203 255
168 203 255
168 203 255
168 203 255
168 203 255
168 203 255
168 203 255
168 203 255
168 203 255
168 203 255
167 203 255
167 203 255
167 203 255
167 202 255
167 202 255
167 202 255
167 202 255
167 202 255
167 202 255
167 202 255
167 202 255
167 202 255
166 202 255
166 202 255
166 202 255
166 202 255
166 202 255
166 202 255
166 202 255
166 202 255
166 202 255
166 202 255
166 202 255
166 202 255
166 202 255
165 201 255
165 201 255
165 201 255
165 201 255
165 201 255
165 201 255
165 201 255
165 201 255
165 201 255
165 201 255
165 201 255
165 201 255
165 201 255
165 201 255
165 201 255
160 196 249
102 125 161
48 61 79
53 67 88
56 71 93
53 66 86
56 70 92
51 63 82
55 68 88
53 66 85
54 66 85
46 58 75
52 65 85
48 59 77
50 63 82
54 67 87
55 70 91
47 59 77
52 63 81
55 69 90
54 67 87
51 64 84
47 60 78
51 63 82
51 65 84
49 61 79
55 68 88
50 63 82
54 67 87
50 62 81
53 66 85
52 65 84
52 65 85
47 58 75
51 64 82
53 66 85
51 64 84
55 68 89
48 61 80
53 66 86
49 62 81
48 60 79
51 63 82
47 59 76
55 68 88
55 69 90
56 70 91
52 65 84
53 65 83
47 59 77
56 70 91
52 66 86
53 66 85
52 65 85
52 64 82
52 64 84
53 66 86
53 65 85
49 61 80
49 61 80
53 67 87
51 64 84
52 66 87
49 63 83
55 68 89
47 59 78
50 63 83
53 66 84
54 68 89
62 77 101
114 140 179
162 198 252
165 201 255
165 201 255
165 201 255
165 201 255
165 201 255
165 201 255
165 201 255
165 201 255
165 201 255
165 201 255
165 201 255
165 201 255
165 201 255
165 201 255
165 201 255
166 202 255
166 202 255
166 202 255
166 202 255
166 202 255
166 202 255
166 202 255
166 202 255
166 202 255
166 202 255
166 202 255
166 202 255
166 202 255
167 202 255
167 202 255
167 202 255
167 202 255
167 202 255
167 202 255
167 202 255
167 202 255
167 202 255
167 203 255
167 203 255
167 203 255
167 203 255
168 203 255
168 203 255
168 203 255
168 203 255
168 203 255
168 203 255
168 203 255
168 203 255
168 203 255
168 203 255
168 203 255
169 203 255
169 203 255
169 203 255
169 203 255
169 204 255
169 204 255
169 204 255
169 204 255
145 175 220
99 121 155
65 81 104
59 74 98
55 69 89
51 64 83
50 64 84
54 67 87
50 63 81
54 67 87
46 58 75
49 62 82
47 58 75
51 66 88
51 64 83
52 65 86
49 62 81
50 62 80
50 63 83
49 62 81
46 58 76
50 62 81
51 64 84
50 61 79
49 62 81
48 59 77
45 57 74
47 59 78
47 59 77
47 59 77
46 58 77
49 61 79
52 65 84
42 53 70
48 61 79
50 62 80
47 59 76
46 58 76
44 55 72
48 60 79
47 59 77
48 60 77
45 56 74
47 59 76
50 61 79
52 64 83
42 53 70
45 56 74
43 54 71
46 57 75
48 61 79
45 57 74
50 62 81
46 57 74
44 56 73
43 54 71
48 59 76
56 69 89
46 59 77
44 55 71
50 62 80
44 55 70
45 56 72
45 56 73
43 53 69
43 53 69
46 57 74
45 57 76
50 63 82
48 60 79
47 59 76
48 61 80
45 57 74
38 49 64
50 62 81
41 52 69
46 58 75
45 57 74
48 61 79
43 54 70
48 60 78
47 59 77
50 62 79
51 63 82
43 53 70
40 50 65
51 63 81
43 55 72
46 57 74
45 57 74
45 57 74
49 62 81
52 64 82
53 66 85
52 64 83
44 55 71
52 65 84
47 57 73
48 60 78
45 57 74
47 59 76
49 60 78
44 55 71
48 60 78
50 62 81
45 56 72
45 56 73
47 58 75
47 59 76
46 58 75
52 64 82
43 54 71
50 62 81
50 63 82
50 63 82
47 58 76
48 59 77
43 54 70
48 60 78
45 57 73
51 64 83
51 64 84
52 65 84
48 60 78
49 61 78
47 59 76
47 59 77
49 61 79
47 58 75
48 60 78
46 58 76
47 59 77
47 59 76
46 58 75
51 63 83
50 63 83
48 60 78
50 62 80
51 64 85
47 59 76
51 63 82
47 58 75
49 60 78
50 63 81
46 58 76
49 61 78
54 67 87
50 62 80
52 64 82
46 57 74
45 56 73
49 62 80
47 58 75
50 62 81
43 54 70
46 57 73
46 57 73
49 61 80
46 58 76
52 64 84
48 60 79
48 60 78
45 57 75
46 58 75
44 56 74
48 60 78
46 58 77
49 61 80
51 64 83
49 62 81
51 64 83
46 58 75
42 53 70
47 59 77
45 56 72
55 69 90
47 60 79
46 58 76
49 61 80
45 56 72
49 61 79
50 64 83
51 65 85
51 64 84
53 67 87
48 61 80
49 62 82
51 63 82
52 65 86
52 65 84
47 59 77
48 60 79
44 57 75
52 64 83
50 63 83
53 67 87
51 63 82
46 59 77
52 64 84
48 61 79
48 60 78
54 67 87
53 65 84
52 65 86
52 65 84
55 68 89
52 65 85
55 68 87
74 91 117
123 150 189
166 200 251
169 204 255
169 204 255
169 204 255
169 204 255
169 204 255
169 203 255
169 203 255
169 203 255
169 203 255
168 203 255
168 203 255
168 203 255
168 203 255
168 203 255
168 203 255
168 203 255
168 203 255
168 203 255
168 203 255
168 203 255
168 203 255
167 203 255
167 203 255
167 203 255
167 203 255
167 202 255
167 202 255
167 202 255
167 202 255
167 202 255
167 202 255
167 202 255
167 202 255
167 202 255
166 202 255
166 202 255
166 202 255
166 202 255
166 202 255
166 202 255
166 202 255
166 202 255
166 202 255
166 202 255
166 202 255
166 202 255
166 202 255
165 201 255
165 201 255
165 201 255
165 201 255
165 201 255
165 201 255
165 201 255
165 201 255
165 201 255
143 175 223
70 87 112
56 69 90
52 64 84
60 75 96
53 66 86
52 65 85
55 69 91
49 61 79
52 65 84
52 65 85
52 66 86
49 61 80
56 69 89
54 67 88
49 61 79
49 61 79
49 61 79
51 63 82
50 63 82
55 68 88
44 55 71
57 71 93
51 64 83
56 70 90
54 67 87
56 69 89
51 64 85
50 63 81
52 65 84
56 70 90
53 67 87
50 62 81
52 65 84
47 59 77
52 66 86
52 65 85
45 56 73
56 70 91
50 62 80
54 68 88
46 57 74
54 68 88
52 65 85
55 68 88
53 66 85
51 64 84
52 64 81
52 64 82
50 62 81
59 73 94
52 66 86
55 69 90
56 68 87
52 65 84
53 66 85
52 65 85
49 61 80
55 69 89
54 67 86
49 60 78
54 67 87
51 64 83
51 62 80
53 67 87
53 65 84
56 69 89
54 68 89
53 65 84
51 65 85
53 66 85
53 67 88
66 81 105
143 174 221
165 201 255
165 201 255
165 201 255
165 201 255
165 201 255
165 201 255
165 201 255
165 201 255
165 201 255
166 202 255
166 202 255
166 202 255
166 202 255
166 202 255
166 202 255
166 202 255
166 202 255
166 202 255
166 202 255
166 202 255
166 202 255
166 202 255
167 202 255
167 202 255
167 202 255
167 202 255
167 202 255
167 202 255
167 202 255
167 202 255
167 202 255
167 203 255
167 203 255
167 203 255
167 203 255
168 203 255
168 203 255
168 203 255
168 203 255
168 203 255
168 203 255
168 203 255
168 203 255
168 203 255
168 203 255
168 203 255
168 203 255
169 203 255
169 203 255
169 203 255
169 203 255
169 204 255
169 204 255
169 204 255
169 204 255
169 204 255
169 204 255
132 160 202
87 107 137
57 72 94
53 67 87
51 64 84
51 64 84
51 64 84
51 64 84
45 58 76
48 60 79
53 67 87
49 62 80
52 64 83
49 62 82
49 60 78
49 61 80
47 59 77
47 58 74
47 59 77
52 64 82
50 63 83
46 58 76
43 55 72
48 61 80
47 59 77
47 59 76
45 57 74
51 64 84
47 59 77
46 58 76
45 56 74
49 61 79
43 54 70
45 57 75
50 62 80
47 58 76
49 60 78
48 60 78
54 68 88
48 60 77
44 54 70
47 59 76
44 55 72
49 60 77
45 57 75
48 61 80
46 57 73
46 56 73
51 63 82
45 56 73
50 63 82
47 59 77
53 66 85
44 54 70
43 55 72
42 53 69
43 54 70
49 61 80
48 60 78
48 60 77
47 60 78
48 61 80
44 54 70
47 60 78
50 63 82
50 62 81
48 60 78
45 55 71
46 58 76
40 51 66
51 63 81
45 57 74
48 60 78
43 53 68
42 53 70
54 68 88
43 53 68
49 62 80
40 51 66
45 57 75
50 62 80
46 57 74
44 55 71
47 59 77
45 55 71
49 61 79
49 60 77
41 51 66
46 57 75
47 58 76
51 64 84
41 52 67
52 66 86
53 66 86
56 70 92
46 58 75
42 53 68
44 55 72
45 57 74
51 63 82
44 56 73
44 55 71
48 60 78
49 61 79
50 61 79
44 54 69
44 55 72
51 64 83
48 59 76
51 63 82
49 61 79
46 57 75
47 58 76
50 62 81
47 59 75
51 64 83
50 62 78
47 59 77
46 57 74
48 61 79
49 61 79
47 60 78
50 63 81
47 59 78
47 59 76
48 60 77
49 60 77
49 61 79
43 54 70
48 60 77
46 58 75
50 61 77
49 61 80
43 53 69
52 64 84
47 58 74
46 57 74
47 59 77
47 59 77
45 56 72
48 60 79
55 67 86
49 61 79
41 52 68
48 61 79
49 61 79
50 62 81
51 63 82
47 58 74
46 58 75
48 61 80
46 57 74
47 58 75
46 57 74
43 53 69
43 54 69
50 63 83
46 58 76
47 58 76
42 53 69
46 57 74
42 52 68
50 61 79
52 65 84
48 59 77
47 59 77
48 60 77
48 61 80
44 55 71
48 60 77
51 64 83
48 59 76
43 54 71
51 63 82
44 56 73
42 52 67
45 57 74
47 59 76
53 66 86
49 61 80
51 64 83
42 54 71
49 61 80
50 63 82
53 66 85
51 63 83
52 64 83
47 59 76
46 57 74
49 61 80
49 62 81
46 59 77
46 57 75
51 62 80
50 63 82
48 60 78
46 59 77
47 59 77
48 61 79
50 64 83
55 69 89
47 59 78
54 69 91
49 61 80
43 54 71
50 63 81
46 58 76
51 64 83
45 55 71
53 66 86
50 62 81
51 64 83
63 79 101
124 151 190
166 200 251
169 204 255
169 204 255
169 204 255
169 204 255
169 204 255
169 204 255
169 204 255
169 204 255
169 203 255
169 203 255
169 203 255
169 203 255
168 203 255
168 203 255
168 203 255
168 203 255
168 203 255
168 203 255
168 203 255
168 203 255
168 203 255
168 203 255
168 203 255
168 203 255
167 203 255
167 203 255
167 203 255
167 203 255
167 202 255
167 202 255
167 202 255
167 202 255
167 202 255
167 202 255
167 202 255
167 202 255
167 202 255
166 202 255
166 202 255
166 202 255
166 202 255
166 202 255
166 202 255
166 202 255
166 202 255
166 202 255
166 202 255
166 202 255
166 202 255
166 202 255
166 202 255
166 202 255
161 196 249
95 117 150
55 69 90
55 69 91
54 68 89
51 63 82
51 64 84
55 69 89
57 71 91
51 65 85
47 60 79
54 68 89
55 69 89
50 63 81
50 62 81
54 69 90
51 63 81
56 70 91
49 61 80
50 62 80
48 60 78
52 63 80
55 69 90
54 67 87
51 64 83
48 60 77
47 59 76
47 59 77
47 59 78
50 62 81
55 67 87
52 65 83
51 64 82
49 62 80
54 68 89
45 56 73
50 62 80
50 62 80
56 69 90
53 66 86
55 68 87
51 64 83
55 68 88
51 64 84
53 66 85
47 58 75
52 65 83
54 65 83
46 57 73
57 71 91
48 60 78
52 64 83
57 70 91
52 65 84
56 69 89
49 61 79
53 66 86
51 64 84
50 63 82
53 65 84
51 64 83
52 65 84
54 67 86
54 67 87
47 59 77
53 66 85
50 63 83
50 62 81
52 65 85
54 67 87
49 61 79
49 61 79
52 66 86
53 67 88
51 64 84
52 66 85
108 132 169
163 199 252
165 201 255
166 202 255
166 202 255
166 202 255
166 202 255
166 202 255
166 202 255
166 202 255
166 202 255
166 202 255
166 202 255
166 202 255
166 202 255
166 202 255
166 202 255
167 202 255
167 202 255
167 202 255
167 202 255
167 202 255
167 202 255
167 202 255
167 202 255
167 202 255
167 203 255
167 203 255
167 203 255
167 203 255
168 203 255
168 203 255
168 203 255
168 203 255
168 203 255
168 203 255
168 203 255
168 203 255
168 203 255
168 203 255
168 203 255
168 203 255
169 203 255
169 203 255
169 203 255
169 203 255
169 204 255
169 204 255
169 204 255
169 204 255
169 204 255
169 204 255
169 204 255
169 204 255
167 201 252
109 133 168
72 88 114
55 68 88
51 64 84
48 60 78
52 65 85
51 64 83
47 59 77
47 59 78
44 55 73
47 60 79
48 61 81
50 62 81
54 68 87
50 63 81
49 62 81
51 64 83
49 62 81
48 60 77
49 61 79
51 65 85
49 61 79
50 63 82
44 56 73
47 59 77
50 63 82
45 56 73
46 57 75
43 55 73
48 60 79
45 57 74
50 62 81
44 55 72
46 58 75
44 55 72
42 52 69
42 53 69
46 58 75
50 62 81
48 60 78
47 58 76
53 66 86
45 57 75
43 54 70
49 61 79
44 55 71
43 55 73
46 58 75
52 64 82
47 59 77
45 56 73
48 60 78
42 52 66
47 58 75
49 62 82
46 57 75
47 59 77
45 56 72
50 63 82
52 65 83
50 62 79
47 58 76
47 59 77
46 57 74
48 61 80
50 61 79
46 58 76
45 56 73
45 56 73
45 57 75
48 61 80
44 55 71
47 58 75
43 54 71
43 53 69
49 62 81
48 61 79
49 61 79
50 62 81
47 59 76
49 62 80
40 50 65
43 53 69
45 55 72
51 63 81
47 58 76
48 61 79
41 51 67
45 57 75
47 58 75
44 55 72
52 64 82
48 60 77
46 56 73
47 59 77
44 55 71
46 58 76
49 61 79
47 59 77
49 60 77
51 63 82
50 61 79
47 58 74
45 56 72
48 59 77
54 66 86
47 60 79
50 61 79
50 61 78
45 56 72
46 59 77
49 62 81
49 60 78
44 55 72
48 59 76
49 61 78
47 58 75
45 57 75
43 53 69
49 60 77
52 65 84
54 67 85
49 61 79
49 62 80
45 57 73
49 61 79
49 62 81
44 56 73
48 60 78
49 61 78
44 55 72
51 64 83
46 57 74
49 61 78
46 57 74
49 61 78
47 59 76
48 60 79
48 60 79
47 58 75
47 58 75
45 56 74
44 56 73
46 57 74
49 61 79
50 62 79
47 59 76
51 64 83
45 57 74
43 55 72
45 56 72
52 65 85
46 58 76
45 56 72
52 65 83
45 57 74
46 57 75
53 66 85
44 55 71
51 64 84
48 60 79
47 59 76
43 53 70
52 66 86
50 62 81
43 54 71
48 60 78
43 54 71
51 64 84
46 57 74
48 60 78
50 62 80
44 54 70
45 57 74
47 59 77
50 61 78
49 62 80
45 57 75
43 54 69
42 53 69
44 55 72
49 61 80
49 61 79
45 57 75
45 57 74
45 57 74
48 60 78
49 61 79
50 63 83
47 59 77
51 63 83
44 56 74
52 65 85
47 60 80
51 64 84
48 60 78
50 63 82
50 62 80
45 57 75
54 67 86
50 62 81
44 55 72
47 59 77
49 61 80
51 63 82
48 60 77
51 64 83
51 65 84
47 58 74
48 60 79
46 58 76
52 66 86
52 65 84
43 55 72
56 69 89
51 64 84
54 68 87
111 135 171
166 200 250
170 204 255
170 204 255
170 204 255
169 204 255
169 204 255
169 204 255
169 204 255
169 204 255
169 204 255
169 204 255
169 203 255
169 203 255
169 203 255
169 203 255
168 203 255
168 203 255
168 203 255
168 203 255
168 203 255
168 203 255
168 203 255
168 203 255
168 203 255
168 203 255
168 203 255
168 203 255
168 203 255
167 203 255
167 203 255
167 203 255
167 203 255
167 202 255
167 202 255
167 202 255
167 202 255
167 202 255
167 202 255
167 202 255
167 202 255
167 202 255
166 202 255
166 202 255
166 202 255
166 202 255
166 202 255
166 202 255
166 202 255
166 202 255
166 202 255
154 188 239
82 101 129
50 63 82
49 60 78
52 65 84
50 63 82
54 68 90
48 60 79
53 66 85
49 62 81
50 63 83
51 64 84
47 60 78
53 65 85
51 64 84
52 65 84
54 67 88
54 67 87
49 62 82
48 60 78
57 71 92
49 60 77
50 63 83
56 69 90
55 68 88
52 66 87
47 59 77
52 65 85
52 64 82
52 65 84
55 69 89
55 68 88
51 64 84
52 64 84
53 67 87
54 66 83
56 70 91
53 66 86
51 64 82
49 61 80
50 61 79
60 74 95
52 64 84
52 65 84
47 58 75
50 62 80
50 63 81
51 63 81
48 60 78
57 70 89
47 59 76
52 65 84
49 62 80
52 64 83
52 65 85
52 65 84
50 63 83
48 61 80
49 61 78
56 69 90
51 63 82
44 56 73
51 65 85
51 64 83
47 58 76
48 60 79
54 68 88
48 60 77
55 68 88
49 61 80
53 66 86
52 65 85
52 65 84
56 69 90
50 61 79
53 67 88
46 58 76
50 62 80
77 95 122
151 184 234
166 202 255
166 202 255
166 202 255
166 202 255
166 202 255
166 202 255
166 202 255
166 202 255
166 202 255
167 202 255
167 202 255
167 202 255
167 202 255
167 202 255
167 202 255
167 202 255
167 202 255
167 202 255
167 203 255
167 203 255
167 203 255
167 203 255
168 203 255
168 203 255
168 203 255
168 203 255
168 203 255
168 203 255
168 203 255
168 203 255
168 203 255
168 203 255
168 203 255
168 203 255
168 203 255
169 203 255
169 203 255
169 203 255
169 203 255
169 204 255
169 204 255
169 204 255
169 204 255
169 204 255
169 204 255
169 204 255
169 204 255
170 204 255
170 204 255
162 194 244
113 137 174
67 82 105
53 66 86
47 60 78
53 67 88
51 65 85
51 64 83
48 61 82
51 64 83
48 59 77
49 62 81
47 60 78
51 63 81
45 57 74
49 62 81
48 60 77
50 64 84
47 59 78
51 64 84
51 64 84
45 57 74
52 66 87
46 58 76
47 59 77
47 59 77
46 58 76
44 55 72
46 57 73
47 58 76
46 58 76
41 52 67
45 57 75
45 57 73
46 58 76
43 55 71
45 57 75
44 55 71
47 59 78
46 58 75
47 59 76
47 58 75
44 56 74
47 59 77
53 66 85
47 58 75
46 57 74
49 62 81
47 59 76
43 55 73
46 57 73
40 50 65
49 59 75
49 60 77
46 57 74
44 55 72
50 64 84
42 52 67
47 58 75
51 64 83
42 53 70
46 58 76
51 64 83
47 58 75
42 53 69
44 54 71
46 57 74
46 57 75
44 56 73
50 63 81
44 55 71
44 56 73
48 60 78
46 57 74
46 57 75
42 53 69
46 58 74
47 59 77
47 60 78
49 60 77
45 57 74
46 58 75
46 56 73
46 57 74
44 55 71
45 56 74
47 58 76
48 60 78
45 56 74
47 58 75
54 67 86
43 55 72
50 62 80
47 60 78
44 54 70
42 54 72
44 54 69
51 63 83
50 62 81
50 63 82
48 60 77
46 58 75
49 61 78
49 61 79
48 59 77
48 59 76
45 57 74
46 58 75
48 59 76
43 53 69
42 52 69
48 60 79
46 57 74
50 63 83
51 62 79
50 63 83
42 53 70
42 53 69
47 58 74
45 56 72
47 59 77
46 57 75
50 62 80
44 55 72
48 60 78
48 61 79
46 58 75
46 57 73
46 58 76
42 53 69
43 54 71
50 62 80
47 60 78
50 62 81
45 56 73
48 61 81
46 57 75
42 53 70
47 59 76
47 60 79
50 62 81
48 60 78
46 59 79
46 58 76
42 54 71
52 65 84
48 59 76
50 61 79
44 55 72
51 63 81
46 57 74
44 55 72
44 56 73
50 63 82
50 62 81
42 53 69
47 60 78
50 62 80
44 55 72
47 59 77
47 58 75
45 56 72
51 65 85
49 60 77
45 56 73
49 60 78
46 57 75
44 55 71
43 54 71
48 60 78
42 53 69
52 65 84
43 55 72
43 55 72
48 60 79
50 63 82
44 55 72
50 62 81
42 53 69
45 57 74
46 58 75
45 56 73
45 56 74
43 54 71
49 62 80
43 54 71
45 57 74
45 57 74
45 57 75
43 54 71
51 64 83
46 58 77
43 55 72
44 55 71
46 58 76
52 65 83
48 61 81
44 55 71
50 62 81
47 59 76
52 66 86
44 56 73
42 53 69
45 57 74
49 61 78
46 57 74
50 63 82
47 59 77
43 54 71
48 60 79
48 60 78
53 66 86
44 56 74
49 61 79
53 66 85
49 60 78
48 60 78
51 64 84
50 62 81
51 64 83
45 58 76
65 80 103
112 135 171
161 194 243
170 204 255
170 204 255
170 204 255
170 204 255
170 204 255
169 204 255
169 204 255
169 204 255
169 204 255
169 204 255
169 204 255
169 204 255
169 204 255
169 203 255
169 203 255
169 203 255
169 203 255
168 203 255
168 203 255
168 203 255
168 203 255
168 203 255
168 203 255
168 203 255
168 203 255
168 203 255
168 203 255
168 203 255
168 203 255
168 203 255
167 203 255
167 203 255
167 203 255
167 203 255
167 203 255
167 202 255
167 202 255
167 202 255
167 202 255
167 202 255
167 202 255
167 202 255
167 202 255
167 202 255
167 202 255
166 202 255
135 165 209
59 74 96
52 65 85
49 62 82
48 60 78
45 57 75
50 63 82
49 62 82
47 59 76
51 63 81
51 63 82
47 60 79
52 65 84
51 63 82
53 66 85
52 65 85
53 66 86
52 65 84
50 62 80
52 64 83
47 60 79
51 63 81
48 60 77
47 58 76
47 60 78
51 63 82
51 63 83
50 62 81
54 68 89
49 60 78
49 62 80
51 64 84
50 62 81
53 66 85
52 66 86
50 62 80
49 61 79
49 61 78
55 68 88
51 64 83
48 59 76
53 66 85
48 60 78
51 62 80
50 62 80
51 63 82
51 64 83
58 71 92
55 68 87
53 66 86
49 60 78
45 57 75
51 63 81
47 60 79
51 64 84
55 68 88
51 64 84
53 66 85
57 71 92
48 59 77
58 71 91
51 64 83
54 66 84
52 65 84
49 61 79
56 70 92
47 58 74
56 70 90
53 65 85
51 64 83
51 63 82
50 62 80
51 64 83
54 67 88
55 68 88
53 67 87
52 65 86
54 68 89
49 62 82
46 58 76
52 64 83
130 159 202
166 202 255
167 202 255
167 202 255
167 202 255
167 202 255
167 202 255
167 202 255
167 202 255
167 202 255
167 202 255
167 202 255
167 202 255
167 203 255
167 203 255
167 203 255
167 203 255
168 203 255
168 203 255
168 203 255
168 203 255
168 203 255
168 203 255
168 203 255
168 203 255
168 203 255
168 203 255
168 203 255
168 203 255
168 203 255
169 203 255
169 203 255
169 203 255
169 203 255
169 204 255
169 204 255
169 204 255
169 204 255
169 204 255
169 204 255
169 204 255
169 204 255
170 204 255
170 204 255
170 204 255
170 204 255
170 204 255
163 196 246
110 134 170
66 81 104
56 69 90
52 65 86
52 66 87
55 69 89
51 63 82
52 65 84
52 66 87
53 66 85
50 62 80
55 69 90
50 64 84
48 59 77
48 60 79
47 58 75
45 57 76
46 58 76
48 60 78
49 61 79
42 52 67
49 60 78
49 60 77
44 56 74
51 64 84
49 62 81
48 59 76
49 61 80
42 53 70
44 55 71
48 60 79
49 60 78
46 58 75
48 60 77
44 55 71
48 60 78
49 61 79
49 61 79
46 58 76
45 57 75
46 57 75
49 62 81
48 60 78
46 56 72
43 55 72
44 56 73
45 57 75
46 58 75
46 57 74
46 58 75
47 59 77
44 54 69
45 57 74
46 57 73
48 61 79
45 57 74
46 58 75
49 61 80
43 54 70
39 50 65
44 55 71
47 58 75
45 56 72
46 57 73
43 54 70
55 69 90
50 62 80
47 59 77
45 56 72
42 53 69
44 56 74
43 53 69
50 62 81
40 51 66
45 56 73
43 54 70
47 58 76
50 63 82
51 62 80
45 56 74
42 52 68
46 58 75
50 62 80
46 57 74
45 56 73
44 55 71
44 54 70
46 57 73
40 51 66
46 58 75
42 52 67
48 60 78
48 60 79
44 55 71
45 56 72
46 58 75
45 56 73
47 59 77
46 57 74
48 60 78
43 54 70
49 62 81
48 60 77
47 59 77
47 58 76
43 54 71
49 60 78
48 60 78
43 53 68
46 58 74
48 60 76
45 55 71
47 59 78
45 57 74
51 63 80
47 59 76
48 60 77
50 62 80
46 57 74
45 56 73
46 57 73
47 59 77
50 62 80
48 61 80
44 56 72
45 56 73
50 62 80
46 58 75
44 55 73
49 61 79
49 62 80
48 60 78
43 54 70
46 58 75
52 65 85
47 59 77
49 61 79
48 59 75
48 60 77
47 58 76
48 59 76
45 56 73
47 60 79
51 63 81
44 56 72
46 57 74
46 57 73
49 61 78
45 56 73
48 59 76
48 59 77
45 56 72
52 65 84
46 58 76
52 65 84
49 62 80
41 51 67
45 56 72
49 61 79
47 59 77
46 58 76
51 64 84
46 58 77
45 55 71
48 60 79
46 58 75
46 58 75
49 61 80
44 56 74
45 55 71
48 60 78
46 58 77
46 58 76
50 62 80
47 59 77
50 63 82
47 59 78
46 58 75
45 56 72
50 63 82
50 63 81
46 57 74
50 64 83
45 57 74
44 54 70
43 53 70
45 57 74
42 52 68
43 54 69
46 58 76
45 57 73
47 59 77
42 52 67
46 59 77
46 57 74
47 58 76
42 54 70
48 60 78
42 53 71
43 54 69
45 57 75
46 58 76
41 51 66
47 59 77
47 58 76
52 65 85
50 63 82
51 64 83
49 61 79
45 57 74
43 54 71
49 62 81
48 60 79
51 65 84
42 54 71
47 60 78
47 59 76
47 59 77
50 63 82
49 62 81
49 62 82
54 68 90
49 61 79
48 59 77
63 78 101
121 146 185
168 202 252
170 204 255
170 204 255
170 204 255
170 204 255
170 204 255
170 204 255
170 204 255
170 204 255
169 204 255
169 204 255
169 204 255
169 204 255
169 204 255
169 204 255
169 204 255
169 204 255
169 203 255
169 203 255
169 203 255
169 203 255
168 203 255
168 203 255
168 203 255
168 203 255
168 203 255
168 203 255
168 203 255
168 203 255
168 203 255
168 203 255
168 203 255
168 203 255
168 203 255
168 203 255
167 203 255
167 203 255
167 203 255
167 203 255
167 203 255
167 202 255
167 202 255
167 202 255
167 202 255
117 143 181
54 68 89
53 66 86
52 65 85
53 65 84
50 62 82
53 66 86
56 70 92
48 59 77
52 64 82
51 65 86
48 59 76
53 67 88
49 62 80
50 63 83
49 61 78
49 61 80
52 65 85
45 56 74
50 62 81
55 69 90
50 63 81
50 62 80
52 64 82
48 59 76
57 70 89
49 61 79
49 61 80
49 61 79
52 64 83
53 65 84
51 62 80
51 64 83
51 63 81
55 69 89
48 61 79
48 61 79
51 63 81
52 65 86
50 62 81
54 68 88
55 68 88
49 61 79
58 72 92
50 62 80
53 65 83
48 60 78
48 60 78
55 68 88
51 65 84
50 63 81
54 67 87
53 65 84
47 59 77
49 61 79
54 67 86
52 65 84
51 63 82
51 63 82
53 67 87
49 61 78
50 64 84
52 64 83
47 59 77
54 67 88
48 60 78
47 59 76
53 66 86
50 62 79
49 60 78
49 62 80
52 65 86
46 58 77
49 61 80
52 64 83
54 68 89
53 67 88
52 66 86
52 65 84
52 65 85
50 63 81
52 65 84
55 68 88
116 142 181
167 202 255
167 202 255
167 202 255
167 202 255
167 203 255
167 203 255
167 203 255
167 203 255
167 203 255
168 203 255
168 203 255
168 203 255
168 203 255
168 203 255
168 203 255
168 203 255
168 203 255
168 203 255
168 203 255
168 203 255
168 203 255
168 203 255
168 203 255
169 203 255
169 203 255
169 203 255
169 203 255
169 204 255
169 204 255
169 204 255
169 204 255
169 204 255
169 204 255
169 204 255
169 204 255
169 204 255
170 204 255
170 204 255
170 204 255
170 204 255
170 204 255
170 204 255
170 204 255
169 203 254
119 144 181
61 75 97
52 65 85
52 65 84
55 69 89
52 66 87
47 59 77
45 57 75
50 63 83
48 60 77
48 61 80
52 65 84
50 63 81
53 67 87
50 63 82
48 60 79
49 61 80
49 61 81
50 62 80
48 61 80
51 64 82
45 57 75
48 61 81
49 62 81
49 62 81
50 63 83
44 56 73
40 50 66
44 54 70
45 57 74
45 56 73
42 52 68
48 60 78
42 52 67
46 57 74
46 58 76
45 57 76
44 54 70
43 54 72
41 52 68
45 57 74
47 59 76
44 54 70
45 57 75
46 58 75
48 60 78
49 61 80
42 53 70
41 52 69
45 57 74
44 55 72
45 57 74
48 61 79
38 48 63
49 60 78
47 58 75
43 55 72
42 53 69
46 57 74
47 59 77
41 51 66
48 60 79
49 60 77
40 51 66
40 50 65
47 58 76
53 65 84
46 58 75
43 54 71
46 58 76
52 64 83
41 51 67
47 59 77
45 56 73
47 58 75
48 61 79
47 59 77
44 54 70
45 56 73
45 56 72
45 58 76
45 57 74
46 57 74
44 54 70
46 58 75
48 61 80
49 61 79
48 60 78
36 46 60
46 57 73
46 58 75
44 54 69
49 61 79
39 49 64
45 56 73
47 58 76
42 53 69
47 58 75
47 60 78
43 53 69
42 52 68
45 57 74
48 60 78
46 57 74
47 58 76
50 62 79
48 60 78
43 53 69
51 64 84
47 59 77
46 57 74
50 63 81
47 59 75
47 58 75
47 59 77
50 62 80
46 58 76
48 60 78
47 58 75
41 52 68
45 57 75
43 54 71
50 63 81
49 60 77
40 50 66
48 60 77
46 57 73
46 57 73
50 62 80
53 65 84
52 65 84
46 57 74
49 61 80
42 53 69
41 52 68
44 55 72
49 61 80
49 61 79
50 63 81
48 60 78
49 61 78
47 59 77
48 60 78
48 59 77
46 56 73
42 53 68
51 63 81
44 56 74
51 64 83
44 55 72
47 59 77
45 57 74
47 59 76
47 58 76
43 53 69
49 60 77
46 57 74
47 59 77
45 57 74
50 63 82
42 52 67
40 49 64
48 61 80
51 64 83
41 52 69
46 58 76
47 58 76
42 53 69
45 57 74
42 53 69
49 61 80
40 50 66
47 60 78
52 65 84
50 62 79
44 56 73
45 56 72
46 57 74
41 51 67
43 54 71
47 59 76
49 61 79
45 57 75
49 60 77
45 57 75
46 59 78
44 55 72
47 59 76
48 60 79
47 60 78
44 55 72
42 53 70
46 58 75
54 68 88
43 53 68
49 61 78
50 62 80
45 56 72
43 54 70
44 55 73
44 56 73
39 50 66
48 61 80
49 61 80
49 62 81
45 57 75
46 58 76
47 60 79
38 48 64
45 57 74
48 60 78
50 63 83
47 59 77
43 54 71
49 62 80
45 56 73
47 59 76
43 54 71
49 62 81
43 55 74
50 64 84
45 56 73
49 61 78
45 57 75
48 60 79
50 62 80
52 65 85
51 64 84
71 87 111
141 170 213
170 204 255
170 204 255
170 204 255
170 204 255
170 204 255
170 204 255
170 204 255
170 204 255
170 204 255
170 204 255
170 204 255
170 204 255
169 204 255
169 204 255
169 204 255
169 204 255
169 204 255
169 204 255
169 204 255
169 204 255
169 203 255
169 203 255
169 203 255
169 203 255
169 203 255
168 203 255
168 203 255
168 203 255
168 203 255
168 203 255
168 203 255
168 203 255
168 203 255
168 203 255
168 203 255
168 203 255
168 203 255
168 203 255
168 203 255
167 203 255
167 203 255
93 114 147
49 60 78
50 63 82
55 69 89
52 65 85
50 62 80
49 61 78
44 55 72
52 64 82
49 61 79
47 60 78
47 59 76
47 59 76
50 63 81
50 61 79
53 66 86
55 69 89
48 61 80
50 63 81
56 70 90
49 62 83
50 62 80
54 67 85
49 62 80
54 68 88
49 61 80
49 61 79
56 68 88
52 65 86
48 60 77
50 63 81
54 67 86
49 63 83
50 62 80
48 60 79
49 61 80
49 61 79
52 65 84
51 65 85
53 65 84
48 60 77
52 64 83
47 59 78
54 66 84
52 65 83
52 65 84
53 66 85
49 60 77
50 62 80
55 68 88
51 63 82
53 66 86
48 60 77
54 66 86
57 71 92
45 57 74
45 56 73
52 65 84
47 59 76
44 55 72
52 65 85
52 65 84
48 60 78
47 58 75
49 61 78
53 66 85
54 68 89
47 60 78
49 62 80
54 67 88
49 61 80
55 69 89
48 59 76
51 64 84
51 63 82
49 61 77
45 58 76
51 63 82
49 61 79
48 59 76
52 66 86
47 60 80
50 63 83
48 60 80
50 63 82
102 125 159
163 198 249
167 203 255
168 203 255
168 203 255
168 203 255
168 203 255
168 203 255
168 203 255
168 203 255
168 203 255
168 203 255
168 203 255
168 203 255
168 203 255
168 203 255
168 203 255
169 203 255
169 203 255
169 203 255
169 203 255
169 203 255
169 204 255
169 204 255
169 204 255
169 204 255
169 204 255
169 204 255
169 204 255
169 204 255
170 204 255
170 204 255
170 204 255
170 204 255
170 204 255
170 204 255
170 204 255
170 204 255
170 204 255
170 204 255
170 204 255
170 204 255
131 158 199
66 83 107
55 69 90
52 65 86
50 63 81
48 60 78
49 61 80
51 64 84
47 59 78
51 63 82
47 60 79
47 59 78
51 64 84
46 58 76
44 56 74
50 64 84
50 64 84
49 61 80
49 61 79
46 59 77
50 63 82
49 61 80
50 62 81
45 57 74
46 58 77
48 60 78
43 54 70
47 60 79
45 57 74
46 57 74
48 61 80
47 59 76
48 59 76
50 63 82
44 55 72
49 62 81
45 57 74
42 52 68
49 61 79
46 58 75
44 55 72
43 54 70
43 55 73
48 60 77
50 62 81
52 64 83
49 61 80
49 61 79
44 55 72
49 61 80
48 60 78
47 58 76
44 55 72
39 49 64
41 52 68
44 55 71
46 57 74
50 63 82
45 56 73
47 59 76
44 56 73
49 62 81
43 54 71
46 58 75
46 57 74
46 57 74
45 57 75
43 53 69
44 55 72
45 56 72
39 49 64
43 53 69
43 54 70
44 55 71
41 52 67
44 55 72
45 56 73
48 59 77
44 55 71
46 58 75
47 58 74
51 64 83
47 59 77
45 56 72
49 61 80
45 57 75
47 59 76
43 54 71
47 58 74
47 59 76
44 54 70
47 59 76
47 59 76
47 59 78
48 59 76
45 56 73
43 54 70
47 59 77
45 56 74
47 58 75
45 56 72
43 53 69
49 61 80
49 61 78
46 58 76
46 56 72
51 63 81
50 63 82
44 55 71
45 57 76
45 55 71
48 59 76
47 60 78
48 59 75
41 52 68
48 58 75
42 53 69
47 58 73
49 61 80
46 57 75
49 60 78
52 65 84
42 51 66
47 58 76
47 58 75
49 62 81
50 62 80
49 61 81
43 53 69
48 59 77
44 55 71
47 59 77
50 63 81
46 58 76
48 60 77
43 53 68
48 59 76
53 66 85
49 62 81
48 59 75
47 59 76
43 55 71
43 55 72
47 58 74
47 58 75
50 63 83
43 53 70
46 56 72
51 63 80
43 54 71
47 58 75
50 62 81
46 58 77
46 56 72
51 64 84
48 60 79
45 56 72
44 56 74
52 65 83
52 64 83
43 53 69
46 57 73
38 48 62
48 60 79
47 58 75
48 60 79
45 56 73
47 59 76
44 55 72
46 58 74
42 52 68
48 61 79
43 54 71
48 60 78
43 55 73
42 53 69
43 53 69
44 54 70
42 52 68
47 59 77
43 53 70
46 58 75
46 58 76
45 56 74
50 63 81
44 55 73
48 59 77
43 55 72
44 55 71
49 61 81
44 54 69
46 58 76
48 59 77
50 62 81
41 51 66
48 60 78
50 63 82
50 63 82
38 48 63
49 61 79
52 66 86
47 60 78
48 60 77
47 60 78
44 55 72
44 56 73
47 59 77
49 61 78
45 56 73
43 54 70
43 54 70
50 62 81
42 54 71
47 59 78
46 58 76
49 62 81
51 64 83
49 61 80
50 63 82
47 59 76
46 58 76
47 58 76
46 58 76
48 60 78
52 66 87
49 62 81
48 61 81
48 60 79
47 59 78
52 66 86
53 67 87
53 66 86
92 112 143
149 180 225
171 205 255
171 205 255
170 204 255
170 204 255
170 204 255
170 204 255
170 204 255
170 204 255
170 204 255
170 204 255
170 204 255
170 204 255
170 204 255
170 204 255
169 204 255
169 204 255
169 204 255
169 204 255
169 204 255
169 204 255
169 204 255
169 204 255
169 204 255
169 204 255
169 203 255
169 203 255
169 203 255
169 203 255
169 203 255
168 203 255
168 203 255
168 203 255
168 203 255
168 203 255
168 203 255
168 203 255
168 203 255
166 201 253
74 92 118
50 63 82
52 65 85
52 66 86
48 61 79
46 58 76
48 60 78
51 64 84
51 64 83
47 59 76
45 58 76
52 65 84
47 58 75
49 62 81
47 58 76
52 64 83
50 62 80
51 63 82
50 62 81
50 62 80
51 63 81
47 59 77
54 68 88
48 59 76
56 69 89
56 69 89
47 59 77
51 64 83
47 59 76
53 66 87
47 59 78
47 58 76
50 61 79
48 60 79
51 63 80
55 70 91
54 67 87
50 63 81
47 59 76
46 57 73
50 63 82
47 59 76
49 61 78
46 58 75
53 66 86
48 59 76
47 58 74
45 57 74
48 59 76
46 58 76
51 63 82
54 67 86
45 57 73
53 66 85
53 66 84
49 62 81
51 64 84
47 59 77
48 60 78
52 65 85
47 59 77
51 64 82
52 65 83
52 65 84
48 59 76
53 65 83
53 66 86
50 62 79
51 63 81
50 63 82
50 63 81
50 64 84
50 62 80
52 65 84
42 53 70
47 59 78
51 64 83
51 64 82
51 64 83
52 65 85
52 65 84
46 58 77
51 63 81
52 65 84
50 63 84
46 58 77
46 58 77
83 102 131
165 199 251
168 203 255
168 203 255
168 203 255
168 203 255
168 203 255
168 203 255
168 203 255
168 203 255
168 203 255
169 203 255
169 203 255
169 203 255
169 203 255
169 203 255
169 204 255
169 204 255
169 204 255
169 204 255
169 204 255
169 204 255
169 204 255
169 204 255
170 204 255
170 204 255
170 204 255
170 204 255
170 204 255
170 204 255
170 204 255
170 204 255
170 204 255
170 204 255
170 204 255
170 204 255
170 204 255
171 205 255
171 205 255
153 184 230
90 110 140
52 65 85
49 62 80
53 66 86
45 57 75
50 64 84
48 61 80
54 68 89
48 61 80
51 65 86
51 64 83
46 58 76
52 64 84
48 59 77
47 58 76
51 64 84
50 63 83
47 58 76
53 67 87
51 64 83
49 61 80
52 65 84
46 58 76
41 52 68
47 60 78
47 59 78
45 56 73
46 57 75
47 59 77
50 61 78
41 52 69
47 59 77
45 56 73
40 50 66
52 65 85
43 54 71
48 60 78
44 54 70
41 51 67
41 52 67
43 54 70
44 55 72
43 54 70
46 58 75
49 62 81
41 52 67
43 54 71
43 53 69
50 62 80
45 57 74
46 57 74
42 53 69
38 47 61
47 58 75
50 62 80
44 55 71
45 56 74
41 51 67
44 55 72
44 56 74
43 54 70
47 58 75
40 51 66
44 55 71
50 62 80
46 57 74
42 52 68
47 60 79
41 52 69
45 57 76
45 56 74
46 56 72
49 61 79
48 59 76
45 57 74
44 56 73
49 61 79
49 62 80
43 53 69
43 53 70
45 55 71
46 57 74
46 57 74
39 49 64
38 48 64
44 55 71
45 57 74
40 50 65
44 55 71
45 56 73
45 55 71
48 59 75
46 57 74
47 58 74
42 53 68
45 56 73
46 57 74
46 58 76
45 56 72
48 60 78
44 54 70
41 51 65
47 58 75
42 53 69
46 57 74
46 58 75
47 60 78
48 61 79
49 61 79
41 52 67
52 65 84
45 55 70
44 56 73
43 54 71
46 57 74
44 54 70
46 57 74
45 56 73
46 57 74
45 56 72
45 56 72
49 60 77
49 60 77
48 61 79
51 62 79
47 59 76
56 69 89
43 53 69
45 56 72
51 62 80
49 61 79
43 53 69
49 60 77
47 59 77
48 60 79
47 59 76
45 56 73
45 56 72
44 55 72
43 53 69
46 58 75
44 55 72
48 59 76
50 62 80
45 56 74
48 60 78
50 62 80
44 56 72
41 51 66
46 58 75
42 53 69
50 63 83
47 59 76
38 48 62
43 54 71
44 55 71
42 52 66
45 56 73
43 54 72
44 55 71
46 57 74
43 54 70
45 56 72
47 58 75
47 58 75
44 55 71
48 60 78
42 52 67
45 55 71
44 55 70
52 65 84
45 56 72
42 53 68
42 53 70
41 51 66
46 58 77
44 55 71
52 65 84
42 52 68
50 62 80
45 57 74
49 61 79
47 58 76
41 51 67
40 51 66
46 58 76
43 54 70
47 59 77
45 57 75
54 67 87
50 62 81
47 59 78
47 58 75
47 60 78
44 55 71
45 57 74
47 58 76
45 57 75
46 58 76
39 48 62
46 58 75
49 62 80
45 57 74
47 59 78
50 63 82
45 57 74
48 60 78
43 54 71
45 57 75
46 57 75
50 62 81
47 58 74
48 60 78
44 56 74
43 55 73
42 53 69
39 49 64
43 55 72
49 61 79
49 61 80
47 59 78
45 57 75
48 61 79
41 52 68
49 60 78
49 62 81
47 59 77
52 65 86
44 55 72
45 57 74
51 64 84
47 60 80
48 61 80
53 66 87
57 71 91
115 140 177
171 205 255
171 205 255
171 205 255
171 205 255
171 205 255
171 205 255
170 204 255
170 204 255
170 204 255
170 204 255
170 204 255
170 204 255
170 204 255
170 204 255
170 204 255
170 204 255
170 204 255
170 204 255
170 204 255
169 204 255
169 204 255
169 204 255
169 204 255
169 204 255
169 204 255
169 204 255
169 204 255
169 204 255
169 204 255
169 203 255
169 203 255
169 203 255
169 203 255
169 203 255
168 203 255
165 200 251
67 84 109
48 60 78
51 64 84
55 68 86
54 67 86
54 67 87
53 66 85
49 61 79
50 62 80
47 59 77
48 61 79
50 63 81
45 57 75
51 64 83
50 63 82
54 68 88
50 62 80
54 67 87
44 56 73
49 61 79
47 59 77
49 61 79
51 63 81
48 60 77
47 59 76
56 70 91
51 63 80
50 62 81
49 62 81
51 63 82
51 63 82
50 63 82
54 67 86
47 58 76
49 60 77
48 60 79
48 61 79
49 61 81
54 67 87
53 66 86
53 66 85
48 59 75
55 69 90
45 57 75
47 59 77
50 62 81
48 60 78
51 64 84
41 51 67
51 64 82
49 61 79
53 66 85
52 64 83
52 65 84
50 63 82
49 61 78
48 60 78
47 59 76
49 60 77
51 64 83
50 63 82
48 61 80
51 63 82
51 64 84
49 60 78
55 68 88
47 58 75
48 61 80
48 60 78
51 63 82
48 59 77
51 63 81
49 62 81
52 65 84
49 61 79
45 57 74
49 61 78
55 69 88
54 68 88
49 62 81
54 67 87
51 64 84
45 57 74
52 65 84
48 60 79
53 67 87
49 62 80
48 60 78
43 55 72
86 106 136
154 186 234
168 203 255
169 203 255
169 203 255
169 203 255
169 203 255
169 203 255
169 204 255
169 204 255
169 204 255
169 204 255
169 204 255
169 204 255
169 204 255
169 204 255
169 204 255
169 204 255
170 204 255
170 204 255
170 204 255
170 204 255
170 204 255
170 204 255
170 204 255
170 204 255
170 204 255
170 204 255
170 204 255
170 204 255
170 204 255
171 205 255
171 205 255
171 205 255
171 205 255
171 205 255
171 205 255
116 140 177
54 68 89
52 64 84
51 65 85
50 63 81
45 57 74
51 64 83
49 61 79
47 61 80
46 58 76
46 59 78
48 60 78
48 60 79
50 62 80
54 69 91
46 58 77
50 63 82
43 55 72
49 61 79
45 57 75
46 58 77
49 61 79
46 58 77
44 56 74
47 59 77
45 56 73
46 59 78
47 58 76
49 62 81
46 58 76
46 59 77
45 56 73
45 56 72
46 58 75
44 55 72
43 54 71
44 56 74
46 57 75
48 60 78
49 61 79
48 62 82
45 57 75
43 53 69
48 60 78
45 56 73
41 51 67
46 58 76
43 54 72
50 62 81
47 59 75
44 56 73
44 55 71
45 57 75
40 50 66
39 50 65
44 55 72
50 63 81
43 54 72
45 57 74
44 56 73
43 54 69
50 63 83
46 57 74
48 59 77
45 57 74
39 48 63
41 51 66
43 55 71
42 53 69
44 55 71
44 56 73
48 60 77
41 51 66
45 57 73
45 56 72
46 57 75
41 51 66
38 48 63
49 62 80
43 54 70
48 60 77
41 52 67
45 56 73
47 58 75
48 60 79
43 54 71
45 57 75
43 54 71
41 51 66
40 50 65
43 54 70
48 60 78
41 50 64
48 60 78
47 58 75
45 56 72
41 51 66
46 56 72
43 54 71
47 58 74
47 59 76
47 59 76
45 55 72
45 56 72
51 63 82
39 48 62
46 56 73
44 55 71
44 55 70
47 59 75
44 54 70
47 59 76
47 59 78
46 58 75
49 60 78
47 59 76
44 54 70
50 62 81
43 53 69
49 61 79
49 61 79
45 55 70
50 62 81
49 61 79
48 59 77
45 56 72
51 63 81
53 65 84
45 57 74
47 59 76
42 53 68
44 54 69
47 59 78
45 56 72
47 57 74
52 65 85
49 61 80
45 57 73
53 66 85
46 58 75
48 60 78
46 57 74
44 54 69
50 62 80
46 57 73
44 55 71
48 60 76
40 51 66
48 59 76
47 59 76
47 59 77
41 52 68
46 58 75
46 58 75
52 64 82
47 58 76
44 55 71
46 57 73
47 59 76
45 56 74
47 59 76
51 63 81
47 60 78
46 58 75
50 63 82
49 61 79
49 61 79
46 57 74
45 56 73
47 59 77
42 53 70
47 58 76
46 58 74
49 60 78
45 56 73
39 49 64
46 57 74
50 62 81
48 60 78
43 53 69
41 51 67
46 58 75
48 59 77
47 60 78
42 53 69
44 56 72
51 63 82
43 54 71
46 58 76
46 58 75
45 56 72
43 55 72
49 61 79
48 60 78
44 55 72
43 54 69
46 57 74
42 52 66
50 62 82
46 57 75
42 53 68
49 62 80
51 65 84
43 54 72
50 63 83
47 59 78
53 67 87
41 51 67
46 57 75
44 55 71
43 54 70
47 59 77
46 59 79
44 55 72
47 59 77
46 58 76
46 58 75
47 60 79
44 55 72
47 59 77
47 59 77
43 54 71
42 52 68
42 53 69
44 55 72
47 59 77
46 58 75
47 59 78
41 51 67
47 58 76
47 59 76
48 62 82
54 68 89
45 57 75
49 61 79
48 61 80
47 60 79
44 55 71
66 82 105
146 175 218
171 205 255
171 205 255
171 205 255
171 205 255
171 205 255
171 205 255
171 205 255
171 205 255
171 205 255
170 204 255
170 204 255
170 204 255
170 204 255
170 204 255
170 204 255
170 204 255
170 204 255
170 204 255
170 204 255
170 204 255
170 204 255
170 204 255
170 204 255
169 204 255
169 204 255
169 204 255
169 204 255
169 204 255
169 204 255
169 204 255
169 204 255
169 204 255
162 195 245
81 100 128
46 58 77
46 58 76
46 58 75
48 61 79
51 64 83
47 58 76
53 66 87
49 62 82
44 55 72
52 64 82
46 58 77
54 68 88
52 64 84
49 61 79
52 65 84
52 64 82
50 61 78
52 66 86
47 59 76
52 64 83
51 63 82
44 55 71
48 60 77
50 62 79
49 62 81
49 61 79
46 58 76
52 65 85
50 61 79
50 62 81
44 55 72
54 67 86
52 64 83
51 64 83
51 64 82
48 60 78
52 65 83
55 68 88
54 66 84
49 61 79
51 64 84
50 62 80
52 65 85
44 55 71
50 62 80
52 65 84
51 63 80
51 65 85
52 65 83
45 57 74
47 60 78
48 59 77
46 57 74
51 63 81
48 59 77
49 62 80
49 62 80
50 62 81
51 63 81
47 59 77
47 59 76
51 63 82
46 57 73
50 63 82
46 57 74
52 65 83
47 58 74
50 63 81
51 63 83
50 62 81
49 61 79
48 60 78
45 57 75
52 65 84
48 60 78
48 59 76
48 60 78
45 57 73
45 56 74
50 61 78
57 70 90
42 54 71
50 64 83
50 63 82
48 60 79
45 56 73
47 58 76
50 63 82
43 54 71
49 61 79
73 90 116
160 193 242
169 204 255
169 204 255
169 204 255
169 204 255
169 204 255
169 204 255
169 204 255
169 204 255
169 204 255
170 204 255
170 204 255
170 204 255
170 204 255
170 204 255
170 204 255
170 204 255
170 204 255
170 204 255
170 204 255
170 204 255
170 204 255
170 204 255
170 204 255
171 205 255
171 205 255
171 205 255
171 205 255
171 205 255
171 205 255
171 205 255
171 205 255
171 205 255
135 162 203
68 85 109
52 66 87
49 62 80
52 65 85
49 62 82
47 59 77
47 60 79
51 64 84
48 60 79
47 60 78
50 63 82
50 62 81
42 53 69
46 58 76
51 65 86
50 62 81
47 60 78
44 55 73
50 63 83
47 59 76
49 61 79
45 57 75
49 61 78
47 60 79
43 54 71
49 61 80
41 52 68
45 58 76
50 62 80
47 59 77
46 57 74
48 60 78
46 59 77
42 52 68
46 58 76
45 56 73
46 57 74
39 49 63
45 56 73
41 52 68
45 57 74
43 54 71
46 56 72
41 50 65
42 53 69
45 57 75
43 54 70
47 58 76
43 55 72
48 60 78
43 54 70
46 57 75
46 58 75
46 59 78
43 55 72
40 50 65
42 52 66
45 56 74
51 64 83
46 57 74
37 46 61
46 58 76
42 52 68
39 48 63
42 53 69
46 58 76
42 53 69
45 56 73
41 51 67
45 57 74
41 51 66
43 53 68
43 53 68
44 55 71
52 64 81
44 54 69
43 53 69
44 56 73
42 52 68
43 54 70
44 55 71
44 56 74
44 55 71
45 55 71
46 58 75
44 54 70
43 53 69
45 57 75
43 55 71
47 59 76
45 58 76
47 58 74
48 61 79
39 48 63
41 51 66
49 61 78
44 55 71
46 57 73
40 51 67
43 54 70
43 53 69
49 60 78
46 58 75
48 60 79
39 49 65
47 59 76
39 48 63
43 54 70
45 56 73
44 55 72
41 51 67
45 56 72
44 56 73
46 58 75
45 56 73
47 57 74
47 59 76
51 64 83
43 54 70
43 54 70
46 57 73
43 54 70
48 58 74
47 58 75
47 59 75
48 60 77
44 55 72
46 57 74
43 54 70
48 60 78
45 56 72
46 57 74
43 54 69
44 54 70
48 59 76
48 60 78
46 57 74
44 55 72
51 63 82
45 56 74
51 63 81
49 60 77
47 59 77
44 56 73
46 57 75
46 57 74
49 62 81
47 58 74
45 56 72
40 50 65
43 54 70
47 59 76
43 54 70
45 57 74
46 58 75
45 56 72
46 57 74
36 46 60
49 61 80
43 54 71
50 62 80
44 55 73
43 54 70
48 60 79
47 58 73
42 53 69
43 53 69
49 61 79
40 51 66
45 57 75
44 55 71
45 56 72
43 54 69
45 56 73
43 53 69
45 57 74
48 60 78
43 54 71
49 62 80
44 55 71
50 62 80
50 62 81
42 53 70
46 57 73
41 53 69
46 58 75
38 47 62
41 51 67
44 56 72
46 58 75
39 49 65
47 59 77
46 58 77
42 52 68
37 46 60
43 54 70
54 66 85
43 55 72
44 55 72
40 49 63
48 60 78
46 57 74
45 57 74
46 58 76
43 55 72
51 63 81
48 60 78
44 55 72
45 57 75
46 59 77
44 55 72
46 58 77
43 53 69
45 57 75
47 59 76
43 54 70
44 55 72
49 61 79
46 58 76
47 59 78
46 57 75
45 58 77
45 57 75
47 60 78
45 58 76
46 57 75
46 57 73
47 60 79
43 54 71
50 62 81
45 56 73
49 62 81
51 65 85
52 64 82
50 61 79
50 62 80
47 60 79
48 61 80
45 57 75
55 68 88
53 66 85
111 134 169
168 201 251
171 205 255
171 205 255
171 205 255
171 205 255
171 205 255
171 205 255
171 205 255
171 205 255
171 205 255
171 205 255
171 205 255
171 205 255
170 204 255
170 204 255
170 204 255
170 204 255
170 204 255
170 204 255
170 204 255
170 204 255
170 204 255
170 204 255
170 204 255
170 204 255
170 204 255
170 204 255
170 204 255
169 204 255
169 204 255
165 199 250
80 98 126
49 61 79
49 61 80
48 60 78
51 63 82
51 65 84
47 60 79
54 67 86
46 59 78
49 61 78
48 60 78
45 57 74
51 63 82
50 63 82
50 64 84
49 61 79
48 59 77
44 54 71
45 55 71
54 67 87
51 63 82
44 55 72
47 59 77
47 58 76
52 64 83
51 62 79
48 59 77
50 62 80
53 66 85
52 64 83
51 62 80
53 66 85
50 62 80
51 64 83
58 71 91
48 60 78
48 60 78
46 58 74
47 59 78
45 56 73
50 62 81
50 62 81
51 63 82
50 62 80
45 56 72
52 64 83
50 62 80
50 62 80
50 62 80
48 60 79
45 57 74
44 55 70
50 62 81
44 54 70
51 63 81
50 63 81
49 60 76
50 62 80
50 62 80
51 63 82
50 62 80
48 61 80
47 59 77
50 62 81
52 64 83
44 55 72
51 64 83
48 60 78
42 53 69
50 62 81
44 55 71
46 57 74
46 57 74
44 54 69
46 57 74
51 63 82
47 59 76
50 63 81
48 61 79
47 59 78
48 59 76
48 60 79
48 60 78
45 56 72
51 63 81
55 68 87
50 62 81
49 60 78
51 63 81
52 65 84
50 63 81
44 55 73
55 69 91
79 96 123
159 191 240
169 204 255
169 204 255
170 204 255
170 204 255
170 204 255
170 204 255
170 204 255
170 204 255
170 204 255
170 204 255
170 204 255
170 204 255
170 204 255
170 204 255
170 204 255
170 204 255
171 205 255
171 205 255
171 205 255
171 205 255
171 205 255
171 205 255
171 205 255
171 205 255
171 205 255
171 205 255
171 205 255
171 205 255
171 205 255
171 205 255
103 125 158
51 65 85
50 63 82
48 60 78
49 61 80
50 63 82
48 60 78
43 54 71
46 58 75
47 60 80
51 64 83
48 60 79
52 65 84
47 60 78
45 57 74
48 60 79
51 64 84
47 58 75
46 59 79
43 54 71
48 60 78
47 59 77
44 55 73
41 51 67
50 64 84
51 64 84
49 61 78
45 57 75
45 58 76
47 59 76
43 54 70
47 58 75
45 57 74
45 57 75
43 55 72
52 65 85
45 57 73
39 49 64
43 54 71
41 51 67
42 53 70
46 58 76
42 53 68
44 55 72
44 54 71
47 58 75
40 50 66
46 58 76
42 53 69
47 59 78
50 63 81
44 55 72
41 52 67
45 56 73
42 52 68
46 57 73
48 60 79
47 58 75
45 56 72
50 62 80
44 55 72
46 58 75
43 54 71
42 52 68
47 58 74
41 51 66
46 57 72
43 54 70
41 52 68
41 51 66
42 53 70
44 55 72
41 50 65
47 58 75
41 51 66
51 64 83
40 50 65
46 57 74
44 55 72
43 54 70
43 53 69
49 61 79
42 52 68
48 61 79
49 61 79
42 53 70
49 60 77
48 60 78
44 55 71
46 58 76
44 55 71
48 60 78
42 53 69
45 56 72
40 49 63
45 56 72
42 52 67
46 57 74
48 60 77
44 55 72
40 51 66
45 56 73
48 59 76
42 52 68
51 63 81
49 61 80
45 56 73
44 54 71
47 58 75
43 53 69
45 56 73
45 56 73
46 57 74
45 55 72
44 54 69
45 57 74
38 48 62
45 57 74
44 55 71
44 55 71
48 60 78
50 63 81
49 61 79
44 55 70
48 59 77
54 66 83
48 60 78
48 60 79
48 59 76
47 59 76
43 53 68
46 58 75
45 56 73
46 58 75
49 60 78
50 62 80
46 57 75
49 61 80
44 54 70
47 59 77
44 54 70
43 54 71
48 60 78
44 55 71
48 60 77
44 54 70
49 61 79
43 54 71
50 62 79
45 56 73
39 49 63
45 56 74
44 54 70
47 59 76
42 53 69
43 53 70
43 54 70
52 64 83
43 54 70
44 56 73
44 55 72
47 58 76
48 59 77
45 57 75
43 54 70
44 55 73
46 58 75
44 56 73
39 49 65
45 56 73
44 54 70
41 52 67
47 59 77
45 56 72
44 55 71
47 59 77
48 59 76
46 58 75
43 54 70
43 54 69
46 57 74
49 61 78
44 54 69
45 56 73
45 55 70
46 58 75
43 55 71
43 54 71
44 56 72
42 52 68
46 58 75
44 55 71
44 55 72
41 51 67
48 60 78
48 60 78
48 60 78
46 58 76
39 49 65
43 54 70
43 54 71
44 56 74
51 64 84
48 61 80
44 55 72
41 51 67
39 50 66
45 56 72
46 57 74
48 60 78
45 56 73
47 59 77
49 62 81
50 63 83
49 61 79
42 53 69
45 57 74
47 59 76
42 53 69
43 54 69
41 51 67
43 54 71
40 51 68
43 54 70
43 54 71
48 60 79
47 59 78
46 58 76
51 64 83
44 57 75
40 50 67
49 62 81
43 54 72
41 52 69
43 54 72
46 58 77
47 59 78
51 64 84
56 69 89
46 57 74
46 58 76
44 56 74
51 65 85
46 58 75
75 92 118
154 185 231
172 205 255
172 205 255
172 205 255
172 205 255
171 205 255
171 205 255
171 205 255
171 205 255
171 205 255
171 205 255
171 205 255
171 205 255
171 205 255
171 205 255
171 205 255
171 205 255
171 205 255
171 205 255
170 204 255
170 204 255
170 204 255
170 204 255
170 204 255
170 204 255
170 204 255
170 204 255
170 204 255
165 198 248
72 89 114
40 51 67
50 64 84
48 60 78
50 62 81
45 56 72
50 62 81
50 62 79
50 62 81
49 62 80
50 63 82
48 59 77
49 61 79
49 61 79
50 62 81
51 64 82
51 64 83
46 58 75
50 63 82
46 57 74
50 62 80
47 59 76
48 60 77
53 66 85
47 59 76
49 61 80
49 60 78
49 62 80
46 57 74
48 60 78
49 62 80
46 58 75
49 61 79
48 60 78
43 54 70
47 58 75
56 69 90
53 66 85
47 59 77
50 62 80
51 64 82
47 58 75
53 65 83
45 55 71
46 57 74
48 60 77
50 62 80
50 62 80
41 51 65
48 60 77
46 57 73
48 60 77
50 62 81
47 58 74
50 62 79
50 62 80
47 58 76
52 64 83
46 58 76
51 64 84
43 54 70
47 58 74
46 57 74
47 59 76
55 69 89
46 57 73
47 60 78
47 58 75
48 59 77
48 60 77
46 58 76
52 64 82
53 65 83
48 60 78
53 65 83
50 62 80
45 56 72
46 57 74
49 60 78
52 64 82
49 62 81
46 58 75
44 55 72
51 64 83
52 65 85
49 63 82
51 63 82
49 61 80
54 67 85
51 63 82
50 63 82
48 60 78
46 57 75
47 59 76
43 54 70
77 96 123
165 198 248
170 204 255
170 204 255
170 204 255
170 204 255
170 204 255
170 204 255
170 204 255
170 204 255
170 204 255
171 205 255
171 205 255
171 205 255
171 205 255
171 205 255
171 205 255
171 205 255
171 205 255
171 205 255
171 205 255
171 205 255
171 205 255
171 205 255
171 205 255
172 205 255
172 205 255
172 205 255
172 205 255
154 184 229
69 86 112
47 58 76
48 60 79
50 63 82
45 57 75
51 63 83
46 58 76
49 61 81
43 53 69
42 53 69
49 62 81
46 58 76
47 58 76
44 55 72
41 51 66
47 60 79
48 60 78
51 65 85
44 56 73
49 62 80
49 62 81
46 58 76
45 56 72
49 62 82
42 54 71
45 57 75
43 53 70
43 54 70
52 64 82
45 57 75
45 58 76
44 56 73
48 60 78
50 62 81
41 52 67
42 53 69
42 53 70
47 59 78
44 55 72
43 53 69
45 57 75
45 56 73
40 51 68
47 59 76
49 61 80
47 59 76
42 53 68
48 61 79
42 52 68
46 57 74
39 49 65
41 52 68
41 52 69
40 50 65
49 61 79
44 55 71
42 53 69
50 63 81
41 51 67
42 53 69
44 55 71
39 48 62
44 54 70
45 56 73
43 54 70
47 58 75
37 46 61
36 46 60
45 57 74
46 58 75
40 51 66
46 57 74
40 50 66
46 56 72
43 53 69
44 54 70
40 50 65
45 56 73
45 57 74
45 56 72
40 51 67
43 53 68
39 49 65
44 55 70
47 59 75
42 53 70
47 58 75
46 57 75
48 60 78
43 54 70
44 56 73
48 60 78
45 56 73
42 53 69
42 53 69
46 58 76
47 59 76
43 53 68
45 56 72
45 56 72
48 59 76
46 56 73
44 54 70
43 53 68
43 53 68
42 52 67
38 47 61
45 56 73
47 60 78
41 51 65
46 57 75
48 60 77
47 58 75
48 60 77
43 53 69
44 55 72
41 50 65
44 54 70
49 61 79
46 57 74
46 57 74
44 56 74
45 55 71
45 56 72
45 57 74
44 55 71
51 63 82
48 59 77
47 59 76
45 56 72
51 63 81
48 60 77
47 58 74
42 53 68
47 58 76
47 59 76
41 52 67
46 58 75
45 57 74
46 58 75
46 57 74
46 57 74
43 54 70
45 56 72
42 52 67
46 56 72
44 55 70
49 61 79
44 55 72
48 60 78
47 59 76
52 64 82
43 54 71
49 61 78
44 55 72
48 60 77
46 58 75
52 65 84
45 56 73
48 60 77
49 60 78
46 59 77
40 50 66
42 53 69
49 60 76
47 58 75
45 57 76
43 54 71
44 56 73
46 57 73
41 51 68
49 61 80
51 64 83
48 59 76
49 61 79
44 55 71
42 52 68
44 55 72
44 56 74
44 55 72
45 56 72
46 57 74
44 55 72
46 57 74
44 56 74
45 56 72
48 60 78
46 58 75
42 52 67
43 53 68
47 58 74
47 59 77
45 56 74
49 61 80
42 53 69
43 53 69
44 54 70
42 54 70
45 56 74
47 59 77
41 52 69
46 58 75
39 49 65
48 60 77
40 50 66
42 53 70
46 58 77
47 58 75
44 55 72
44 55 72
42 53 69
41 52 68
45 56 73
43 53 69
39 48 63
46 57 74
44 56 73
42 53 70
45 56 74
43 54 70
41 52 68
45 57 75
47 59 77
43 54 70
49 61 80
40 51 67
45 56 73
43 54 71
41 51 67
48 60 79
43 53 69
46 58 76
39 50 65
51 63 82
42 53 70
44 56 73
47 59 77
48 59 77
45 56 73
49 61 80
43 54 71
47 60 78
48 61 81
49 63 82
51 64 84
50 63 82
50 62 81
122 147 185
172 205 255
172 205 255
172 205 255
172 205 255
172 205 255
172 205 255
172 205 255
172 205 255
171 205 255
171 205 255
171 205 255
171 205 255
171 205 255
171 205 255
171 205 255
171 205 255
171 205 255
171 205 255
171 205 255
171 205 255
171 205 255
171 205 255
171 205 255
170 204 255
170 204 255
170 204 255
84 102 130
52 64 82
49 61 79
51 64 84
52 64 84
47 59 77
47 59 77
43 54 69
47 60 78
50 62 79
49 61 79
46 57 74
50 63 81
46 57 74
52 65 86
51 64 83
48 60 78
52 65 85
46 57 74
49 62 81
49 61 78
49 62 80
45 56 72
49 60 78
46 57 74
50 63 83
48 59 76
48 59 77
48 60 77
50 63 81
44 55 72
54 67 86
51 63 81
44 55 71
51 63 82
48 61 79
49 61 78
56 70 90
48 60 78
52 65 84
50 62 80
45 56 74
49 62 81
47 58 75
46 57 74
47 58 75
46 57 74
50 61 78
53 66 86
50 62 80
50 62 79
51 64 82
50 61 79
46 57 74
46 57 75
48 60 78
50 63 81
49 61 79
43 54 71
49 62 82
50 63 81
52 64 83
47 58 75
52 64 83
46 57 75
47 59 77
52 65 83
48 60 78
47 59 76
48 59 77
49 61 78
51 63 81
49 61 78
49 60 77
46 58 76
54 67 86
51 64 83
48 59 75
47 58 74
47 59 77
51 63 81
47 60 78
52 65 85
51 63 80
52 65 84
47 58 75
49 61 78
49 61 80
47 60 79
47 59 78
49 60 78
54 67 86
47 59 77
47 59 77
53 66 85
46 57 73
43 54 70
83 102 131
169 203 254
170 204 255
170 204 255
171 205 255
171 205 255
171 205 255
171 205 255
171 205 255
171 205 255
171 205 255
171 205 255
171 205 255
171 205 255
171 205 255
171 205 255
171 205 255
171 205 255
171 205 255
172 205 255
172 205 255
172 205 255
172 205 255
172 205 255
172 205 255
172 205 255
172 205 255
126 151 189
47 59 77
51 65 86
52 64 83
51 64 83
49 62 82
47 58 76
46 56 73
44 54 71
45 56 73
51 64 84
41 52 69
42 52 68
50 61 79
43 54 70
50 62 81
45 57 76
47 59 76
47 60 79
44 54 70
44 55 72
45 56 72
46 58 76
42 53 71
48 61 80
45 58 76
50 62 81
44 55 73
47 59 78
49 61 78
45 57 75
48 60 78
47 59 77
43 55 72
49 60 77
46 58 75
45 56 73
43 55 73
46 58 75
40 50 66
41 51 67
39 48 62
44 55 72
49 61 78
48 60 78
44 55 72
47 59 76
44 55 71
45 56 72
47 59 76
42 53 68
42 52 67
45 56 73
42 52 67
45 56 72
40 51 66
45 56 72
46 58 76
42 53 69
46 56 72
51 64 83
47 58 75
45 56 73
42 53 68
46 58 77
42 53 69
45 56 74
42 52 68
45 55 71
39 49 64
48 59 77
43 53 69
43 53 69
41 52 69
44 54 70
38 48 61
40 50 65
42 53 69
38 48 64
43 55 71
44 56 73
39 48 62
44 55 72
40 50 66
44 54 70
44 54 70
44 55 71
46 57 73
42 53 70
40 50 66
44 54 70
44 55 72
45 56 73
47 59 77
45 57 73
45 56 73
43 54 70
45 56 72
41 52 67
47 58 75
47 58 74
46 57 74
44 55 70
41 51 65
47 59 77
41 51 66
45 56 73
45 57 74
48 59 76
38 47 61
43 54 69
45 56 72
43 53 68
46 58 76
40 50 65
44 55 71
45 56 73
44 55 71
41 51 65
48 61 79
50 62 81
46 58 76
44 55 72
50 63 82
46 57 73
46 57 73
44 54 70
43 54 70
45 56 73
47 59 76
44 55 73
46 56 72
43 53 68
44 55 72
47 59 77
47 59 76
49 59 75
48 60 77
46 57 74
42 53 70
50 62 81
42 53 68
45 57 74
50 62 81
45 55 72
47 59 77
42 53 68
43 52 67
46 57 75
46 57 74
44 55 71
41 51 66
45 56 73
46 58 75
46 57 72
46 57 75
43 53 69
42 52 67
45 56 74
44 54 70
43 54 70
49 61 79
44 55 71
46 57 75
44 55 71
45 57 74
45 56 71
46 57 73
49 61 79
42 53 70
46 56 73
41 51 66
42 53 68
45 56 73
45 58 77
47 58 75
43 54 71
41 51 66
46 57 73
43 55 72
42 53 70
41 52 68
43 53 69
46 57 73
44 55 72
46 57 75
42 52 68
48 59 76
41 51 67
45 55 71
49 61 79
38 48 63
44 55 72
49 60 78
44 55 71
45 57 73
48 61 80
40 50 64
48 61 79
44 56 73
40 51 67
44 56 74
40 50 65
43 54 71
43 54 70
42 52 67
43 55 72
52 65 85
45 56 73
52 65 84
46 58 76
42 53 69
45 57 74
42 53 70
47 59 76
45 56 74
43 54 72
38 48 63
43 54 70
40 50 64
45 56 74
47 59 77
42 53 69
53 66 86
46 58 75
48 60 79
38 48 62
48 61 79
42 52 69
43 54 71
47 59 78
45 57 74
45 57 74
44 56 73
38 47 62
49 62 80
43 54 71
42 53 70
50 63 82
45 57 75
44 55 73
40 50 65
46 58 75
50 63 82
48 61 81
44 56 74
49 61 80
47 58 75
51 64 84
47 59 78
91 111 140
167 200 248
172 206 255
172 206 255
172 206 255
172 205 255
172 205 255
172 205 255
172 205 255
172 205 255
172 205 255
172 205 255
172 205 255
172 205 255
171 205 255
171 205 255
171 205 255
171 205 255
171 205 255
171 205 255
171 205 255
171 205 255
171 205 255
171 205 255
171 205 255
96 116 147
43 55 71
46 57 74
54 67 87
54 67 87
46 58 75
47 59 77
48 60 77
44 56 73
45 57 75
46 58 75
46 58 75
52 64 84
48 59 76
50 62 80
50 62 80
49 62 81
48 60 79
48 60 79
48 59 77
53 66 86
49 61 79
51 63 81
48 59 76
46 58 76
50 62 81
48 60 78
45 55 71
52 64 83
52 65 84
58 71 91
50 62 81
45 57 74
47 58 75
50 61 77
43 53 69
46 57 73
53 66 86
51 63 82
53 66 84
46 58 75
46 58 76
46 58 75
49 60 77
47 59 76
42 53 69
47 59 76
53 65 82
45 55 70
48 60 77
50 61 78
47 59 76
51 63 81
63 77 98
49 61 79
47 58 75
37 46 60
47 58 75
45 56 73
43 53 69
49 60 78
50 62 80
46 57 73
45 56 72
50 62 80
44 55 70
47 58 75
52 64 82
47 58 75
48 60 77
53 65 84
46 56 73
49 61 79
50 62 80
45 56 74
46 57 74
48 60 77
50 62 80
52 64 83
48 61 79
44 55 70
47 58 76
48 59 76
49 61 80
47 59 77
44 56 73
45 56 74
50 62 81
53 66 86
53 65 85
46 58 75
52 65 84
48 61 80
49 61 78
47 59 77
47 58 75
44 56 74
43 54 71
55 69 89
103 125 158
171 205 255
171 205 255
171 205 255
171 205 255
171 205 255
171 205 255
171 205 255
171 205 255
171 205 255
171 205 255
172 205 255
172 205 255
172 205 255
172 205 255
172 205 255
172 205 255
172 205 255
172 205 255
172 205 255
172 205 255
172 206 255
172 206 255
172 206 255
169 202 250
95 115 145
44 56 72
44 57 75
48 60 79
42 53 70
43 55 72
52 66 86
50 62 80
43 55 73
50 63 82
45 56 73
49 62 81
46 58 76
46 58 75
45 57 75
50 64 84
48 60 78
41 52 67
46 58 76
40 51 66
42 52 67
43 54 71
42 52 68
48 60 80
43 55 72
46 59 78
49 62 81
49 61 79
44 56 74
46 58 76
44 55 73
50 63 83
42 53 69
37 47 62
49 62 81
42 54 72
46 58 76
43 54 71
46 57 74
42 53 68
45 56 73
43 54 71
39 49 64
45 58 76
45 56 74
43 54 71
49 60 76
40 51 67
47 59 77
42 52 69
45 55 71
38 48 63
50 62 80
45 56 73
45 56 72
43 54 70
42 53 69
42 53 70
42 53 69
42 52 67
41 52 68
43 54 70
46 57 74
42 52 68
43 53 69
37 46 60
34 43 57
45 56 73
38 48 64
45 56 72
43 54 71
37 47 61
40 50 66
40 51 66
43 54 70
42 53 69
43 54 69
46 59 77
44 54 70
45 56 74
40 51 68
44 56 74
41 51 66
42 52 66
44 56 72
44 55 73
45 56 73
43 54 70
42 53 69
46 57 74
40 49 64
44 54 70
44 55 72
40 49 63
47 58 74
42 51 66
43 53 69
44 55 71
47 58 76
47 58 76
43 54 71
45 56 73
50 63 83
43 54 71
45 56 73
47 59 76
44 54 70
41 52 67
45 57 75
39 49 64
49 62 81
49 61 80
51 63 81
43 54 70
42 53 68
48 58 75
42 53 69
47 58 75
44 55 71
39 49 64
41 52 68
46 56 73
49 60 78
46 57 74
45 55 72
42 52 67
45 57 74
47 59 77
45 56 73
49 61 80
46 57 73
43 54 70
42 52 68
43 54 69
44 55 72
49 60 78
42 52 66
42 52 68
48 60 77
46 57 73
52 64 82
40 51 66
45 55 71
41 52 67
46 57 73
46 58 76
45 56 73
46 57 74
45 57 73
39 49 63
44 54 71
44 55 70
46 58 74
42 52 68
41 52 67
48 60 77
49 60 77
44 55 72
40 51 66
47 60 78
46 58 75
41 51 65
45 57 73
42 52 68
41 52 68
44 55 72
44 54 69
51 64 83
41 51 67
49 61 78
47 59 77
48 60 78
47 58 74
44 55 72
47 57 74
45 56 73
41 51 67
42 52 67
42 53 68
44 54 70
47 59 76
42 52 68
41 51 67
37 47 61
41 51 66
43 54 71
45 55 71
44 54 69
43 54 70
45 57 74
42 53 69
42 53 68
45 56 73
45 57 74
40 51 67
47 59 76
40 50 65
41 52 68
45 57 74
44 54 70
48 60 78
47 59 78
49 62 82
45 55 72
39 49 65
46 58 76
41 52 69
48 61 80
44 55 70
43 54 70
49 61 79
40 51 66
48 60 78
46 58 77
43 53 68
41 51 67
44 55 71
41 52 69
44 56 73
45 56 73
45 56 74
43 53 69
41 52 68
42 54 71
45 57 75
44 56 74
47 58 75
47 59 77
41 52 67
40 51 68
45 57 75
46 59 78
40 50 65
44 56 73
46 58 76
46 58 77
44 55 72
47 59 78
46 58 76
42 53 69
46 58 76
41 52 68
43 54 70
43 54 71
49 61 79
47 59 78
43 54 71
48 59 77
44 55 72
43 55 72
47 59 77
52 66 86
69 85 108
150 179 223
173 206 255
173 206 255
173 206 255
172 206 255
172 206 255
172 206 255
172 206 255
172 206 255
172 205 255
172 205 255
172 205 255
172 205 255
172 205 255
172 205 255
172 205 255
172 205 255
172 205 255
172 205 255
171 205 255
171 205 255
171 205 255
138 165 207
52 66 87
47 59 78
44 56 73
45 57 75
48 60 80
46 57 74
48 60 79
45 55 71
47 59 76
49 61 78
44 56 73
53 66 86
50 62 80
42 53 69
47 58 76
45 56 72
50 62 81
51 63 81
48 60 78
51 64 84
49 61 79
53 66 85
47 58 74
51 65 85
50 63 81
44 54 70
48 59 77
49 60 77
45 56 73
52 64 83
48 61 80
46 57 74
52 65 84
50 62 80
44 55 73
45 56 73
45 56 72
51 63 83
49 60 78
48 59 75
47 59 76
50 62 82
49 61 78
53 66 86
48 59 76
42 53 69
48 59 76
48 60 78
52 64 84
48 59 76
53 66 85
49 62 80
48 60 77
46 57 73
48 59 76
49 61 79
52 64 82
47 60 79
51 63 81
53 65 84
55 68 87
46 57 73
51 63 81
53 66 84
49 61 79
45 56 74
55 68 87
49 61 78
49 61 79
46 58 76
49 61 78
47 59 78
48 60 78
51 63 81
48 59 76
49 61 79
48 59 76
47 59 76
48 60 77
54 67 87
45 57 74
51 64 85
55 68 88
51 62 80
50 61 78
45 57 74
43 52 67
46 58 75
52 64 83
49 59 75
50 62 81
49 62 81
50 63 82
48 60 78
54 67 87
42 53 69
47 58 74
51 65 85
45 56 73
50 62 81
126 152 191
171 205 255
171 205 255
171 205 255
172 205 255
172 205 255
172 205 255
172 205 255
172 205 255
172 205 255
172 205 255
172 205 255
172 205 255
172 205 255
172 206 255
172 206 255
172 206 255
172 206 255
172 206 255
173 206 255
173 206 255
173 206 255
164 195 242
69 84 108
49 61 80
45 58 77
46 59 77
41 52 68
49 61 80
44 56 74
47 59 78
41 52 68
46 59 77
46 58 76
46 57 73
43 55 73
46 58 77
44 55 72
45 57 75
45 56 74
48 61 81
48 60 78
42 53 70
40 50 66
48 60 79
49 62 80
40 51 67
41 52 68
48 61 79
47 59 78
45 56 73
46 58 76
45 56 73
44 55 73
45 57 76
41 52 69
44 56 75
44 55 72
40 50 65
43 54 71
41 52 68
53 66 87
44 55 72
40 51 67
39 50 66
46 57 75
40 51 68
46 57 74
40 51 66
38 48 64
47 58 75
43 53 70
45 55 70
41 51 66
44 55 72
41 51 66
41 52 68
44 55 72
44 55 71
39 50 65
46 58 74
47 58 76
46 57 74
42 53 68
46 59 77
47 59 77
43 54 70
45 55 70
43 54 71
41 52 68
40 51 67
42 53 69
47 59 76
42 53 70
45 56 72
44 55 71
46 57 74
43 54 70
42 53 69
47 59 76
44 55 71
47 58 74
42 52 66
43 54 71
46 57 74
46 57 74
42 52 68
40 50 66
46 57 74
45 57 74
43 53 70
44 55 71
41 51 66
47 60 78
50 63 82
40 51 67
43 54 70
39 48 61
40 50 66
41 51 67
43 54 69
42 53 68
44 55 72
43 54 69
43 53 68
43 53 68
42 53 69
42 53 69
44 55 72
41 51 67
41 51 66
43 52 67
39 49 63
44 54 70
52 65 84
44 56 73
43 54 69
44 54 70
43 54 71
44 54 70
42 52 67
41 51 66
46 57 74
43 54 69
48 59 77
46 57 75
45 57 74
41 50 63
48 60 78
43 54 69
43 53 68
43 53 69
39 49 63
44 54 70
42 52 67
45 56 72
44 55 72
48 58 74
44 54 70
45 56 72
45 57 74
47 59 77
48 59 76
45 56 73
42 53 69
47 58 75
42 52 67
43 53 69
49 62 80
50 62 80
40 51 66
46 57 74
47 59 77
46 57 73
46 57 73
46 58 77
45 56 73
42 52 67
50 61 77
46 57 74
43 53 69
44 54 71
45 56 72
44 54 69
44 56 74
45 57 75
46 57 75
38 48 62
47 58 74
44 57 75
43 54 71
44 55 70
44 54 70
45 56 72
45 57 74
48 59 76
40 51 66
46 57 73
46 57 73
44 55 72
45 57 74
46 57 73
41 52 67
45 56 72
42 53 69
47 59 76
48 60 77
43 53 69
45 56 72
46 57 73
47 58 76
46 58 75
44 55 72
42 52 68
41 51 67
41 52 68
41 52 68
43 54 70
42 54 71
41 52 69
46 57 74
45 56 72
43 53 68
50 63 82
46 57 74
44 55 72
40 50 66
47 58 74
45 56 72
43 54 71
44 55 72
47 59 78
47 59 76
44 55 72
43 54 71
41 51 67
42 53 70
48 59 76
41 51 67
42 54 71
43 55 73
47 59 76
42 54 71
42 52 68
40 50 65
39 50 65
42 54 70
42 53 70
48 60 79
40 51 66
46 58 76
38 49 64
46 57 74
46 57 75
48 61 80
46 58 76
45 57 75
39 49 63
44 55 73
44 55 71
41 52 68
46 58 75
43 54 71
42 53 70
44 57 75
48 61 79
46 58 75
40 51 67
49 61 80
45 57 74
47 59 77
45 56 73
43 54 71
42 52 69
43 54 71
41 53 69
46 59 79
58 72 92
139 166 206
173 206 255
173 206 255
173 206 255
173 206 255
173 206 255
173 206 255
173 206 255
173 206 255
172 206 255
172 206 255
172 206 255
172 206 255
172 206 255
172 206 255
172 205 255
172 205 255
172 205 255
172 205 255
172 205 255
145 173 217
45 57 74
47 59 78
44 56 74
52 65 85
54 68 90
48 59 77
44 55 73
41 52 67
51 64 83
49 61 80
48 60 79
47 58 76
48 60 77
51 63 82
46 57 74
49 61 79
52 64 83
45 56 73
46 58 76
50 62 80
48 60 78
46 58 75
50 62 82
47 59 76
50 61 79
51 62 80
53 65 83
51 63 82
47 60 79
44 54 70
45 56 73
45 57 74
54 66 85
46 57 73
49 61 80
50 62 81
50 62 80
43 55 73
52 64 83
52 64 83
42 52 67
44 56 73
49 60 77
51 63 82
47 58 76
49 61 79
49 61 78
52 64 83
51 63 81
49 62 80
44 55 71
50 62 80
49 60 77
46 58 75
43 53 68
52 64 83
45 55 71
55 68 87
46 57 73
52 65 84
53 66 84
55 68 87
47 58 74
48 59 76
42 52 66
50 62 80
53 66 86
49 61 80
47 58 75
45 57 75
42 53 68
49 61 78
46 57 75
50 62 80
47 59 77
48 60 79
50 61 78
49 61 79
45 56 73
44 55 72
48 60 79
47 59 76
47 59 77
48 60 79
53 66 85
46 58 76
45 56 72
53 65 85
47 59 77
47 59 75
47 58 76
46 58 77
48 60 77
46 57 74
45 56 72
47 58 75
46 57 74
44 55 71
46 58 75
42 52 68
46 58 75
54 68 88
144 173 216
172 205 255
172 205 255
172 205 255
172 205 255
172 205 255
172 206 255
172 206 255
172 206 255
172 206 255
172 206 255
173 206 255
173 206 255
173 206 255
173 206 255
173 206 255
173 206 255
173 206 255
173 206 255
173 206 255
132 159 198
57 70 90
48 61 81
46 57 75
47 59 76
41 52 69
47 60 80
47 59 77
44 55 72
45 57 74
43 55 72
47 60 78
44 57 75
43 55 72
44 54 70
42 53 71
48 62 82
39 49 65
45 57 74
47 59 77
44 56 73
42 53 71
43 54 71
44 55 72
43 54 71
42 54 71
43 55 72
46 58 75
45 56 73
48 61 79
43 54 71
46 58 75
43 55 72
41 51 66
43 54 70
45 57 75
44 55 72
42 53 69
42 53 69
41 51 67
48 61 79
41 52 68
40 50 65
45 57 74
42 53 70
40 50 66
40 49 64
44 55 71
44 55 71
44 56 73
39 48 63
41 52 69
47 58 75
46 57 74
47 60 81
43 54 71
41 52 68
43 55 72
36 45 59
41 51 66
47 58 74
46 58 76
43 53 68
47 58 76
45 56 73
43 53 68
44 55 72
43 54 70
45 57 75
46 58 76
47 59 78
45 57 75
40 51 67
46 57 74
46 58 76
41 52 68
42 54 71
44 55 71
43 54 70
42 52 67
44 55 71
41 53 71
44 54 70
44 55 73
47 58 74
43 53 68
42 53 68
48 60 79
41 51 67
46 58 75
43 54 70
50 62 80
42 53 68
37 47 61
45 56 73
47 58 75
49 61 79
37 46 60
43 54 71
46 57 74
45 55 70
42 53 69
42 53 70
43 54 71
43 54 69
40 50 65
47 59 76
41 51 65
41 51 67
50 63 82
45 56 73
43 54 70
42 52 67
46 57 74
42 52 67
38 48 61
45 55 71
40 49 64
43 54 70
48 60 77
47 59 77
45 56 73
50 61 79
44 55 71
42 53 70
45 56 73
44 55 70
46 57 74
46 58 75
47 58 75
44 55 73
44 56 73
50 62 80
45 56 72
46 57 73
44 55 71
46 57 74
46 58 76
46 57 74
47 58 74
47 59 77
44 54 71
49 60 78
40 50 64
51 63 81
47 59 76
46 56 72
41 53 69
45 56 72
50 62 80
45 57 74
46 57 74
43 54 71
43 54 70
47 59 78
43 53 68
45 56 73
44 55 71
44 55 71
50 63 82
43 54 69
44 55 71
45 56 73
49 60 78
41 52 68
41 51 65
51 62 79
46 56 73
39 49 64
45 56 73
49 61 79
43 53 69
39 49 63
44 55 72
44 54 70
50 61 79
47 58 76
45 54 69
43 55 72
40 50 66
45 56 73
41 51 67
43 54 71
47 59 76
44 55 72
41 51 67
47 58 75
43 54 70
46 57 74
44 55 71
49 60 77
43 54 70
48 59 77
45 56 72
41 51 66
40 50 65
43 54 70
40 50 65
39 49 65
44 55 71
40 51 66
38 47 62
43 54 71
40 49 63
43 54 71
47 58 75
44 55 71
40 50 66
40 50 66
47 59 77
42 53 69
37 47 62
39 50 65
44 55 72
36 45 59
47 59 77
44 56 73
39 50 65
47 59 77
41 52 68
42 53 70
43 54 71
44 56 74
47 59 77
40 50 65
44 56 74
41 52 69
41 52 68
42 52 68
43 54 70
48 60 78
42 53 70
48 60 78
42 53 69
42 53 70
46 58 77
45 57 75
46 58 77
47 59 78
40 51 67
43 55 72
46 57 74
47 60 79
41 50 65
44 56 74
42 54 72
45 56 72
43 54 71
43 54 70
45 57 75
43 54 71
41 51 66
42 52 68
49 61 81
52 66 87
51 64 84
44 55 73
56 70 90
123 148 184
173 206 255
173 206 255
173 206 255
173 206 255
173 206 255
173 206 255
173 206 255
173 206 255
173 206 255
173 206 255
173 206 255
173 206 255
173 206 255
173 206 255
173 206 255
172 206 255
172 206 255
165 197 245
62 76 98
42 53 70
50 62 82
46 57 74
46 58 75
47 59 77
51 64 83
50 62 80
49 61 80
49 61 79
50 61 79
42 53 69
50 63 82
54 67 87
45 56 73
46 57 74
50 62 80
48 59 76
48 59 76
42 52 68
46 57 74
50 62 80
47 59 76
53 66 85
48 60 76
49 61 79
44 55 72
48 61 80
46 58 75
46 57 74
44 55 72
51 63 81
48 60 77
48 60 77
46 58 75
47 58 73
51 64 83
54 67 85
54 66 85
49 61 80
43 54 69
49 60 77
47 58 74
48 60 78
51 63 82
41 50 64
50 62 82
46 57 74
49 61 78
45 56 73
48 60 77
47 58 75
50 61 79
48 60 76
50 63 81
48 59 75
49 61 78
56 69 89
50 62 80
46 57 74
50 62 80
51 63 82
54 68 88
50 61 78
47 59 76
49 61 78
50 62 80
47 59 76
42 51 66
46 57 73
51 64 83
48 59 77
45 57 74
47 60 80
52 65 85
50 62 80
46 57 74
48 60 77
49 60 78
43 54 71
50 62 81
43 54 70
49 61 80
51 65 84
48 59 76
47 59 77
44 55 71
46 57 75
49 61 79
48 61 79
48 60 78
49 61 79
44 55 71
45 56 73
45 56 72
44 55 73
48 60 79
48 60 77
45 57 74
49 61 79
49 61 80
51 65 85
48 60 79
61 75 96
166 199 247
172 206 255
172 206 255
172 206 255
173 206 255
173 206 255
173 206 255
173 206 255
173 206 255
173 206 255
173 206 255
173 206 255
173 206 255
173 206 255
173 206 255
173 206 255
173 206 255
173 206 255
127 151 188
52 66 86
50 62 81
45 57 74
44 57 75
46 58 75
41 53 70
44 55 73
48 61 81
39 49 64
44 56 74
46 58 78
39 50 66
50 63 82
47 59 77
43 55 72
43 55 72
43 54 69
50 63 82
42 53 69
49 61 80
43 54 71
41 53 71
42 53 70
36 47 62
47 59 77
44 56 74
44 55 72
41 52 68
41 51 67
45 57 74
51 64 84
48 60 78
40 50 65
49 61 80
45 57 75
43 54 69
43 55 72
44 55 73
44 55 72
44 55 72
45 57 74
42 53 70
44 56 73
41 53 69
43 54 70
41 51 67
44 57 75
41 52 68
39 49 64
44 55 72
37 47 61
39 49 65
42 53 69
42 53 69
39 49 65
41 52 69
45 56 72
39 50 66
42 53 69
44 56 73
41 52 68
40 51 66
43 54 71
48 59 77
43 53 68
41 52 68
44 55 70
44 55 72
45 56 73
48 59 77
44 55 71
44 55 71
45 56 73
45 56 72
39 50 65
42 53 68
47 58 76
40 51 66
40 50 65
42 52 67
40 50 65
40 50 66
43 53 69
44 54 68
44 56 72
41 52 67
42 52 68
43 53 69
41 51 67
45 57 73
44 55 72
41 52 67
46 58 76
44 55 71
42 53 69
40 50 65
41 51 66
45 55 71
45 56 72
44 57 75
45 56 72
40 50 64
41 51 65
45 56 73
43 53 68
40 51 67
37 46 60
40 49 64
39 49 63
42 52 68
41 52 69
43 55 73
42 52 68
44 56 72
40 50 66
43 54 70
43 54 69
41 52 67
44 55 72
39 48 63
41 51 66
43 53 68
43 53 68
45 56 73
41 51 66
41 51 65
45 55 70
46 57 73
49 60 76
42 53 70
44 55 71
45 56 73
50 60 76
45 57 74
46 56 73
44 54 70
47 57 73
46 57 75
42 52 67
45 55 71
43 53 69
41 51 67
49 61 79
48 60 78
49 60 78
48 60 79
43 53 69
45 57 74
40 50 65
48 60 78
42 52 66
44 56 73
44 54 70
44 55 71
41 50 65
42 53 69
42 52 68
40 50 64
51 64 83
46 58 75
44 56 73
45 56 72
43 54 70
45 56 74
45 55 70
39 50 65
45 56 73
42 53 69
44 55 71
47 57 73
46 57 74
44 55 72
47 58 75
47 59 76
47 59 77
48 60 78
45 57 74
48 60 77
45 55 70
46 57 74
48 60 77
47 58 75
42 52 67
46 57 74
39 48 63
40 51 67
45 57 74
42 53 69
46 57 75
38 48 62
46 56 72
44 54 69
46 56 73
48 60 78
44 56 72
43 54 71
44 55 72
38 48 63
45 56 73
42 51 66
37 47 62
46 57 75
43 53 69
38 47 60
45 58 76
45 57 74
45 57 74
39 49 65
43 54 72
51 64 84
40 50 64
41 51 66
44 56 74
44 55 72
47 59 77
39 50 67
46 58 76
42 53 68
40 50 64
43 55 72
42 54 71
46 57 74
42 53 68
44 57 75
48 60 77
39 50 65
44 56 73
46 58 76
43 54 70
43 53 69
42 52 68
41 52 68
43 55 72
43 54 70
42 53 70
45 56 74
43 54 71
41 51 67
42 53 71
43 54 71
40 50 66
42 53 71
42 53 70
42 53 69
38 47 60
41 53 70
41 51 68
43 54 71
44 55 72
39 49 64
47 59 76
46 58 77
40 50 66
44 56 74
43 55 73
45 56 72
42 53 69
43 54 71
50 63 82
104 125 157
174 206 255
174 206 255
174 206 255
174 206 255
174 206 255
173 206 255
173 206 255
173 206 255
173 206 255
173 206 255
173 206 255
173 206 255
173 206 255
173 206 255
173 206 255
173 206 255
89 108 138
48 60 79
43 55 73
47 60 79
48 60 79
47 59 77
52 65 85
45 56 73
45 56 73
50 62 80
56 69 89
48 61 79
46 59 77
50 63 82
42 51 65
50 62 80
42 53 70
45 57 74
49 61 78
50 62 79
49 61 78
52 64 82
50 64 85
51 64 82
48 60 77
45 57 74
42 53 68
46 57 74
49 61 78
50 62 79
47 59 77
47 59 77
46 58 76
42 52 68
55 68 87
48 60 76
44 56 73
46 56 72
49 61 79
50 63 83
44 55 71
53 65 84
48 58 75
47 59 76
45 56 73
48 60 78
47 58 75
42 53 69
47 58 75
50 61 79
47 58 75
48 59 76
45 55 71
52 65 84
46 58 75
49 61 79
50 63 81
42 52 66
43 54 71
49 61 79
51 63 81
46 57 75
48 59 77
45 55 70
43 54 70
46 58 76
52 64 83
44 54 70
45 57 73
50 62 81
47 59 76
49 60 77
53 65 84
48 59 76
49 61 79
42 53 69
52 64 82
48 60 79
44 54 71
48 60 78
48 60 77
45 57 75
47 59 76
50 61 78
47 59 76
46 57 73
45 56 72
42 53 69
51 63 82
47 58 74
47 59 77
47 59 77
52 65 85
50 62 81
46 57 74
46 57 74
54 66 86
48 59 76
44 56 74
47 58 75
45 56 72
48 60 77
43 54 70
50 63 82
38 47 62
72 88 112
173 206 255
173 206 255
173 206 255
173 206 255
173 206 255
173 206 255
173 206 255
173 206 255
173 206 255
173 206 255
173 206 255
173 206 255
174 206 255
174 206 255
174 206 255
174 206 255
109 131 163
43 54 70
48 60 79
48 60 78
43 55 72
47 60 79
42 53 69
49 62 82
42 53 69
46 58 76
41 53 69
46 58 75
40 51 68
43 54 71
39 49 65
46 58 76
46 59 78
42 53 70
46 58 75
43 54 70
39 50 66
44 56 74
41 52 68
46 58 76
44 54 71
47 59 78
41 51 67
45 58 76
47 60 78
41 51 68
38 48 64
42 52 68
43 53 69
38 48 63
45 58 76
43 55 72
40 50 66
44 55 73
43 54 71
42 53 69
39 49 63
43 54 70
44 55 72
47 60 78
37 47 62
49 61 80
40 50 66
38 48 63
47 59 76
44 56 73
41 51 66
46 57 75
43 54 70
41 51 66
45 55 72
44 55 71
45 56 73
46 58 76
40 50 66
51 63 80
41 51 66
42 53 70
43 54 70
36 45 59
40 49 64
46 58 76
42 54 70
41 52 68
39 49 64
38 47 62
48 60 78
49 60 78
43 55 72
40 51 66
47 58 76
44 55 71
44 55 72
40 50 65
39 49 63
37 46 61
46 58 76
42 53 70
47 58 75
43 55 72
43 54 71
48 59 77
37 47 62
40 49 64
46 57 74
44 55 72
42 53 69
39 49 65
49 61 79
41 51 67
48 61 80
42 53 69
45 56 72
46 57 73
50 61 79
41 51 66
45 56 72
44 54 70
45 56 72
41 52 68
43 54 71
46 57 74
42 52 68
40 51 67
40 50 65
45 56 72
47 58 74
39 50 66
46 56 73
40 50 65
45 56 72
42 53 69
49 60 76
41 51 67
39 48 63
45 56 72
42 51 66
43 54 71
40 50 65
44 55 71
46 57 73
45 56 72
42 53 68
44 54 70
48 60 79
44 54 69
45 54 69
44 54 69
50 62 81
47 59 76
43 53 69
45 56 72
44 54 69
41 52 68
49 62 81
49 61 79
42 53 68
47 59 75
42 52 67
50 62 81
47 59 77
44 55 71
46 57 74
39 49 63
41 51 66
40 51 66
41 51 66
48 59 75
42 52 68
42 52 66
35 43 55
45 56 72
37 47 61
49 61 80
52 64 83
40 50 64
48 60 78
45 56 72
38 48 63
40 50 65
40 50 64
43 53 69
44 54 71
45 56 73
43 54 70
43 54 70
41 52 67
41 51 67
40 50 65
47 58 76
46 58 76
38 48 62
47 58 76
46 56 72
46 58 75
43 53 70
47 59 76
42 53 69
43 54 70
47 58 75
41 52 67
41 52 68
42 53 69
43 53 69
49 61 78
46 56 72
42 53 70
47 58 75
43 55 72
45 55 71
42 53 69
45 57 74
39 49 65
43 53 69
41 50 65
42 53 69
42 54 71
48 59 77
37 46 61
41 52 68
38 47 61
46 57 74
40 51 67
45 56 73
45 56 73
40 49 64
44 56 74
48 61 80
45 56 71
39 49 65
44 55 71
45 56 74
43 55 73
42 53 69
46 57 75
41 51 66
40 51 66
42 53 69
42 53 69
42 53 70
43 54 71
48 61 79
44 54 71
48 60 78
45 57 74
47 58 76
41 52 68
40 50 65
40 51 66
42 51 66
39 49 66
42 53 69
44 55 72
48 60 78
39 50 66
42 54 72
40 51 67
36 45 59
42 53 70
43 54 70
45 58 76
40 51 67
36 46 61
40 51 67
46 58 75
41 52 69
48 60 77
41 51 66
45 57 76
44 56 74
43 53 69
42 52 68
47 59 77
47 59 77
42 54 71
42 53 69
50 61 79
46 57 74
102 123 155
174 207 255
174 207 255
174 207 255
174 207 255
174 207 255
174 206 255
174 206 255
174 206 255
174 206 255
174 206 255
173 206 255
173 206 255
173 206 255
173 206 255
129 155 193
46 57 73
46 58 76
43 54 71
47 59 77
51 63 81
45 56 74
47 59 78
53 66 86
47 59 76
40 50 65
44 56 73
46 57 74
43 55 71
47 60 78
46 58 75
48 59 77
49 60 77
51 63 82
51 63 81
51 62 80
51 64 83
55 68 87
42 53 69
44 55 72
46 58 75
45 56 73
51 62 80
46 58 76
49 60 78
40 50 66
48 59 75
49 60 77
45 56 73
47 59 77
43 54 70
48 61 80
51 63 81
48 59 77
44 54 69
47 58 74
48 59 76
48 59 77
46 57 73
51 62 79
47 57 73
47 58 75
48 59 75
45 56 72
50 62 80
49 60 78
41 51 65
44 55 71
44 55 71
50 62 81
47 59 76
47 59 77
49 60 76
45 55 71
47 58 74
46 57 74
46 57 75
48 59 76
53 65 84
41 51 66
46 57 74
45 55 72
46 58 75
40 50 65
46 58 77
49 61 80
46 58 76
49 60 78
47 59 77
45 56 74
45 55 72
47 58 74
52 65 84
47 59 76
44 54 70
48 60 77
50 61 78
49 61 78
48 60 76
49 61 80
42 53 70
44 56 74
46 57 75
45 56 72
46 57 73
53 66 85
53 64 82
46 57 75
44 55 72
49 62 81
50 62 80
49 60 78
46 57 74
44 54 71
50 63 82
44 55 72
48 60 78
41 52 68
48 59 76
45 58 76
50 63 82
43 54 71
128 153 191
173 206 255
173 206 255
173 206 255
174 206 255
174 206 255
174 206 255
174 206 255
174 206 255
174 206 255
174 207 255
174 207 255
174 207 255
174 207 255
174 207 255
100 122 153
47 59 77
51 64 84
44 56 73
44 55 71
45 56 74
44 56 73
43 55 72
45 56 73
46 57 74
46 58 77
43 54 71
42 52 67
38 49 64
38 48 63
41 51 67
42 53 70
42 53 68
41 52 67
42 53 70
39 49 65
43 54 70
44 55 71
45 57 75
44 55 73
42 53 69
40 50 65
41 53 71
38 49 64
42 52 67
43 54 69
36 45 59
45 57 74
45 57 74
40 51 67
45 57 75
43 54 71
45 56 72
44 55 72
42 53 70
40 50 65
44 55 72
44 55 71
42 52 67
46 57 75
44 55 72
49 61 78
40 50 65
38 47 62
37 47 61
43 54 72
44 55 71
47 59 78
43 54 71
42 53 69
42 52 67
43 53 69
40 51 67
43 54 71
43 54 70
44 54 70
45 56 73
44 55 71
37 46 60
43 54 71
45 56 73
41 52 67
37 46 60
41 51 66
43 54 69
42 52 68
42 53 68
47 58 76
41 52 68
43 53 69
41 50 65
42 53 68
38 48 63
48 61 79
42 52 68
43 54 72
41 52 67
42 53 70
43 54 69
43 53 69
46 57 73
41 50 65
41 52 69
46 57 74
41 51 67
48 59 77
44 56 72
46 58 75
41 51 66
43 53 69
42 53 69
38 48 63
43 54 70
39 48 63
41 51 66
42 53 69
41 51 67
45 57 74
45 56 72
41 52 68
41 52 68
44 55 71
42 53 68
44 54 70
48 59 77
39 49 65
46 58 75
40 50 64
43 53 68
43 54 70
41 50 65
40 50 64
44 55 71
39 49 64
38 47 60
41 51 66
45 56 74
45 56 73
45 55 72
43 54 70
44 54 70
47 58 74
41 50 64
43 54 70
41 51 66
47 58 75
44 55 71
44 55 71
43 54 71
44 54 69
46 57 73
44 55 72
47 58 75
46 57 73
43 53 68
43 54 70
45 57 75
43 53 69
50 62 80
37 47 62
44 55 71
43 53 69
39 49 64
43 53 69
44 55 71
43 53 69
45 57 74
44 55 71
41 51 66
43 54 70
46 57 74
42 52 68
47 59 77
42 53 70
48 60 78
44 54 70
46 56 72
46 56 72
39 49 64
44 54 69
45 56 73
39 49 63
44 55 71
42 52 66
45 55 72
42 52 68
43 54 71
46 57 73
42 52 68
40 50 66
42 53 68
43 53 69
41 52 68
50 63 81
47 59 76
47 59 78
46 57 75
39 49 65
44 55 71
42 53 69
47 59 77
39 49 64
41 52 67
47 59 75
45 57 74
45 57 74
39 49 64
43 54 70
42 53 68
42 52 68
46 57 74
43 53 69
41 52 68
41 51 67
42 52 67
45 56 72
44 54 71
43 53 68
48 60 78
41 52 69
43 53 68
43 54 71
41 51 66
40 50 66
40 51 67
39 49 64
38 48 62
43 53 69
46 58 77
45 56 74
37 47 62
39 50 66
44 55 72
47 58 76
40 49 64
36 46 61
42 53 70
43 54 71
39 49 65
41 52 67
40 50 66
44 56 74
41 51 66
36 46 60
41 52 68
42 53 69
41 50 65
52 65 84
46 57 75
40 50 66
41 52 69
42 53 69
36 46 61
37 46 61
38 49 65
42 54 70
39 49 63
43 54 71
40 50 66
42 53 69
39 50 65
42 53 68
42 53 70
43 54 70
41 52 68
43 54 71
45 56 73
38 47 62
40 51 66
43 55 73
43 54 71
42 53 69
47 61 80
45 56 73
36 45 59
44 55 71
44 55 73
46 58 75
46 58 76
103 124 155
175 207 255
174 207 255
174 207 255
174 207 255
174 207 255
174 207 255
174 207 255
174 207 255
174 207 255
174 207 255
174 207 255
174 207 255
160 191 237
53 66 85
44 56 74
46 57 74
42 52 68
51 64 84
47 58 75
48 60 78
52 65 84
48 60 79
50 62 80
50 63 82
44 56 73
44 56 74
41 51 67
46 57 74
45 57 75
48 60 78
50 62 80
46 57 75
49 60 78
44 55 71
46 57 73
52 64 82
43 54 70
46 58 76
46 56 71
47 59 75
50 62 80
46 56 73
54 67 86
48 59 76
46 57 74
49 61 79
49 62 80
52 64 81
45 56 73
47 59 76
49 61 79
48 60 78
46 57 74
50 62 81
42 53 68
50 62 81
43 54 70
48 59 77
44 55 71
50 62 80
47 58 75
49 60 77
46 58 76
50 61 78
47 59 76
53 66 86
45 56 73
48 59 76
50 61 78
48 59 76
46 58 75
47 57 73
45 56 72
49 61 80
50 62 79
41 52 68
45 56 73
44 55 71
41 52 67
46 58 75
48 60 77
46 58 74
48 60 78
49 60 77
46 57 73
46 57 73
48 60 76
48 60 77
49 60 77
43 53 69
46 57 74
49 60 76
43 54 70
44 54 70
46 57 74
50 63 82
47 58 73
46 59 77
48 59 77
47 59 77
47 58 74
44 55 73
47 58 76
47 59 77
55 67 86
49 61 79
45 57 74
49 61 79
42 53 68
46 58 77
49 60 77
45 55 71
45 56 73
45 56 72
48 60 77
50 62 79
46 57 73
50 62 82
49 61 80
45 57 74
50 63 82
154 183 228
174 207 255
174 207 255
174 207 255
174 207 255
174 207 255
174 207 255
174 207 255
174 207 255
174 207 255
174 207 255
174 207 255
174 207 255
106 127 158
40 51 67
42 53 69
44 56 74
47 59 77
45 57 74
44 55 71
46 58 75
43 55 73
39 49 64
42 52 67
46 57 75
37 46 60
44 56 74
45 57 75
39 48 63
41 52 68
39 49 65
43 54 71
45 55 71
42 53 70
41 52 67
42 52 68
41 52 68
42 54 71
46 58 76
43 54 71
46 57 74
36 45 60
38 49 64
45 57 74
40 52 69
45 56 72
44 55 72
39 50 65
43 55 73
46 58 76
46 57 74
40 51 68
43 54 70
44 56 73
45 56 71
42 53 70
41 51 67
46 58 77
39 49 63
42 52 67
42 52 68
41 51 67
40 50 65
41 51 65
37 46 59
40 51 67
35 44 59
48 60 77
41 51 66
44 55 72
35 45 60
40 49 63
48 59 76
41 51 67
40 50 66
37 46 59
41 52 67
42 52 68
36 46 60
46 58 75
38 48 62
47 58 74
38 48 64
39 48 61
43 53 69
39 48 63
41 51 65
41 52 69
42 53 70
46 57 73
37 47 63
45 56 72
41 50 65
43 53 69
44 54 70
44 54 71
40 50 66
40 49 63
42 53 68
44 55 71
43 52 67
45 56 73
42 52 67
49 62 82
39 49 64
47 59 77
45 57 73
43 53 68
38 47 61
43 54 70
46 57 74
44 54 70
40 49 63
39 48 62
41 52 68
41 51 66
42 52 68
41 51 66
49 61 79
44 54 69
41 51 65
42 51 65
49 62 80
39 48 61
44 55 71
40 50 66
44 55 71
44 53 67
45 56 73
42 52 68
43 53 69
40 50 64
42 52 67
50 62 82
39 49 64
44 54 70
43 53 69
41 51 65
45 56 73
48 59 75
40 50 66
49 60 77
44 57 75
37 46 60
42 53 69
42 52 68
47 58 76
43 54 69
43 54 69
47 58 74
43 54 71
42 53 69
45 55 70
40 50 65
43 53 69
47 58 75
44 55 71
45 56 72
49 62 80
41 50 64
45 55 71
40 50 65
44 55 71
45 55 71
42 53 69
43 54 71
43 54 71
43 54 70
39 49 63
44 54 70
40 50 64
42 52 67
45 57 73
43 54 70
41 51 67
48 59 76
41 52 67
42 52 67
43 54 70
46 58 75
49 61 80
42 53 68
47 58 76
42 53 68
44 55 71
44 55 72
42 52 67
48 59 75
45 57 74
41 51 66
45 56 73
44 55 72
41 51 67
45 56 72
45 57 74
47 58 76
48 60 77
42 53 68
44 56 73
47 58 75
46 57 73
41 51 67
39 49 63
40 50 65
47 59 78
42 51 65
40 50 65
45 57 73
40 50 65
46 58 76
46 58 75
39 49 64
43 55 73
45 57 74
38 48 63
42 53 70
38 48 63
39 49 65
43 54 70
44 56 73
40 50 65
44 55 71
43 54 70
41 52 67
45 57 75
40 50 65
47 58 76
40 50 65
45 56 72
42 53 70
43 53 68
45 56 73
40 50 66
42 53 69
47 59 76
47 58 75
43 55 72
42 53 70
37 46 60
38 48 62
49 62 81
43 54 70
45 56 72
38 47 62
45 56 72
39 49 64
44 56 73
40 51 67
39 49 64
43 55 72
41 51 67
39 49 64
46 58 76
42 53 69
36 45 60
39 49 64
41 52 69
40 50 65
45 56 74
41 52 68
40 51 67
40 50 65
42 53 70
40 51 68
42 53 70
45 56 74
40 51 67
38 49 64
39 49 65
39 50 65
41 53 70
44 56 73
42 53 69
45 56 74
38 48 63
44 56 74
46 57 75
41 52 68
43 54 70
101 122 154
175 207 255
175 207 255
175 207 255
175 207 255
175 207 255
175 207 255
175 207 255
174 207 255
174 207 255
174 207 255
174 207 255
88 107 135
46 58 76
47 58 76
45 57 75
47 59 78
47 59 76
51 63 81
46 57 74
47 59 77
47 58 74
50 62 80
49 61 79
47 59 77
46 56 72
44 55 72
48 59 76
50 64 84
51 63 82
50 63 82
46 57 73
53 66 85
45 56 73
47 58 75
45 55 70
49 61 80
50 62 79
48 59 76
52 64 82
48 60 77
44 54 69
47 59 76
47 58 76
46 58 75
54 67 87
43 52 67
52 65 84
45 56 72
49 60 78
48 58 74
48 60 77
47 59 76
50 62 79
47 58 75
50 62 80
45 55 71
46 58 75
46 58 75
47 58 73
44 55 71
41 52 68
50 62 80
50 62 80
42 52 68
44 55 71
46 57 74
47 59 75
48 60 78
47 58 74
46 57 73
47 59 77
46 56 73
47 59 76
50 63 82
45 56 73
49 60 78
46 57 74
50 62 80
49 61 79
48 60 77
47 59 77
49 61 80
48 60 77
47 59 76
48 59 75
50 62 80
50 62 79
46 57 74
38 47 61
51 64 83
43 53 68
47 59 77
53 66 85
45 56 73
51 63 82
47 58 75
45 56 73
49 61 80
51 63 81
48 61 81
47 59 77
47 58 75
44 55 71
49 60 77
50 62 79
51 63 82
46 57 74
47 59 78
46 58 76
44 55 72
47 59 76
46 57 75
48 61 80
45 55 72
47 59 77
41 51 67
46 57 74
45 57 73
44 56 72
43 53 69
84 103 130
173 206 254
174 207 255
174 207 255
174 207 255
175 207 255
175 207 255
175 207 255
175 207 255
175 207 255
175 207 255
175 207 255
103 125 157
38 48 63
47 58 75
46 58 75
40 51 68
44 55 72
43 54 70
39 50 66
43 55 73
45 57 74
38 48 64
43 54 71
38 49 64
43 54 70
41 52 69
44 56 73
40 51 68
45 56 72
38 48 64
40 50 66
39 49 64
44 55 73
47 60 78
39 49 64
42 53 70
43 55 71
40 51 67
40 50 65
44 55 72
43 53 69
43 54 71
41 52 67
42 52 67
44 55 71
42 52 68
46 58 75
45 56 73
42 52 67
43 54 71
38 48 63
40 51 67
43 53 69
38 48 63
38 47 61
39 49 64
48 61 80
42 53 69
40 51 66
37 47 62
43 54 71
38 48 63
41 52 67
40 51 68
36 46 60
44 55 72
42 52 68
41 53 69
37 46 60
43 54 71
40 51 68
37 47 62
39 49 64
37 46 60
42 52 68
43 53 69
44 56 74
40 51 66
44 54 69
38 47 62
44 54 70
44 55 72
44 55 71
41 52 69
41 51 66
44 55 70
41 50 65
39 49 63
40 50 64
46 58 75
39 50 65
43 54 70
40 50 65
42 51 66
43 53 69
42 53 69
38 46 60
39 50 66
43 53 68
40 50 64
45 56 73
42 53 70
43 54 69
43 53 69
45 56 73
38 48 62
39 49 65
46 58 75
46 57 75
35 44 57
42 52 67
41 51 66
47 58 75
45 56 72
42 53 68
41 52 67
46 58 75
42 52 68
40 50 65
42 52 67
46 57 74
43 54 71
44 55 71
40 50 64
47 59 77
42 53 69
35 45 58
38 48 63
44 55 70
40 50 65
41 51 66
48 58 74
44 54 70
44 54 70
42 53 68
41 51 66
43 53 68
43 53 69
41 51 65
44 55 70
39 48 62
41 51 66
44 55 71
47 57 73
45 57 73
43 54 70
48 60 77
42 52 68
45 56 72
48 60 78
46 58 76
45 57 74
45 57 74
39 49 63
44 55 72
37 46 61
43 53 68
50 62 81
43 54 69
42 52 68
42 53 70
40 50 64
45 56 72
47 57 73
39 47 61
40 51 67
53 65 85
42 52 66
44 54 69
40 50 65
45 56 72
42 51 66
41 51 66
50 63 82
44 55 72
43 53 68
44 55 71
45 56 73
45 56 72
42 52 68
43 53 69
42 53 69
41 52 68
41 52 67
45 56 73
44 55 71
42 53 70
47 59 77
40 50 65
45 56 73
43 54 71
46 57 73
45 58 76
48 60 77
43 53 69
45 57 76
45 57 73
44 56 73
45 57 73
42 52 67
46 57 75
38 48 63
43 54 69
48 60 77
40 52 70
46 57 73
41 51 65
43 54 70
39 49 63
40 50 66
42 54 70
41 52 68
39 50 66
44 55 71
45 57 74
43 53 69
42 52 67
38 47 61
43 54 70
41 52 68
46 58 75
43 54 70
40 50 65
38 48 62
40 51 67
38 48 63
43 53 70
41 51 66
43 53 69
39 49 64
45 57 75
44 55 71
38 48 63
41 52 67
47 59 76
43 54 70
45 56 73
44 54 70
42 53 68
38 47 61
40 50 64
41 52 69
43 55 71
35 44 58
44 54 71
40 51 67
40 51 68
44 56 74
45 56 73
44 55 73
41 51 66
40 50 65
35 45 59
40 50 65
40 50 66
44 56 74
40 50 65
41 52 68
44 55 72
37 46 61
46 57 75
37 47 62
40 51 67
34 43 57
37 47 62
33 42 55
41 51 68
44 56 74
44 56 74
41 52 68
42 54 71
41 52 68
46 58 75
40 51 66
46 57 75
43 54 70
46 57 74
45 57 75
40 50 65
111 133 167
175 207 255
175 207 255
175 207 255
175 207 255
175 207 255
175 207 255
175 207 255
175 207 255
175 207 255
128 152 189
49 62 81
44 56 74
39 48 63
46 58 76
42 53 69
47 58 75
44 55 71
49 61 80
47 59 77
43 55 72
44 55 72
43 54 70
43 54 70
49 61 78
50 61 78
48 60 78
44 55 71
51 64 83
42 53 68
47 58 75
42 52 68
44 55 71
46 57 74
46 58 75
45 56 73
47 58 73
43 53 68
44 55 71
47 58 75
50 61 79
43 55 72
51 64 82
44 55 72
45 56 73
46 57 74
46 57 74
53 66 85
52 65 84
49 62 80
49 61 79
48 60 77
42 53 69
47 59 76
46 58 75
47 58 76
41 51 67
50 62 79
43 54 70
40 49 64
49 61 78
44 54 70
46 58 75
43 54 70
46 58 75
45 56 72
45 56 74
46 59 78
48 59 76
53 64 82
48 61 79
47 60 79
48 59 76
48 59 76
52 64 83
46 58 75
51 63 81
44 55 72
50 63 82
42 52 67
51 63 82
53 65 84
46 58 75
40 50 65
50 62 81
44 55 72
42 53 69
44 54 70
47 60 79
55 68 88
43 54 71
43 54 70
49 60 76
51 63 81
46 58 75
47 58 75
48 60 78
51 63 81
47 59 77
49 62 80
47 58 74
44 55 72
50 62 80
44 55 71
50 62 80
47 58 76
46 58 75
45 56 72
44 54 70
46 57 73
49 61 79
49 61 79
42 53 69
48 61 79
41 51 66
46 58 75
42 53 70
49 61 79
44 55 71
53 66 84
42 53 69
121 145 181
175 207 255
175 207 255
175 207 255
175 207 255
175 207 255
175 207 255
175 207 255
175 207 255
175 207 255
122 146 183
39 50 66
44 55 71
43 55 72
35 44 57
43 54 70
44 56 75
44 56 74
39 50 65
47 59 77
41 52 68
41 52 69
41 52 68
41 53 70
41 52 68
39 50 66
41 52 68
38 50 66
42 52 67
41 52 67
35 44 57
41 52 68
38 48 63
39 49 65
39 50 67
37 47 61
40 51 67
43 54 71
46 58 76
48 61 79
41 52 68
40 49 64
39 50 65
39 51 68
46 57 74
41 51 66
44 55 71
43 54 72
43 54 71
43 54 71
40 50 65
48 59 76
43 53 69
46 59 77
44 56 72
42 53 69
42 52 68
43 53 70
33 42 55
37 47 62
42 53 68
39 49 63
46 57 74
41 52 68
37 46 60
41 50 65
42 52 68
37 47 62
39 50 66
42 52 68
38 47 61
42 52 68
41 51 66
34 42 55
37 47 62
47 58 75
42 53 69
42 51 66
39 49 64
39 50 66
38 48 62
36 45 59
41 51 67
41 51 67
42 52 68
41 52 68
40 49 64
44 55 71
45 56 72
44 55 70
39 48 62
43 53 69
39 49 64
43 54 70
40 50 66
40 50 64
41 51 67
38 47 61
38 46 60
44 55 71
37 46 60
45 56 73
41 51 66
40 50 64
43 54 71
43 54 69
41 51 66
46 58 76
40 50 65
37 47 61
43 54 70
46 58 75
42 52 67
40 49 64
42 52 68
45 56 72
39 49 63
46 57 73
46 57 74
41 51 66
43 53 68
39 49 63
45 56 71
46 57 75
46 57 74
42 52 67
43 53 69
41 50 65
42 52 68
45 56 71
45 56 73
42 53 70
41 51 66
43 53 69
46 57 74
39 48 62
41 51 67
43 54 70
41 52 68
42 52 67
40 50 64
43 53 69
43 54 70
48 59 77
41 51 67
46 57 73
45 56 71
44 55 72
42 53 69
38 48 61
47 57 74
48 60 77
41 51 66
45 56 72
47 59 75
49 60 77
44 54 70
44 54 70
44 54 70
39 48 62
40 50 64
41 51 67
41 51 66
43 53 67
42 53 70
39 49 63
36 44 57
42 52 67
41 52 67
40 50 64
49 60 78
48 60 78
38 48 63
45 56 72
44 55 71
42 51 66
42 53 69
45 55 71
41 51 66
40 51 66
40 50 65
45 56 72
41 52 67
43 55 72
42 51 64
41 51 66
41 52 69
42 52 68
43 53 67
41 50 65
42 53 68
43 54 71
44 54 71
38 48 62
46 57 75
49 61 78
40 49 64
40 50 65
48 60 78
40 50 65
47 59 76
45 57 75
44 55 70
46 58 76
41 51 66
41 51 66
46 58 76
41 51 66
41 52 68
39 49 63
46 58 77
44 55 71
42 52 66
45 56 73
38 48 64
39 49 63
45 56 73
43 54 71
42 52 68
39 49 64
42 53 70
44 56 73
33 41 54
47 58 75
37 47 62
39 49 64
42 52 67
37 46 59
48 59 76
46 58 75
44 54 70
42 52 68
45 57 75
40 51 67
42 54 71
39 50 65
39 49 62
42 53 69
40 50 66
38 48 62
45 57 74
43 54 71
43 54 71
43 54 70
44 55 71
45 56 74
41 52 68
35 44 57
43 54 70
37 46 60
40 51 67
41 51 67
42 53 70
39 49 64
41 52 69
45 57 74
40 49 64
42 53 69
37 46 61
38 48 63
36 46 60
37 47 63
41 52 69
41 52 68
38 48 63
42 53 70
37 46 60
38 48 62
44 56 74
40 51 67
42 54 71
40 50 65
40 51 68
40 51 67
44 56 73
37 47 61
42 53 70
40 50 66
38 49 65
45 57 75
111 133 166
176 208 255
176 208 255
176 208 255
175 207 255
175 207 255
175 207 255
175 207 255
174 206 253
66 81 103
48 60 77
45 56 72
51 64 83
45 57 75
46 57 74
46 57 73
44 56 73
45 56 73
49 60 78
48 61 79
45 56 72
45 57 75
47 59 76
50 62 81
48 60 78
50 61 79
40 50 64
44 55 72
45 56 72
45 56 72
42 53 69
47 59 75
49 61 78
47 57 73
42 52 67
47 59 76
43 54 70
47 59 77
45 56 73
45 58 76
46 57 74
44 53 68
44 55 72
44 55 71
51 64 82
51 62 79
43 54 70
50 62 79
54 67 85
47 59 76
52 64 82
45 55 71
44 55 72
45 55 70
49 61 78
46 57 73
42 53 68
48 59 76
46 57 73
49 61 79
47 58 75
47 57 72
44 55 72
46 58 75
41 51 65
50 62 82
44 55 71
46 57 73
45 56 71
49 62 80
48 61 79
42 52 67
46 57 74
45 55 71
43 54 72
47 59 76
50 61 78
48 60 77
43 54 70
53 65 84
54 66 85
49 60 78
42 52 67
51 63 82
47 57 73
51 63 83
44 54 70
48 60 79
45 57 74
44 55 72
49 61 80
46 57 74
52 64 82
52 63 81
51 63 83
47 58 76
47 60 78
42 52 67
44 55 72
47 58 75
52 65 84
47 58 75
47 59 76
44 55 71
46 57 74
50 63 81
39 49 64
49 60 76
47 58 75
46 57 73
47 58 74
47 58 75
46 57 74
43 54 71
45 56 74
45 56 73
41 51 66
52 64 83
45 56 73
42 53 69
64 79 102
171 202 249
175 207 255
175 207 255
175 207 255
175 207 255
176 208 255
176 208 255
176 208 255
112 134 166
48 61 79
41 52 70
47 59 77
45 57 75
37 47 63
43 55 73
43 55 72
42 53 70
39 49 65
40 51 67
43 54 70
42 53 69
37 47 62
40 51 68
45 58 77
43 54 71
39 50 65
36 45 59
37 47 63
42 53 70
41 52 68
40 51 68
43 55 73
41 51 68
41 52 68
41 53 71
41 53 70
39 49 65
38 48 63
41 51 67
35 45 59
39 49 63
42 53 69
36 45 59
38 48 63
40 50 66
38 48 63
41 51 66
44 56 72
35 45 59
42 52 68
37 47 63
42 53 69
46 57 74
40 49 64
36 46 60
39 49 63
44 55 72
40 49 63
43 53 69
40 51 67
39 50 65
46 58 75
35 44 58
43 53 68
40 50 65
37 46 60
42 53 69
43 54 70
36 46 61
46 57 73
36 46 60
41 51 67
42 53 68
42 52 67
47 59 76
43 53 69
42 52 68
46 57 73
38 47 60
50 62 80
40 50 65
36 45 58
38 48 64
46 57 73
39 48 63
42 53 69
44 55 72
41 51 67
43 54 71
43 54 70
36 45 58
39 49 64
42 53 68
46 57 74
42 52 67
43 54 71
43 54 71
43 53 68
45 55 70
43 54 71
43 54 70
37 47 62
42 52 67
41 51 66
40 51 67
39 49 64
41 51 66
44 54 70
41 52 68
45 56 74
44 56 73
36 45 59
45 57 74
44 55 72
46 57 75
32 40 52
42 53 70
42 52 68
46 57 74
44 55 71
44 55 72
43 53 68
41 51 66
41 52 68
41 51 66
34 43 57
48 59 76
38 47 61
39 49 64
44 54 70
45 56 72
44 54 70
47 58 75
45 56 72
43 54 69
41 51 66
45 56 72
39 48 61
48 60 77
40 50 66
42 52 68
47 58 76
40 50 64
45 56 72
45 56 72
43 53 68
41 50 64
42 52 67
46 57 74
45 57 73
44 54 70
42 53 68
41 51 66
46 58 75
42 53 70
39 48 61
46 57 73
38 48 61
47 59 77
43 54 70
44 55 72
43 54 69
40 50 65
44 54 70
45 57 74
48 60 77
44 55 72
42 52 69
39 49 64
46 57 73
42 53 68
42 52 67
48 60 77
40 50 66
43 54 71
45 57 74
40 51 67
43 54 70
40 50 66
45 56 72
38 48 62
47 59 76
44 54 69
45 56 73
47 58 75
41 51 66
45 55 71
45 57 75
43 54 70
43 54 70
41 52 67
38 48 62
44 56 73
49 60 77
40 50 66
37 47 61
44 55 73
41 51 65
46 58 76
45 56 73
48 60 78
42 53 68
43 54 70
43 54 70
43 54 69
46 57 72
41 51 66
36 45 59
41 51 66
41 51 67
38 49 64
41 51 66
42 53 69
36 45 58
38 49 64
43 54 71
43 53 68
42 52 67
43 53 69
39 49 64
44 55 71
43 53 69
40 50 65
42 53 70
43 54 71
42 52 67
42 53 69
39 48 62
44 55 71
41 52 67
34 42 55
47 59 77
39 48 62
43 54 70
35 44 59
40 49 64
40 50 64
44 55 71
37 46 60
41 51 66
40 50 66
43 54 70
37 46 60
44 55 71
43 53 70
40 51 67
41 53 69
41 52 69
35 45 60
42 53 70
43 55 72
44 56 73
38 49 64
38 48 64
44 56 73
43 54 70
42 52 69
36 46 60
43 54 71
35 45 60
43 55 72
43 55 73
38 48 64
39 49 64
37 46 61
42 54 71
39 50 66
34 43 56
40 51 68
38 47 62
43 54 70
45 57 75
43 54 71
43 55 72
42 53 69
40 51 68
37 46 61
41 51 68
44 55 72
45 57 75
131 156 194
176 208 255
176 208 255
176 208 255
176 208 255
176 208 255
176 208 255
98 118 147
48 61 79
41 52 67
48 60 77
47 59 77
41 51 66
45 57 74
42 52 67
50 62 80
46 58 75
49 61 80
49 61 78
47 58 74
42 53 68
44 55 72
41 50 65
50 62 80
45 55 71
46 58 75
46 57 73
42 52 68
45 56 72
50 63 82
48 59 77
43 54 70
49 61 78
44 55 71
50 62 81
50 61 79
50 62 79
47 58 75
47 58 75
44 55 71
50 61 78
44 55 71
43 54 70
48 59 76
44 55 72
48 59 76
47 57 74
52 64 82
49 60 77
49 61 78
39 49 63
46 58 75
48 60 78
50 63 82
47 58 73
51 63 81
41 50 65
47 57 72
49 61 80
44 54 70
43 53 68
43 53 69
41 52 68
42 53 69
46 57 73
55 69 90
44 54 68
45 56 73
43 55 72
42 52 67
42 52 68
51 64 82
48 61 79
44 55 70
46 56 72
50 62 80
44 55 71
50 62 80
49 60 76
47 58 76
41 51 66
48 60 78
49 60 77
46 58 74
42 53 69
48 59 75
49 61 79
48 60 77
42 53 68
46 56 73
45 56 73
48 61 80
46 56 72
43 53 68
43 54 70
45 57 74
43 54 71
47 58 75
43 54 70
42 54 70
44 55 72
45 56 72
44 55 72
49 61 79
45 56 72
45 57 74
45 55 71
51 63 82
44 55 72
47 58 75
45 56 73
51 64 84
43 53 68
43 54 70
45 57 75
48 60 78
48 60 78
43 54 70
50 63 82
52 64 82
116 139 172
176 208 255
176 208 255
176 208 255
176 208 255
176 208 255
176 208 255
131 156 193
42 54 71
36 45 60
36 46 60
43 53 70
39 49 65
37 47 62
43 54 71
36 46 59
39 49 64
41 53 70
38 48 63
41 52 68
44 56 73
43 54 72
41 52 68
39 49 64
42 53 70
39 49 64
41 51 67
41 52 69
40 51 66
39 50 67
37 46 61
41 52 68
36 46 62
37 47 62
37 46 60
40 50 64
36 45 60
43 54 70
37 48 64
38 48 63
37 47 61
40 51 67
48 60 79
47 59 78
41 52 69
44 55 72
40 51 67
43 54 70
37 46 60
43 54 71
37 47 62
40 50 65
42 53 70
40 50 64
41 52 68
43 54 70
45 56 72
41 51 67
42 53 68
42 52 67
41 51 66
36 44 57
38 48 63
45 57 73
42 52 68
37 47 61
40 52 68
39 49 65
42 53 68
33 42 54
49 60 78
40 50 65
46 57 74
44 55 71
39 48 63
39 49 64
39 48 62
35 44 57
43 53 68
42 52 68
40 50 66
38 48 62
44 54 70
41 50 65
42 53 68
43 54 70
36 46 61
40 50 65
41 52 68
43 54 71
38 48 63
45 55 72
38 49 64
40 50 65
45 56 72
35 44 58
41 51 66
45 56 72
38 47 61
40 50 65
46 57 74
40 50 66
38 48 63
42 52 68
41 51 66
43 53 68
41 51 67
41 51 66
38 48 63
34 43 56
37 47 60
43 54 69
41 52 67
45 56 72
46 57 73
43 54 70
44 54 68
46 57 73
42 51 66
38 47 61
41 52 68
41 51 65
38 48 62
47 58 74
41 51 67
38 48 61
45 57 73
43 54 71
44 55 70
43 54 70
43 52 67
44 56 73
43 54 72
46 57 74
49 61 79
43 54 71
47 57 74
43 53 68
40 50 65
44 55 71
45 56 72
38 47 61
42 51 66
43 53 69
46 57 73
46 57 74
46 57 73
38 48 62
42 51 66
52 63 81
40 49 62
44 54 69
47 57 72
39 49 64
43 53 68
39 49 63
44 55 71
44 55 72
46 57 74
40 50 66
40 49 64
48 59 77
42 52 67
47 58 74
38 47 61
42 52 68
39 49 64
47 58 75
45 57 74
42 52 66
41 51 66
45 56 73
44 55 71
44 55 71
42 51 66
42 52 67
42 52 68
46 57 73
41 51 67
42 52 68
45 56 73
44 54 70
43 54 70
49 61 79
45 56 72
44 55 71
45 55 71
45 56 72
40 50 65
41 52 68
46 57 74
42 53 70
42 53 70
41 51 67
40 50 65
35 44 57
38 47 62
41 51 66
36 45 59
47 58 76
42 52 66
47 59 76
41 51 66
41 52 67
45 56 73
47 58 75
44 54 70
41 51 66
39 49 65
46 58 75
41 52 67
40 51 66
42 53 68
43 54 70
47 59 77
41 51 67
44 55 72
42 53 68
40 50 66
39 49 65
45 56 73
43 54 72
39 48 62
39 49 64
42 52 67
43 54 70
33 41 54
45 56 74
43 54 71
43 54 71
42 53 68
43 53 70
39 49 64
40 50 64
38 47 61
35 44 58
39 48 63
45 56 73
41 51 66
41 52 68
40 50 65
36 45 60
41 51 67
41 52 68
40 51 67
42 53 69
39 49 64
45 56 73
40 50 66
40 50 64
39 49 64
36 45 60
37 48 63
39 49 64
34 43 57
41 51 66
37 48 64
38 47 61
37 47 61
42 54 71
42 53 70
41 52 69
34 43 57
41 51 66
39 49 65
35 44 58
38 48 63
40 51 67
41 53 70
42 53 70
38 48 64
42 53 70
39 48 63
41 52 68
42 54 71
41 53 70
42 53 70
42 53 70
43 55 73
42 53 69
45 56 73
150 177 218
176 208 255
176 208 255
176 208 255
176 208 255
160 189 233
48 61 81
49 62 82
50 62 81
51 64 83
50 62 81
47 59 77
43 54 70
51 63 81
38 47 62
42 53 69
47 58 74
46 58 74
46 58 75
49 62 81
52 64 83
48 60 77
50 62 80
50 62 82
42 53 68
42 52 67
45 56 73
49 59 76
49 61 80
46 57 73
50 62 80
47 59 77
54 66 85
47 59 77
43 54 71
47 58 74
48 59 76
49 60 77
45 55 71
51 64 82
42 53 68
42 52 67
49 60 77
46 57 74
42 52 67
45 56 73
48 59 76
46 57 74
46 57 74
44 54 69
44 54 70
47 59 76
44 54 69
48 60 77
47 57 72
49 60 77
46 57 74
49 61 77
44 55 71
48 58 74
45 56 72
49 61 79
45 56 72
52 65 84
47 58 75
47 59 76
43 53 69
49 61 79
44 55 70
45 57 73
52 64 81
48 59 76
41 51 67
45 56 72
44 54 71
42 53 68
48 60 77
43 53 70
44 56 73
47 58 74
41 51 67
44 54 70
47 58 74
45 57 74
47 59 76
47 58 75
44 56 73
52 65 84
50 62 80
51 63 82
46 57 74
46 56 72
50 62 81
50 62 80
43 54 70
49 62 81
40 51 66
48 60 79
43 54 71
47 59 77
48 59 76
45 56 74
41 52 68
50 62 80
46 57 74
45 56 72
50 63 83
49 61 78
47 58 75
46 56 72
47 59 76
53 66 85
46 59 78
45 56 72
50 62 80
45 56 73
41 52 68
43 54 69
38 49 65
45 56 73
169 200 245
176 208 255
176 208 255
176 208 255
176 208 255
143 169 209
40 51 67
44 55 72
43 55 73
40 51 68
41 51 67
38 48 63
42 53 69
38 50 67
33 43 58
38 48 64
37 47 62
40 50 66
36 46 60
33 42 56
37 47 62
37 47 62
38 47 62
38 48 63
40 51 67
40 50 67
38 48 64
36 45 59
37 46 61
40 50 67
44 55 71
43 53 68
43 55 72
40 50 66
38 48 62
47 59 77
38 48 63
40 50 66
39 50 65
40 51 67
42 53 69
36 44 57
36 46 59
36 45 59
36 44 58
46 57 74
42 52 69
41 52 69
43 55 73
44 56 74
43 53 69
33 42 54
46 58 75
39 49 64
45 55 71
37 47 61
37 46 61
35 43 57
44 55 70
38 48 62
42 53 70
38 48 63
36 45 59
44 56 74
43 54 70
43 54 71
39 48 62
39 49 64
39 49 62
39 49 64
40 49 64
38 47 62
42 52 67
41 51 67
42 52 67
42 52 67
41 52 68
46 56 71
38 48 63
42 53 70
43 54 70
45 56 73
36 45 59
43 53 69
43 52 67
39 48 62
41 51 66
47 59 76
47 57 72
40 51 66
39 48 61
41 51 67
44 55 71
41 52 67
41 51 67
42 51 65
46 56 72
41 51 66
38 47 61
38 48 62
42 53 68
40 50 64
45 56 72
41 50 65
41 50 65
41 51 66
41 51 66
40 50 66
48 59 77
38 48 63
43 53 69
39 48 62
42 53 69
43 53 70
46 58 75
40 50 65
37 46 60
44 55 72
35 44 57
39 49 64
41 51 66
44 54 71
42 52 68
44 54 71
43 53 68
42 52 68
44 54 69
45 55 71
40 49 63
41 52 68
42 53 69
41 52 68
43 55 71
45 57 74
40 51 66
47 58 74
39 47 60
48 58 73
40 50 66
47 59 75
42 52 68
43 53 67
38 48 62
41 51 66
42 52 67
47 58 75
41 51 67
43 54 69
43 53 69
41 50 64
49 62 80
38 47 61
47 58 75
52 64 83
44 55 70
42 52 67
44 55 71
42 53 69
41 51 67
45 55 71
45 55 72
42 52 67
38 48 63
38 47 60
42 52 67
42 52 68
44 55 72
42 52 65
48 59 76
45 56 72
42 52 67
43 54 70
43 54 69
39 49 63
46 57 75
47 59 76
43 54 70
46 58 76
39 49 63
44 55 72
46 57 73
41 51 66
47 58 75
41 52 67
46 58 75
39 49 64
44 55 72
41 51 66
36 45 59
46 57 73
43 54 70
42 52 67
40 51 66
46 58 75
43 53 68
38 47 62
42 52 68
43 53 69
41 52 68
40 50 65
40 49 64
41 50 65
39 49 64
46 58 74
43 54 71
45 55 72
42 52 67
42 52 67
43 54 70
42 53 69
39 49 63
38 48 63
42 52 68
42 52 69
44 55 71
47 58 76
44 55 73
38 47 62
37 46 60
47 59 76
42 53 69
43 54 70
36 45 59
38 47 62
40 50 63
45 55 72
43 53 70
39 50 65
45 56 74
41 51 66
38 48 62
43 54 71
38 47 61
48 60 78
41 51 67
45 57 74
39 48 63
40 49 64
37 47 61
40 49 64
40 50 64
44 55 72
39 50 65
39 49 65
39 49 63
43 54 70
41 52 69
34 43 56
38 48 62
39 49 65
38 48 62
43 54 72
43 54 70
41 51 67
36 46 61
39 49 64
36 46 61
33 42 56
37 47 63
39 49 65
36 45 59
39 50 66
41 50 65
41 51 67
37 47 61
40 50 65
39 50 67
42 53 71
39 49 65
41 51 67
42 53 69
38 49 65
40 51 67
39 50 66
40 52 68
40 51 66
37 47 61
38 49 64
42 55 73
47 59 77
56 70 90
163 192 236
177 208 255
177 208 255
177 208 255
100 120 150
41 52 68
41 52 69
49 61 78
48 60 77
47 59 77
42 53 68
45 56 73
50 62 79
47 59 76
48 60 77
46 57 74
43 53 68
46 57 73
45 56 73
50 62 79
49 60 77
42 52 69
47 58 75
43 54 71
47 59 76
47 58 75
45 56 72
50 63 82
46 58 75
44 55 72
45 57 74
45 56 72
49 60 78
48 60 78
42 52 68
50 62 79
45 56 73
46 57 74
42 52 67
49 61 78
46 57 73
43 53 69
45 56 72
45 56 72
42 53 69
43 53 68
48 60 79
45 57 74
44 54 70
47 59 76
44 55 72
46 57 74
45 57 74
44 55 70
45 56 72
48 59 77
43 54 70
44 55 71
47 58 73
50 63 81
42 52 67
46 58 75
49 61 79
51 63 80
49 61 78
46 57 74
48 60 78
45 56 73
47 59 76
46 57 74
44 57 75
41 51 66
48 60 77
43 54 71
43 53 68
45 56 72
50 62 80
42 53 68
45 55 70
42 52 68
45 57 75
49 61 79
45 55 71
47 56 71
45 55 70
49 61 78
45 56 73
47 58 75
47 58 75
40 50 65
49 61 78
46 57 72
55 67 86
45 55 72
48 60 78
44 54 70
44 55 71
48 60 77
43 54 71
46 57 74
45 56 72
42 53 68
46 57 75
41 51 67
47 58 75
45 57 74
45 56 72
45 56 73
49 60 78
48 60 78
44 53 68
39 49 63
46 58 76
48 61 80
40 49 63
51 63 81
46 57 74
45 56 72
42 53 68
92 110 139
177 208 255
177 208 255
177 208 255
163 193 237
61 76 98
45 56 73
42 53 69
38 49 65
40 51 68
44 56 74
39 50 66
36 45 60
42 53 70
33 42 55
40 51 66
40 51 68
43 54 71
34 43 57
33 42 56
36 46 60
35 45 58
38 48 64
35 44 57
41 51 67
42 52 68
41 51 67
38 48 62
35 44 57
37 47 63
40 50 66
37 48 63
36 45 58
42 54 71
44 56 73
36 46 60
37 47 62
42 52 68
38 48 64
45 57 74
47 59 77
41 53 70
43 55 72
40 50 66
38 48 62
36 46 61
41 51 67
37 47 62
37 47 62
42 53 70
45 56 74
42 53 69
41 52 68
39 49 64
39 48 63
42 52 67
39 48 63
43 54 70
37 47 62
38 47 62
41 51 67
40 51 66
44 55 72
40 51 68
40 49 63
41 50 65
41 51 67
38 48 62
37 46 59
41 51 66
36 46 60
35 44 57
40 50 65
40 50 65
38 48 63
37 47 61
49 60 77
38 47 61
39 48 61
49 60 78
37 46 61
42 53 69
42 52 67
43 54 70
40 50 65
45 55 72
40 51 67
42 52 68
42 52 67
42 53 69
38 48 63
39 50 65
43 53 68
34 43 57
45 56 72
41 51 67
42 53 69
40 50 65
38 48 63
45 56 72
44 54 69
42 52 67
37 46 60
41 52 67
40 50 65
35 44 58
42 52 67
47 59 76
39 49 63
45 56 72
42 51 66
36 44 57
42 53 69
43 54 70
45 57 74
44 54 71
43 54 69
48 58 74
36 45 59
40 50 65
43 54 69
46 57 74
38 48 61
46 56 72
47 58 75
43 52 67
50 61 77
49 61 78
37 46 59
41 51 67
42 52 67
42 52 67
43 53 70
47 58 75
44 55 70
46 57 74
42 52 68
42 52 68
42 52 66
41 51 66
41 51 65
38 48 62
39 50 65
39 48 61
49 61 79
42 52 67
50 61 78
48 59 76
41 52 67
37 47 61
43 53 69
45 56 72
45 56 72
44 54 70
44 54 70
40 50 64
48 59 77
45 55 71
44 54 70
48 60 78
41 52 68
47 58 75
41 52 67
46 58 76
46 58 75
44 54 70
47 58 76
42 53 68
47 58 74
49 60 77
42 53 68
39 49 64
39 49 64
36 44 57
41 51 66
48 59 76
41 50 65
41 51 66
43 54 71
42 52 67
46 57 74
38 47 61
41 52 68
42 53 68
43 53 69
47 57 74
41 51 66
41 52 67
44 55 71
41 52 68
39 48 62
38 48 62
41 52 68
40 50 65
42 53 69
42 51 65
39 48 61
43 54 70
43 54 70
41 51 66
45 56 72
40 50 65
40 50 64
41 51 67
44 55 71
42 52 69
39 48 62
41 51 67
47 59 77
41 51 66
39 48 62
41 51 67
43 54 70
35 45 59
35 43 55
37 48 63
40 50 64
40 50 65
41 50 65
44 55 71
44 56 74
44 55 72
42 53 69
40 50 65
39 48 62
39 48 62
43 54 71
44 55 72
40 50 65
36 46 60
42 52 68
44 55 71
37 46 60
45 57 75
38 48 62
39 48 63
38 48 63
39 49 64
45 56 73
39 49 63
43 53 68
41 52 68
33 42 56
41 53 70
40 51 66
39 49 65
40 49 64
32 40 53
38 48 64
32 41 55
41 52 68
42 53 69
38 48 63
43 54 70
36 45 59
43 54 70
38 48 62
36 46 61
43 54 70
43 54 71
42 53 70
37 46 60
37 47 62
39 49 64
38 48 64
39 49 64
37 47 61
36 45 58
35 44 58
38 48 64
43 54 70
36 45 59
43 55 72
35 45 59
39 49 64
36 45 59
41 52 68
34 43 57
42 53 69
43 55 73
35 45 60
75 91 114
171 201 246
177 209 255
168 198 243
42 53 70
47 59 77
45 56 72
51 63 82
47 59 78
44 55 73
49 60 77
48 59 76
50 62 80
46 57 74
49 61 80
43 54 70
43 53 70
46 57 74
49 62 81
48 59 76
48 59 77
44 54 70
43 53 68
47 59 76
45 57 74
50 62 80
46 58 75
43 54 69
44 55 70
47 59 77
48 60 78
42 53 68
42 53 69
43 54 71
47 58 76
49 62 80
51 64 82
47 58 74
47 59 77
43 53 68
49 61 78
46 57 74
42 52 66
41 52 68
43 54 70
46 57 73
46 57 73
47 59 76
42 52 68
43 53 69
45 56 71
45 55 70
45 55 70
45 56 73
48 59 77
45 56 73
46 57 73
47 58 75
44 55 72
46 57 74
45 56 71
45 56 73
38 48 63
46 58 76
46 56 73
50 61 79
48 60 78
44 55 72
48 59 76
48 59 75
44 56 72
43 54 71
44 56 72
44 54 69
47 58 76
46 57 74
50 62 79
44 55 71
52 64 82
47 58 75
47 58 76
44 53 68
44 55 71
47 58 74
43 54 70
44 55 71
44 55 71
49 60 77
47 59 77
48 60 77
44 55 71
37 47 61
46 57 73
44 55 72
48 59 76
49 60 76
43 54 69
46 58 75
40 50 66
47 58 74
42 52 68
43 53 68
48 60 79
43 54 69
49 62 81
44 55 72
48 60 77
45 56 72
46 57 74
51 63 80
46 57 73
40 50 65
41 51 67
47 58 76
43 54 71
44 55 72
42 52 67
47 59 77
40 49 63
49 61 80
161 190 233
177 209 255
176 207 253
84 102 128
37 48 65
38 49 65
41 52 69
40 51 68
36 45 59
44 55 72
47 58 76
37 46 61
39 49 64
32 41 54
39 50 66
38 49 64
34 43 57
38 49 65
39 49 65
33 41 54
45 57 75
40 50 65
32 40 53
38 49 64
44 56 75
34 43 56
34 43 56
38 49 65
42 53 71
41 52 69
39 49 64
39 49 64
34 42 55
40 51 67
35 43 57
37 46 60
42 53 70
36 47 62
36 45 58
32 40 52
39 49 64
38 47 61
39 49 64
42 52 68
41 51 67
40 50 64
43 54 70
39 49 64
42 52 68
41 52 68
37 47 62
39 49 63
44 56 74
39 48 62
36 45 58
45 56 74
35 45 58
42 52 68
41 51 68
38 47 62
40 49 64
41 52 68
37 46 60
36 46 60
42 53 69
40 50 65
37 47 61
39 49 64
41 50 65
41 50 64
41 51 66
40 50 65
39 49 64
45 56 74
45 56 72
39 48 62
44 56 74
41 51 66
42 52 68
39 48 63
38 48 62
38 47 60
42 52 68
41 51 67
37 46 61
42 53 68
40 49 64
44 54 71
43 54 69
40 50 65
43 53 69
38 48 62
46 57 73
38 48 62
45 56 72
38 48 63
41 51 67
38 48 63
39 49 63
37 47 61
41 51 67
41 51 67
38 48 62
40 50 65
36 46 59
39 49 64
43 53 68
46 58 76
39 48 63
38 48 62
43 53 68
37 46 59
46 57 72
39 48 62
43 53 69
40 50 65
43 53 68
45 55 71
44 54 69
42 53 70
48 60 77
40 50 65
39 48 62
43 53 69
41 51 65
44 54 69
43 54 71
44 54 69
43 53 68
41 51 66
43 53 68
39 48 63
42 52 68
41 51 66
42 53 69
42 54 71
42 52 66
40 49 64
44 55 70
42 53 68
38 47 61
40 50 64
40 50 65
39 49 63
41 52 67
43 53 68
44 55 72
43 54 69
40 51 66
44 54 68
47 59 76
42 52 66
35 43 55
44 55 72
42 52 68
43 53 69
46 57 74
41 51 65
47 58 75
41 51 67
48 60 77
45 56 72
46 57 75
42 53 69
40 49 63
46 58 75
41 50 65
36 44 58
45 55 71
42 52 68
40 50 64
41 51 66
41 51 65
42 52 68
42 51 66
43 53 69
38 47 60
38 48 62
41 52 68
39 49 63
42 52 67
43 53 68
38 49 65
38 48 62
42 52 67
42 52 68
44 55 71
43 54 70
41 51 66
44 55 72
42 52 68
42 52 68
47 59 76
41 52 68
40 49 62
47 59 78
43 53 69
39 49 64
39 49 65
46 58 75
43 54 71
40 50 65
38 48 62
42 53 68
42 53 69
43 54 70
39 49 63
42 52 67
42 52 68
48 60 77
39 49 63
44 55 72
47 58 75
41 52 68
41 51 67
42 52 67
38 48 63
41 51 66
44 56 73
40 51 67
37 47 62
41 51 66
38 48 62
42 53 68
43 54 71
38 47 61
45 56 72
44 55 72
38 49 64
41 52 68
44 55 72
35 44 57
42 52 66
40 50 66
36 46 61
39 49 63
38 48 63
33 42 55
36 46 61
43 54 70
40 49 63
44 55 72
43 55 72
43 54 72
44 54 69
33 42 55
40 51 68
38 48 62
38 49 65
39 50 65
40 50 65
36 45 59
32 41 54
34 44 58
40 50 66
43 55 72
42 53 70
42 53 70
37 46 61
38 47 61
31 40 52
33 42 56
37 48 64
35 44 57
40 51 66
38 48 64
36 46 60
36 46 60
37 48 63
38 49 64
35 44 57
35 45 61
34 43 57
36 46 60
36 46 61
35 44 59
40 53 71
43 55 73
42 54 73
41 52 68
43 54 70
103 122 152
178 209 255
78 95 119
48 59 77
45 57 74
45 57 75
46 56 72
38 48 63
46 58 75
39 49 63
43 53 67
42 52 68
43 55 72
48 59 76
48 60 78
44 55 72
49 61 79
42 53 69
47 59 76
46 57 73
44 54 70
47 58 74
43 53 68
46 57 73
41 51 66
44 53 68
42 52 68
47 59 77
43 53 69
53 65 83
45 56 72
45 56 72
48 59 76
46 57 74
40 51 66
46 56 72
42 52 68
45 56 72
44 55 71
46 58 76
48 60 77
41 51 65
44 55 71
43 53 70
43 53 68
46 57 73
45 56 72
44 54 68
45 55 70
47 58 74
49 60 77
45 56 74
47 59 77
38 47 61
43 54 70
43 54 70
45 56 72
45 55 71
45 56 73
46 56 72
52 64 82
47 59 76
44 54 69
46 57 73
53 65 84
44 55 71
51 63 82
47 58 75
47 58 74
48 60 77
44 55 71
48 60 77
45 57 74
46 56 73
42 52 67
43 53 68
45 57 74
43 53 69
46 57 74
44 54 70
43 53 68
46 57 74
43 52 67
43 54 71
46 57 74
42 53 70
46 57 74
45 56 73
46 57 73
45 57 74
42 52 67
45 56 72
40 50 65
45 57 74
44 55 72
48 60 78
49 61 78
50 62 81
45 57 74
44 55 71
48 61 80
47 59 77
45 55 71
47 59 76
42 53 68
43 54 70
45 57 75
53 66 85
46 58 75
45 56 72
43 54 71
42 53 69
41 51 67
40 50 64
46 59 77
47 58 75
46 58 75
42 52 68
45 57 75
91 109 136
178 209 255
107 127 158
40 51 67
36 45 60
43 54 70
43 55 73
34 44 60
34 43 56
35 44 58
35 44 57
39 49 64
40 51 67
35 45 59
37 46 61
40 49 64
35 44 58
46 57 75
37 47 62
38 49 65
34 43 58
42 52 68
37 47 63
36 45 58
40 51 67
36 46 61
42 52 67
39 49 64
38 48 63
37 47 61
35 44 58
37 46 60
37 46 60
40 50 64
38 48 64
42 53 70
38 48 63
37 47 62
42 52 68
37 48 64
43 55 74
41 51 67
36 46 62
40 51 66
40 50 67
44 54 70
35 44 58
40 50 66
38 48 62
47 59 77
35 44 57
42 52 67
44 54 70
37 47 61
39 49 64
38 47 61
38 47 61
40 50 65
37 47 61
38 47 62
38 48 63
35 44 57
37 46 60
36 45 58
41 51 67
45 55 71
38 48 63
43 54 70
35 44 58
41 51 66
42 52 67
42 51 66
36 45 59
40 50 65
41 51 66
40 51 66
42 52 67
37 46 60
43 52 67
41 51 67
41 51 67
43 54 70
40 49 63
43 53 69
37 46 60
42 52 67
41 52 67
43 54 70
40 50 66
45 55 71
40 51 66
43 54 71
43 53 68
37 46 60
35 45 59
35 44 57
43 54 69
46 57 73
45 55 71
48 59 75
41 51 66
37 46 60
47 59 76
40 50 64
40 49 63
43 54 71
41 52 67
36 45 59
40 50 66
42 52 67
41 52 67
41 51 67
41 51 67
42 53 69
44 55 70
41 51 67
45 55 71
44 55 71
46 58 75
40 50 64
41 51 67
40 49 64
37 46 60
41 50 65
39 49 63
38 48 63
42 51 66
39 48 63
43 53 69
40 50 64
42 52 69
42 53 69
46 56 73
41 51 65
48 58 74
43 53 69
45 56 72
38 47 60
44 54 70
41 50 65
42 51 66
46 56 71
41 51 67
41 51 65
38 47 61
39 49 62
45 55 71
42 53 69
46 57 73
46 57 73
45 55 71
40 50 65
45 55 70
41 51 65
43 54 70
44 54 70
45 56 72
44 55 70
44 54 69
42 52 68
41 51 66
42 52 67
45 56 73
35 44 57
43 54 70
46 56 72
37 46 60
41 50 65
41 51 66
40 50 65
43 54 70
48 59 75
45 56 73
46 58 74
45 58 76
39 49 63
42 52 68
39 49 64
39 48 62
47 58 75
48 60 79
41 50 65
43 53 69
40 51 66
47 58 75
45 56 72
43 53 68
45 57 74
40 51 67
40 50 65
48 60 77
36 45 58
45 56 72
45 56 73
40 50 64
41 52 67
38 48 62
41 51 65
39 48 62
43 53 69
41 51 66
42 52 68
39 49 64
40 50 66
40 50 65
38 48 64
37 47 61
43 53 69
38 47 62
39 48 63
41 50 65
41 51 66
41 51 67
42 53 68
42 52 67
38 47 60
45 56 73
40 49 64
38 47 62
42 53 69
45 56 73
38 48 63
37 46 61
37 46 60
41 52 68
39 49 64
37 48 64
34 44 57
43 54 70
41 51 67
35 44 58
38 48 63
37 47 61
42 53 69
32 41 55
42 53 69
42 53 69
40 50 65
42 52 67
34 43 57
38 48 63
45 56 72
38 48 64
40 49 64
37 47 61
36 45 58
35 44 57
38 48 62
40 50 65
35 46 61
46 57 75
33 41 53
38 49 65
37 47 62
32 40 53
37 46 61
43 55 73
32 40 53
38 47 61
40 51 67
37 46 61
35 44 58
34 42 55
34 43 56
35 43 57
39 50 66
36 46 61
36 47 62
37 47 62
35 45 60
37 47 62
36 45 60
35 45 59
36 46 61
39 49 65
37 48 64
39 49 65
31 40 52
35 44 58
39 49 65
37 47 63
49 61 80
136 161 199
43 53 68
43 54 70
47 59 77
46 57 74
53 65 84
43 53 69
43 54 71
47 59 76
47 58 75
46 57 74
42 53 69
49 61 78
40 50 64
44 55 70
48 60 78
41 52 67
42 52 67
50 62 79
42 52 66
46 58 75
51 64 83
48 60 78
53 65 83
44 55 72
52 65 84
45 56 72
48 60 76
40 50 66
42 53 69
47 59 75
52 64 81
40 50 65
41 51 66
44 55 72
40 51 67
46 57 73
40 49 63
50 62 79
42 52 68
46 57 73
41 51 66
41 51 66
49 60 77
47 58 76
45 55 71
44 55 71
49 62 80
49 60 77
47 59 76
43 53 68
45 56 72
44 54 70
47 59 76
47 58 76
42 52 68
45 56 73
42 53 68
43 53 68
42 53 69
45 55 71
48 59 77
44 54 70
48 60 77
47 58 75
44 55 72
42 52 67
46 57 74
44 54 69
45 56 72
43 54 69
42 52 67
43 54 70
42 50 63
43 54 70
47 59 76
44 55 70
47 59 76
48 59 76
44 55 72
48 58 74
51 62 79
43 54 71
42 53 69
45 56 73
44 54 69
50 62 81
38 48 62
45 56 73
42 52 66
48 60 78
46 57 74
48 60 78
45 56 72
47 59 76
45 57 75
47 59 77
52 64 83
38 47 61
47 58 74
47 59 76
45 57 74
46 56 72
44 55 72
47 59 76
48 59 76
45 55 71
43 53 69
49 61 79
45 56 72
47 57 74
44 55 73
42 53 68
46 58 76
51 64 83
44 55 72
45 56 72
42 52 67
43 54 71
132 155 190
42 53 69
36 46 60
38 49 64
39 50 66
36 45 60
39 49 65
37 48 63
36 45 60
40 50 66
33 41 54
36 45 59
35 44 58
43 54 71
34 43 57
37 47 62
38 49 66
41 53 71
32 41 54
34 44 58
39 50 65
39 50 65
38 48 62
35 43 56
38 49 65
35 44 57
37 47 61
36 45 58
40 50 66
34 44 59
38 47 61
42 53 69
39 49 64
42 53 70
43 54 71
41 52 68
34 43 56
43 54 71
48 60 77
41 52 68
39 49 64
41 50 65
35 45 59
39 49 64
36 45 59
37 47 61
36 45 59
41 52 67
41 52 69
34 43 55
46 57 75
42 52 67
42 53 70
37 46 59
40 50 65
39 49 63
41 51 65
35 44 57
39 48 62
41 51 67
41 51 65
36 45 59
40 50 66
37 46 61
35 44 58
40 50 65
39 48 62
37 47 62
43 53 68
41 50 64
38 47 62
44 55 72
38 47 62
38 47 61
42 52 68
41 52 68
44 55 72
45 56 73
38 47 61
42 52 67
41 51 67
40 50 65
41 51 66
41 51 65
38 47 61
42 52 68
40 49 63
41 51 66
41 51 66
37 46 59
43 54 69
41 51 65
44 55 71
44 54 69
34 42 54
44 55 70
40 50 64
38 47 62
41 51 68
40 50 66
35 44 58
35 44 57
44 54 69
41 51 67
39 48 62
43 52 67
40 50 65
43 53 68
41 51 66
42 52 67
40 49 64
40 50 65
39 49 64
42 52 67
44 54 70
40 50 65
43 53 68
45 56 72
47 58 75
43 53 67
45 55 71
38 48 62
44 55 71
43 53 68
39 48 63
39 48 63
42 52 66
40 50 65
42 52 67
38 48 62
47 58 74
39 49 63
41 50 64
41 51 65
43 54 69
43 53 69
42 51 65
44 55 71
48 59 77
35 43 56
44 55 71
39 48 62
45 55 71
48 59 77
40 50 66
43 53 67
42 52 67
39 49 63
49 61 79
40 49 63
44 54 70
40 50 65
43 54 70
41 51 66
48 59 75
41 51 66
45 55 71
37 46 58
40 50 64
45 56 73
46 57 74
41 50 63
40 50 64
42 51 65
42 52 67
42 53 68
47 59 78
40 50 65
44 56 73
44 55 71
39 48 62
49 61 80
47 58 75
42 52 68
41 51 67
45 56 72
47 58 75
45 56 73
42 53 69
44 56 73
43 53 68
44 55 70
43 54 70
44 54 71
44 55 72
39 49 63
41 50 65
44 55 70
45 56 72
41 52 68
36 45 59
45 56 73
36 45 59
43 54 70
46 57 74
45 55 71
39 49 63
36 45 58
41 52 68
42 53 69
40 51 67
42 53 68
39 49 64
40 51 67
43 53 69
43 53 67
41 52 67
42 53 68
43 53 68
44 55 72
37 46 60
32 41 55
40 50 65
41 52 68
39 49 64
36 45 58
38 47 61
43 54 70
45 56 73
45 57 74
35 44 58
46 58 75
36 45 59
39 50 65
39 49 63
39 49 64
39 49 64
37 46 61
37 46 61
42 52 67
45 57 74
42 53 70
43 53 69
34 43 57
37 46 59
42 54 71
40 50 64
36 44 57
36 45 59
39 49 64
39 47 61
35 45 58
35 44 57
41 51 67
36 46 60
39 48 62
37 47 62
33 43 57
39 49 63
34 43 56
37 47 61
41 53 69
38 47 61
38 48 63
35 44 58
36 45 58
37 47 61
34 43 57
39 49 64
35 45 58
37 46 61
33 42 55
35 46 61
32 41 54
37 47 62
38 48 62
38 48 63
31 39 52
33 41 55
38 49 65
38 48 62
36 45 60
36 46 61
37 46 60
36 46 61
34 44 59
38 49 66
38 48 63
36 46 62
38 49 65
37 47 62
40 50 66
39 49 64
45 56 72
45 56 72
47 59 76
43 54 71
43 53 68
43 53 68
46 56 72
41 50 64
43 55 72
48 60 77
48 60 76
47 58 74
45 55 71
44 55 71
41 50 65
46 58 76
44 55 71
47 58 75
49 60 77
49 61 78
43 52 67
48 59 74
45 56 73
41 51 67
41 52 67
43 53 69
45 56 72
55 68 88
50 61 78
43 53 68
45 55 71
45 55 70
48 60 76
45 55 71
44 53 68
46 57 75
47 57 73
43 54 70
41 51 65
50 62 79
44 55 72
47 58 74
42 52 68
40 49 63
46 56 71
43 53 68
44 56 73
45 56 71
45 56 72
42 53 68
49 61 79
40 50 64
47 58 74
52 64 83
45 57 74
49 61 79
48 59 76
46 57 72
48 60 77
46 58 75
44 55 71
47 57 73
48 60 78
45 55 71
45 55 70
38 47 61
44 55 71
49 60 77
49 60 77
43 52 67
42 52 68
43 52 67
48 60 78
47 58 74
45 55 71
46 57 75
46 57 74
43 54 70
47 59 76
46 57 73
46 58 76
47 58 75
46 57 73
45 55 70
48 59 75
49 60 76
41 51 67
52 64 83
49 61 78
45 56 73
47 59 76
45 56 72
47 59 77
44 55 71
47 58 75
41 51 67
43 54 71
41 51 67
48 59 76
50 62 81
49 61 79
55 68 88
45 55 72
43 53 68
46 56 72
44 55 71
48 59 77
47 59 76
42 53 68
48 60 77
47 59 77
43 54 70
43 54 71
43 53 68
43 54 71
44 55 72
41 53 70
34 43 57
35 44 58
46 58 77
38 48 62
35 45 61
41 52 70
42 53 69
37 48 64
34 43 56
29 37 50
37 47 62
37 46 61
38 48 64
39 49 65
36 46 61
32 41 54
36 46 60
34 45 60
32 41 53
34 43 57
39 49 64
34 43 57
38 48 62
37 47 61
40 50 66
40 50 66
34 43 56
38 48 64
40 51 67
36 45 60
39 49 64
36 45 59
40 50 65
34 42 56
38 48 62
38 47 62
42 52 67
38 47 62
42 53 69
36 45 59
41 51 67
36 45 59
37 46 60
36 46 60
37 47 62
35 43 57
40 49 63
41 51 68
42 52 68
36 45 59
37 46 61
38 48 63
43 53 69
37 46 60
38 48 62
37 46 60
37 48 63
36 45 58
36 45 59
38 47 61
40 50 64
38 48 63
43 54 70
42 52 68
37 46 60
47 58 76
41 51 66
40 50 64
37 46 60
38 46 60
45 55 72
34 43 55
38 47 62
39 49 64
38 47 61
39 48 62
43 53 69
38 48 63
41 51 66
39 48 63
42 52 67
42 53 68
47 58 76
37 47 61
39 48 62
40 50 65
41 52 67
36 45 58
40 50 65
40 50 65
43 53 68
38 48 62
41 53 69
39 48 63
41 51 66
39 49 64
39 48 63
42 52 67
42 52 67
42 53 69
44 55 71
41 50 64
41 51 66
36 44 57
44 54 70
46 57 73
39 48 63
44 55 71
47 58 75
41 51 67
40 50 64
38 48 62
42 52 66
39 49 64
38 48 63
41 51 66
40 49 64
40 51 66
34 42 55
45 55 70
46 58 76
40 49 63
42 52 67
42 52 68
35 44 57
38 47 60
42 53 69
42 52 68
40 50 64
35 43 56
41 51 67
43 54 70
42 52 67
38 47 61
38 48 62
36 45 58
38 48 62
41 51 65
40 50 63
41 51 65
43 53 68
44 55 71
41 51 66
45 55 71
40 50 64
43 54 69
44 54 70
47 57 73
48 60 78
42 52 68
46 58 75
40 50 64
43 54 69
38 48 63
40 51 66
40 50 64
48 60 77
44 54 70
42 52 66
40 50 64
39 49 64
44 54 68
38 47 60
42 52 68
38 47 60
39 49 64
38 48 62
43 53 67
42 52 67
40 50 64
43 53 68
38 47 60
42 52 67
37 47 61
48 59 76
48 59 74
40 50 65
42 53 69
49 61 78
39 49 64
38 47 61
42 52 66
38 48 62
43 54 70
38 47 61
36 45 59
45 56 73
45 56 73
38 47 61
38 47 60
37 47 61
40 50 66
40 50 64
45 56 72
41 51 67
41 51 67
44 55 71
41 51 65
39 49 64
41 51 66
47 59 76
38 47 61
41 51 66
40 50 64
41 52 67
38 47 62
38 48 62
44 55 71
43 54 70
39 49 63
44 54 69
44 56 72
40 50 67
39 48 63
43 54 71
36 45 58
36 46 59
40 50 64
39 49 63
39 48 62
39 49 64
35 45 60
43 54 69
46 58 76
34 43 56
40 50 65
46 57 75
41 52 67
37 46 61
39 48 63
37 46 59
39 48 62
41 51 66
34 42 54
40 50 64
39 48 63
37 46 59
40 49 63
42 53 69
39 49 65
37 47 61
37 47 61
39 49 64
38 48 63
33 41 53
36 46 61
34 43 57
35 46 61
36 46 61
36 45 59
36 45 58
36 46 61
39 49 64
34 44 58
36 45 60
39 49 63
37 46 61
35 45 59
39 49 65
37 47 61
32 40 52
33 42 56
37 46 61
35 44 58
28 36 47
32 41 54
38 48 63
35 45 59
36 45 59
37 46 61
36 45 60
35 44 58
38 49 65
34 43 58
35 44 59
38 48 63
30 38 50
37 48 63
35 44 58
38 48 63
35 44 57
41 51 65
40 50 65
44 54 70
40 50 65
41 52 68
43 53 69
44 54 70
46 57 75
45 56 72
44 55 71
49 61 78
46 57 74
45 57 74
43 54 70
48 59 75
44 54 70
45 56 72
48 59 75
50 63 83
37 46 60
48 59 76
47 58 75
43 53 69
49 61 79
48 59 77
50 61 78
45 56 73
42 52 66
48 60 78
46 58 75
41 51 67
43 54 71
43 54 70
44 55 73
44 54 69
39 48 61
48 61 81
41 51 67
51 63 81
42 52 67
48 60 78
46 56 72
45 55 70
47 58 74
48 60 78
44 55 70
42 53 69
51 62 78
41 51 65
42 53 68
44 55 71
42 52 66
49 61 80
43 53 68
47 58 75
43 54 69
52 63 81
44 55 72
52 65 84
47 58 74
48 60 77
44 55 72
45 54 69
45 56 71
41 51 65
45 56 72
43 54 69
43 53 68
48 59 76
44 54 70
42 52 66
46 57 73
48 59 77
50 62 80
46 56 72
40 49 64
42 52 67
42 52 68
44 54 70
48 60 78
46 57 73
45 56 71
48 58 75
44 54 69
41 51 67
44 55 72
44 55 71
45 56 73
43 53 69
50 61 78
43 53 67
43 53 68
42 52 68
43 54 71
43 54 70
41 51 67
44 55 71
44 56 73
38 47 62
48 60 79
42 53 69
50 62 80
46 57 74
37 47 61
44 55 72
40 50 65
48 59 77
42 52 68
45 56 73
45 55 71
41 51 66
47 58 75
51 64 82
42 53 68
41 51 66
46 57 75
45 57 74
46 58 75
40 51 67
38 49 64
38 47 62
36 47 62
28 36 48
31 39 51
32 41 53
36 46 61
32 40 53
34 43 56
34 43 58
34 43 56
35 44 58
37 46 61
36 46 62
34 43 57
35 45 58
34 43 57
40 51 66
36 47 63
39 49 65
33 42 56
38 49 64
37 47 61
36 46 60
36 46 62
38 48 63
38 49 65
42 52 67
37 47 63
38 48 63
39 50 66
36 45 58
35 44 58
37 46 61
40 50 66
39 49 64
37 47 61
37 46 60
38 47 62
34 42 55
39 48 63
32 40 53
40 50 65
37 46 61
34 44 57
39 49 64
38 48 63
41 52 69
39 48 63
41 51 67
37 47 61
36 45 59
40 51 66
40 50 65
34 43 57
39 48 62
37 46 60
41 51 65
36 45 59
38 48 62
38 47 62
31 39 51
37 46 61
36 45 58
38 47 60
39 49 64
37 47 61
44 55 70
47 57 74
43 54 69
41 51 67
40 51 66
46 57 74
35 44 57
40 49 64
38 48 62
40 50 64
41 52 68
36 45 58
46 57 74
42 53 69
40 51 67
40 49 64
42 53 69
42 52 68
44 55 71
41 51 66
44 55 72
43 53 67
40 51 67
38 47 60
36 45 58
37 46 60
45 56 71
40 50 64
40 49 63
40 50 66
39 48 62
38 48 62
44 55 70
41 51 66
44 55 71
43 53 67
40 50 66
42 53 68
41 50 64
37 47 61
41 52 68
38 47 59
46 56 72
40 49 64
41 51 66
40 50 65
41 51 67
40 49 64
36 45 58
35 44 57
43 54 70
42 52 68
44 54 71
40 50 65
46 57 73
38 47 61
34 43 57
41 51 66
38 48 63
38 47 61
42 53 70
43 54 70
47 58 75
40 50 64
45 56 72
45 56 72
41 51 66
40 49 63
37 47 62
43 53 69
38 48 62
38 47 61
44 55 71
40 50 64
41 51 67
39 49 63
39 49 63
46 57 72
44 54 68
43 53 68
41 51 67
40 50 64
46 57 74
38 47 61
41 51 66
39 49 63
41 52 67
44 54 70
41 51 66
45 56 72
46 57 74
47 58 74
39 48 62
42 53 69
43 53 69
44 54 70
39 48 62
35 45 58
36 45 58
41 51 67
40 50 64
40 49 63
48 60 78
45 55 70
41 51 66
46 57 74
38 48 62
39 49 64
41 51 66
43 53 69
47 58 75
38 48 62
38 47 59
45 56 71
43 54 71
40 50 65
41 51 67
40 50 65
40 50 65
38 47 62
38 48 63
44 56 73
43 52 67
43 54 70
40 50 67
38 48 62
38 48 62
44 54 70
40 50 64
37 46 59
40 50 65
42 52 67
40 49 63
39 48 62
44 56 73
41 51 67
43 53 68
39 49 63
38 47 61
34 42 54
36 45 59
45 57 74
39 49 64
42 53 69
42 53 69
47 58 74
38 47 60
34 43 57
42 52 68
39 49 63
42 53 68
38 48 63
37 46 61
39 48 61
40 50 65
39 49 64
32 40 52
44 55 71
34 42 54
41 52 69
41 52 68
39 48 63
44 55 72
39 49 64
42 53 69
41 52 68
40 49 64
39 49 63
38 48 63
44 56 73
35 44 57
41 51 68
37 46 60
37 46 60
37 47 61
36 45 60
40 50 65
35 43 56
33 42 55
39 50 65
38 47 62
38 48 63
36 45 58
35 45 59
40 50 65
33 42 56
39 49 64
35 45 59
36 46 62
37 47 61
37 47 61
35 44 58
37 46 60
34 44 58
34 43 56
36 45 59
36 46 60
30 38 50
29 37 49
38 49 64
34 42 55
35 44 59
30 38 51
35 45 60
36 46 61
33 42 55
40 51 67
30 39 51
38 49 64
38 50 67
30 39 53
30 38 51
31 40 52
38 48 64
49 62 80
44 54 70
38 47 60
42 52 67
41 50 65
44 55 72
42 52 67
48 60 77
41 51 66
51 64 84
39 50 65
47 58 75
47 59 76
46 57 73
49 60 77
48 60 78
42 52 67
38 47 61
44 55 71
47 58 75
43 54 70
47 58 75
47 59 76
46 57 74
47 59 77
41 51 67
43 53 69
46 58 75
44 55 71
45 56 71
53 66 85
44 54 70
37 46 60
40 49 64
44 55 71
45 56 72
40 50 65
48 59 76
44 54 69
52 63 80
45 56 72
48 60 78
46 57 74
38 48 61
53 68 89
43 53 68
39 48 62
43 53 70
46 57 73
44 55 72
44 54 69
43 52 66
46 56 72
50 61 77
39 48 62
42 51 65
45 57 74
42 52 67
44 55 71
41 51 67
47 58 74
45 56 71
44 53 68
41 51 66
46 56 72
42 52 67
49 61 79
44 55 71
45 57 73
41 50 64
49 60 78
42 52 67
51 64 83
46 56 72
45 55 71
50 62 80
45 56 73
45 56 72
46 56 72
40 49 63
44 54 69
39 49 63
43 54 70
44 55 71
44 55 70
48 59 76
42 52 68
36 45 59
41 51 65
44 55 71
45 55 71
45 56 72
42 52 68
44 54 70
44 55 71
39 50 65
49 62 80
44 54 70
46 57 73
48 59 76
49 61 79
40 50 65
45 56 74
43 54 70
46 57 73
44 55 71
47 58 75
43 53 68
47 58 75
53 65 83
46 58 75
46 57 73
48 59 75
43 53 69
47 59 77
46 57 73
37 48 63
39 48 63
45 56 73
36 45 59
37 47 62
32 41 55
34 43 56
33 43 57
33 42 55
38 49 66
30 38 51
32 40 52
25 33 44
36 46 60
36 46 60
35 44 58
34 43 56
31 39 50
31 39 52
31 39 51
39 50 66
30 39 51
37 47 62
34 43 56
35 44 58
35 45 60
33 41 54
35 44 58
38 49 65
39 50 65
38 48 63
36 45 60
39 48 63
36 44 57
38 48 63
34 43 56
34 43 57
36 46 61
41 51 67
35 44 58
44 55 73
35 45 59
40 50 64
37 46 60
35 43 55
39 49 65
35 44 58
40 50 66
40 50 65
42 52 68
40 50 65
38 47 61
42 54 72
39 49 63
39 50 65
41 50 64
41 50 65
41 51 66
39 49 65
39 48 62
36 46 60
40 50 65
36 45 59
38 47 60
38 48 63
39 49 63
35 44 58
34 42 55
37 45 59
43 53 69
34 43 57
36 45 58
40 50 65
42 53 68
36 45 59
38 47 61
44 55 72
39 49 63
40 49 63
40 51 66
40 50 64
33 42 54
41 51 66
40 51 66
42 52 67
39 49 64
36 45 58
37 47 61
42 52 68
38 46 60
41 52 67
39 49 63
40 50 65
40 49 64
43 54 69
35 44 58
42 53 69
41 51 66
39 50 65
34 43 57
44 55 72
41 51 67
38 47 62
39 49 64
41 50 64
42 52 66
42 52 67
39 49 64
44 54 68
42 52 68
35 45 59
37 46 60
45 56 73
42 52 67
41 51 67
46 57 73
38 47 61
43 54 70
39 49 64
45 57 74
39 48 62
37 46 59
44 56 72
41 52 67
38 48 62
45 55 70
39 49 64
43 54 69
40 50 66
39 48 62
36 45 58
43 54 70
47 58 73
43 53 68
36 45 58
40 50 65
41 51 67
39 49 64
44 54 69
45 55 70
47 58 75
44 55 71
42 51 66
45 55 71
43 52 67
37 46 59
40 50 65
43 54 69
46 57 73
42 52 66
41 51 66
42 52 67
42 53 70
45 56 72
39 48 62
41 51 66
42 52 68
45 57 74
48 58 74
43 54 69
46 57 74
41 51 65
37 45 58
46 56 71
39 48 62
45 56 73
45 55 70
41 52 68
45 55 71
44 54 70
42 51 66
39 49 63
41 51 65
40 50 65
43 54 70
42 52 66
41 51 66
39 48 62
41 52 68
37 46 59
39 49 63
36 45 58
37 47 62
39 48 62
40 50 64
44 54 70
38 48 62
39 49 63
41 52 67
42 52 67
43 54 70
41 51 66
42 53 69
37 47 61
39 49 63
39 49 64
44 56 73
41 50 64
39 48 62
40 50 65
38 47 61
40 49 63
44 54 69
35 44 58
40 50 66
41 51 65
44 54 70
39 48 63
39 49 63
42 53 69
40 50 65
43 53 69
39 48 63
40 50 65
37 47 61
42 52 68
41 51 68
46 57 73
37 47 61
40 50 66
36 46 61
44 54 70
37 46 60
42 53 69
39 50 65
41 51 65
35 43 56
42 53 70
40 50 65
38 48 63
41 52 68
39 49 64
41 51 66
37 46 61
40 51 67
36 45 58
37 46 60
41 51 67
36 45 59
37 46 61
39 49 64
36 45 59
38 48 62
37 47 61
36 44 57
34 43 56
35 44 57
33 41 53
34 42 55
34 43 56
30 39 51
35 44 59
35 44 56
38 48 63
39 49 64
36 46 61
39 49 65
34 43 57
37 46 60
33 42 54
36 45 59
33 42 55
32 41 55
33 42 54
34 42 55
35 44 58
32 40 53
37 47 60
33 41 53
34 42 55
30 38 51
38 48 64
36 45 60
34 43 56
33 42 56
32 41 54
31 39 51
31 40 53
32 41 53
30 39 53
36 46 61
33 43 57
30 39 52
36 45 60
45 57 74
40 50 66
35 44 57
42 52 66
38 46 59
45 57 74
43 54 70
46 56 72
46 58 76
43 54 71
45 56 73
41 51 66
43 53 68
40 50 65
45 57 75
44 55 72
41 51 67
41 51 65
48 59 77
53 64 82
45 56 72
49 60 77
41 51 66
46 57 74
39 49 64
47 57 73
42 52 68
42 53 69
47 58 75
46 57 74
43 54 70
49 61 79
45 55 71
44 55 70
42 53 69
46 56 72
47 58 75
39 49 64
42 52 67
47 58 75
46 57 73
47 58 74
42 53 68
44 54 69
45 56 72
46 56 72
42 51 66
45 56 73
46 57 73
43 54 70
43 53 68
45 56 71
47 58 75
36 44 57
44 54 70
43 53 67
45 56 72
47 57 73
43 53 69
45 56 73
46 57 73
43 53 68
50 60 77
45 55 70
37 46 60
43 54 69
48 58 74
40 50 65
47 57 73
40 50 64
44 53 68
37 46 61
45 56 72
46 56 72
45 56 73
44 55 71
45 56 72
44 54 69
37 47 62
41 52 67
46 57 73
48 59 76
47 58 74
46 57 73
47 58 75
40 51 66
44 54 70
42 53 69
41 51 66
41 51 66
50 62 79
41 51 67
42 52 66
43 53 68
43 53 69
46 57 74
44 55 71
43 52 67
44 55 72
44 56 73
48 60 77
45 56 73
47 59 76
47 59 78
43 55 72
38 48 63
49 61 79
42 52 68
45 57 74
48 59 76
39 48 61
43 54 71
45 57 75
49 61 78
44 55 72
51 64 84
45 55 71
38 48 62
43 53 70
39 49 64
38 48 62
35 45 59
29 36 48
32 42 55
32 41 56
31 40 52
25 31 41
34 43 58
30 38 50
33 42 55
37 47 63
35 45 59
40 51 67
33 43 58
31 40 52
31 39 52
34 43 56
37 47 61
30 39 52
36 46 60
34 43 57
31 40 53
36 45 60
37 46 61
36 46 60
38 48 63
33 42 54
38 48 64
32 41 54
44 56 74
44 54 70
38 47 61
37 47 62
35 44 57
35 44 57
33 41 54
35 45 59
36 45 59
38 47 62
37 46 59
36 45 59
34 44 57
43 54 70
37 46 61
39 49 64
39 48 63
43 53 69
41 51 68
33 42 55
45 56 72
37 47 61
41 52 69
35 44 56
45 56 71
42 54 71
41 52 67
36 45 59
42 52 67
35 44 57
41 51 65
34 43 56
37 46 59
39 49 63
37 46 59
38 48 62
43 55 71
39 48 62
44 54 70
42 52 68
35 44 57
37 47 62
40 49 64
36 45 58
41 51 66
42 51 66
37 47 62
41 51 66
38 47 60
37 47 61
36 45 58
35 44 57
38 47 62
38 47 62
33 41 53
45 56 72
37 47 61
40 50 65
40 50 64
42 52 67
49 60 76
44 54 70
38 48 63
37 46 59
39 48 63
40 50 64
45 56 72
38 47 60
41 51 66
36 46 59
43 54 69
42 53 69
50 62 79
43 53 68
40 49 63
44 55 72
41 51 67
44 54 70
40 50 65
42 52 67
42 53 70
44 54 70
38 48 62
41 50 65
37 45 58
34 42 54
42 53 69
39 49 63
39 49 64
44 55 71
39 48 62
44 55 72
50 61 79
44 56 72
36 45 58
46 57 75
46 56 73
47 59 76
40 50 65
40 50 65
40 50 64
40 49 63
45 57 73
43 53 68
41 50 64
45 56 72
49 60 77
38 48 62
46 57 73
45 56 73
41 51 66
40 50 65
41 51 65
40 49 63
39 48 62
44 55 71
46 58 75
40 49 63
38 47 61
43 54 70
42 52 68
42 52 66
40 50 64
38 47 61
42 52 67
44 56 73
44 54 69
41 51 65
40 51 67
41 51 66
39 48 61
41 51 66
41 50 64
43 54 69
44 55 72
39 49 63
42 53 68
43 53 69
46 57 73
39 50 65
49 60 78
42 53 68
43 53 68
44 54 69
47 58 75
40 50 65
46 57 75
45 56 73
45 56 72
40 50 65
44 55 73
41 51 65
39 49 65
39 49 64
43 52 66
42 52 67
39 49 64
38 47 61
40 49 62
40 49 63
42 52 67
36 45 59
37 46 60
39 49 64
43 55 71
37 45 58
34 43 56
34 43 55
43 53 69
45 56 71
42 52 67
31 39 51
41 51 67
38 47 62
38 48 63
43 54 71
40 50 65
41 51 65
40 50 64
37 47 61
36 46 60
36 44 56
34 43 55
44 55 71
35 43 55
36 45 58
37 47 62
39 49 64
42 52 67
42 53 68
38 48 63
35 44 56
35 44 57
41 52 67
38 47 60
39 49 64
28 35 46
39 48 63
39 49 64
38 47 61
37 46 60
40 51 67
37 47 63
46 57 74
32 40 52
38 47 61
37 46 59
40 51 66
36 45 59
36 45 58
42 53 69
34 43 56
36 45 59
38 47 62
38 47 61
38 48 62
43 54 71
40 50 66
35 44 57
33 41 53
33 42 55
39 49 63
32 41 54
39 49 64
35 43 57
35 44 58
34 43 57
38 48 63
33 42 56
32 40 52
37 47 61
35 46 61
30 39 51
34 43 57
36 46 60
38 48 62
35 45 59
37 47 63
33 41 54
34 43 58
33 41 55
34 44 59
32 40 52
35 44 57
32 41 54
38 49 64
32 41 54
31 40 53
36 45 59
33 42 56
40 51 67
45 56 72
47 58 75
42 53 69
40 49 63
46 57 74
40 50 65
42 52 68
42 52 66
43 54 69
40 49 63
46 57 73
43 54 70
41 51 66
39 49 64
42 51 66
47 60 78
46 58 76
49 61 79
47 58 75
44 54 70
45 56 72
42 53 68
42 52 66
36 45 58
44 54 69
46 57 73
40 49 63
44 55 71
42 52 68
40 49 63
48 58 73
39 48 62
45 57 74
44 55 71
45 55 71
44 54 69
44 55 71
41 51 66
42 52 67
45 54 68
47 58 74
41 51 66
46 57 73
43 53 68
45 56 72
39 48 62
44 55 70
45 57 74
46 57 72
44 55 71
46 57 73
50 60 76
43 54 69
49 60 77
44 54 69
47 58 75
45 54 69
38 48 61
41 51 66
40 50 64
43 53 68
40 50 64
46 56 72
44 55 70
49 60 76
41 50 65
53 65 83
43 54 70
38 47 61
46 56 72
44 54 70
47 59 77
44 55 70
46 57 74
43 53 68
47 59 76
43 53 69
45 56 73
47 59 76
48 59 76
47 58 74
43 53 68
47 58 75
46 56 72
41 51 65
43 54 71
42 52 67
47 58 76
49 61 78
47 58 75
45 55 71
39 49 64
43 54 70
43 53 69
42 52 67
47 58 76
44 54 70
44 55 71
48 60 79
39 49 63
44 55 72
51 63 82
42 52 69
43 55 72
44 55 71
39 49 63
47 58 75
44 54 70
40 50 65
44 54 70
45 56 71
45 55 71
44 55 72
41 52 68
46 57 74
50 63 82
41 50 64
39 49 63
41 52 68
46 58 76
37 47 62
34 42 55
35 45 59
29 37 49
30 38 50
32 41 54
31 40 53
31 39 53
32 41 54
35 44 58
40 51 68
31 40 52
30 38 49
35 44 58
43 54 72
38 47 62
33 42 55
31 39 51
39 49 65
41 52 68
38 48 64
28 36 48
33 42 56
36 44 57
36 46 59
33 41 53
37 47 61
34 42 54
33 42 54
35 45 58
36 45 60
37 47 61
37 47 62
32 41 54
37 47 60
39 49 65
34 42 56
34 43 56
35 44 58
40 51 67
41 52 67
37 46 60
42 52 68
35 43 56
42 52 67
41 51 66
39 49 65
38 47 61
40 50 66
39 49 64
42 51 66
43 54 70
31 38 49
44 55 73
35 45 59
31 39 52
37 46 59
37 45 59
39 49 64
41 51 66
37 46 59
36 45 59
39 48 62
36 45 59
37 46 59
39 49 64
40 50 64
39 49 63
39 49 64
37 45 58
44 55 71
40 51 68
39 48 61
42 52 68
40 51 67
41 52 67
42 51 65
37 47 62
41 51 65
44 54 70
41 51 66
35 45 59
40 51 66
40 50 64
41 51 66
40 50 65
39 49 63
35 43 56
38 47 61
39 48 63
39 49 63
40 50 65
36 45 58
41 52 68
38 47 61
43 54 71
41 51 66
40 51 67
38 47 60
43 53 69
41 51 67
38 48 63
42 52 67
41 50 65
39 47 60
39 48 63
39 47 61
38 48 63
39 49 63
40 50 64
40 49 64
38 47 60
38 47 61
42 52 68
35 44 57
40 50 65
35 43 55
37 47 60
44 54 70
36 44 57
43 52 67
40 50 65
42 52 68
41 51 66
42 52 68
44 54 69
41 50 63
37 46 60
46 57 73
37 46 59
43 53 69
38 48 62
39 49 63
45 56 73
44 54 69
47 59 75
36 45 59
47 58 75
41 51 66
46 57 74
45 55 72
38 47 61
39 49 63
40 49 64
38 48 63
45 55 71
45 55 70
38 47 61
39 48 62
44 54 70
49 60 78
42 53 69
42 52 67
37 46 60
38 48 62
40 50 64
47 58 75
40 49 62
39 49 63
44 54 70
39 49 62
44 55 70
40 50 66
37 46 59
38 47 61
36 45 58
45 57 74
37 47 61
41 50 65
46 57 75
44 54 70
43 54 69
46 57 74
40 49 62
41 51 67
44 55 72
42 52 68
39 49 65
41 50 64
36 44 56
36 45 59
43 54 70
45 55 71
43 53 69
38 47 61
45 55 71
40 50 65
42 52 67
46 57 73
40 51 67
39 49 64
40 49 63
40 49 63
39 49 64
44 55 70
39 48 61
40 50 65
45 56 72
41 51 65
41 50 64
45 56 72
40 50 65
44 55 71
39 49 64
40 50 65
40 49 64
40 50 65
39 49 63
35 45 58
39 48 61
40 49 64
35 44 57
42 51 66
42 52 68
43 53 69
41 51 67
39 49 64
43 53 68
36 45 59
38 46 59
39 50 66
38 49 64
42 52 66
44 56 73
37 46 59
39 49 64
34 42 55
41 52 68
41 51 67
37 46 60
37 47 61
38 47 61
38 47 62
37 47 61
37 46 59
38 47 62
39 49 63
37 47 61
34 43 56
38 48 63
38 48 64
37 46 60
37 46 60
38 47 60
34 43 57
34 42 55
38 47 61
35 44 58
32 40 52
39 49 63
34 44 58
38 48 64
38 48 62
31 38 50
32 40 52
40 50 66
37 46 60
39 49 64
34 44 58
33 41 54
35 44 58
35 45 59
37 46 61
34 44 58
35 46 61
32 40 53
32 40 52
30 38 51
37 47 63
36 46 60
31 39 52
33 43 57
32 41 53
36 46 60
28 36 47
31 39 52
34 43 57
28 36 49
41 51 67
46 57 74
40 50 65
45 55 70
41 51 67
43 53 68
39 49 65
43 54 71
48 60 77
45 55 71
46 57 74
48 60 78
45 56 73
46 58 74
46 58 75
49 62 81
41 50 65
45 56 73
42 53 68
43 54 70
46 57 75
49 60 78
44 56 74
44 55 71
41 51 67
39 48 62
47 58 75
46 57 73
44 54 69
43 54 69
40 50 65
43 54 70
45 55 71
45 56 73
47 58 75
45 56 72
42 51 65
47 59 77
42 52 66
49 59 75
45 55 71
41 51 65
46 56 73
43 54 70
42 52 67
44 55 71
41 51 67
43 54 70
37 46 60
39 49 63
43 54 69
45 55 72
44 55 72
44 54 69
43 54 70
37 44 56
44 54 69
42 52 67
51 63 81
47 59 76
43 53 69
42 54 70
44 54 69
48 60 77
40 49 62
42 52 66
44 54 69
42 52 67
42 51 66
50 63 82
42 52 67
47 57 74
48 59 76
38 47 61
51 62 78
44 55 71
46 57 74
47 58 76
44 55 71
38 47 60
44 55 71
46 57 73
36 45 58
46 57 75
40 49 63
47 58 75
43 53 68
48 59 76
43 53 68
46 57 72
46 57 74
43 54 70
47 59 76
45 56 72
45 56 72
47 58 75
43 52 67
48 60 78
45 55 71
42 52 68
50 63 83
44 54 69
54 66 85
48 59 76
45 56 74
40 50 66
44 55 72
44 55 72
48 59 77
41 52 69
42 52 68
40 50 64
46 58 75
40 50 64
38 47 60
43 52 66
47 58 75
44 55 71
38 46 59
46 57 75
38 48 62
41 52 68
41 52 68
31 39 50
31 39 52
31 40 54
29 37 50
29 37 48
31 39 53
35 45 61
33 42 56
34 43 57
31 39 51
30 39 52
32 41 54
27 35 46
31 40 53
31 39 52
33 42 56
40 50 65
35 44 58
36 46 60
35 44 58
33 42 56
35 44 58
41 51 65
40 50 65
34 43 56
35 44 57
36 45 59
37 46 60
33 43 57
40 50 66
37 47 61
41 52 68
36 45 58
35 45 58
40 49 64
34 43 56
35 45 59
36 46 60
35 45 59
37 47 62
38 47 62
37 47 62
32 41 54
35 43 56
35 44 56
39 50 66
38 47 61
38 48 62
37 47 61
38 48 62
36 45 59
40 50 64
34 42 55
36 45 59
35 43 56
44 54 71
37 47 61
36 46 60
39 50 66
36 45 59
37 46 60
37 46 59
43 54 70
35 43 57
41 51 67
35 44 56
44 55 70
38 48 62
34 43 56
39 49 63
39 49 63
39 48 63
44 55 72
37 46 59
30 38 49
42 53 68
40 50 65
36 44 56
40 50 64
37 46 60
42 52 66
39 48 63
36 44 57
37 47 61
36 45 59
38 47 61
40 50 65
38 47 61
42 53 68
39 48 63
37 46 59
39 49 63
41 50 65
39 48 63
41 52 67
44 54 71
42 53 68
40 50 64
41 51 66
38 46 60
42 52 66
42 53 68
42 52 67
30 37 48
38 47 60
40 50 64
39 47 60
42 53 68
37 46 59
39 48 63
46 56 72
44 55 70
36 44 57
41 51 65
34 43 55
41 51 67
39 48 63
42 52 66
44 54 69
38 47 61
40 50 65
38 47 61
38 48 62
42 51 66
41 51 67
42 52 67
43 54 70
43 53 68
38 48 62
38 48 62
47 59 75
41 50 63
41 50 65
40 49 64
44 54 69
43 53 69
44 55 72
41 52 67
45 56 72
43 54 71
48 58 74
39 48 62
36 46 60
47 57 73
39 49 63
38 47 60
44 55 70
39 49 64
46 57 74
38 47 61
42 52 67
46 58 76
42 53 68
42 52 66
40 50 64
37 45 57
41 50 65
41 52 68
42 52 67
43 53 67
40 50 64
38 47 59
40 49 63
48 59 76
35 44 57
33 41 52
42 52 68
42 52 67
38 48 63
40 50 64
40 50 66
39 49 64
42 52 68
43 52 67
38 46 59
42 52 67
39 47 60
41 50 64
42 52 68
42 52 67
37 46 59
41 51 66
42 52 69
44 55 73
38 47 61
44 55 71
38 48 62
43 54 69
42 53 68
44 54 69
36 45 58
36 45 58
40 49 63
38 47 61
36 44 57
35 44 58
42 52 66
40 50 65
38 48 62
42 52 67
43 53 68
39 48 63
42 52 67
40 49 63
41 52 68
44 55 71
38 48 62
38 48 63
33 42 55
39 48 62
40 50 66
38 47 62
40 51 66
36 45 58
43 53 68
44 55 72
39 48 63
41 51 65
34 43 56
39 49 64
39 49 63
35 44 57
37 47 61
38 47 61
48 60 78
35 44 58
40 50 65
38 47 61
40 51 67
39 49 64
37 46 60
39 50 65
42 52 67
41 51 66
39 49 63
36 45 59
37 46 60
34 43 57
43 54 70
35 44 58
36 46 60
36 45 58
31 39 52
34 43 56
29 36 47
36 45 59
36 46 60
32 40 53
35 44 58
30 37 49
37 47 61
37 47 61
35 45 59
37 47 62
37 46 60
35 43 56
32 40 53
37 47 61
33 41 54
35 43 57
36 45 60
30 39 51
32 41 55
32 40 53
35 44 59
29 37 49
27 35 47
35 44 58
33 41 54
28 36 47
31 40 52
32 40 53
34 44 57
27 35 46
28 37 50
30 37 49
33 42 56
39 50 66
39 49 64
41 50 64
43 53 69
41 51 66
40 50 66
46 58 76
43 54 71
49 61 78
42 52 66
48 60 77
48 59 77
43 54 69
41 51 66
45 56 74
36 45 59
44 54 70
46 58 75
46 57 74
43 54 71
48 59 76
41 50 65
46 57 74
41 51 65
42 52 67
46 57 74
42 52 68
46 57 73
45 55 70
42 52 66
46 56 72
41 51 66
38 47 61
45 54 69
45 55 70
45 55 71
44 55 70
52 64 83
42 52 67
46 56 72
43 54 70
45 55 72
45 56 72
44 55 72
48 59 77
40 49 63
45 56 73
42 52 67
51 63 82
50 61 78
41 51 65
42 53 68
44 55 71
49 60 78
41 51 66
41 51 67
41 51 67
37 47 61
48 58 73
41 51 65
39 48 62
42 52 67
40 50 65
40 49 64
43 53 67
40 49 64
41 52 67
45 55 71
40 49 64
45 57 74
40 49 64
46 57 74
47 58 75
49 60 77
47 59 76
45 56 73
39 48 63
42 52 66
46 57 73
47 58 74
44 55 72
48 59 77
43 53 68
43 53 69
47 59 76
40 50 65
46 57 74
47 58 74
44 55 70
42 52 67
46 56 73
46 56 72
45 56 71
45 56 72
46 57 74
46 57 74
42 53 68
50 62 79
47 59 77
44 55 71
46 57 75
41 51 66
45 57 74
40 50 66
38 47 62
38 47 61
44 55 71
49 60 77
43 53 68
39 49 63
42 53 69
45 56 73
48 60 78
44 54 71
47 59 77
46 58 75
45 57 75
39 48 62
43 54 71
37 46 59
38 47 61
42 53 68
40 50 65
40 50 66
32 41 55
29 37 49
29 36 48
32 40 53
29 38 50
29 37 49
30 38 51
28 36 48
32 41 54
32 40 53
31 39 53
29 37 49
32 41 54
29 37 50
28 36 47
29 37 48
32 40 53
31 39 52
27 35 46
36 45 59
35 44 59
35 44 57
31 40 53
33 41 53
35 45 60
39 49 64
36 45 60
32 41 53
35 44 57
36 45 59
37 47 62
28 35 45
35 44 59
37 47 61
41 52 68
41 51 67
36 45 58
36 45 59
38 46 59
41 52 69
40 49 64
35 45 58
38 48 61
38 47 61
36 44 57
40 50 64
38 47 61
38 47 61
39 49 65
36 46 60
43 54 69
41 52 68
40 50 64
40 49 63
38 47 61
40 50 64
35 45 60
42 52 68
37 46 59
36 45 59
36 46 60
40 50 66
40 50 66
41 51 66
37 46 60
42 53 69
37 46 60
35 44 57
43 54 69
34 43 57
38 47 59
41 51 67
37 46 59
39 48 63
36 44 56
39 48 62
39 48 63
39 49 64
42 53 69
38 47 61
38 47 60
34 43 57
36 45 59
41 52 67
41 52 68
39 48 61
41 50 65
46 56 72
41 52 68
38 48 62
41 51 66
40 50 65
45 56 73
44 55 71
40 49 63
37 46 61
36 46 60
46 56 71
42 53 70
38 47 60
35 44 57
40 49 62
36 45 58
39 48 62
40 50 65
40 49 62
39 48 63
41 51 66
35 44 58
39 49 63
42 52 66
40 50 65
42 52 67
41 51 67
42 52 67
42 52 67
39 49 63
38 46 59
41 51 67
36 46 60
43 53 67
37 46 60
39 48 62
39 49 64
45 57 74
42 52 67
41 51 65
41 52 67
36 46 59
42 52 66
40 50 64
47 58 74
42 52 67
40 51 66
39 48 62
44 54 70
46 57 73
43 54 69
39 48 61
39 48 61
42 52 67
41 51 66
47 58 74
44 54 70
45 55 71
40 50 65
43 53 69
41 51 66
37 45 58
40 49 63
44 54 70
38 47 61
41 50 64
49 60 76
41 51 66
38 48 62
42 52 67
36 44 57
43 53 68
40 49 62
43 54 70
42 52 66
42 52 66
40 49 64
41 52 69
40 49 63
42 53 68
39 48 62
37 46 60
41 51 67
38 47 60
37 46 59
39 48 61
43 53 69
34 43 56
39 49 63
39 49 63
40 50 64
45 56 73
45 57 74
41 51 66
43 54 69
40 50 64
39 49 62
43 54 70
40 50 64
43 53 68
38 48 62
42 52 67
43 54 69
36 45 58
34 43 56
43 53 68
37 46 58
40 50 64
35 44 57
41 51 66
41 51 65
38 47 62
35 43 56
43 53 68
42 52 68
40 50 66
46 56 73
40 49 63
38 48 62
38 47 61
38 48 62
34 43 57
38 47 61
38 48 62
39 49 65
38 47 61
33 42 54
39 49 64
33 41 54
45 56 72
37 46 60
37 46 60
44 54 70
36 45 59
40 49 64
40 50 64
37 47 62
44 54 69
38 47 60
33 41 53
36 45 60
39 48 62
34 43 56
36 44 58
37 47 62
30 37 47
39 49 64
38 47 61
38 48 63
33 42 55
40 50 65
35 44 57
41 51 66
37 47 61
31 40 53
35 44 56
38 49 65
32 41 53
39 50 65
39 49 65
38 48 63
30 39 52
36 45 58
36 45 59
37 46 61
33 42 55
35 45 59
35 45 59
36 45 59
37 46 60
31 40 52
39 49 63
30 38 49
36 45 59
32 41 54
37 47 62
29 38 51
32 42 55
31 39 51
32 41 53
33 42 55
31 40 52
32 41 55
31 40 53
28 36 47
29 37 49
30 39 52
35 45 60
30 38 50
38 47 62
40 51 66
41 51 65
42 52 67
39 49 63
41 50 64
45 55 72
42 53 68
43 53 68
43 53 68
46 57 74
39 49 64
43 54 70
47 57 73
39 49 64
43 53 69
42 53 70
49 60 77
46 57 72
49 61 80
44 55 70
45 55 72
50 63 83
43 53 68
42 52 67
44 54 70
47 59 76
52 64 82
43 53 67
41 51 66
40 50 64
44 54 68
44 55 71
43 53 68
41 51 65
41 49 63
47 58 75
47 59 75
45 56 72
46 57 73
40 50 64
41 52 68
45 57 74
44 54 69
44 55 71
39 49 64
48 59 76
44 55 71
44 55 71
46 57 73
43 53 68
48 59 76
45 55 71
40 51 66
40 49 63
41 51 66
46 57 74
48 59 76
40 50 64
46 57 73
44 55 71
49 60 77
42 53 69
45 56 71
44 55 71
48 60 77
44 55 73
41 51 67
40 50 64
38 47 61
41 52 68
45 56 72
41 51 66
39 50 65
43 54 70
40 50 65
44 54 71
41 51 66
44 54 69
52 64 83
44 54 70
42 52 67
45 56 72
44 54 70
49 60 76
46 57 73
42 52 68
42 53 68
46 57 74
38 47 62
42 52 68
41 51 67
41 51 66
44 56 73
42 52 67
45 56 72
46 56 70
42 52 68
45 57 74
45 55 72
41 52 67
48 60 78
45 56 73
40 49 64
45 55 71
42 53 68
45 56 72
43 53 69
42 51 65
44 54 70
47 59 77
44 54 69
48 60 78
44 55 70
41 51 66
38 47 61
38 47 60
42 53 69
45 55 71
41 51 65
40 49 64
44 55 71
41 51 66
38 48 63
29 37 48
23 29 39
27 34 46
32 40 52
33 42 55
27 35 47
33 42 55
31 39 53
29 37 49
40 50 65
27 34 45
27 34 45
36 45 60
29 37 48
33 41 54
36 45 60
34 42 55
37 46 60
40 50 66
32 39 51
33 41 55
40 51 68
35 44 57
29 37 48
36 45 59
32 41 54
30 38 51
32 40 52
37 47 61
33 42 55
36 45 59
33 41 53
35 44 56
34 43 57
34 42 54
34 43 57
36 45 58
37 46 60
39 49 63
34 42 56
40 51 67
40 49 64
39 49 63
36 46 60
34 43 55
34 42 55
36 45 59
37 46 61
40 49 63
40 49 63
41 51 65
39 48 61
39 48 63
39 48 61
38 48 63
40 50 65
34 43 57
42 51 66
34 43 56
36 45 59
38 48 63
38 47 60
34 42 55
36 45 59
37 46 59
39 49 63
36 45 58
40 50 64
42 53 69
40 50 66
37 46 60
41 52 67
37 46 59
36 44 57
44 55 72
43 54 71
35 45 59
40 51 67
40 49 64
37 47 61
39 49 63
39 48 62
43 54 70
36 45 59
38 48 63
38 47 61
40 49 63
43 53 68
35 44 57
42 52 68
42 51 65
38 47 61
39 48 62
34 43 56
43 53 69
43 53 69
42 53 68
40 49 63
37 47 61
37 46 60
42 52 67
43 53 68
38 47 60
43 54 71
39 49 65
41 52 67
44 55 71
40 49 63
41 50 65
41 51 66
41 51 66
41 52 69
40 50 65
39 49 64
37 46 58
35 44 58
41 51 65
41 50 64
42 51 66
42 53 69
38 47 60
40 50 64
44 55 71
42 54 71
40 50 64
43 53 69
38 48 63
39 48 62
47 58 74
42 52 67
38 48 61
47 59 76
43 54 69
41 51 66
46 57 72
43 52 66
40 50 63
42 52 67
41 51 64
46 57 74
38 47 61
46 57 72
47 57 72
36 46 60
44 54 69
41 50 65
40 50 64
39 49 62
42 52 68
41 51 66
44 54 70
36 45 58
42 53 69
38 47 61
40 49 64
35 45 60
39 50 65
35 43 55
42 52 67
40 49 63
49 61 78
38 47 61
37 47 60
41 51 66
41 51 66
46 58 74
39 48 63
41 51 66
43 53 69
40 50 64
43 53 68
42 53 68
39 49 63
47 59 77
41 51 67
37 46 60
41 50 64
39 49 64
43 54 70
37 46 61
38 47 61
37 47 61
41 52 69
41 51 66
40 50 65
42 53 69
39 48 61
40 50 64
42 52 67
34 42 54
35 44 56
46 57 74
39 49 63
40 49 63
41 52 67
40 49 64
38 48 62
43 54 71
39 48 62
39 48 62
35 44 56
39 48 63
38 47 60
44 54 70
38 47 60
40 50 65
39 50 65
38 48 61
36 44 56
40 49 63
42 52 67
45 56 72
45 56 73
35 44 58
36 45 58
38 47 62
38 47 61
35 44 58
40 49 63
38 47 61
38 48 62
37 47 61
38 47 61
41 51 67
37 46 59
38 48 62
38 48 63
37 46 59
37 46 60
39 49 64
41 52 68
43 54 70
35 43 56
35 45 58
38 47 61
40 50 65
40 51 67
39 49 63
36 46 60
35 44 57
35 44 58
35 43 56
35 44 57
32 40 53
38 48 62
33 41 55
36 45 58
39 48 63
39 48 62
38 47 61
37 47 62
33 41 53
37 47 62
36 45 58
37 47 62
34 43 56
37 46 60
34 44 58
31 40 53
29 36 48
36 46 61
33 42 55
35 44 57
27 34 45
32 40 53
28 35 45
31 39 52
31 39 51
28 36 47
29 37 49
32 41 54
28 36 48
29 36 48
25 32 42
29 37 50
28 36 48
35 44 57
40 51 67
37 46 60
43 54 71
38 47 60
39 49 63
42 52 68
44 55 72
47 59 77
46 58 75
48 59 76
46 57 74
43 54 69
45 56 72
46 58 75
42 53 69
46 57 73
46 57 73
47 57 74
43 54 70
47 58 74
43 54 70
48 59 76
44 55 70
42 53 70
39 48 62
42 52 66
45 56 72
49 60 77
50 61 78
46 56 70
43 54 69
43 53 69
45 56 72
46 56 72
44 54 70
41 51 65
44 54 70
42 53 68
39 48 62
44 54 70
40 50 66
48 60 77
49 60 78
43 53 68
43 54 70
49 61 79
45 55 69
45 55 71
47 57 72
46 57 74
41 51 65
41 50 64
44 54 69
38 47 60
45 57 74
47 57 73
43 52 67
44 55 70
48 60 78
41 51 67
45 56 72
47 58 74
40 50 65
44 54 70
41 51 64
41 50 63
40 51 67
37 45 58
41 51 66
43 53 69
42 52 68
41 51 66
45 55 70
45 56 73
43 53 69
42 52 67
38 48 62
43 54 71
41 52 67
44 54 70
40 49 62
44 53 68
51 61 77
41 51 65
43 54 70
44 55 72
39 49 63
43 53 68
49 61 79
41 51 64
41 50 64
47 58 74
45 56 71
40 49 63
47 58 75
48 59 75
42 53 70
39 49 63
40 50 65
44 54 69
43 53 68
44 55 71
41 52 67
42 52 66
45 56 73
46 57 74
40 50 65
48 59 75
45 55 71
39 49 63
41 50 65
41 52 68
42 53 68
45 56 72
45 55 70
48 59 76
48 60 77
42 53 69
47 58 75
40 50 66
41 51 67
41 52 68
44 54 69
32 41 55
28 36 48
30 38 51
29 37 49
31 40 52
29 37 49
32 40 53
30 38 49
30 38 50
27 35 47
32 41 56
32 41 55
29 38 50
35 44 57
33 41 53
32 40 53
40 50 65
25 31 41
36 44 57
33 42 55
37 47 61
36 45 59
34 43 56
36 46 61
30 37 48
39 49 64
36 45 59
35 45 60
34 43 56
40 50 65
44 54 70
31 40 52
35 44 58
37 47 60
42 53 70
36 46 60
38 47 61
38 46 60
38 47 61
37 47 61
31 39 51
33 41 54
38 48 62
31 39 52
31 39 51
38 47 60
42 52 67
39 49 64
35 44 57
35 43 57
33 41 52
36 45 58
41 52 67
40 50 65
37 46 59
37 46 59
37 46 59
38 48 62
35 44 59
38 46 60
37 46 59
38 48 62
38 46 60
39 49 64
32 40 53
40 50 64
37 46 59
37 46 59
30 38 50
41 51 66
34 42 55
35 43 55
36 45 59
41 51 66
39 49 63
39 48 62
41 51 66
39 49 63
34 41 53
42 52 68
38 47 62
35 44 56
33 42 56
38 47 60
38 47 60
40 49 64
41 51 67
35 44 57
38 47 61
36 46 60
38 48 62
45 56 71
37 45 58
39 48 63
43 53 68
35 43 55
38 47 61
38 47 61
39 48 62
42 52 67
36 45 57
43 53 67
41 51 65
39 49 64
40 50 65
37 46 60
36 45 59
46 56 72
46 57 74
46 57 75
36 45 58
39 49 64
39 48 60
36 45 58
41 51 67
46 57 72
39 49 63
41 52 67
43 54 70
40 50 64
39 49 63
43 53 68
42 52 66
43 53 67
40 50 64
41 51 67
39 48 62
42 53 68
37 45 58
46 56 72
38 47 61
38 48 62
44 54 69
38 48 62
39 49 64
38 46 59
42 52 67
38 48 62
41 51 65
37 46 59
37 46 58
37 48 63
48 59 75
39 49 63
40 51 66
37 45 58
44 55 71
42 51 66
39 48 63
44 55 70
38 47 61
37 46 60
40 49 63
41 50 63
37 47 61
38 47 61
44 54 70
36 45 60
36 44 57
41 51 66
34 42 54
43 53 68
42 51 65
37 45 58
38 47 61
36 45 58
38 48 62
38 47 62
42 52 68
38 48 64
38 48 62
42 52 67
42 51 65
39 49 63
36 45 57
37 46 59
36 45 57
43 53 68
38 48 62
40 49 63
40 49 64
41 51 65
39 48 62
41 51 65
41 51 66
42 52 68
43 54 70
41 52 67
40 50 66
39 49 63
38 48 62
44 55 71
37 47 62
38 47 60
36 46 59
38 48 64
43 53 67
35 45 58
36 45 58
37 45 59
34 43 56
40 49 63
39 48 62
35 43 56
37 47 60
40 49 63
37 46 59
41 52 68
39 49 64
40 49 64
41 51 66
41 52 67
40 50 65
42 52 68
33 41 53
44 54 69
39 49 63
33 41 53
38 47 60
39 49 64
35 44 58
33 41 53
35 44 57
38 47 61
36 45 59
35 44 58
41 51 66
40 51 66
36 45 59
35 43 56
37 47 61
35 44 56
37 46 60
35 43 57
34 42 56
35 44 58
37 46 61
41 50 65
32 39 50
34 43 56
34 43 56
30 38 49
37 47 60
38 48 64
40 49 63
36 45 60
40 50 64
39 48 62
31 40 53
36 45 59
35 45 59
39 48 62
33 42 55
34 42 54
33 42 56
31 39 52
38 49 64
31 40 53
31 39 51
34 43 57
32 40 53
30 38 51
31 39 52
31 39 52
32 41 54
36 46 61
29 37 49
27 34 46
29 36 47
28 36 47
28 36 48
29 38 50
30 39 51
28 36 48
29 37 48
31 40 53
42 53 69
50 62 81
36 45 58
41 51 66
43 53 69
38 48 62
39 49 64
39 49 64
38 48 63
44 55 72
45 56 73
39 48 62
44 54 68
43 54 70
42 52 67
44 56 73
48 60 78
47 58 74
41 51 65
40 50 64
40 50 65
47 58 74
47 59 77
42 53 68
44 55 70
43 54 70
48 59 75
42 52 68
43 54 70
48 59 76
44 54 70
38 48 63
43 54 70
39 48 63
49 62 80
45 56 72
39 49 64
40 49 64
42 51 66
39 48 62
49 60 77
47 57 73
44 54 69
46 57 73
42 52 68
46 57 74
39 48 62
46 56 72
45 56 72
38 48 62
46 57 74
46 57 74
44 53 68
48 59 76
43 52 66
37 46 59
41 51 65
42 53 68
44 54 69
44 54 70
48 59 74
49 60 76
44 54 69
50 60 76
44 54 70
47 57 73
38 48 62
37 46 60
46 57 73
40 50 63
47 57 73
42 53 68
43 53 68
47 58 74
41 51 65
43 53 67
42 52 67
43 54 70
38 47 62
45 56 71
46 57 73
46 56 71
39 48 61
42 53 68
47 57 72
43 53 69
40 49 64
49 61 79
40 50 65
43 53 68
42 52 67
41 50 64
44 54 70
48 59 74
43 54 70
45 57 73
42 52 68
45 56 72
49 60 77
47 58 75
46 57 73
46 57 75
47 58 75
39 48 61
43 54 69
51 63 82
42 53 69
38 47 60
49 61 79
45 56 72
47 59 77
40 50 65
48 59 75
42 52 66
46 57 74
44 55 71
43 53 69
44 54 70
40 49 64
39 49 63
32 40 52
41 51 65
37 45 58
35 44 58
30 39 52
27 34 45
32 41 53
29 37 48
28 36 48
31 39 52
22 28 37
27 34 45
31 40 54
28 35 46
33 42 55
32 40 53
33 42 55
30 39 51
34 44 58
31 39 52
32 41 54
36 46 60
38 47 61
37 45 58
33 41 53
37 46 60
31 38 50
38 48 63
33 41 53
26 33 42
34 43 57
34 42 55
41 51 67
34 43 57
39 49 65
36 46 60
34 43 56
37 46 60
34 43 56
34 43 56
31 39 49
36 46 60
34 42 54
31 38 50
35 44 57
45 56 72
38 48 63
38 47 61
36 45 58
37 46 60
37 46 61
36 44 57
41 51 65
40 50 65
35 44 58
37 47 60
37 46 61
37 46 59
41 51 67
35 43 57
38 48 62
37 46 60
37 47 61
39 48 63
39 49 62
35 44 56
42 53 69
36 45 58
32 41 54
37 45 58
39 49 63
33 42 55
37 46 60
37 46 59
36 45 57
37 47 62
41 50 65
41 52 68
34 42 54
41 52 68
34 43 57
37 47 61
43 53 68
38 47 60
36 45 58
41 50 65
40 49 63
39 49 63
42 52 68
31 39 51
38 48 63
35 44 57
40 49 63
37 46 60
37 45 57
42 51 66
37 46 59
37 46 59
36 44 57
40 50 65
38 48 63
32 40 52
40 49 63
40 50 65
39 49 65
42 52 67
37 46 58
41 51 65
41 51 66
37 45 59
39 48 61
41 51 67
48 59 77
40 50 64
40 50 65
42 52 67
37 46 59
41 50 64
42 53 68
43 53 68
44 54 70
42 53 69
42 52 66
43 53 69
39 48 62
40 49 64
40 50 64
38 48 62
42 53 69
37 46 60
46 57 74
45 56 72
35 43 56
37 46 60
41 50 65
41 51 65
39 49 64
43 52 67
42 52 67
43 53 68
42 52 68
42 51 65
43 53 68
36 44 56
47 58 76
41 50 65
45 55 72
41 51 66
38 47 61
47 57 73
36 45 59
42 53 69
43 53 69
39 48 61
46 58 75
43 53 69
41 51 66
39 47 61
37 46 60
40 50 64
41 52 67
43 54 70
43 54 71
36 45 58
40 49 63
41 51 66
37 45 57
39 49 63
42 52 67
42 52 66
41 51 66
44 54 69
42 52 67
43 52 67
48 58 73
39 49 63
37 46 60
45 55 70
43 53 68
45 56 71
42 52 67
35 43 55
43 54 69
40 49 63
38 47 61
42 53 68
40 49 64
42 52 67
40 50 64
37 46 59
42 52 67
44 54 69
35 44 56
44 54 69
37 47 61
37 46 59
44 54 69
37 45 57
34 43 57
39 49 63
37 47 60
41 51 67
45 56 73
37 47 60
39 48 61
41 51 67
36 44 57
48 59 75
37 46 60
37 46 60
41 51 66
37 46 59
35 44 57
39 48 61
37 46 61
37 47 62
37 46 59
34 43 55
36 45 59
41 51 66
38 47 60
39 49 64
39 48 63
35 44 58
33 42 54
44 55 71
40 50 64
34 43 56
38 48 63
38 47 61
33 42 54
40 50 65
37 45 58
36 45 58
41 51 68
33 41 53
41 52 67
39 48 63
32 41 53
34 43 55
38 47 60
32 40 52
38 48 62
39 48 62
35 44 57
29 37 49
33 42 55
34 43 56
30 37 48
33 41 53
37 45 59
31 39 51
30 38 51
32 40 53
37 46 60
35 44 58
31 39 51
35 44 57
34 42 55
33 42 54
34 43 56
31 39 51
33 42 56
34 43 56
30 37 48
32 41 54
34 43 56
26 33 44
22 28 37
34 43 57
28 36 48
30 37 48
27 34 45
30 37 49
24 31 41
24 30 41
32 41 54
35 45 60
24 31 42
36 45 59
43 53 68
46 57 73
36 45 59
44 55 72
44 55 71
42 52 68
44 54 70
37 46 60
43 54 70
43 54 70
47 58 75
43 54 70
41 51 67
41 50 65
40 50 64
42 52 66
42 53 68
45 56 71
43 53 69
46 56 73
45 56 72
48 59 75
41 51 67
47 58 74
44 54 70
46 56 72
46 56 72
44 55 71
42 52 67
43 54 70
46 57 73
46 56 72
38 47 61
41 51 67
44 54 69
42 52 68
45 56 71
42 51 65
50 61 78
46 57 74
43 54 69
40 51 66
42 53 69
43 54 70
48 59 75
43 52 66
42 51 66
41 51 66
47 59 75
44 55 70
45 56 73
45 55 70
43 54 70
40 50 64
51 63 81
44 54 70
43 52 67
43 53 68
49 60 77
40 50 64
44 54 69
43 53 69
41 50 65
39 48 61
47 57 73
50 62 81
50 61 77
43 53 68
43 53 68
42 51 65
54 67 86
46 57 73
41 51 66
43 53 68
48 60 77
43 53 69
44 54 69
41 50 65
47 58 75
42 52 67
48 59 75
48 59 75
39 49 64
44 55 70
47 58 74
44 55 72
49 61 78
41 51 67
42 52 68
39 49 63
44 54 70
40 49 63
41 51 67
41 51 65
37 47 62
44 54 69
43 53 69
44 54 69
47 58 75
49 61 80
46 57 73
39 49 63
34 42 55
45 55 70
46 57 74
46 58 75
42 53 69
38 47 60
39 49 64
44 53 68
45 56 72
48 60 77
40 51 66
44 55 72
47 58 75
40 50 65
41 50 63
39 49 64
40 51 67
45 56 73
38 48 63
44 55 70
40 50 65
37 47 62
35 44 57
31 40 53
26 33 44
28 36 49
26 33 44
24 32 43
29 37 49
25 33 44
27 34 45
31 39 52
29 38 50
29 37 50
27 35 47
27 34 45
33 42 55
26 33 43
26 34 44
34 42 56
27 33 44
33 42 56
37 47 61
32 40 52
33 42 54
35 45 60
35 45 59
38 47 60
29 37 49
33 42 55
30 37 49
35 44 57
38 48 63
34 43 56
35 44 58
36 46 62
37 47 61
37 46 60
36 45 58
37 47 62
37 46 60
34 43 57
33 41 52
38 48 63
34 42 54
38 48 62
38 48 62
34 42 55
37 47 62
39 49 64
40 49 63
35 43 56
39 48 61
33 41 54
38 47 61
33 42 54
35 44 57
34 43 57
33 41 54
39 48 63
37 47 61
39 50 65
35 44 57
35 44 57
36 45 59
42 52 67
38 48 63
34 42 54
40 50 65
42 52 67
36 44 57
40 50 63
35 44 58
33 42 54
41 51 67
40 50 66
37 46 60
41 51 65
41 51 65
39 49 64
41 51 65
36 45 59
41 51 66
44 54 70
39 48 61
41 51 65
43 53 68
37 46 60
37 46 59
41 50 65
40 49 64
36 45 58
36 45 59
44 54 69
38 48 62
38 48 63
35 43 56
42 52 67
37 46 60
39 48 62
36 44 57
41 51 66
39 49 64
42 51 65
38 48 62
38 48 61
47 58 73
42 51 66
38 47 60
40 49 63
41 51 66
34 42 55
40 49 62
39 49 63
39 48 62
38 47 60
39 48 63
36 44 57
44 55 70
38 47 61
40 48 61
41 50 64
45 55 71
39 49 64
42 53 69
36 44 57
41 50 65
37 47 61
38 48 62
37 46 59
36 45 58
45 55 71
39 48 62
39 49 64
38 48 62
36 44 57
37 46 59
40 50 64
39 49 63
42 52 68
42 53 68
37 46 60
37 45 57
46 57 73
39 48 62
42 51 66
43 53 67
40 50 65
37 45 58
48 59 76
37 46 59
43 53 69
45 55 72
41 50 65
42 51 65
43 53 69
37 46 59
36 45 58
38 47 61
43 54 69
39 48 61
42 52 67
40 50 65
37 47 61
41 52 67
42 53 69
48 59 77
38 47 61
40 49 62
36 44 57
37 45 58
40 49 63
43 54 70
41 50 65
40 49 63
39 48 62
43 54 70
39 49 63
43 53 69
32 40 52
41 52 67
46 57 74
44 55 72
40 50 65
38 47 60
38 47 61
41 51 66
41 51 65
43 54 70
33 40 52
36 44 57
39 49 64
38 47 62
36 45 59
37 46 59
37 46 60
44 54 69
41 52 68
43 53 67
36 44 57
40 50 65
39 49 63
40 49 64
39 48 63
43 53 68
39 47 61
38 47 62
38 47 61
36 46 60
40 49 64
39 48 61
42 52 68
41 51 66
39 48 63
38 47 61
41 52 68
38 47 60
39 49 64
45 55 70
33 41 53
33 41 53
37 47 62
39 48 62
38 47 61
38 47 61
39 48 61
35 44 58
38 47 61
35 44 57
34 42 54
33 42 54
40 50 65
38 48 63
34 42 55
35 44 58
37 46 60
28 36 46
34 43 57
39 49 64
37 47 61
33 42 55
39 49 64
35 44 57
40 49 64
29 37 48
39 48 62
35 43 55
34 42 55
37 47 62
38 48 64
35 44 58
38 48 62
35 45 60
31 39 52
37 46 60
30 39 51
28 35 46
31 38 50
31 40 53
30 37 48
32 40 53
33 42 56
33 42 55
31 38 50
29 37 48
29 37 49
29 37 48
29 37 49
30 38 50
30 39 51
24 30 40
27 35 46
26 34 45
19 25 34
30 38 51
26 34 45
30 39 52
38 48 62
41 51 66
41 51 66
43 52 67
42 53 69
43 53 69
42 52 67
49 60 77
46 57 72
40 50 66
44 55 71
37 47 62
47 58 73
45 56 72
41 51 66
36 45 58
38 48 62
46 57 74
39 48 62
42 51 66
41 51 66
38 48 63
46 57 73
43 53 68
41 51 64
41 51 67
43 53 68
40 50 65
43 54 70
42 52 67
40 49 63
42 51 66
42 52 66
42 51 66
45 56 72
41 51 66
37 47 61
48 59 76
43 53 70
38 48 62
38 47 60
44 54 70
46 57 73
41 51 66
47 57 72
39 49 63
42 52 67
42 51 65
41 51 64
47 58 75
44 54 69
43 54 70
39 48 62
45 56 72
41 51 67
44 55 72
43 53 67
40 50 65
40 50 65
44 54 69
43 54 69
49 59 75
43 54 70
46 56 71
40 50 65
48 58 74
48 60 77
41 51 65
47 57 73
44 55 71
48 60 77
48 59 76
46 57 72
45 57 74
39 49 63
43 54 70
43 53 69
40 49 64
43 53 69
51 63 80
46 57 74
42 52 67
39 49 64
44 55 71
42 53 69
38 46 59
43 54 69
48 60 77
43 52 66
44 55 71
44 55 71
41 51 65
43 53 68
42 52 67
47 58 75
43 54 69
41 51 66
40 49 63
45 56 72
41 51 67
47 59 77
40 50 65
45 56 72
47 58 76
39 48 63
38 48 61
47 59 76
46 57 74
43 53 68
43 54 70
37 46 60
43 53 69
46 57 74
45 56 72
34 43 56
40 50 66
45 56 73
41 51 66
37 46 59
42 52 67
39 49 63
47 59 75
44 54 69
31 39 50
42 53 70
38 48 62
29 38 51
23 30 39
18 23 30
26 34 46
34 43 56
26 33 44
30 38 50
28 35 46
29 36 46
27 34 45
26 33 44
31 39 52
26 33 44
31 38 50
27 34 44
29 36 48
29 37 49
34 43 56
25 31 41
32 42 56
33 42 56
28 36 47
31 39 53
37 47 62
34 42 54
32 41 54
33 41 52
36 45 60
31 40 53
30 37 49
33 41 54
38 48 64
35 44 58
31 39 50
36 47 62
39 49 64
32 40 53
37 47 61
36 44 57
34 43 57
42 53 70
40 49 64
37 47 60
36 45 57
37 45 59
38 46 60
41 51 66
32 41 53
38 47 61
35 44 56
36 44 57
36 44 57
35 44 57
44 55 72
38 47 60
36 45 57
36 45 58
36 45 59
38 48 63
33 42 54
33 41 53
37 46 61
39 49 63
38 47 60
37 45 59
41 50 65
36 45 58
38 47 61
33 42 55
39 48 63
37 46 60
35 44 57
36 45 58
32 40 52
40 50 64
39 48 62
34 43 56
36 45 59
36 45 59
42 51 66
38 48 61
39 49 63
37 46 60
44 54 69
40 49 63
44 54 70
39 49 64
40 50 65
38 47 61
39 48 62
43 53 69
37 46 59
40 51 66
42 53 69
43 53 68
35 44 57
38 48 62
39 49 65
41 51 67
39 48 63
39 48 63
50 61 79
36 45 59
40 49 63
34 42 55
43 54 70
39 49 64
42 53 68
36 45 58
42 53 68
39 48 63
37 46 58
37 47 61
40 50 65
35 43 56
34 43 55
43 54 70
41 52 68
43 54 70
37 47 61
39 48 62
37 47 62
40 49 64
43 54 69
38 47 60
39 48 62
34 43 55
43 54 69
38 47 61
35 44 57
47 57 72
44 54 70
42 52 67
32 41 53
41 50 65
45 55 71
45 56 72
40 50 65
45 56 73
38 47 61
40 49 63
43 53 68
42 51 65
40 50 65
35 43 55
37 46 60
37 47 60
41 51 66
40 49 63
40 49 63
42 52 68
44 54 68
39 48 62
41 51 65
40 50 65
38 48 62
40 50 66
37 46 59
39 49 64
41 52 67
41 50 64
42 52 67
36 44 57
39 47 60
37 47 61
40 49 63
37 47 61
46 57 73
38 47 61
36 45 58
38 47 62
46 57 72
40 49 63
44 54 69
36 45 57
36 45 59
44 55 72
46 57 73
34 43 56
33 41 53
43 53 69
42 52 67
36 45 58
41 51 66
39 49 63
33 41 53
37 46 58
38 48 63
35 44 57
34 42 55
39 48 63
39 49 63
38 47 62
42 52 67
38 48 62
42 54 70
39 48 63
42 52 67
35 44 58
39 49 63
36 46 59
39 48 61
39 48 62
34 42 54
40 50 64
38 47 61
39 49 64
40 48 62
31 39 51
34 42 55
41 50 64
42 52 67
43 53 68
36 45 58
46 57 73
36 45 59
38 47 61
36 45 59
30 38 50
35 45 59
36 45 59
33 41 54
33 41 54
34 43 57
38 47 61
38 47 61
31 39 51
42 53 68
41 51 67
35 44 57
39 49 64
32 41 53
35 45 59
38 48 62
33 41 54
33 42 55
36 46 60
36 45 58
35 43 56
36 46 60
39 49 64
38 48 62
35 43 56
37 47 62
28 35 46
31 39 51
33 41 53
29 37 48
33 40 52
34 43 56
27 34 44
28 36 48
30 38 49
32 41 54
33 42 55
32 40 53
34 43 56
33 42 56
32 40 52
28 36 47
31 39 52
32 41 54
30 37 48
29 37 49
27 34 45
31 38 50
26 33 43
26 34 45
25 32 42
27 35 46
28 36 47
19 25 33
27 34 46
32 41 54
33 41 54
36 45 59
41 51 67
46 56 72
38 48 62
41 50 65
42 53 69
46 57 73
42 52 68
40 49 64
45 55 70
48 59 75
44 55 70
39 48 62
46 58 75
39 48 61
47 58 75
43 53 70
42 53 68
43 54 70
43 53 68
47 58 74
43 53 68
41 51 66
39 48 62
42 53 68
48 60 77
43 53 69
45 56 72
42 52 68
48 60 77
33 41 54
40 50 65
39 49 63
45 55 71
43 53 69
43 54 70
42 53 69
51 62 80
45 55 71
47 57 73
44 55 71
43 52 67
43 54 70
47 58 74
48 60 77
38 47 62
43 54 71
43 53 67
48 60 77
40 49 63
45 57 74
46 57 73
45 56 73
46 56 71
37 46 59
41 52 68
45 56 72
42 51 65
41 50 65
41 51 66
46 57 74
43 54 70
39 48 62
41 51 66
45 56 73
40 49 63
40 50 64
35 42 54
46 56 71
45 56 72
47 58 74
40 50 64
41 50 65
36 45 58
38 47 60
42 52 66
47 58 75
45 56 72
48 60 76
46 57 74
47 58 75
38 47 60
41 51 65
39 49 63
43 53 68
48 60 76
44 54 69
47 57 74
43 53 68
44 55 71
42 52 67
51 62 80
44 54 71
47 58 75
42 52 68
39 49 64
44 54 69
40 49 64
40 49 63
40 50 65
35 43 56
48 58 75
44 54 70
46 56 73
44 55 72
46 57 73
40 49 63
47 58 75
45 57 74
42 52 68
43 53 67
47 58 75
42 52 67
40 50 64
46 57 73
41 50 64
43 54 70
45 56 73
39 49 63
46 57 73
38 47 61
42 53 69
40 50 65
38 48 61
44 55 71
32 40 52
26 33 44
24 30 39
25 32 42
30 38 51
26 33 43
33 42 56
24 31 40
30 39 51
28 35 46
32 40 52
30 38 50
32 41 55
33 42 55
32 41 54
31 39 52
29 36 48
30 39 51
34 42 55
37 46 61
31 39 51
32 41 54
36 45 57
35 44 58
35 44 57
36 46 60
35 43 56
40 50 65
39 49 65
35 44 57
37 46 60
33 42 55
31 39 50
35 44 58
38 48 63
32 40 52
41 51 65
34 43 55
36 45 59
38 48 63
36 44 57
35 44 57
37 46 59
38 47 61
39 48 61
45 56 71
35 44 57
36 45 59
29 36 47
33 41 54
37 46 60
40 50 65
39 49 64
37 46 60
37 46 59
38 47 61
38 49 64
31 39 51
36 44 57
38 47 61
35 44 58
38 48 62
35 43 55
39 49 63
40 50 64
42 52 67
34 42 54
34 43 56
38 47 60
35 44 57
37 46 60
41 51 65
39 49 64
39 48 63
47 58 74
37 46 60
39 49 63
37 46 59
42 52 67
35 44 57
33 41 53
42 53 69
35 43 56
45 56 71
35 45 59
36 45 59
38 48 62
40 51 67
40 49 64
41 52 67
37 45 57
36 45 59
42 53 68
42 53 68
43 53 69
35 43 56
41 51 66
45 56 72
41 52 67
42 51 66
45 55 71
34 43 55
40 50 65
35 44 57
38 47 61
41 52 67
45 56 72
35 44 57
34 42 53
40 49 63
41 51 65
33 41 53
41 51 65
36 45 60
40 49 63
37 47 61
39 49 64
35 43 56
46 57 73
45 55 71
46 57 73
38 47 60
37 45 58
40 50 64
36 44 56
38 47 62
38 48 61
40 50 64
38 48 62
37 46 60
44 54 70
36 46 59
43 53 69
40 49 63
44 54 71
44 54 69
38 46 59
38 48 62
35 44 57
44 53 68
42 51 66
41 51 65
41 51 66
41 51 66
46 56 72
44 54 69
40 50 65
41 50 64
42 51 66
40 49 62
43 53 69
37 46 60
39 48 62
42 52 66
41 51 65
38 47 61
42 52 67
39 49 63
39 48 62
42 52 68
40 50 63
38 48 63
38 48 62
43 52 67
37 46 59
35 43 55
41 51 66
43 53 67
42 52 65
42 53 68
39 49 63
36 46 60
34 43 56
36 45 58
43 54 70
37 46 60
40 50 64
40 50 66
35 44 57
45 56 72
38 46 59
44 54 70
38 47 60
42 52 68
37 47 61
36 44 57
40 49 63
38 48 62
42 52 66
41 50 64
38 47 60
40 50 65
42 52 68
35 44 56
38 48 62
42 52 66
41 51 66
38 48 63
39 49 64
38 48 62
37 46 59
37 46 59
43 53 68
39 47 60
40 50 64
34 42 55
35 43 55
40 49 64
35 43 56
35 44 58
43 54 70
37 47 61
40 50 64
34 42 55
32 40 51
31 39 51
37 46 60
38 48 61
30 38 50
35 44 57
40 49 63
36 44 56
34 42 55
35 44 56
39 49 64
32 40 52
32 41 53
36 44 57
35 44 58
32 40 51
36 46 59
38 48 61
34 42 55
34 43 56
39 49 65
42 53 69
34 42 55
33 42 54
36 45 58
35 44 57
35 44 57
37 45 58
36 45 58
29 37 49
32 40 54
42 53 70
31 39 51
31 39 51
35 44 58
33 41 53
37 46 60
33 41 53
31 39 50
24 31 41
35 45 61
31 39 51
28 36 47
31 40 52
28 36 47
27 34 44
27 34 44
31 39 51
27 34 46
30 39 52
28 35 46
26 34 45
28 36 47
25 31 40
23 30 39
26 33 44
29 37 49
24 30 41
23 30 39
34 43 55
40 50 66
43 54 71
38 47 61
41 51 67
39 48 62
38 47 60
43 54 69
45 56 72
44 55 71
43 54 69
52 63 81
46 58 75
43 53 69
42 52 67
49 60 76
46 56 71
41 50 65
41 51 65
46 57 73
47 58 74
47 59 76
41 50 65
48 59 77
40 50 64
41 51 65
38 47 60
40 50 65
42 52 66
46 57 74
41 52 67
47 59 77
41 50 63
42 53 69
44 54 69
40 49 63
40 49 64
47 58 75
49 60 77
44 54 70
42 52 66
43 54 69
42 52 67
42 52 66
43 53 69
43 52 66
37 47 62
43 54 69
44 54 70
41 50 63
45 55 71
38 48 62
44 55 71
39 48 62
42 52 66
43 53 69
41 51 66
46 56 72
40 50 65
40 49 63
47 58 74
42 53 68
48 60 77
43 52 67
41 50 63
41 51 66
45 55 71
40 49 63
39 48 62
43 54 69
49 60 76
46 56 72
46 57 73
43 53 68
47 57 73
37 47 61
42 53 69
45 56 72
49 61 78
43 53 68
45 55 70
44 54 70
45 55 71
46 57 74
42 52 67
40 49 64
47 58 75
48 58 75
42 52 66
46 56 71
49 60 77
42 51 66
37 47 60
41 52 67
52 64 82
40 50 65
40 49 63
42 52 67
43 53 68
42 52 67
46 56 72
40 49 64
39 48 62
41 50 65
42 52 67
41 51 67
48 59 77
48 60 77
45 56 72
43 54 70
43 53 69
38 48 62
40 49 63
47 59 75
43 53 67
40 50 64
37 46 59
42 52 66
42 53 69
40 49 62
44 54 69
40 50 64
35 44 58
42 52 67
43 54 69
38 47 61
40 49 62
36 45 59
22 28 38
25 32 43
20 26 35
22 28 37
27 35 46
30 38 50
23 28 36
28 37 49
26 33 43
29 37 48
28 35 46
32 41 54
31 39 50
28 35 46
27 34 46
33 42 55
32 40 51
31 38 50
26 33 43
30 38 50
28 36 47
37 46 61
29 36 47
26 33 43
30 38 50
32 39 50
34 43 57
33 41 55
36 44 56
32 40 53
31 40 52
31 39 51
35 45 59
32 40 52
30 37 49
40 50 65
38 48 62
33 42 56
34 43 56
38 48 62
32 40 52
40 49 64
32 41 54
29 36 46
37 46 59
36 45 59
35 43 55
34 43 56
33 41 54
36 46 60
37 46 60
32 40 52
32 40 52
45 56 73
41 51 66
34 43 55
36 45 58
40 49 64
37 46 59
40 49 62
38 48 62
33 42 55
38 47 61
43 53 69
37 46 60
34 42 54
31 39 51
41 51 66
41 51 67
32 41 53
36 46 59
40 49 63
37 47 61
35 43 55
38 48 62
35 43 56
37 47 62
35 44 56
39 49 64
41 51 64
41 51 65
43 53 68
31 40 52
36 44 56
40 50 64
36 44 57
46 57 72
42 52 66
32 39 49
35 44 57
41 51 66
36 45 58
38 46 59
38 47 60
40 50 64
39 49 63
41 51 64
40 50 65
39 49 64
43 52 66
39 48 61
38 48 62
42 53 68
37 47 60
38 47 60
41 50 65
34 42 55
34 43 57
41 51 67
38 48 61
37 46 58
39 49 63
41 51 65
38 47 60
35 44 57
41 51 65
40 50 65
42 52 66
48 59 75
39 48 61
36 45 58
36 45 58
40 49 63
40 49 64
41 50 64
43 53 68
33 42 54
40 50 65
35 44 58
43 53 68
38 47 60
46 57 75
41 51 66
41 51 65
38 47 61
38 47 60
41 50 65
41 50 64
39 48 63
41 51 66
42 51 66
46 57 74
42 52 67
40 50 64
40 49 63
43 53 68
42 51 64
42 52 66
35 43 55
36 45 57
36 44 57
44 54 69
45 56 73
39 48 62
40 50 64
34 41 52
39 49 62
45 56 72
41 50 64
42 52 66
37 46 59
43 54 69
46 56 71
36 45 59
40 50 65
44 54 70
41 51 66
42 52 67
42 51 65
36 44 56
41 51 65
36 45 57
37 46 59
44 55 72
35 43 56
44 54 69
41 52 67
34 42 55
35 43 56
41 50 64
36 45 57
38 47 62
36 44 56
38 47 61
35 44 58
38 47 61
39 47 61
45 56 71
40 50 64
33 41 53
45 55 70
39 47 59
40 50 64
38 47 61
40 50 65
43 54 70
36 45 58
39 49 63
34 42 54
36 45 59
42 52 68
36 45 59
41 50 64
41 50 65
34 42 54
38 47 60
32 41 53
42 53 68
34 42 54
38 48 63
39 48 63
41 51 65
38 47 61
32 41 53
39 49 63
32 39 51
39 49 64
37 47 60
36 45 58
35 44 56
45 55 70
33 41 54
36 45 59
34 43 57
35 43 57
35 44 56
34 42 55
37 45 58
34 43 57
33 42 55
36 45 58
36 45 58
28 35 45
31 38 49
37 46 59
31 39 51
32 40 53
35 43 55
31 39 51
29 37 49
31 39 51
32 40 52
31 38 50
38 47 60
37 47 62
33 41 54
31 39 51
31 39 50
31 39 50
32 40 52
35 44 58
27 35 45
32 41 54
41 51 67
30 38 49
32 40 53
33 41 53
32 39 51
28 35 46
24 31 40
28 35 46
30 38 51
30 38 51
30 37 49
24 30 40
25 31 40
25 33 44
24 30 40
24 30 39
26 33 44
28 36 48
21 27 35
33 41 53
35 44 57
37 48 63
42 53 68
39 48 62
39 49 64
42 53 70
39 48 62
46 57 74
40 50 65
41 51 66
42 52 66
40 50 64
40 49 64
42 52 67
48 60 77
46 58 75
43 54 69
40 50 65
38 47 61
41 51 67
42 52 67
39 48 62
43 53 68
45 56 72
43 52 67
40 50 65
38 48 61
41 50 64
43 53 68
43 54 71
48 58 74
43 53 68
43 54 70
47 57 73
41 51 65
41 51 65
39 49 63
44 55 71
49 61 78
49 60 76
40 49 63
38 47 61
42 52 66
42 52 67
40 50 65
38 46 60
39 48 63
40 50 64
41 51 66
41 51 66
34 42 55
48 60 77
41 51 66
36 45 59
42 52 66
48 59 75
40 50 64
39 48 62
43 53 68
42 52 67
41 52 67
43 54 69
45 56 72
41 51 66
45 56 72
42 52 66
43 54 69
42 51 64
47 58 74
46 57 75
45 56 73
46 55 70
44 54 69
47 57 73
42 52 66
41 51 65
40 50 65
43 54 70
44 54 69
43 54 69
42 52 67
40 50 64
46 57 73
45 55 71
47 58 73
45 55 71
41 51 64
39 49 64
44 54 70
40 49 63
46 57 74
41 51 65
46 57 73
43 53 68
45 55 70
44 54 70
42 52 67
35 44 57
41 52 69
43 53 68
46 56 72
47 57 73
45 56 72
37 47 61
47 59 77
43 53 67
45 55 70
45 56 72
43 53 68
46 57 73
40 50 64
42 52 68
43 53 68
37 45 58
43 53 68
39 49 62
45 56 72
39 48 62
40 49 62
39 49 63
42 53 68
42 52 67
46 56 72
40 50 65
40 49 63
42 53 69
34 44 57
25 31 41
19 25 33
25 31 41
28 35 46
26 33 44
27 35 48
31 39 52
24 31 40
23 30 40
31 39 51
29 38 50
25 32 42
27 34 44
31 40 54
27 34 45
33 41 54
30 38 50
32 41 54
28 35 46
31 39 51
33 43 56
36 45 59
31 39 51
34 42 54
27 34 44
31 39 52
34 42 54
32 40 53
29 37 49
36 45 59
32 40 52
31 40 52
36 46 61
36 45 58
32 40 53
33 40 52
36 45 57
32 40 52
36 45 58
36 45 58
31 39 50
39 48 63
36 44 57
37 47 61
32 41 53
38 48 63
35 43 55
37 46 59
35 43 56
35 45 59
36 44 56
37 47 61
33 41 53
39 49 63
35 44 56
32 40 52
37 46 59
38 48 63
39 49 63
40 49 64
40 49 63
33 42 55
43 53 69
39 49 63
35 44 58
39 48 62
35 43 56
36 45 59
37 45 58
36 45 59
38 47 60
34 42 54
37 46 59
41 51 66
34 42 55
40 50 65
36 44 57
37 47 62
40 50 65
35 43 56
41 52 68
34 43 56
38 46 60
41 50 64
39 48 61
43 53 68
36 45 59
39 48 62
39 48 62
43 53 69
44 55 71
37 46 59
38 47 61
39 48 62
41 51 67
30 37 48
43 54 71
40 50 65
39 48 62
42 52 67
43 54 70
39 49 63
42 51 65
39 48 62
37 45 59
43 52 67
40 50 65
48 59 77
46 58 74
40 48 62
41 51 66
44 53 68
37 46 59
39 48 61
40 50 65
42 52 67
39 49 63
35 44 57
37 47 61
40 50 64
42 52 66
39 48 62
39 48 63
42 52 67
45 55 70
42 52 67
41 52 68
40 49 63
38 46 59
37 47 60
41 50 64
38 48 62
46 57 73
35 43 56
43 53 68
40 49 63
43 53 68
35 43 56
39 49 64
39 48 62
37 46 59
43 53 68
40 49 62
42 52 66
40 49 64
43 53 69
37 46 59
41 51 66
36 45 59
40 49 62
38 47 61
41 51 65
38 48 63
40 50 64
41 51 66
40 49 63
40 50 63
42 52 66
39 48 62
37 46 60
43 53 69
40 50 64
41 50 64
40 50 65
36 45 58
37 46 59
39 48 62
44 54 69
40 49 63
44 54 70
43 53 69
40 49 63
39 49 63
44 55 72
38 47 60
42 52 66
34 42 55
40 50 65
40 50 64
41 51 66
33 40 52
49 61 79
41 52 67
40 50 65
34 42 55
38 48 62
40 50 66
36 45 58
34 42 54
33 41 53
42 53 69
37 47 60
37 46 59
42 52 67
36 45 58
36 45 59
37 47 62
35 43 56
40 50 65
38 48 62
40 49 64
32 40 52
43 53 69
44 54 69
38 47 60
34 43 55
36 45 57
39 49 63
43 53 69
38 47 60
35 44 56
43 53 69
34 43 55
36 45 58
41 50 65
35 43 56
38 47 60
39 48 61
40 50 64
27 34 44
38 48 62
36 45 58
38 47 60
38 47 62
38 47 60
41 51 66
32 40 52
33 41 53
39 48 61
35 43 56
36 45 58
34 43 55
36 45 59
33 41 54
34 41 53
36 45 60
33 40 52
33 42 55
31 39 51
29 36 47
36 46 61
33 42 54
34 42 56
35 44 57
33 41 54
31 39 51
31 38 50
29 37 48
33 40 51
33 42 55
31 39 50
34 42 54
32 40 52
28 35 46
35 44 58
30 38 50
29 36 47
30 37 47
29 38 50
26 33 43
28 36 47
27 33 44
26 33 44
26 32 43
23 30 40
28 35 46
26 34 45
27 34 45
26 33 44
18 23 30
19 25 34
21 27 35
38 48 63
43 54 71
45 57 75
36 44 57
38 47 61
43 53 69
40 49 62
39 49 64
46 56 72
40 50 66
39 48 62
40 49 64
44 55 70
39 49 65
41 52 67
47 58 75
39 49 64
43 53 68
42 53 69
44 54 70
35 44 56
49 61 78
43 52 67
42 52 67
44 54 69
44 54 69
40 50 65
42 51 65
41 50 64
39 49 65
41 51 67
45 56 73
41 51 66
44 55 70
42 52 67
49 60 78
44 54 69
44 55 71
44 54 69
44 54 68
44 53 68
42 52 67
41 51 66
43 54 71
42 53 69
39 48 62
52 64 81
44 55 70
38 47 60
41 51 65
41 51 67
45 55 71
43 52 66
39 48 61
39 47 60
46 58 75
44 54 69
45 56 72
40 49 64
43 53 69
37 47 61
39 48 62
41 51 66
35 43 55
37 46 59
36 45 57
41 52 67
39 48 62
43 53 69
40 49 64
49 59 76
46 56 71
42 52 67
45 56 72
43 53 68
45 56 72
40 49 63
46 57 73
44 55 70
38 47 61
47 58 75
37 46 59
41 51 66
41 51 65
45 56 73
41 51 65
45 55 70
45 54 69
43 53 69
46 57 74
46 57 72
38 47 61
47 58 74
42 51 65
45 55 70
41 52 67
39 48 62
42 51 65
45 56 72
44 54 69
40 49 64
43 54 70
41 51 66
45 56 71
46 57 73
42 52 66
42 53 68
41 52 67
40 49 63
42 52 66
43 53 68
49 62 81
43 53 67
43 52 67
42 52 68
41 51 65
47 58 73
40 49 63
43 54 70
42 51 66
47 58 74
39 48 63
38 47 60
39 49 64
40 50 65
39 48 63
36 45 59
40 50 64
24 31 41
21 28 37
17 22 30
25 32 42
26 33 44
27 34 45
26 33 43
25 32 42
29 37 49
24 30 39
31 39 51
27 34 44
29 36 46
26 33 44
27 34 45
36 46 61
31 39 51
34 42 55
25 32 42
33 42 55
28 35 46
30 38 49
37 47 61
29 36 47
32 41 54
30 37 49
36 45 58
29 36 48
35 44 58
33 41 53
34 42 54
30 37 49
38 48 62
37 46 60
37 46 60
37 46 60
33 41 53
34 42 55
35 44 57
35 44 58
36 45 58
35 44 58
35 44 57
40 50 65
35 44 57
35 44 58
32 40 51
36 45 58
33 41 52
39 48 62
38 48 62
37 46 60
37 47 62
38 48 63
37 46 61
36 45 59
34 43 56
36 45 58
37 47 60
39 49 63
32 40 52
38 47 60
36 44 57
36 45 59
42 52 67
36 45 58
39 48 63
42 53 69
37 46 60
35 45 59
36 45 59
39 48 62
43 54 69
35 44 58
40 50 64
40 49 63
40 49 63
38 47 61
35 44 58
40 49 64
37 46 60
37 46 60
37 46 60
38 47 60
36 45 58
43 54 70
38 47 61
37 46 60
35 44 57
39 49 64
42 52 67
35 43 56
39 49 64
37 47 61
39 49 63
44 54 70
40 49 64
33 42 54
36 45 59
35 44 57
45 56 73
38 47 61
39 49 64
39 49 63
37 46 60
42 52 67
47 58 75
39 49 63
40 49 63
44 54 69
34 43 55
40 50 64
39 48 62
38 47 61
40 51 66
40 49 63
39 48 61
37 46 59
36 45 58
37 45 59
41 51 64
37 46 59
38 46 59
40 49 64
38 47 61
37 46 59
35 44 58
36 44 56
33 41 52
41 50 65
38 47 61
37 46 61
38 47 61
35 43 55
39 48 61
45 55 70
41 50 64
41 51 65
39 48 62
45 56 73
36 45 57
39 48 61
39 48 62
44 54 70
37 46 60
42 53 68
37 45 57
35 43 55
39 48 61
38 47 61
39 49 64
39 50 65
41 50 64
39 48 61
38 48 62
37 45 58
37 45 58
35 43 55
41 50 65
41 50 64
44 55 71
40 49 62
32 40 51
40 50 65
39 48 62
43 53 67
40 49 63
39 47 60
34 43 56
40 50 64
43 54 69
38 48 61
42 52 68
41 52 68
40 50 66
42 53 68
43 53 69
38 46 59
48 59 75
32 39 50
41 51 66
38 47 61
37 46 60
36 45 59
39 49 64
36 44 57
43 52 67
41 51 66
38 47 60
37 46 60
35 43 55
35 44 57
34 42 53
36 44 57
45 55 71
45 56 73
34 42 55
36 45 58
41 51 66
43 53 69
36 44 56
41 51 67
39 49 64
39 49 63
41 52 67
36 44 56
40 49 62
36 44 57
38 47 62
40 49 64
36 45 59
36 45 59
34 42 55
40 49 64
37 46 60
38 48 62
37 46 60
42 52 67
39 47 60
30 37 48
34 42 55
38 48 63
29 37 48
35 44 56
33 41 53
37 45 59
33 41 54
32 40 52
36 46 59
34 43 57
32 39 50
38 48 62
30 38 49
34 43 57
32 40 51
31 38 50
30 38 49
42 51 65
29 36 47
32 41 54
27 34 44
35 44 57
32 40 52
33 41 53
30 38 50
30 38 50
33 42 55
29 36 47
30 38 49
34 43 57
33 42 56
29 36 48
32 40 52
32 40 53
32 40 53
29 37 49
30 38 49
30 39 51
30 38 49
27 34 45
29 37 49
29 37 48
28 35 46
25 31 41
27 35 46
26 33 43
29 37 48
26 34 44
19 24 32
24 30 40
23 30 40
24 30 39
36 45 58
41 51 67
38 48 63
40 50 66
35 44 57
38 48 63
44 55 71
39 48 61
40 50 64
38 47 60
42 52 67
45 56 71
41 51 66
36 44 58
44 54 70
38 47 61
45 56 73
42 52 67
41 51 66
38 48 62
39 49 63
41 50 64
42 52 68
46 56 72
50 61 78
47 58 76
43 53 68
47 57 73
43 52 67
39 49 63
47 59 76
45 56 72
39 49 63
41 51 66
40 50 64
48 59 76
41 50 65
40 49 63
41 51 66
43 54 69
43 52 66
39 49 63
43 54 69
52 64 81
39 49 63
45 56 72
41 50 65
38 47 60
39 48 62
40 50 65
46 58 76
39 48 62
45 55 70
42 52 67
37 46 59
40 50 63
43 53 68
44 55 71
40 50 64
41 51 65
40 49 63
41 52 67
41 50 65
42 51 65
45 55 72
44 54 70
43 53 69
44 54 68
45 55 71
43 53 68
47 59 75
36 44 57
38 47 61
40 50 64
47 58 74
41 51 66
46 57 74
42 52 67
46 57 73
41 51 67
45 55 71
45 55 70
42 51 66
37 46 60
46 57 73
49 60 77
42 52 66
49 60 77
40 50 64
41 51 65
37 47 60
41 51 65
45 55 70
37 45 57
44 54 69
45 56 72
45 56 73
41 51 65
40 50 64
42 53 69
44 54 69
44 54 69
40 49 62
42 52 67
39 49 63
38 47 61
45 57 75
40 50 65
42 52 67
49 59 75
42 53 69
38 47 62
39 49 63
43 53 69
47 58 74
45 55 71
40 50 63
45 55 71
39 49 63
41 51 66
41 51 66
35 44 57
43 53 68
37 46 59
45 56 72
32 39 50
34 43 57
36 45 57
21 27 36
22 29 38
15 20 26
23 29 38
21 27 36
25 32 42
29 37 49
32 39 51
24 30 38
26 34 46
24 30 39
28 35 47
31 39 51
32 40 53
27 33 44
28 35 47
32 40 52
26 33 42
28 36 47
32 40 52
32 40 53
30 38 49
38 47 61
34 42 56
33 41 52
37 46 60
40 50 64
32 40 53
34 42 54
32 39 50
34 42 55
36 46 60
36 44 57
35 43 56
34 43 56
39 48 62
32 41 53
38 48 62
34 43 56
37 47 62
38 47 60
33 40 52
36 45 59
32 40 53
38 47 61
35 43 56
38 47 61
33 41 53
37 45 58
36 44 56
32 40 52
35 44 57
37 45 59
35 43 56
33 42 55
39 49 63
36 45 58
32 40 52
36 45 58
34 43 57
37 46 59
38 47 61
41 52 68
40 50 64
44 54 69
36 45 59
40 50 64
37 45 59
38 47 61
37 46 59
41 50 65
40 50 65
37 47 61
39 48 63
40 50 64
33 42 55
40 49 63
38 47 61
35 43 56
37 46 59
36 44 57
38 47 60
41 51 65
35 44 56
39 49 63
41 51 65
36 44 56
36 45 59
38 46 59
39 49 64
39 48 62
40 49 63
36 45 57
40 49 62
37 46 60
40 50 63
37 46 60
38 48 62
41 51 66
39 48 62
37 46 59
41 51 66
34 43 56
36 44 55
38 47 61
37 46 60
40 49 63
43 53 68
45 56 73
43 54 70
40 50 65
41 51 67
40 49 64
43 53 68
37 46 58
43 53 68
33 41 53
34 43 56
41 51 67
37 45 58
42 52 67
39 49 64
41 52 67
38 48 63
37 46 59
36 44 57
39 48 63
41 51 66
40 50 65
39 48 61
38 47 60
38 48 62
37 46 59
39 48 62
39 49 64
40 50 64
42 52 67
43 52 66
41 51 65
43 53 68
37 45 57
42 53 68
38 47 62
42 51 66
39 48 62
40 49 63
37 46 58
40 49 63
41 50 65
38 47 60
40 49 63
40 50 64
34 43 55
45 55 70
40 50 64
30 37 47
41 50 64
44 54 69
38 46 60
35 43 56
38 47 61
36 46 59
41 50 65
35 44 57
36 45 58
40 49 62
39 49 65
35 43 55
43 53 68
42 51 65
41 50 64
32 40 52
37 45 57
36 44 57
40 50 65
38 46 60
35 44 57
37 46 59
34 43 56
41 51 65
40 49 63
39 49 62
39 49 63
36 44 57
38 48 62
37 47 60
37 45 58
40 50 64
36 45 57
39 49 64
39 48 62
40 50 64
41 52 67
43 53 69
39 47 60
36 45 58
37 46 60
40 50 63
44 55 70
30 38 49
39 49 65
41 51 66
39 47 60
37 46 59
36 45 59
38 46 59
36 45 57
36 45 59
38 46 59
37 46 58
37 46 60
34 43 55
38 48 62
38 48 62
39 49 64
29 36 47
38 47 60
31 39 51
35 44 57
35 44 57
37 46 60
31 38 50
35 45 59
36 45 58
34 42 56
31 38 49
40 50 64
38 48 62
38 47 60
40 50 65
31 38 50
44 55 71
33 42 55
38 48 63
34 42 54
36 44 57
37 46 61
34 43 56
33 40 52
32 40 52
30 38 49
28 35 46
27 34 44
34 43 55
33 42 56
37 45 58
28 36 47
32 40 53
31 38 50
33 41 54
25 32 42
33 41 54
28 36 48
33 42 55
32 40 53
36 45 58
28 35 45
26 33 42
34 42 55
24 30 40
27 34 45
22 27 35
21 26 34
27 34 44
26 33 43
22 27 35
21 27 36
25 31 41
29 37 49
24 30 40
22 28 37
28 35 45
35 43 55
36 44 57
37 46 61
37 47 61
39 49 64
45 55 71
39 49 64
37 46 61
40 49 64
44 55 70
47 58 75
42 52 67
46 57 73
48 59 76
44 54 68
44 55 71
44 55 70
42 52 66
40 49 62
42 52 66
44 55 72
37 46 60
45 56 72
43 54 70
40 49 64
47 58 74
40 50 64
40 49 63
39 49 64
42 52 67
45 56 73
43 53 68
40 49 64
39 49 64
44 54 69
40 49 63
39 48 62
45 56 72
42 52 66
35 44 57
46 56 71
43 52 67
44 53 67
45 56 73
44 53 68
45 56 73
44 54 69
39 48 62
41 51 65
40 49 63
42 52 67
43 54 69
40 49 62
44 55 71
48 59 75
43 54 69
42 52 67
42 52 67
43 53 68
40 49 64
38 47 61
42 51 66
46 56 71
46 56 71
30 37 48
39 49 63
49 59 75
48 58 74
42 52 67
43 53 68
46 56 72
41 50 65
48 60 77
38 47 61
39 48 62
40 51 66
42 52 68
40 49 63
44 54 69
42 52 66
46 56 73
40 50 65
44 54 70
41 51 66
41 50 64
41 51 67
40 50 66
40 50 64
41 51 66
44 56 73
43 53 68
40 50 65
44 54 67
39 48 62
46 57 74
41 50 64
48 59 76
46 56 72
46 57 73
46 56 71
41 51 66
50 62 79
43 54 69
40 49 64
46 56 71
42 52 66
42 52 67
47 58 74
45 55 70
40 50 65
37 46 60
44 54 70
39 48 62
37 46 60
41 50 64
38 46 59
36 45 58
41 51 65
43 53 68
38 49 64
43 53 68
42 52 66
39 48 62
41 52 69
39 48 62
36 45 58
40 51 66
35 43 55
30 38 51
20 26 35
21 27 35
18 23 31
25 31 42
26 34 44
25 31 40
28 36 47
33 41 54
28 36 47
31 39 51
27 34 45
27 34 44
29 37 48
25 31 41
31 38 48
27 34 45
34 43 57
31 39 52
36 45 59
35 43 56
28 35 45
37 45 58
30 38 49
32 41 54
32 40 52
32 40 53
37 45 58
38 49 65
30 38 50
33 41 54
31 38 49
34 43 56
26 33 43
32 39 51
31 39 50
33 42 54
36 45 57
37 46 59
37 45 59
38 47 61
33 42 55
39 48 61
32 40 52
38 48 62
37 46 60
39 48 62
25 31 40
38 46 59
36 44 57
32 41 53
37 46 59
32 40 53
34 43 55
34 42 54
41 51 66
41 51 65
38 47 61
39 49 64
36 45 58
38 47 61
34 42 55
34 42 55
37 45 58
33 42 55
36 45 58
38 47 61
31 39 50
35 43 56
30 38 49
37 47 61
34 43 55
38 47 60
34 42 55
32 39 51
38 48 63
35 44 57
37 46 59
36 46 59
37 45 59
36 45 57
34 42 54
43 53 67
40 51 66
37 45 58
39 49 63
39 49 64
39 49 63
38 48 62
41 51 66
35 43 56
39 49 63
36 44 56
37 46 60
37 46 60
39 48 62
35 44 56
36 45 59
37 45 58
40 49 63
38 46 59
34 42 55
41 51 65
36 45 58
39 48 61
40 50 64
42 53 68
41 50 64
36 45 58
38 48 63
43 52 67
41 51 66
40 50 63
47 57 72
43 53 67
34 42 54
35 44 57
41 50 63
42 52 67
37 46 60
35 43 56
41 51 65
32 40 53
36 46 60
34 44 58
43 53 68
44 54 69
44 55 70
40 50 64
40 50 64
40 50 64
40 49 63
41 51 65
40 49 62
40 49 63
44 53 67
39 48 61
43 53 69
33 41 53
40 49 62
42 52 66
48 60 78
38 47 60
37 46 59
35 43 56
36 44 56
43 53 69
40 51 66
44 53 68
42 52 66
43 53 68
40 50 65
42 52 67
35 43 56
44 55 73
40 50 64
41 51 65
37 45 57
39 48 62
46 56 71
38 46 60
42 52 66
41 51 67
48 59 76
41 51 66
39 48 62
38 47 60
42 52 67
42 52 67
39 48 63
42 51 66
43 53 68
39 48 62
38 47 60
32 41 53
38 47 61
41 50 63
39 49 63
36 45 58
43 54 70
39 48 63
39 49 63
37 46 60
40 49 64
39 48 61
38 45 57
40 50 63
39 49 64
33 42 54
35 43 55
35 43 55
35 43 56
34 43 56
35 43 56
38 46 60
40 50 65
37 45 58
38 47 62
42 51 66
39 48 61
38 47 61
39 48 62
36 45 58
34 42 54
40 49 62
34 42 54
38 47 61
33 41 53
27 33 42
39 49 63
36 44 56
31 40 52
32 40 52
31 38 49
37 46 59
39 49 63
36 45 59
35 43 56
32 41 53
32 39 51
35 43 55
39 49 63
37 47 61
39 49 64
36 44 56
35 42 54
37 47 63
36 46 60
33 42 54
32 40 52
35 43 56
35 44 57
37 46 61
28 35 47
28 36 47
31 39 51
33 42 55
38 48 62
34 42 54
32 40 52
32 40 52
39 48 62
36 46 60
33 41 53
34 42 55
30 37 49
33 41 53
26 33 42
34 42 55
32 40 52
31 38 49
31 39 50
31 39 52
32 40 52
31 39 51
32 40 53
30 38 49
30 38 49
31 39 51
32 40 52
27 33 44
32 40 53
23 29 38
30 38 51
30 37 49
28 36 47
23 29 37
23 30 39
26 34 45
18 24 32
19 25 34
27 34 45
35 45 60
40 50 65
39 48 61
39 49 64
38 47 60
39 48 62
39 48 63
38 48 62
40 50 64
44 54 69
41 50 64
41 51 66
44 54 70
41 51 66
40 49 63
39 48 61
45 56 72
40 49 62
39 48 63
41 51 66
45 56 72
45 56 72
42 52 66
44 54 68
40 49 63
40 49 62
39 48 62
40 49 63
37 47 62
44 54 69
42 51 65
40 49 64
43 52 66
42 52 67
43 55 72
43 54 70
40 51 66
42 53 68
42 52 68
40 50 66
44 53 68
37 47 61
39 49 63
40 49 63
40 49 63
41 50 63
40 49 63
37 46 59
40 50 65
46 57 74
45 56 73
46 57 73
48 59 76
39 48 62
43 52 67
40 50 65
44 54 68
39 48 62
40 50 64
38 48 63
44 54 69
42 52 67
42 52 66
43 54 69
50 62 79
38 47 61
40 50 66
42 52 66
42 52 67
40 49 63
45 55 71
44 55 70
47 57 73
45 56 72
36 45 58
48 59 75
39 48 62
43 53 68
40 50 65
44 55 71
43 53 69
41 50 64
42 52 68
39 48 62
44 54 69
41 52 68
49 61 79
41 51 66
41 51 66
38 48 62
44 55 71
42 52 66
46 58 74
48 58 74
42 52 68
43 53 68
42 53 69
46 56 72
47 58 75
43 53 69
35 44 58
38 48 62
41 51 66
45 54 69
38 47 61
40 50 65
48 58 74
41 51 65
41 51 67
45 55 71
44 53 68
36 45 59
40 50 64
47 58 74
40 50 64
37 47 61
45 55 70
40 49 63
42 52 66
40 49 63
42 52 67
34 43 57
39 49 64
40 50 65
41 51 66
47 59 76
34 43 56
34 43 55
27 35 46
25 31 41
23 30 40
23 29 38
26 33 44
26 33 43
32 41 53
28 36 47
24 31 41
25 33 43
22 28 37
25 32 43
24 30 39
26 33 43
23 30 39
31 39 50
30 38 50
27 35 46
28 36 47
29 36 47
30 38 49
36 44 57
31 39 51
31 39 51
31 38 49
29 36 47
32 40 51
36 46 60
33 41 55
33 41 53
36 44 57
40 49 62
35 43 57
36 46 60
35 43 56
36 44 58
32 40 52
36 45 59
32 41 53
33 42 55
36 45 58
33 41 53
31 39 50
41 50 64
35 44 58
34 43 56
37 47 61
37 46 60
33 41 53
33 41 53
36 44 56
37 45 58
38 47 60
35 43 56
37 45 58
38 48 61
38 47 61
40 49 63
39 49 63
34 43 57
33 41 52
40 49 62
35 44 57
38 47 60
40 50 66
35 43 56
35 44 57
32 40 52
33 41 54
34 43 57
37 46 60
38 47 62
37 46 59
39 49 64
33 41 53
39 48 62
36 45 58
38 46 59
43 52 67
39 49 65
39 48 62
41 51 66
32 40 52
37 45 59
40 49 63
39 49 64
45 55 70
41 51 65
38 47 60
39 48 61
35 43 55
39 49 63
40 50 64
36 45 58
38 47 61
41 50 64
37 45 58
34 42 54
37 46 59
34 42 54
38 47 60
41 51 66
37 47 61
36 46 60
38 47 61
37 46 60
37 46 59
34 43 57
44 55 71
45 56 72
41 50 65
38 46 60
32 40 51
37 46 60
41 50 64
37 45 59
33 41 53
36 44 55
38 48 63
44 55 71
41 51 65
39 48 63
39 48 62
38 47 61
40 49 64
41 50 64
34 42 54
38 47 62
39 49 63
42 52 66
36 45 59
42 51 66
40 49 63
41 50 64
38 47 62
39 48 62
34 42 54
43 54 69
43 54 69
38 48 62
39 49 63
42 52 67
45 55 71
45 55 70
43 53 69
40 49 63
37 46 60
38 47 60
39 49 62
42 52 67
45 55 71
39 48 61
40 50 64
39 48 62
36 45 58
39 49 63
39 48 63
39 47 60
38 48 62
38 47 60
35 44 57
47 57 73
35 44 57
35 43 56
36 45 58
39 48 62
35 44 58
39 50 65
37 45 59
35 44 57
39 48 62
40 49 62
42 52 67
42 53 68
35 43 56
39 49 64
37 45 58
34 43 56
39 49 64
36 45 58
40 50 65
42 52 66
39 48 62
40 50 64
38 47 60
34 42 54
40 49 63
43 53 69
39 48 63
42 52 66
36 45 58
41 50 65
41 51 65
32 41 53
34 41 53
35 44 57
38 47 60
39 48 61
39 49 65
38 47 59
41 50 64
39 48 62
39 49 63
38 46 60
34 42 54
34 42 54
37 47 61
36 45 59
35 43 56
36 45 58
39 48 62
34 43 56
39 48 63
35 44 57
35 43 55
35 44 58
39 48 62
30 37 48
36 45 58
33 42 55
35 44 58
38 47 62
32 40 52
33 41 53
32 40 52
38 48 62
38 47 60
40 50 65
38 47 61
33 41 52
32 40 52
36 45 59
38 47 60
33 42 55
30 38 49
36 45 59
35 44 57
33 41 53
29 35 45
39 49 63
35 43 56
32 41 53
33 41 53
33 41 53
30 38 50
34 42 54
30 37 48
32 40 52
31 38 49
29 36 46
33 41 54
37 45 58
36 45 58
35 44 58
25 32 41
33 41 54
33 42 55
26 32 41
29 37 48
32 39 51
29 37 49
24 30 39
25 32 41
27 33 43
22 28 37
27 34 44
25 32 43
24 31 40
26 32 42
24 30 39
19 25 32
29 36 47
38 48 62
42 52 67
38 47 61
37 47 60
36 45 58
39 49 64
43 53 70
38 46 59
44 55 70
43 53 68
46 58 74
49 60 78
47 58 75
41 52 68
43 53 68
46 57 73
39 48 61
37 46 60
45 56 73
42 51 66
41 51 65
45 56 72
43 53 67
40 51 66
42 52 68
41 51 66
42 52 67
39 48 62
40 49 63
39 48 62
41 51 66
42 51 65
42 53 68
41 51 65
41 52 67
42 52 66
39 48 61
40 49 64
39 47 60
42 51 65
44 54 69
46 56 72
40 48 62
46 56 72
46 56 71
43 53 69
41 51 65
43 53 68
42 52 68
45 55 71
46 55 70
43 53 68
41 51 65
40 49 62
41 51 65
45 55 70
39 48 62
43 52 67
46 57 73
38 47 62
44 54 69
40 50 65
41 50 64
44 54 70
41 51 65
43 54 69
40 49 62
42 51 64
42 52 67
48 58 74
40 49 62
38 47 60
41 51 66
45 56 72
46 57 73
48 59 75
38 47 61
47 57 72
39 48 63
46 56 70
46 56 72
43 52 67
41 52 69
43 53 68
43 53 69
41 51 67
43 52 67
43 53 68
42 52 66
50 62 79
40 51 66
38 47 61
40 50 64
42 51 66
44 55 71
44 54 69
41 51 65
41 50 65
40 50 63
43 54 71
38 47 61
43 53 68
41 51 67
44 54 70
41 50 64
41 50 65
40 49 62
43 54 69
44 55 71
44 55 71
42 52 66
42 52 68
40 50 65
39 48 60
40 50 65
38 48 62
41 51 65
36 45 58
39 48 62
39 49 63
39 49 64
39 49 63
42 52 67
38 48 62
38 48 62
40 49 64
40 50 64
41 51 66
25 32 42
18 23 30
21 26 34
23 29 37
22 27 35
24 30 40
29 37 49
25 32 42
24 30 40
28 35 45
24 30 39
24 30 40
34 43 56
30 38 50
28 34 45
31 39 50
32 40 53
29 36 46
27 35 47
27 33 43
29 36 46
29 37 49
26 34 44
28 36 47
29 37 50
36 45 58
31 38 49
31 38 49
30 37 48
32 40 52
38 47 60
28 36 46
33 42 54
33 41 53
27 34 44
33 41 53
34 42 54
32 41 53
34 42 55
33 41 53
30 38 50
32 40 53
38 48 62
43 53 68
36 44 58
34 43 56
37 46 59
40 49 63
35 43 56
36 45 58
27 34 45
33 41 53
32 40 51
33 42 54
38 47 61
29 36 47
39 48 62
39 48 62
39 48 63
41 50 64
39 49 64
35 43 56
34 43 56
36 44 57
33 41 52
37 47 61
36 45 59
37 46 60
37 46 59
32 40 53
39 48 62
29 37 49
42 52 66
37 46 59
40 50 65
37 47 62
38 47 60
35 43 56
31 38 49
42 53 69
36 45 57
37 45 57
32 40 52
40 49 64
39 49 63
40 49 64
38 47 61
37 45 59
36 45 57
38 47 61
38 47 61
37 46 60
41 51 64
38 47 61
43 53 67
36 45 59
36 45 58
36 45 60
39 48 63
40 50 64
39 49 63
40 49 61
39 48 61
37 46 59
37 46 60
35 43 57
44 54 70
38 46 59
35 44 57
35 43 56
36 44 57
39 49 63
40 50 64
38 48 64
38 46 59
39 48 62
41 50 64
32 40 52
37 46 59
40 50 64
40 50 65
37 46 60
42 52 67
39 50 66
49 61 78
47 58 75
42 52 67
36 44 58
39 48 62
36 45 59
43 53 67
39 49 63
39 48 62
39 47 60
39 48 61
37 45 58
39 48 62
39 49 63
40 50 64
36 45 57
38 46 58
43 53 69
43 54 70
42 52 67
36 45 58
38 47 60
39 48 62
37 45 58
42 52 67
44 55 71
46 57 73
34 42 55
38 47 61
39 49 63
41 51 67
44 54 69
45 55 69
39 48 62
42 51 65
40 50 65
38 48 61
43 54 69
38 48 63
38 47 61
38 46 60
39 49 62
39 49 63
41 51 66
37 47 61
40 48 62
37 46 59
39 48 63
38 47 60
36 44 56
38 47 60
42 53 68
35 43 55
40 49 63
40 50 63
36 44 57
43 53 68
39 47 61
35 43 55
40 50 65
37 45 59
38 47 60
38 47 60
36 45 58
37 46 59
30 37 48
33 40 51
38 48 62
43 55 72
39 49 63
38 47 61
33 41 53
34 42 55
33 40 52
39 48 62
33 41 53
31 38 49
37 46 59
39 48 62
39 47 61
40 50 64
39 49 64
33 41 53
40 49 62
35 44 57
33 41 53
34 43 56
36 45 59
37 45 58
30 38 49
30 37 49
33 41 53
38 47 61
35 43 56
38 47 60
41 51 66
39 48 62
33 42 56
36 44 57
38 47 60
37 46 60
30 38 48
34 42 54
32 40 51
34 42 54
35 44 58
36 45 59
36 44 57
32 40 52
32 40 53
32 40 53
32 40 53
30 37 49
36 45 58
30 38 49
33 41 53
35 43 55
33 41 54
34 43 56
34 43 56
31 39 51
33 41 54
32 39 49
35 44 57
32 40 52
32 40 51
30 38 49
29 36 46
30 38 49
24 30 39
30 37 48
26 34 45
27 34 45
28 35 46
27 35 45
31 39 50
28 36 47
29 37 49
23 29 38
27 34 45
28 34 45
23 29 39
19 24 32
19 23 30
21 27 36
18 23 30
16 21 27
28 34 45
41 51 67
33 41 54
35 45 60
39 48 62
46 57 75
44 54 70
44 55 71
36 45 58
39 49 63
42 52 67
38 47 60
48 59 77
42 52 66
43 53 68
41 50 64
38 48 62
42 52 68
43 52 66
44 54 70
41 50 65
51 63 81
43 53 68
41 51 66
41 50 64
38 48 62
45 56 71
40 50 63
44 54 69
42 52 67
44 55 70
38 48 62
43 53 69
41 50 65
43 54 69
42 52 68
44 54 69
38 47 60
40 49 62
42 51 65
38 48 62
43 53 68
39 48 63
41 50 63
45 56 72
46 56 72
36 44 56
38 46 59
45 55 71
46 56 73
36 45 59
39 48 62
35 43 56
39 48 61
37 46 58
37 46 59
34 43 56
41 51 64
42 51 65
42 52 66
35 44 57
40 49 63
45 56 72
46 58 74
39 48 62
41 50 65
47 57 73
42 52 66
34 42 54
39 49 63
48 59 75
49 61 79
37 46 60
45 56 72
43 53 68
45 56 72
47 58 74
42 51 66
41 50 64
40 49 64
45 55 70
41 50 65
47 57 73
42 52 67
41 50 64
38 47 61
45 55 69
45 55 71
43 53 67
46 56 71
39 48 61
38 47 61
44 54 69
42 51 65
40 49 63
46 57 73
44 55 70
42 52 67
44 55 71
42 53 69
34 42 53
40 50 64
43 54 69
43 53 67
45 56 73
41 51 66
41 51 66
47 57 73
40 50 65
39 48 62
45 55 71
37 45 57
41 50 64
41 51 66
39 48 62
42 53 68
42 53 69
40 50 66
44 55 70
41 50 64
39 49 64
40 50 64
38 47 61
39 48 62
37 46 60
47 57 73
33 42 55
38 48 62
39 48 62
25 32 41
21 27 36
16 21 28
20 26 34
22 28 37
25 31 40
24 31 40
26 32 42
26 33 43
21 26 35
26 34 45
28 35 46
25 31 41
27 34 45
33 41 54
30 38 50
27 35 46
29 36 48
29 36 47
32 40 52
38 48 62
24 30 40
30 39 52
29 36 47
25 31 41
29 37 48
29 36 47
31 39 51
29 36 46
32 40 52
31 38 50
28 35 45
33 41 54
33 41 53
39 49 64
35 42 54
31 39 50
35 44 56
30 36 47
38 47 61
37 46 59
34 42 54
35 43 55
33 41 52
36 45 59
39 49 63
39 49 64
36 44 57
33 41 53
29 36 47
31 39 50
34 42 56
34 43 55
32 41 54
28 35 45
38 47 60
33 42 55
37 46 59
43 53 68
36 45 58
35 43 55
33 42 54
31 38 49
40 50 66
32 40 53
41 51 66
34 42 54
36 44 57
35 43 55
37 45 59
32 40 52
36 45 59
35 43 56
33 42 55
35 44 56
41 50 65
40 49 63
33 41 53
39 49 64
36 44 57
38 47 60
35 42 54
37 44 56
39 49 65
34 42 55
41 52 67
39 49 64
33 41 54
38 48 61
33 42 54
42 52 67
34 41 53
38 47 61
39 48 62
39 49 64
40 48 62
36 44 57
33 41 53
43 54 69
39 48 63
41 51 66
38 47 60
38 47 61
35 44 57
38 47 60
41 50 65
39 48 62
38 48 62
40 50 65
44 54 69
41 51 66
36 44 56
32 40 52
39 48 63
38 47 62
39 49 64
44 55 71
43 52 67
37 45 57
41 50 64
35 44 56
42 52 67
39 48 62
42 53 68
46 56 73
40 50 66
44 55 70
39 49 64
38 46 59
35 43 56
38 47 60
43 53 68
38 48 62
42 53 68
40 50 65
38 47 60
44 54 69
37 45 57
41 50 63
37 46 60
39 48 62
41 50 64
40 50 64
40 50 64
39 48 62
39 48 63
44 54 69
41 51 65
36 44 57
38 48 62
38 48 62
38 48 63
39 49 64
42 52 66
40 50 64
39 48 60
41 51 65
40 50 64
44 54 69
36 45 59
43 54 69
39 48 62
37 46 59
39 48 62
40 50 65
41 51 66
45 55 71
38 47 60
36 45 58
36 45 58
38 47 60
40 49 63
38 47 61
35 44 57
41 51 65
36 45 58
35 43 54
36 45 57
32 40 52
41 52 67
33 40 52
42 51 66
41 51 65
40 50 64
39 49 63
38 48 62
37 46 60
35 44 57
37 46 60
38 48 62
34 42 54
32 40 51
35 44 58
35 43 55
38 46 60
40 50 66
39 48 61
36 45 58
39 49 63
38 46 60
32 40 52
39 48 61
40 50 65
38 47 60
36 45 58
31 39 50
39 49 63
31 39 51
35 44 57
41 50 64
35 42 53
35 43 56
35 44 56
36 45 59
33 40 52
35 44 58
33 42 55
34 42 55
35 43 56
36 45 59
35 44 57
29 37 48
38 47 61
38 47 60
42 52 67
32 40 51
35 44 57
37 46 61
36 45 58
30 38 49
38 48 63
33 40 52
36 45 58
34 44 57
35 44 57
35 44 56
35 44 57
38 47 62
33 41 54
33 41 53
34 42 54
32 40 52
24 29 38
32 40 53
30 37 48
32 40 52
31 40 52
32 40 52
28 35 46
26 33 43
29 37 49
31 40 52
33 41 53
28 34 44
25 32 43
26 32 42
29 35 46
31 38 49
33 41 54
26 33 43
28 36 48
28 35 45
26 33 44
21 27 35
23 29 38
24 30 40
22 28 36
23 30 39
17 22 29
16 20 27
17 21 28
28 35 45
38 47 60
41 50 64
35 44 58
37 46 60
34 43 56
41 51 65
39 48 63
41 51 66
42 52 67
40 50 64
40 50 64
43 52 67
45 54 69
43 54 70
36 45 59
38 47 61
38 47 61
44 54 71
43 54 69
36 45 58
37 45 59
44 54 70
40 50 64
43 54 70
41 51 66
39 48 62
43 54 70
43 54 69
44 55 72
40 49 63
45 56 73
40 50 64
39 48 62
44 55 71
37 46 60
39 49 63
42 52 66
40 49 62
46 58 74
41 51 67
36 44 56
47 57 73
36 44 56
39 48 61
42 51 65
39 49 63
40 49 63
36 44 56
39 48 61
43 54 69
44 54 70
41 51 65
44 54 70
43 54 69
38 46 58
38 47 60
51 63 81
46 57 74
35 42 54
37 47 61
44 55 70
39 49 63
41 51 66
41 51 65
39 48 62
38 47 60
41 50 64
42 51 64
45 55 70
46 57 73
41 51 65
40 50 64
42 52 67
44 54 70
39 48 62
42 52 66
42 52 67
45 55 71
43 53 67
43 53 68
45 56 72
43 54 70
45 56 71
37 45 57
45 55 70
40 49 62
40 49 62
39 49 64
41 51 65
47 57 72
42 52 68
42 51 65
44 55 71
40 50 64
41 51 66
44 54 70
47 59 77
38 48 61
42 52 67
46 58 75
44 55 72
36 45 58
44 55 71
41 50 64
39 48 62
36 45 59
43 53 67
42 53 69
42 51 66
44 54 69
48 59 75
40 49 64
43 53 67
37 47 61
43 53 68
43 54 70
40 50 64
44 55 70
38 47 61
38 48 62
42 52 67
37 46 59
40 50 64
46 56 72
33 41 53
42 52 68
36 46 60
37 46 58
31 39 50
18 23 31
22 28 37
23 29 38
23 29 38
29 36 47
18 23 31
21 27 35
26 31 40
25 32 42
25 32 42
24 30 40
23 29 39
25 31 41
28 36 47
27 33 43
22 28 37
27 34 44
28 35 45
29 37 48
24 30 39
29 36 46
31 39 50
30 38 49
30 37 48
33 41 53
29 38 50
34 43 57
30 37 49
32 40 52
37 47 62
30 38 49
32 39 51
28 36 46
37 45 58
33 42 54
33 42 54
30 37 48
31 38 49
33 41 53
33 41 52
38 47 61
33 41 54
33 41 53
31 39 51
37 45 58
38 47 61
34 42 54
34 42 55
33 42 55
37 46 60
36 46 59
38 47 60
30 38 49
42 51 66
41 50 65
37 47 62
33 40 52
35 43 56
35 44 58
32 39 50
30 38 49
37 46 59
32 40 52
35 44 56
36 45 58
32 40 52
31 39 50
33 41 53
38 48 62
29 36 46
34 42 54
36 45 59
39 47 61
41 51 65
31 40 52
35 43 55
36 45 59
38 47 61
35 44 57
38 48 63
36 45 57
34 41 53
39 48 61
39 48 61
40 49 63
39 47 60
35 44 57
39 48 61
37 47 61
38 47 61
34 42 54
37 45 59
42 52 67
35 44 56
39 48 62
38 47 60
37 46 59
41 51 67
40 49 64
43 53 69
35 44 56
36 45 58
35 43 55
37 45 58
31 39 50
37 46 59
37 46 60
35 44 58
42 52 67
39 48 61
36 44 58
40 50 65
35 43 56
40 49 64
35 44 56
41 50 64
40 50 64
39 48 62
38 47 61
38 47 60
40 50 66
41 51 67
40 50 65
37 46 59
34 42 54
35 44 57
32 40 52
45 55 70
42 52 66
35 44 57
42 51 66
39 49 63
41 50 65
42 51 66
39 48 62
40 49 63
37 45 57
40 50 65
43 53 68
39 49 63
33 41 54
39 48 61
41 51 66
38 46 59
41 51 65
40 50 64
39 49 63
37 46 59
42 51 64
34 42 54
40 49 63
42 52 68
35 43 56
40 50 64
42 52 68
37 46 58
41 51 65
39 48 60
43 53 68
36 45 59
35 43 55
37 46 59
37 47 61
38 47 61
31 38 50
36 44 57
37 47 62
38 48 62
42 52 67
43 53 68
43 53 69
36 45 58
44 54 70
37 45 58
43 53 68
38 47 60
34 42 54
36 44 57
36 45 58
39 49 63
35 42 54
42 53 69
46 56 71
40 49 63
41 50 64
36 45 58
36 45 58
39 48 62
38 47 61
38 47 61
38 48 62
38 48 62
41 51 65
41 50 65
34 43 55
40 50 64
37 47 61
36 45 58
37 46 59
39 48 62
32 40 51
37 46 59
38 47 60
40 50 66
34 43 55
34 43 56
37 46 59
32 39 50
36 44 57
33 41 54
34 43 56
32 39 51
38 47 60
41 50 64
38 46 59
33 41 53
32 40 53
32 40 51
35 44 56
32 40 51
33 42 54
39 49 62
40 49 62
38 48 62
34 42 54
32 40 52
32 39 51
36 45 58
33 42 56
31 39 52
31 39 51
36 45 59
29 36 46
28 36 46
33 41 53
29 36 48
32 40 53
37 47 61
31 39 50
29 36 48
33 40 51
34 42 55
32 40 52
31 38 49
25 31 40
27 34 44
34 42 55
33 41 53
30 38 49
30 37 49
33 41 53
28 36 46
33 40 52
28 35 46
29 36 47
28 35 45
22 27 35
30 38 50
28 35 45
28 35 46
22 28 37
25 30 38
23 29 38
18 23 31
21 27 37
20 25 33
21 27 35
24 30 40
17 21 27
19 24 32
33 41 54
33 41 52
41 51 66
40 49 63
39 48 62
38 48 63
37 47 62
45 56 72
39 48 62
41 50 63
39 47 60
41 50 64
37 47 61
40 50 65
41 50 63
39 48 62
41 49 63
40 49 64
47 58 74
42 51 66
39 48 63
34 42 54
43 54 70
34 42 54
43 53 68
41 51 66
41 51 65
46 57 73
40 50 65
45 56 71
43 53 66
39 48 61
38 46 59
41 51 65
37 45 57
40 49 62
33 41 53
44 54 68
37 45 59
43 54 69
44 54 70
43 53 67
41 51 66
39 48 62
45 55 70
43 53 69
40 49 62
43 53 68
39 49 64
39 48 61
40 50 64
45 55 70
44 54 69
41 50 65
39 48 63
43 52 67
45 55 71
44 55 71
39 48 62
43 53 68
39 48 61
41 51 66
41 51 65
36 45 58
42 52 66
43 52 67
39 48 61
39 48 62
37 45 58
43 53 68
44 53 68
44 54 69
42 50 63
43 52 65
43 54 71
42 52 67
40 50 64
40 49 62
40 49 64
42 52 67
41 51 65
51 62 80
39 47 60
42 52 68
39 47 60
42 52 67
37 45 58
42 52 67
41 52 67
41 51 65
42 52 66
44 55 71
45 56 71
39 48 62
44 54 68
43 54 70
39 48 62
45 55 71
45 55 70
43 53 68
41 51 67
47 57 72
39 48 61
44 54 69
42 51 65
47 57 73
36 45 58
41 51 65
48 60 77
42 52 67
40 49 63
35 43 56
46 56 72
38 47 60
44 54 68
44 54 68
39 48 62
42 51 66
48 59 76
46 56 71
40 50 65
37 46 59
43 53 67
38 47 60
39 49 64
39 48 61
39 49 63
36 44 57
37 46 61
37 46 60
18 23 30
15 19 24
15 19 25
24 30 40
22 28 36
26 32 42
19 23 30
24 30 39
21 26 34
25 31 40
26 33 43
23 29 37
23 29 38
27 35 47
27 34 44
29 37 49
25 32 41
27 35 46
27 33 43
28 35 45
31 39 50
29 36 47
33 41 54
33 42 54
36 45 60
32 41 54
34 42 55
28 34 44
32 40 52
34 43 55
30 37 48
35 44 58
37 47 61
32 41 54
36 44 56
31 38 49
32 41 54
35 44 57
32 40 53
34 42 54
30 37 47
32 40 51
37 45 56
36 45 57
30 38 50
29 35 45
32 40 52
36 45 57
35 44 57
31 38 50
34 42 55
37 46 60
36 45 58
35 43 55
37 46 61
35 44 57
34 42 55
37 47 62
34 42 54
37 46 59
35 43 56
34 42 53
36 45 58
36 45 59
37 45 58
35 44 57
35 44 57
39 49 63
38 47 60
36 45 58
34 42 54
37 46 60
40 49 64
38 47 61
35 43 56
37 46 58
37 46 60
36 44 57
33 41 53
36 45 57
34 42 53
35 43 56
41 50 64
36 44 57
40 49 64
40 50 66
42 52 67
37 47 60
35 44 56
39 48 62
43 54 69
39 47 60
42 53 70
37 46 59
44 54 69
36 45 57
33 41 53
35 43 56
36 45 57
37 46 59
34 42 53
38 47 61
35 44 57
34 43 56
44 54 69
39 48 61
42 52 68
34 43 55
39 48 61
38 46 60
41 50 64
38 47 61
42 51 64
39 48 62
37 46 59
37 45 59
34 43 56
40 50 64
41 51 65
36 45 58
35 44 57
42 51 66
35 43 56
37 47 61
39 48 62
43 53 69
36 45 59
35 43 55
39 48 61
38 48 62
41 51 65
39 49 63
37 46 59
39 48 62
37 46 60
35 43 55
36 44 56
41 51 67
39 47 60
42 52 66
46 57 73
36 45 58
36 46 60
36 45 58
39 49 63
36 45 58
42 52 67
39 48 62
42 52 67
44 54 69
38 47 61
37 45 59
41 51 65
42 52 66
37 46 59
40 50 65
38 47 61
40 50 65
34 42 54
35 44 57
38 46 59
37 46 60
38 47 61
41 51 66
41 50 65
34 41 52
38 46 58
42 52 68
38 47 61
40 49 63
39 48 61
38 46 59
34 43 56
37 46 60
37 46 59
34 43 56
36 45 58
38 48 62
38 48 61
35 43 54
36 45 57
38 47 62
40 50 64
35 44 56
39 49 62
40 49 64
36 44 56
34 42 53
38 47 60
34 42 54
38 48 62
34 42 54
35 44 58
36 44 57
39 48 61
34 42 54
31 39 52
38 46 59
38 46 59
37 46 59
36 45 58
34 43 56
32 40 52
33 41 54
38 47 60
35 44 57
36 45 59
37 46 60
35 44 57
34 43 56
40 50 64
40 49 64
32 40 52
36 45 57
37 46 59
32 40 52
32 40 52
33 41 53
36 44 56
33 41 53
31 37 48
37 46 60
33 41 53
37 46 59
31 39 50
38 47 61
35 44 57
31 39 51
30 37 48
34 41 52
28 36 47
35 44 56
31 40 52
32 40 52
28 35 46
31 38 49
29 37 48
30 38 49
34 43 55
33 41 52
28 36 47
31 39 51
30 38 50
31 39 50
31 39 51
27 34 44
30 37 49
26 33 43
29 36 47
28 35 45
28 35 45
30 38 50
26 33 43
26 31 40
25 32 42
26 33 43
29 37 47
27 34 44
28 35 45
23 29 38
22 28 38
20 26 34
24 30 40
19 24 32
26 33 43
23 28 37
24 30 39
18 23 30
20 26 34
18 22 29
38 47 61
36 45 58
36 44 57
35 43 55
37 46 58
37 47 61
36 44 57
42 52 67
42 52 68
36 44 57
41 51 66
39 49 63
40 50 65
39 49 62
38 48 62
41 51 65
42 52 68
47 57 74
41 51 66
42 52 67
43 53 69
37 45 58
39 48 61
39 47 60
40 50 64
42 52 67
43 53 68
37 46 59
42 52 67
44 54 70
49 60 76
41 51 66
42 52 67
44 54 69
43 54 70
41 51 66
39 49 63
44 54 69
41 51 67
36 45 59
46 57 74
43 53 69
50 62 80
47 58 73
41 50 64
42 52 68
38 47 60
40 50 64
43 54 70
39 48 61
40 49 63
40 49 63
40 49 62
43 53 68
44 54 69
43 53 68
43 52 66
39 48 61
45 55 71
42 51 65
43 53 69
39 48 61
44 55 70
40 49 63
39 49 64
42 52 67
39 49 62
37 46 59
40 49 63
45 56 73
43 53 69
41 51 65
45 56 73
41 51 65
46 56 71
39 48 63
38 47 60
41 52 67
45 55 70
43 53 67
43 53 68
40 49 64
44 54 69
44 54 69
46 57 73
42 52 67
49 60 77
42 53 68
41 51 66
40 49 62
41 50 64
37 46 58
39 48 62
33 41 54
43 53 68
38 46 59
36 45 58
41 51 67
44 53 67
39 47 60
42 52 66
40 49 63
44 55 70
40 50 65
44 54 69
39 49 62
43 53 69
46 57 74
41 50 63
44 55 71
43 54 69
41 50 64
38 47 60
38 47 59
45 56 71
45 56 73
44 55 71
38 47 61
39 49 64
42 53 68
43 53 67
37 46 59
37 46 60
45 56 73
44 54 69
37 47 61
35 44 57
40 50 65
30 37 47
31 39 51
18 23 31
20 25 31
26 33 43
21 26 34
19 25 32
22 27 36
20 25 33
23 29 38
25 32 42
20 26 35
25 32 42
28 35 45
24 30 39
25 32 42
28 35 45
23 28 36
29 36 47
30 37 47
29 36 47
25 31 40
31 38 48
28 36 48
27 35 45
32 41 54
32 39 51
27 34 44
33 42 55
30 38 49
27 35 45
34 43 56
31 38 49
34 42 55
28 35 45
33 41 53
31 38 50
36 44 57
38 47 62
37 46 58
33 41 53
33 41 53
37 46 59
33 42 54
34 42 56
31 38 50
35 43 56
32 39 51
38 48 62
35 43 55
34 42 54
35 43 56
33 41 53
37 46 59
32 40 51
33 41 53
35 43 55
33 41 52
38 47 60
35 44 58
34 42 55
30 37 47
36 45 59
28 35 45
36 45 58
34 41 53
35 44 57
38 47 61
35 42 54
32 40 52
39 49 63
38 47 61
35 44 58
35 44 56
34 43 55
33 41 54
35 44 58
34 43 57
36 44 56
36 45 58
42 52 67
32 40 51
38 47 61
38 46 59
34 42 54
33 41 53
36 44 56
31 40 52
40 50 65
40 49 64
38 48 62
41 51 65
36 44 57
37 46 60
35 43 55
37 46 60
38 47 60
38 47 60
33 42 54
38 46 60
37 47 61
32 40 52
40 50 65
38 47 62
35 43 55
38 47 61
36 44 56
38 47 61
34 42 55
38 47 61
37 46 60
41 50 63
40 50 65
43 53 67
43 52 66
36 44 56
38 48 61
40 49 63
39 48 62
34 41 53
36 45 59
40 49 63
41 50 65
41 51 65
36 44 57
39 48 61
35 43 55
38 46 59
34 43 56
42 51 66
37 46 60
37 46 60
35 44 57
40 49 63
38 46 59
40 49 62
41 51 66
33 41 53
42 52 66
40 50 64
42 52 66
39 49 63
39 48 61
44 54 70
40 49 61
42 52 67
40 49 63
45 55 71
32 41 54
35 44 57
40 50 67
41 50 64
33 41 53
42 52 67
36 45 58
42 52 66
39 49 64
45 56 71
40 49 63
36 45 59
44 55 70
39 48 61
38 48 62
41 51 65
35 43 56
36 45 59
40 49 63
42 52 65
36 46 59
37 45 59
36 45 57
37 46 58
33 41 53
36 45 59
41 51 65
39 48 62
41 50 63
30 38 49
38 48 61
35 43 55
33 42 54
36 45 58
32 40 52
35 44 57
33 41 52
38 47 60
34 42 53
41 51 66
33 41 53
35 43 55
35 43 55
40 50 64
36 45 59
38 47 60
36 44 56
36 45 58
31 39 51
37 46 59
31 39 50
38 47 61
35 43 57
38 47 60
35 44 57
38 47 61
37 46 59
34 43 56
37 46 60
36 45 58
33 41 54
30 38 50
31 39 50
38 48 63
34 43 56
36 45 58
36 45 58
35 44 56
36 45 57
35 43 55
35 44 58
34 41 53
32 40 51
36 44 56
37 46 59
37 47 61
37 46 59
33 41 53
32 40 52
36 45 59
35 44 57
28 36 47
34 43 56
31 39 51
39 49 63
32 40 51
34 43 55
37 46 60
29 36 47
35 45 59
27 34 44
32 41 53
31 38 49
30 37 48
28 35 45
34 41 53
30 37 47
29 37 49
31 39 51
28 35 45
33 42 54
30 37 48
24 31 41
33 41 54
32 40 52
31 38 50
26 33 43
30 38 50
28 35 45
28 36 48
26 32 41
28 35 46
23 29 38
20 26 33
22 27 35
24 31 41
25 32 41
22 28 37
20 25 33
19 23 31
21 27 36
20 26 34
19 24 31
17 22 28
30 38 50
37 46 59
34 43 56
39 49 64
41 51 66
40 49 64
45 56 72
39 49 64
44 55 71
38 47 60
40 49 63
35 43 56
34 42 54
39 48 62
41 51 65
46 56 72
37 47 61
40 50 64
38 48 62
37 46 60
41 51 67
39 48 62
41 51 65
39 49 63
38 47 60
41 51 65
41 50 64
41 51 65
40 50 65
43 54 69
46 57 74
41 51 65
44 55 72
41 51 65
37 46 59
48 60 78
39 48 62
40 49 62
34 42 55
36 44 57
40 50 65
45 55 71
40 49 63
38 47 59
42 51 66
43 53 68
44 55 71
44 55 72
43 54 70
39 49 63
39 49 62
42 52 67
42 52 68
45 56 71
40 50 64
42 52 66
46 57 73
37 46 58
47 57 73
43 53 69
43 52 66
39 48 62
34 43 55
42 51 66
39 48 61
42 52 67
42 52 66
42 52 66
43 54 70
41 51 65
41 50 64
39 49 63
39 48 62
43 54 69
41 50 63
40 49 63
44 54 69
37 46 60
39 48 62
42 51 64
37 46 60
45 55 71
41 51 66
45 55 71
40 49 62
33 41 53
43 52 67
39 48 63
40 50 64
43 53 68
36 45 57
41 51 66
40 50 66
47 58 73
43 52 67
43 53 69
40 49 64
45 56 72
41 51 66
37 46 59
42 52 67
36 45 58
43 53 68
36 45 59
43 53 68
42 53 68
40 50 64
38 47 61
40 49 62
43 53 69
36 45 58
44 54 70
38 47 62
42 53 68
40 50 65
45 56 73
41 50 64
44 54 69
36 46 60
31 38 50
40 50 65
39 49 63
35 44 57
37 46 60
34 42 54
36 45 59
40 49 63
39 49 64
37 46 59
29 37 48
18 22 29
17 22 29
18 22 29
22 28 37
23 29 37
23 29 37
25 32 42
22 27 35
24 30 39
27 34 44
25 31 41
24 30 38
28 34 43
25 31 41
31 39 51
32 40 51
28 35 46
29 37 48
26 33 43
27 34 43
29 36 47
29 36 47
30 37 48
31 40 52
32 40 52
34 42 55
30 38 49
29 37 49
29 36 47
28 35 45
29 36 47
34 42 55
31 39 50
31 38 50
32 40 52
32 40 51
34 43 57
33 40 52
34 43 55
34 42 54
32 40 52
29 36 46
28 35 45
37 46 59
29 36 47
33 41 54
32 40 51
30 38 49
32 40 51
31 38 49
28 34 44
37 46 59
37 45 58
33 41 53
35 44 58
34 42 54
38 47 60
36 45 57
33 41 52
40 51 66
38 47 61
36 45 59
36 45 58
29 36 47
32 40 52
37 46 59
39 48 62
35 43 56
31 39 51
35 42 54
37 46 59
31 38 50
33 42 54
38 48 63
39 48 62
41 52 68
37 46 59
36 44 56
35 43 56
38 47 60
39 49 63
40 50 64
37 46 59
40 49 63
32 41 53
37 46 59
38 47 60
35 44 57
36 45 57
41 50 63
37 46 60
37 46 59
35 44 58
42 51 66
32 40 52
43 53 68
35 43 55
35 42 54
38 47 60
43 53 68
39 49 63
40 50 64
34 43 56
39 48 61
31 38 49
34 42 54
40 49 63
40 50 65
36 45 57
35 43 56
38 46 59
37 46 59
38 47 60
38 48 62
39 48 63
38 47 60
44 55 70
37 47 61
35 43 56
43 53 68
44 55 71
35 44 56
33 41 52
40 50 65
37 45 59
39 47 61
38 47 61
41 51 65
39 48 62
41 51 65
41 50 65
37 45 58
36 45 58
38 47 60
38 46 59
43 53 67
37 46 59
40 50 64
41 51 65
35 44 58
38 47 60
38 47 60
38 46 60
41 50 65
40 50 64
39 49 63
37 45 58
36 44 56
41 51 65
38 47 61
42 52 67
36 44 56
40 48 61
37 45 57
38 46 59
42 51 66
42 51 66
41 50 65
38 47 60
42 52 67
37 46 60
43 53 68
42 52 66
37 46 60
38 46 59
40 50 63
39 48 61
36 45 58
36 44 57
41 51 65
44 54 70
37 45 59
37 47 62
35 42 54
32 40 52
37 46 59
37 45 58
42 53 68
38 47 60
35 43 55
42 51 66
43 53 68
41 50 65
34 43 55
34 42 54
37 46 60
35 43 55
33 41 53
37 46 59
30 38 50
38 47 60
38 48 62
37 45 58
34 41 52
38 47 59
34 42 54
28 34 44
42 52 65
38 46 60
42 51 65
32 39 51
38 47 61
36 44 56
32 40 51
41 50 64
41 50 65
33 42 54
38 46 59
37 46 59
32 40 51
37 47 61
36 45 57
39 48 62
34 42 54
34 43 55
34 43 55
33 42 55
35 44 57
37 46 59
35 43 56
31 38 50
33 41 53
33 41 53
42 52 67
34 43 55
35 43 55
34 42 53
38 46 60
34 43 56
36 44 57
29 36 47
32 40 51
38 46 59
33 40 51
31 38 50
33 41 53
28 35 45
35 43 56
27 33 43
29 36 47
30 38 50
28 35 45
33 42 56
34 42 55
26 33 42
28 34 43
27 33 42
29 37 48
30 37 47
29 37 49
24 30 39
27 34 45
29 36 47
32 40 52
26 32 42
31 38 50
22 28 37
27 33 42
24 30 38
22 28 36
24 30 39
23 29 38
22 27 35
21 27 35
18 22 29
18 23 30
20 26 33
20 26 34
24 31 41
16 20 26
33 40 51
35 44 57
41 51 66
36 44 58
38 47 60
40 50 65
36 45 59
36 45 59
42 52 67
39 48 62
42 52 66
41 51 65
42 52 67
43 53 68
38 47 61
43 54 69
37 46 60
40 50 64
41 51 65
44 54 69
40 49 63
42 52 68
39 49 63
45 55 69
41 51 65
41 51 65
43 53 69
43 52 65
42 53 68
39 48 62
38 47 60
45 55 71
37 46 60
36 45 58
47 58 74
39 48 61
39 48 62
40 49 63
40 50 65
41 51 66
43 53 69
35 44 57
40 50 64
43 53 68
43 53 68
39 48 62
32 40 52
35 43 56
42 52 66
41 51 66
38 47 60
40 50 65
40 50 64
36 45 58
42 51 66
42 52 67
40 49 63
38 47 61
36 44 56
44 55 72
38 47 60
41 50 64
38 47 60
42 51 66
39 48 62
36 45 58
36 44 58
42 50 64
42 52 66
43 53 69
41 51 65
40 50 64
35 44 57
43 53 67
44 54 68
45 54 69
43 52 67
38 46 58
49 60 76
40 49 62
41 50 65
44 54 68
37 46 59
45 55 70
36 45 57
40 50 64
40 49 61
44 54 68
43 53 68
43 53 68
41 51 65
49 60 77
37 46 60
39 49 64
43 54 69
43 53 68
36 45 58
41 51 65
46 57 73
42 51 65
47 58 75
38 47 61
44 54 70
43 53 68
38 47 61
39 48 63
39 47 61
42 52 67
44 55 70
45 55 71
40 49 64
42 51 66
44 54 69
40 49 63
40 50 65
40 50 64
36 44 57
35 43 56
38 47 61
43 53 68
40 49 63
40 49 63
41 51 65
39 48 61
42 52 67
41 52 68
33 41 52
37 46 60
39 48 63
30 38 49
20 25 33
18 22 30
21 26 34
14 18 23
21 27 35
22 27 35
22 27 36
24 30 38
21 27 36
22 27 34
19 23 31
30 37 47
25 31 41
30 39 51
25 31 40
28 35 46
30 38 50
30 37 48
24 29 38
22 28 37
27 34 44
32 40 52
27 34 45
27 34 45
28 34 44
31 38 50
33 42 55
32 40 52
28 35 46
36 44 55
36 44 57
28 36 47
35 43 56
33 42 54
27 34 44
34 42 54
31 39 50
34 42 55
28 35 45
30 38 49
35 44 56
33 41 54
34 43 56
38 47 60
37 46 60
40 49 64
31 38 50
34 43 56
41 50 64
29 36 46
30 37 48
34 42 54
38 47 62
35 43 56
31 38 49
37 46 59
32 39 50
34 43 56
32 40 52
37 45 58
34 42 53
36 45 58
31 39 51
33 41 53
33 42 54
37 45 58
36 44 57
38 48 62
30 38 49
40 49 64
29 36 46
39 49 64
36 46 60
33 41 53
33 41 52
34 42 55
38 47 60
37 45 59
35 42 54
34 42 55
34 42 54
42 52 67
41 51 66
37 46 60
34 42 54
35 44 57
36 45 58
33 40 50
35 44 56
35 43 55
40 49 63
35 44 57
33 42 54
35 44 57
37 46 59
40 49 63
29 36 47
40 49 63
37 45 58
35 44 58
39 48 62
37 46 59
40 50 65
36 45 58
34 42 54
35 43 55
42 52 67
42 52 67
37 46 60
39 48 61
41 50 64
40 49 63
38 47 60
37 46 59
37 46 59
40 50 65
40 49 63
41 51 66
35 43 55
35 43 56
39 48 61
38 47 60
39 48 61
40 50 63
37 46 60
37 46 59
38 47 60
41 50 64
36 44 57
32 41 53
40 50 65
38 47 61
35 43 56
40 49 62
38 47 60
38 47 61
39 48 62
40 50 63
32 39 49
38 48 62
39 48 63
41 51 65
35 43 55
46 56 72
42 52 65
38 47 61
40 50 65
42 51 64
38 46 58
38 47 60
38 48 61
38 47 61
38 47 60
38 47 60
35 43 55
40 49 63
41 50 64
37 46 59
36 45 58
39 49 63
36 45 58
35 44 57
44 54 68
38 47 60
33 41 54
35 44 56
39 48 63
34 43 55
42 52 67
43 53 67
35 44 57
37 45 58
34 42 55
38 47 61
36 45 58
33 42 54
32 40 52
38 47 60
35 43 56
40 49 64
37 45 57
41 51 65
36 44 57
36 44 57
37 46 59
31 39 50
36 45 59
31 39 51
37 46 59
38 48 62
37 46 59
35 44 58
34 41 53
32 39 51
38 47 60
38 47 62
35 44 56
36 44 55
32 40 50
37 46 59
37 46 59
36 45 58
29 36 46
32 40 51
37 46 59
35 44 56
36 44 58
38 47 61
35 43 55
37 46 60
36 44 57
37 45 57
31 39 50
30 37 49
34 42 54
39 48 62
28 35 46
43 53 68
35 43 56
34 42 54
39 49 63
37 46 59
31 39 51
36 45 59
34 43 55
36 45 58
30 36 46
32 41 53
31 39 49
31 39 51
34 43 56
29 35 45
31 38 49
32 40 52
28 35 45
29 36 47
28 34 44
28 35 45
32 40 51
32 40 52
28 34 44
29 36 47
29 36 47
35 43 54
31 39 51
27 33 43
29 36 48
34 43 55
26 33 42
27 35 45
29 36 48
34 42 55
30 38 49
25 31 39
22 28 36
26 32 42
24 30 39
27 33 43
21 26 34
28 35 45
26 32 42
21 26 34
22 28 36
21 26 35
18 23 29
21 27 36
20 25 32
18 23 31
20 25 32
20 26 33
32 39 51
33 41 54
33 41 54
41 51 65
37 45 59
36 45 59
44 54 69
40 50 64
41 51 66
36 45 59
37 46 60
43 52 67
37 46 59
33 41 53
43 53 68
43 53 68
35 43 56
40 50 65
40 48 62
45 56 72
42 53 69
40 49 63
39 48 62
37 47 61
39 48 63
41 51 66
38 47 61
40 50 64
40 49 63
40 50 64
42 51 66
37 46 60
36 44 56
37 47 62
43 53 67
36 45 58
42 52 66
46 57 73
39 49 63
42 51 65
39 48 62
40 49 63
36 45 58
45 56 72
43 52 66
38 47 62
40 49 64
42 51 65
38 47 60
40 49 63
42 51 64
46 57 72
38 47 61
45 55 71
40 50 65
42 51 65
36 44 56
41 52 67
41 50 65
36 46 59
43 53 67
32 40 52
48 59 76
40 50 65
38 47 61
44 54 69
37 46 58
42 52 67
38 47 60
46 56 71
45 56 72
49 61 78
44 54 69
45 56 73
39 48 62
42 51 64
43 52 66
38 46 60
41 51 66
39 48 63
44 54 69
41 51 66
47 57 72
41 51 66
39 49 63
41 50 64
43 52 67
41 51 65
37 46 58
43 54 70
42 52 67
42 52 66
43 53 68
38 46 59
37 46 60
44 54 69
50 61 78
46 57 73
38 47 61
44 54 70
45 56 73
36 45 59
42 51 65
39 49 63
44 55 72
42 51 66
42 51 65
42 52 67
44 54 68
37 47 61
42 52 67
41 50 65
36 45 59
44 54 69
38 47 61
43 53 68
35 43 56
40 49 62
42 52 66
42 52 68
42 51 66
37 46 61
36 45 58
38 48 62
45 57 74
40 50 64
38 48 62
37 45 58
34 42 54
35 43 56
24 30 38
17 21 26
21 27 35
17 22 28
20 25 33
16 21 28
17 22 28
25 31 41
23 29 37
27 34 45
24 29 37
29 36 46
29 36 48
26 32 41
28 34 44
27 34 44
22 27 36
27 34 44
26 32 42
28 35 45
26 33 43
26 33 42
23 29 37
25 31 40
32 39 49
25 32 41
30 37 48
31 38 49
39 48 63
29 36 48
36 45 58
31 39 51
28 35 45
38 47 62
36 44 57
31 39 50
35 44 57
36 45 57
39 48 62
30 37 47
37 45 59
35 44 56
35 44 56
28 35 45
37 46 59
30 38 49
35 44 57
37 46 59
38 47 60
35 44 56
33 41 53
31 38 49
33 41 53
32 41 53
33 41 53
36 45 58
34 43 55
33 41 54
28 35 46
35 44 57
38 47 60
30 37 48
33 41 53
35 43 55
32 40 51
34 42 54
35 42 54
36 45 58
36 44 57
34 43 55
38 47 61
36 45 57
34 42 54
38 47 60
36 45 58
33 41 53
38 47 61
37 46 60
35 43 56
33 41 53
37 46 60
40 50 66
34 42 53
38 47 61
39 48 62
40 48 62
36 45 58
30 38 49
40 49 64
39 48 61
38 47 60
34 42 54
34 43 55
35 44 56
35 43 56
37 47 61
37 46 59
36 45 59
34 42 54
36 45 57
34 42 54
38 47 61
43 53 68
34 42 54
39 48 61
36 44 57
38 48 62
38 47 61
44 54 69
39 48 61
28 35 46
34 42 55
43 52 67
39 49 64
41 51 65
41 50 65
34 42 54
38 47 61
42 51 66
41 51 65
37 45 58
40 49 63
33 41 53
33 41 53
36 45 58
40 50 64
37 45 58
35 43 56
42 52 66
41 51 65
34 43 55
45 55 69
30 37 48
39 48 63
40 50 65
42 51 64
35 43 55
42 53 69
36 44 56
37 45 59
44 53 68
38 47 60
41 52 67
43 54 69
38 47 60
39 48 62
42 53 68
42 52 66
39 48 62
37 46 59
43 53 68
39 48 61
31 39 51
37 46 59
37 45 58
31 38 48
41 50 64
43 53 67
35 43 55
36 43 55
38 47 61
42 51 65
37 46 59
36 45 58
38 48 61
34 42 54
41 51 66
32 39 50
36 45 58
42 51 66
37 47 60
40 50 64
34 43 55
40 50 64
34 43 55
42 51 65
35 44 57
40 50 64
38 47 61
33 41 53
29 36 48
39 48 63
34 42 54
41 51 67
42 51 65
34 42 54
37 46 59
32 40 51
31 38 49
39 48 61
37 46 59
30 38 49
35 43 56
40 50 64
34 43 56
35 43 55
40 49 64
36 44 57
39 48 61
36 44 57
40 49 63
37 45 58
33 41 53
32 39 51
37 46 59
31 39 51
39 49 63
31 38 50
36 44 56
34 42 54
35 44 57
34 42 54
42 52 68
33 41 54
36 45 58
35 44 58
31 39 50
33 41 54
37 46 59
34 42 54
32 40 52
40 50 64
36 44 57
31 39 50
33 41 53
37 47 61
34 43 55
31 39 50
37 46 60
26 33 42
34 42 54
35 43 55
35 44 56
36 45 57
27 34 44
32 40 52
25 32 41
29 36 48
28 35 46
33 41 53
32 39 51
30 38 49
29 37 50
31 39 51
29 36 46
33 41 54
24 30 39
26 32 41
29 37 48
29 36 47
30 37 48
24 30 39
27 34 43
21 27 35
29 35 45
31 38 50
26 33 43
28 35 46
21 26 33
27 34 45
23 29 38
28 35 45
17 21 28
19 24 32
18 22 29
21 26 34
17 21 27
14 18 23
15 19 25
17 21 27
31 39 51
37 45 58
38 47 60
39 49 64
40 50 64
39 48 63
32 41 54
44 54 69
35 44 56
34 43 56
37 46 59
42 51 65
43 53 68
37 46 59
42 52 66
38 46 60
42 51 65
38 48 61
45 55 71
40 49 64
43 53 69
40 49 63
36 44 57
39 47 60
38 47 61
37 46 60
42 52 66
39 48 61
42 51 66
40 51 67
46 56 73
40 49 62
44 55 70
44 55 70
42 51 66
40 49 63
44 53 68
38 47 61
41 51 66
42 52 66
37 45 57
33 42 54
41 50 65
36 44 57
35 43 56
41 51 67
39 48 62
41 51 66
36 44 57
43 53 68
43 53 67
38 48 62
39 48 62
42 52 66
37 45 57
40 49 63
46 56 72
47 57 72
39 48 62
45 55 71
46 56 71
41 50 64
38 46 59
41 49 63
39 48 61
41 51 66
43 53 68
42 51 65
40 50 64
43 53 69
43 53 67
40 49 63
45 56 73
35 44 57
40 50 64
35 44 57
39 48 63
44 54 70
41 51 66
40 50 64
41 50 63
42 51 64
41 50 64
39 49 64
38 48 62
42 52 67
40 50 64
42 51 65
40 50 64
37 47 60
38 46 59
40 50 64
39 48 61
37 46 60
39 49 63
42 51 66
40 49 63
42 53 68
36 45 59
42 52 67
44 54 69
45 56 71
43 53 68
44 55 71
40 49 63
42 51 65
41 51 65
40 50 65
44 54 69
39 49 62
44 54 69
39 48 61
38 46 59
35 43 56
36 46 60
43 52 67
43 53 68
36 45 58
33 41 53
38 47 60
43 53 68
43 54 69
36 44 57
39 48 62
38 47 61
39 48 62
38 48 62
37 46 60
38 47 61
32 41 53
17 21 28
16 20 26
19 23 31
20 25 34
19 24 30
18 24 32
21 27 35
24 30 39
21 26 34
22 28 37
24 30 39
27 34 44
27 33 43
21 26 34
27 34 44
26 33 42
30 38 49
26 34 45
28 34 44
28 35 45
26 33 43
24 31 40
30 37 49
27 34 45
33 41 52
33 42 54
30 37 49
25 31 40
34 43 56
30 37 48
34 41 52
29 36 47
33 41 52
31 39 51
32 41 53
34 42 54
33 41 53
32 39 51
31 38 48
31 39 50
34 42 55
37 47 61
37 45 57
38 47 60
34 42 54
44 54 70
35 43 55
33 41 54
35 43 56
33 40 52
28 35 46
36 44 56
32 40 51
31 39 52
33 41 53
32 40 51
35 43 56
30 37 48
37 45 58
40 48 61
37 46 59
33 41 52
41 51 66
40 50 65
35 43 56
38 48 61
35 44 58
36 45 58
39 48 60
33 41 53
37 47 61
36 45 57
34 42 55
37 46 58
39 48 63
37 46 60
31 39 50
35 43 55
38 47 60
37 45 58
33 40 51
36 44 57
38 46 59
39 47 60
35 43 56
39 48 61
43 52 67
37 45 57
41 50 64
32 40 52
41 50 65
35 43 55
32 39 49
42 52 67
37 45 58
37 46 58
37 47 60
41 51 65
35 43 55
35 44 57
40 49 64
37 46 59
37 46 59
36 44 56
32 40 52
37 47 61
36 45 59
35 43 55
35 44 56
41 52 67
39 48 62
35 44 56
40 50 64
32 39 50
34 42 54
40 50 65
42 52 67
37 46 60
40 50 64
38 47 62
34 43 55
35 43 56
43 54 70
37 45 59
41 50 64
38 47 61
38 47 61
41 50 64
36 45 58
40 49 62
38 46 59
37 46 59
36 45 58
36 45 58
41 51 65
36 45 58
37 46 59
39 49 64
39 48 61
39 48 63
44 54 68
43 54 70
40 50 65
41 51 65
36 45 57
39 48 62
34 42 55
39 49 63
41 49 62
35 44 57
37 45 58
41 51 65
37 46 58
35 43 55
41 50 64
40 49 63
35 43 56
38 47 60
34 42 54
36 45 58
36 44 57
40 49 63
37 46 59
37 46 59
31 39 50
36 45 58
38 47 61
31 39 50
36 44 56
41 51 65
38 46 59
43 53 67
38 46 59
41 50 64
38 47 62
35 44 57
38 47 60
40 49 63
38 47 61
36 44 57
35 43 56
38 47 61
36 45 58
36 45 59
37 46 59
35 44 57
39 48 62
37 46 59
36 44 57
39 47 60
36 44 57
35 43 55
38 47 60
36 43 55
38 46 59
34 43 55
31 39 50
40 50 64
36 43 55
37 45 58
32 40 52
37 46 59
33 41 52
34 42 54
27 34 44
37 46 60
35 44 57
33 41 53
35 44 58
33 41 54
31 39 51
36 44 57
37 46 59
35 44 56
32 40 51
33 41 52
33 42 54
38 48 62
38 47 60
37 45 58
30 37 47
34 43 56
36 44 57
33 41 53
38 47 60
32 40 51
37 46 59
31 38 49
34 43 55
30 37 47
35 44 56
28 34 45
30 37 49
34 42 54
31 39 51
30 38 49
31 38 50
32 40 51
34 41 52
30 37 49
34 42 55
34 42 55
28 36 48
25 31 40
26 32 42
30 37 49
25 31 40
29 36 47
27 33 43
32 40 52
26 34 44
27 34 44
29 37 47
29 36 46
31 38 49
23 28 36
24 30 38
28 36 47
25 31 40
22 28 37
16 20 25
26 32 40
20 25 32
22 27 36
17 21 27
18 22 28
19 24 31
22 27 34
15 19 26
13 16 21
30 37 48
38 46 59
40 50 65
42 52 66
35 43 56
41 51 65
39 48 61
42 51 66
36 44 56
37 45 59
41 51 66
35 43 55
43 53 68
37 45 58
39 48 62
42 52 67
39 48 62
35 44 57
37 46 59
44 55 71
41 50 65
46 57 73
37 46 58
41 50 65
39 48 62
38 47 61
40 49 64
35 44 57
38 46 59
40 50 65
45 55 70
43 52 66
41 51 65
47 58 73
46 57 73
39 48 61
34 41 52
36 44 57
43 53 70
42 51 65
40 49 64
36 44 56
36 44 55
39 49 63
39 48 62
40 48 61
42 53 69
41 50 63
37 46 60
41 51 65
33 41 53
41 51 65
41 50 64
34 42 54
48 60 77
42 53 68
45 55 70
42 51 65
41 51 64
40 49 64
39 48 60
44 54 69
37 46 59
44 54 68
39 48 61
39 48 61
37 46 59
39 48 63
43 52 67
44 54 69
38 48 63
38 46 59
40 49 63
47 57 73
35 43 56
38 47 60
44 54 70
41 50 65
37 46 59
43 54 70
36 45 58
44 54 70
43 53 67
37 46 59
41 51 66
41 51 65
35 43 55
44 54 69
38 47 60
37 46 59
43 52 66
40 49 63
42 52 67
41 51 65
37 46 59
47 58 75
37 46 59
44 55 72
39 49 63
42 52 67
44 55 71
40 49 64
39 49 62
39 49 63
36 45 58
44 55 71
43 53 68
44 54 69
42 52 67
42 52 67
43 52 66
42 52 66
44 55 71
34 42 55
40 50 65
40 50 64
38 46 59
42 52 67
37 46 59
42 52 66
40 49 63
42 52 68
37 46 60
36 44 57
41 51 66
33 41 54
36 45 59
31 38 49
37 46 59
35 43 55
15 19 25
18 23 29
14 18 24
17 22 28
21 26 33
22 28 36
23 29 37
20 25 33
23 29 37
25 32 41
23 29 39
22 28 36
19 24 31
25 30 39
24 30 40
29 36 47
25 31 41
28 34 45
28 34 44
29 36 46
24 30 39
25 31 40
28 34 44
34 42 53
25 31 39
30 38 50
29 37 49
29 35 45
34 42 55
29 37 48
32 40 52
31 38 49
39 48 63
36 44 55
35 43 56
32 39 51
31 40 52
34 41 53
31 39 50
38 47 61
33 41 53
31 38 49
35 44 57
30 37 49
33 41 53
35 43 55
37 46 60
30 38 51
41 51 66
32 39 50
36 44 57
29 36 46
31 39 51
24 30 39
32 39 51
30 38 49
32 40 51
30 37 48
39 48 62
34 41 53
34 42 56
39 48 61
33 41 53
35 43 56
38 47 61
32 41 53
40 49 62
31 39 52
38 48 62
34 43 57
33 41 53
41 50 64
32 38 49
34 42 54
35 44 58
35 44 57
41 51 65
32 40 52
35 43 55
37 47 61
36 44 56
30 36 46
39 49 64
34 42 53
37 45 58
34 43 56
36 44 57
36 44 57
35 44 56
40 49 62
39 47 60
45 54 68
36 45 57
42 52 68
36 44 57
34 42 54
37 46 59
37 46 60
38 47 60
36 46 60
35 43 55
34 42 55
37 45 58
39 49 63
32 40 51
37 46 60
36 44 56
39 48 62
38 47 60
40 49 62
34 43 55
42 52 67
35 43 56
38 48 62
36 44 56
34 42 54
39 47 60
42 53 68
37 46 59
41 50 63
40 50 64
41 50 65
40 49 63
35 43 56
40 50 64
36 44 57
37 45 58
43 52 67
39 49 63
36 45 57
44 54 68
34 42 55
37 46 58
38 47 60
40 49 64
42 51 65
44 54 69
34 43 55
39 48 62
42 53 68
39 49 63
39 48 62
46 56 73
38 46 59
39 48 62
40 49 63
44 55 71
39 49 63
39 49 64
38 46 59
38 47 60
35 43 56
44 54 69
38 47 60
47 57 73
35 43 55
39 48 62
43 53 68
37 46 59
37 45 58
35 43 55
37 46 59
39 48 62
40 50 64
40 49 64
36 45 58
36 45 59
39 49 63
37 46 59
38 48 62
40 49 64
42 51 66
37 46 59
37 46 60
39 49 64
38 47 61
43 53 68
35 43 55
39 47 60
39 48 61
40 50 65
38 47 61
33 41 54
35 43 55
36 45 57
38 46 59
38 47 61
36 45 59
43 53 68
34 43 55
33 42 54
42 52 67
41 49 62
37 46 59
38 47 60
38 47 60
33 41 52
31 39 50
34 42 54
32 40 52
36 45 58
39 48 62
37 46 59
34 43 57
31 39 50
36 44 57
33 41 53
29 36 46
40 49 64
32 40 51
32 40 52
37 46 59
30 38 48
32 40 52
35 43 55
35 43 57
34 43 56
31 38 48
35 43 55
31 38 49
33 41 52
29 36 46
31 38 49
32 39 50
30 38 49
35 43 55
37 46 60
37 46 60
32 40 52
30 37 48
31 39 50
29 36 47
30 37 48
35 43 55
30 37 48
29 37 48
33 41 54
27 34 44
34 42 55
31 39 50
33 41 53
30 38 50
29 36 46
33 41 53
30 37 47
25 31 40
26 33 43
31 39 50
26 32 42
25 31 40
28 34 44
29 36 47
26 32 42
25 31 40
25 32 42
28 36 47
21 27 35
26 32 41
22 28 37
24 31 41
27 34 45
26 33 43
23 28 36
19 24 31
21 27 36
21 26 33
19 24 32
19 24 31
17 22 28
19 23 30
31 37 48
38 47 60
38 46 59
35 44 56
35 44 57
38 47 61
39 48 62
36 44 57
36 45 58
42 51 66
43 53 67
38 47 60
45 56 73
37 45 58
42 52 66
39 47 60
44 53 68
40 49 62
41 51 65
35 44 56
39 49 63
42 51 65
39 47 61
42 51 65
43 54 70
40 49 63
45 55 71
46 57 74
35 44 57
40 49 62
44 54 69
45 55 70
43 54 70
43 52 65
39 48 61
37 47 61
38 47 61
40 50 65
44 54 69
43 52 66
39 49 63
39 47 60
38 48 62
41 50 64
41 50 64
36 45 58
41 51 65
42 52 68
42 51 65
41 51 66
44 54 69
39 48 62
40 50 64
38 47 60
42 52 67
43 53 68
42 52 66
47 57 73
39 48 62
37 46 59
43 53 67
45 55 70
46 56 72
40 49 62
39 48 62
39 48 61
44 53 68
40 49 62
41 50 65
33 41 53
44 55 71
42 52 66
39 49 64
35 44 58
48 59 75
45 56 72
41 51 66
37 45 57
46 56 72
43 53 67
41 51 65
41 50 65
39 48 61
40 49 63
43 53 68
39 48 62
43 54 69
41 50 63
47 58 75
42 53 68
41 50 65
34 43 56
41 51 66
44 55 71
46 56 71
39 47 59
38 47 60
41 51 65
40 49 63
45 55 69
39 49 64
42 52 67
44 54 69
37 46 59
45 56 71
40 49 63
37 46 60
31 39 51
41 51 65
40 50 65
43 53 67
44 54 71
38 46 59
42 52 68
42 52 67
41 50 63
40 50 64
43 52 66
35 44 57
43 53 68
37 46 59
42 52 67
37 46 58
42 51 66
39 48 63
37 45 58
35 44 57
42 52 67
27 34 44
34 41 52
15 18 24
14 18 23
21 27 35
22 28 36
16 21 27
20 24 31
18 22 29
20 25 33
25 30 39
19 24 32
27 33 43
18 23 31
23 29 38
24 29 37
25 31 40
24 30 39
29 37 48
27 33 43
23 29 38
25 32 42
29 36 47
26 33 43
30 38 49
26 33 42
29 37 48
28 35 45
26 32 41
32 40 51
29 36 46
29 36 46
30 38 50
28 36 48
31 39 51
33 41 53
33 41 54
28 36 47
31 38 49
32 40 52
37 45 59
35 44 58
31 40 52
31 39 50
32 39 51
33 41 54
40 49 64
33 41 53
33 41 52
26 33 42
32 41 53
35 43 55
30 37 48
37 45 58
34 41 53
32 40 51
34 41 53
32 39 50
37 46 60
32 40 52
31 38 50
38 47 60
39 47 60
34 43 57
31 38 49
34 42 53
36 45 57
32 39 51
33 41 53
37 46 59
29 36 47
30 38 50
32 40 51
37 46 60
35 43 55
30 37 47
36 44 56
30 37 48
40 49 63
37 46 58
35 43 55
37 46 59
36 45 57
36 44 57
35 43 56
39 47 60
40 50 65
38 47 60
35 43 56
35 43 55
32 40 52
40 50 64
32 40 52
38 47 61
35 44 56
36 45 58
38 47 60
37 47 61
37 46 59
34 42 55
34 41 53
34 42 54
37 45 58
35 43 55
42 51 65
38 46 59
40 49 63
40 49 62
34 41 53
38 46 59
39 49 62
34 42 54
36 45 58
41 51 66
36 44 56
41 50 64
40 50 64
39 49 63
38 47 61
39 48 62
40 50 64
36 44 57
42 51 66
36 44 56
38 47 61
37 46 59
34 42 54
42 52 66
36 45 58
36 44 56
43 53 69
41 51 66
38 47 59
39 49 63
30 37 48
37 46 60
41 50 64
37 46 60
42 52 67
41 51 66
41 50 65
37 46 59
37 45 58
42 51 66
41 52 67
36 44 57
40 49 63
43 53 68
42 52 67
34 42 54
38 47 60
34 43 56
38 47 61
42 51 66
36 45 58
44 54 70
39 49 65
45 55 70
36 44 57
38 48 61
36 44 56
38 47 60
34 43 55
33 41 53
36 44 57
29 36 46
35 43 56
39 48 62
36 44 56
43 53 69
37 46 59
35 43 55
38 47 60
34 43 55
39 48 62
35 43 54
39 48 62
40 49 63
39 48 63
35 44 57
33 41 54
36 44 56
38 47 61
35 42 54
33 42 54
36 45 59
35 44 57
34 42 54
38 47 61
39 48 61
38 47 61
36 44 57
36 44 58
43 53 68
36 44 56
36 44 57
35 43 56
37 46 59
34 42 54
34 43 55
38 47 60
34 42 54
29 35 46
33 41 54
33 40 51
32 40 52
34 41 52
33 41 53
33 41 54
38 47 61
38 47 60
34 42 55
36 45 58
27 33 43
33 41 53
39 48 61
32 40 51
35 44 58
29 37 48
36 45 58
35 43 55
34 42 54
33 41 53
32 39 50
29 36 47
32 40 53
33 41 53
33 42 54
27 34 45
30 37 48
28 35 46
30 37 48
39 47 60
32 39 49
37 46 60
34 42 54
31 38 49
30 37 47
32 40 52
36 45 57
27 34 44
34 42 53
32 40 51
30 37 48
29 36 46
26 32 41
27 33 43
28 35 46
34 42 54
30 37 48
26 33 43
35 44 56
27 33 42
22 28 37
27 33 43
24 30 39
27 34 44
23 28 37
29 35 44
22 28 35
23 28 36
24 29 38
19 24 31
22 28 36
19 23 30
19 24 31
16 20 26
19 23 30
15 19 25
20 24 31
13 16 21
15 19 24
29 36 47
34 41 53
38 47 61
35 43 55
38 47 61
39 48 61
37 46 59
34 43 56
36 45 58
39 49 64
42 52 66
35 44 57
41 49 63
40 49 63
42 52 67
42 52 66
40 49 63
42 52 67
39 48 63
44 55 70
42 52 67
39 48 61
40 49 63
39 48 62
43 52 67
38 48 62
40 49 63
41 51 66
41 51 66
39 49 63
43 53 67
37 45 58
44 55 70
39 48 62
42 51 66
40 50 63
42 52 66
40 49 62
40 48 62
41 49 62
37 45 58
46 57 73
48 59 75
40 49 63
33 41 52
38 46 58
40 49 62
39 48 62
42 51 65
35 43 56
45 56 72
45 55 70
39 48 62
40 50 65
39 48 62
43 53 67
46 56 72
39 47 60
39 49 63
36 44 57
37 46 59
48 59 76
45 56 73
39 47 59
34 42 55
46 56 72
40 50 64
38 47 59
40 49 62
39 49 62
40 48 61
44 54 69
45 55 71
39 49 63
37 46 60
37 46 59
42 52 67
38 46 59
40 49 63
41 50 63
41 50 65
47 58 75
39 48 62
44 55 70
37 45 58
40 49 63
40 49 63
45 56 71
40 49 62
41 50 64
34 42 54
37 46 59
45 56 71
40 49 63
42 52 67
36 43 55
38 46 59
36 45 58
44 54 69
41 51 66
41 50 63
45 55 71
42 51 66
40 50 64
40 49 63
32 41 53
39 48 62
43 53 67
44 54 69
34 42 53
40 50 64
41 50 63
39 48 63
39 49 63
39 49 63
42 52 67
42 52 67
36 44 57
37 46 59
37 46 59
39 49 63
43 53 69
38 48 62
46 57 74
41 51 66
39 48 61
34 43 55
31 38 50
35 44 57
29 36 46
16 20 26
15 19 25
23 29 38
17 21 28
22 27 34
18 22 28
22 27 35
26 32 42
20 25 32
27 34 43
20 25 33
25 31 41
28 35 45
28 35 45
28 34 45
26 33 42
26 32 42
22 27 35
23 29 38
27 34 44
25 32 42
25 31 41
25 31 40
22 27 35
34 42 55
22 28 36
31 39 51
25 32 42
32 40 51
29 36 46
33 41 52
30 37 48
30 37 48
35 43 55
32 40 51
31 38 49
34 42 55
35 43 54
33 41 53
29 36 47
26 32 41
32 40 51
31 38 49
30 37 48
31 39 50
36 45 58
30 37 48
36 45 58
30 37 49
29 36 47
40 49 62
35 43 55
29 36 47
36 44 57
35 43 55
33 41 54
33 41 53
34 41 53
33 41 54
33 41 54
38 47 60
39 49 63
35 42 54
33 41 54
38 47 60
38 47 59
31 38 50
34 42 54
32 39 50
36 46 59
33 41 52
35 44 57
29 37 48
40 49 64
33 41 52
33 41 52
33 41 53
30 37 49
37 45 57
32 40 52
39 49 64
32 40 52
34 43 55
33 41 52
33 41 52
37 45 58
32 40 52
37 46 60
36 44 56
38 46 59
35 43 55
35 43 55
36 45 57
34 42 55
35 44 56
40 50 64
34 42 53
36 45 57
34 43 56
37 46 60
36 44 56
33 41 53
40 49 62
35 44 56
43 53 67
38 47 62
31 38 48
36 44 56
38 46 58
39 49 64
38 47 61
35 42 54
44 54 69
40 49 62
42 52 66
31 39 51
36 45 59
43 54 69
36 44 56
41 51 65
41 50 64
40 49 63
37 46 60
43 54 70
40 49 63
41 50 65
43 53 69
41 51 66
42 52 67
37 45 58
34 42 54
38 46 59
35 43 55
37 45 58
39 48 61
47 58 76
39 48 62
34 42 54
41 50 64
40 49 63
38 47 60
38 46 59
42 51 65
34 42 54
40 49 63
36 44 57
37 45 57
36 45 58
41 50 65
39 48 63
46 56 72
43 53 68
36 44 57
34 42 53
38 47 61
39 48 61
33 40 52
39 48 62
34 42 53
34 42 55
32 39 50
37 46 58
37 46 59
39 49 63
40 50 65
38 46 59
36 44 56
38 46 59
43 52 67
34 43 55
39 48 62
41 50 65
37 45 57
37 46 60
41 51 67
43 52 67
31 38 49
36 44 57
37 46 59
40 50 64
35 44 56
39 49 63
32 39 50
40 50 64
37 46 60
36 45 58
32 41 53
40 50 65
34 42 55
37 46 58
41 50 64
38 48 62
28 35 44
31 38 49
37 45 58
39 48 62
35 43 56
32 39 50
36 45 59
35 43 56
36 45 58
34 42 54
35 44 57
33 41 54
31 38 48
35 43 55
26 33 42
32 40 51
34 43 56
32 41 53
31 39 50
36 45 58
36 45 57
29 36 47
35 43 55
33 40 52
37 45 58
33 42 54
35 43 55
33 41 54
37 46 59
33 40 52
39 48 62
35 43 55
29 36 46
33 40 51
34 42 54
30 38 49
29 35 45
30 37 47
32 40 52
27 35 46
34 42 53
29 37 48
34 43 57
32 40 51
31 38 49
23 29 37
27 34 43
24 30 39
29 37 48
26 33 43
33 42 55
30 37 49
32 39 49
29 36 46
30 38 49
24 30 38
27 33 42
28 36 47
25 31 40
27 33 42
25 31 40
28 35 45
24 29 38
22 28 36
30 37 48
26 32 41
24 30 38
20 25 32
25 31 40
21 27 35
25 31 41
18 22 28
20 25 33
21 25 32
16 20 26
16 20 26
17 21 28
14 18 23
29 37 47
33 42 54
44 54 70
36 45 58
42 51 66
35 43 55
34 43 55
39 48 63
41 50 63
37 46 58
43 53 68
45 55 71
39 49 62
45 55 71
43 52 67
35 44 57
37 46 59
42 53 68
39 48 61
38 47 60
37 45 58
38 48 61
37 45 57
44 53 68
38 47 62
41 51 65
48 58 75
38 47 61
41 51 65
44 54 69
37 46 60
43 53 68
43 53 68
37 46 60
41 50 63
40 50 64
36 45 58
44 54 69
37 46 59
43 54 69
40 49 63
43 53 68
37 47 61
41 50 65
42 52 67
45 55 70
40 49 63
37 46 58
38 47 60
42 52 66
43 53 67
36 45 57
37 46 59
38 47 61
38 46 59
44 53 68
37 46 59
36 45 57
42 52 68
37 45 57
35 43 55
41 51 65
39 47 61
38 48 62
39 48 62
46 56 72
42 51 66
41 50 64
40 49 63
29 35 45
36 45 58
39 48 62
40 49 63
41 51 66
39 48 62
43 53 68
35 43 55
38 46 59
35 44 57
36 44 57
41 50 64
40 49 63
45 56 72
36 44 56
40 50 64
39 49 62
44 54 70
44 54 68
35 43 55
39 48 62
34 41 53
39 48 61
43 53 68
38 47 61
41 51 65
36 45 59
36 45 58
37 46 59
40 49 62
40 49 62
37 45 59
39 49 63
40 49 63
38 47 60
38 48 62
39 48 60
40 49 63
44 55 71
42 52 67
41 50 63
45 55 70
45 56 71
42 52 66
41 51 65
41 50 65
41 50 64
43 53 69
42 52 66
39 48 62
39 48 62
37 46 58
37 45 56
36 44 56
39 48 62
39 49 64
34 43 56
40 49 63
36 45 58
35 43 54
24 30 39
17 21 27
24 29 37
18 23 29
14 17 23
20 26 33
24 30 38
17 21 28
23 28 37
22 29 38
22 26 33
22 27 35
22 28 37
22 27 34
26 33 42
27 33 42
30 37 47
28 35 45
20 25 33
28 34 43
26 32 41
24 30 38
29 36 47
28 35 46
27 33 43
29 36 46
31 39 50
31 39 51
28 35 45
28 35 45
28 34 44
30 38 50
33 41 54
36 44 56
30 38 49
31 39 49
30 38 50
30 37 48
33 41 52
33 41 53
36 44 57
31 39 52
28 35 45
36 44 56
32 40 52
33 41 54
33 41 53
30 38 48
34 42 54
36 44 56
30 37 47
31 39 51
37 46 59
38 47 60
34 41 53
33 40 51
25 31 41
34 42 54
29 36 46
35 43 55
30 38 49
43 52 67
29 36 47
32 40 51
36 43 55
35 43 56
34 42 54
33 41 52
31 38 49
33 41 52
40 50 64
31 38 50
35 44 57
35 43 54
33 41 53
32 40 51
35 43 56
33 41 53
35 43 55
37 46 60
34 42 54
31 39 51
38 47 59
34 43 55
35 43 56
36 45 58
38 47 60
37 46 60
42 52 67
35 43 55
37 46 60
36 45 58
35 43 56
35 43 57
37 45 57
39 48 61
34 42 53
32 39 51
36 45 59
34 41 52
31 38 50
37 45 58
37 45 58
33 42 54
36 44 56
36 44 57
34 42 55
40 49 62
38 47 60
36 45 59
41 50 64
35 43 55
38 46 58
38 47 61
37 45 59
37 45 57
37 45 58
40 49 64
38 47 61
36 44 57
41 50 65
38 47 61
35 43 55
33 40 51
39 47 59
39 48 62
38 48 61
35 43 55
34 41 53
40 50 65
41 52 67
35 43 55
35 43 56
36 44 56
37 45 58
42 52 66
38 47 60
39 48 62
30 37 47
41 50 64
41 50 65
45 56 71
35 43 56
42 53 69
41 50 65
38 46 59
39 48 60
35 43 55
34 43 55
41 51 66
36 44 57
35 44 56
42 52 67
32 39 51
37 45 58
38 47 61
33 41 52
38 47 59
42 52 65
41 51 65
33 41 53
37 46 59
35 44 57
37 46 58
36 44 57
37 45 57
36 44 57
32 40 51
33 41 52
37 47 60
32 40 52
35 44 56
38 48 61
29 36 47
36 44 55
36 44 57
36 44 57
40 49 62
33 41 53
34 42 53
33 41 53
34 42 54
30 38 49
34 42 54
35 43 55
33 42 55
38 47 60
38 47 61
36 45 57
36 44 58
32 40 52
40 50 65
37 47 61
37 45 58
36 45 58
33 40 51
35 43 55
35 43 56
32 39 50
35 42 54
35 43 57
39 49 63
33 41 53
36 44 57
40 49 63
35 43 55
33 41 53
38 48 61
39 49 63
37 46 59
34 41 53
31 39 51
40 48 61
32 40 51
31 39 50
34 41 53
28 34 44
34 41 52
38 46 60
39 48 62
30 38 50
28 35 45
31 39 51
31 39 50
31 39 51
32 40 53
27 33 43
35 43 55
31 38 49
34 43 56
30 38 49
35 43 56
28 34 44
35 43 56
30 38 49
23 28 37
30 38 49
34 42 53
29 36 47
34 43 56
31 39 51
29 36 47
25 31 40
28 35 45
29 36 47
28 35 46
27 34 45
28 35 46
22 27 36
29 36 47
25 31 40
25 31 39
31 39 50
26 33 42
24 30 39
24 30 39
31 38 49
22 27 35
26 32 41
24 29 38
23 28 37
22 27 35
23 28 36
19 24 30
19 23 30
21 26 34
12 15 20
16 20 26
15 19 25
13 16 21
14 17 22
21 26 34
33 40 51
37 45 58
31 38 50
33 40 51
40 49 64
31 39 50
37 46 60
41 51 65
41 51 66
41 51 67
34 42 56
33 41 53
39 49 65
38 47 61
46 56 70
44 53 67
39 48 62
36 45 58
43 53 68
40 49 63
44 54 69
39 48 63
38 48 63
33 41 53
37 46 59
44 54 68
44 54 69
47 58 74
30 37 47
39 48 62
34 43 56
38 47 60
32 39 50
41 50 65
43 52 67
43 52 66
36 45 59
39 48 61
37 45 58
36 44 56
46 56 71
38 47 59
39 47 61
40 48 62
37 46 59
39 48 61
37 46 59
39 48 61
43 53 68
42 51 66
43 53 68
43 53 68
40 50 63
35 42 54
36 45 58
38 47 60
45 55 70
41 50 64
39 48 61
33 42 54
46 55 70
36 45 58
43 53 68
38 47 60
45 55 71
41 50 64
51 63 80
40 49 63
45 55 70
38 46 59
34 42 54
42 51 66
40 50 64
45 55 70
43 53 69
33 41 52
39 48 61
39 48 62
42 51 66
43 53 68
41 50 64
35 43 56
38 47 60
44 53 67
34 43 55
44 53 68
38 46 59
37 46 58
41 50 64
46 57 74
41 50 64
42 51 65
44 54 68
37 46 60
40 49 64
35 44 57
41 50 64
38 47 60
35 44 57
40 49 63
42 53 69
38 47 60
40 49 63
40 49 63
39 48 62
41 51 66
42 53 68
43 53 69
35 43 56
40 49 63
39 48 62
43 53 67
32 40 53
42 51 65
34 42 55
37 46 59
44 54 70
37 46 60
41 50 65
38 47 60
32 40 52
38 48 62
35 44 56
32 40 52
35 44 56
40 49 64
33 41 53
35 43 55
27 34 44
16 20 26
17 21 28
18 23 30
20 24 31
16 20 27
15 18 24
20 24 31
19 23 30
23 28 37
23 28 36
20 25 33
28 35 44
25 32 42
24 30 39
26 32 42
25 32 41
23 28 37
22 27 35
30 37 48
25 31 40
21 26 34
24 30 40
27 33 42
28 35 45
31 37 47
30 37 48
29 36 47
24 30 38
25 31 41
29 36 47
30 37 47
33 40 52
36 45 59
25 31 40
34 41 53
31 39 50
33 41 53
32 40 52
31 38 49
31 39 49
37 45 58
29 36 47
33 42 54
33 42 55
30 37 47
38 46 59
32 40 52
32 40 51
32 40 51
34 42 54
36 45 58
36 45 57
28 34 44
40 50 63
34 42 55
31 38 49
34 43 56
31 38 48
31 39 50
37 45 58
37 46 60
36 46 60
32 39 50
33 41 53
29 36 47
34 41 53
34 42 54
38 47 61
34 42 54
36 45 58
29 36 47
38 47 61
37 46 61
38 46 59
33 41 54
39 49 62
36 44 56
36 44 56
35 43 56
32 40 50
42 51 65
36 45 57
31 39 50
41 51 66
32 39 50
40 49 62
34 42 53
40 49 63
34 42 53
37 46 58
37 46 60
40 49 62
38 48 62
33 41 53
36 45 58
37 45 58
40 49 63
35 45 58
35 44 58
38 47 60
33 41 54
39 48 62
36 45 58
37 46 59
37 46 59
35 44 57
30 38 49
39 48 62
40 50 64
36 44 57
37 46 60
35 43 54
40 49 63
36 45 58
38 48 62
40 49 63
43 53 68
30 37 47
33 41 54
36 45 57
34 43 55
36 44 56
36 45 59
36 45 59
42 51 66
35 43 56
36 44 56
39 48 63
33 41 54
40 49 63
43 53 68
39 48 61
40 49 63
37 46 58
47 58 73
40 49 62
42 51 65
38 46 60
41 51 66
35 44 56
36 45 58
39 48 62
37 46 58
37 45 58
38 47 61
33 40 52
43 52 66
34 42 53
35 44 56
42 52 66
43 53 68
39 48 61
41 51 65
39 48 61
37 46 60
39 49 63
36 45 58
40 50 64
38 47 60
33 41 53
39 47 60
36 44 57
36 44 57
38 46 60
38 47 60
32 39 49
42 52 68
41 50 64
40 49 62
36 44 56
38 47 60
38 45 57
40 48 62
33 41 54
39 48 61
45 56 73
38 47 60
42 52 67
37 46 60
41 50 63
39 48 62
32 40 52
43 53 68
31 38 50
39 48 63
40 50 65
34 42 53
34 42 54
38 47 61
36 45 58
42 51 65
32 40 52
39 48 61
38 47 61
33 41 52
31 39 50
35 43 57
32 40 52
30 37 47
35 44 56
39 49 63
36 44 57
32 40 52
32 39 51
36 45 58
33 41 53
30 37 48
32 40 51
32 40 51
38 47 60
40 49 64
36 45 58
39 48 63
31 39 50
27 34 45
36 45 59
36 44 57
35 44 56
33 40 51
35 44 57
33 41 54
33 41 53
32 40 51
35 43 56
27 33 43
35 44 57
26 32 41
26 33 43
27 33 42
29 37 47
33 41 53
33 42 54
27 33 42
36 44 56
29 36 47
35 43 56
31 38 49
31 38 49
33 41 52
32 39 50
28 35 45
27 34 44
29 36 46
27 34 43
29 36 47
27 33 43
21 26 34
26 32 41
28 35 44
26 32 42
28 35 45
26 33 42
24 31 40
26 32 41
28 35 45
23 29 38
23 28 37
22 27 35
19 24 31
21 26 34
21 26 34
21 26 33
20 25 33
16 20 26
16 20 27
18 22 28
18 23 29
16 20 26
18 22 28
17 22 28
26 32 42
33 41 54
38 47 60
38 47 60
35 43 55
36 44 57
38 47 60
32 40 52
37 46 60
35 43 55
38 48 62
46 57 73
39 48 62
36 45 58
41 51 65
41 50 64
35 43 55
39 48 61
36 45 59
37 45 58
40 49 64
37 45 58
40 49 63
36 45 58
35 43 56
41 50 64
34 42 54
41 50 64
35 43 56
42 52 67
39 47 61
36 44 57
39 48 61
40 49 62
35 44 57
33 42 55
40 50 63
42 51 66
45 56 72
43 53 68
36 44 57
41 51 65
34 42 55
37 46 60
41 51 65
41 51 65
41 51 65
34 42 54
46 56 71
39 49 64
44 54 69
37 46 59
42 51 66
43 52 67
43 52 67
42 52 66
44 54 69
45 55 71
45 56 72
41 50 64
39 48 61
35 43 55
38 47 60
40 48 62
39 49 63
40 49 63
44 54 68
37 46 59
43 54 71
40 49 63
40 49 62
35 43 56
43 53 69
46 56 72
45 56 71
44 54 69
42 52 66
43 53 68
39 48 62
40 49 62
36 45 58
37 46 59
38 48 62
41 51 65
41 50 64
43 53 70
43 53 68
41 51 66
44 54 69
40 50 64
39 48 61
45 55 69
39 48 63
40 49 62
37 46 58
38 47 60
46 57 73
39 48 61
43 52 66
39 48 61
40 50 65
42 52 66
39 48 61
40 49 62
41 51 65
40 50 64
42 52 66
40 49 64
40 50 64
36 45 57
39 48 61
42 52 67
37 45 58
37 46 59
34 43 56
37 44 56
39 48 61
42 51 65
34 43 55
32 39 50
39 48 62
37 46 58
37 46 60
41 50 64
31 39 50
39 48 61
34 42 53
29 36 46
34 43 55
18 22 29
16 20 26
18 23 30
21 26 34
19 24 31
16 20 26
25 31 39
17 22 29
19 24 31
20 25 31
23 29 37
23 29 38
23 28 36
22 27 34
24 29 37
25 32 42
26 33 42
29 35 44
26 32 41
26 33 43
23 28 36
28 35 45
25 31 41
32 40 51
33 41 52
27 34 43
26 32 41
33 41 53
31 39 51
24 31 40
31 38 49
28 35 44
32 39 50
28 34 43
29 36 46
28 35 45
19 24 31
29 36 46
32 40 52
28 35 46
33 42 54
32 40 52
32 40 52
31 39 51
36 44 56
32 40 51
32 40 52
33 41 54
32 40 50
32 40 53
28 35 45
36 45 58
35 43 56
32 40 51
27 33 41
38 47 61
32 40 51
29 37 48
34 42 54
31 39 51
33 41 54
36 44 57
34 43 55
35 44 57
34 42 53
33 40 51
41 50 64
36 45 57
42 51 66
34 43 55
31 39 52
34 43 55
36 45 57
33 41 52
38 46 59
35 43 56
35 43 57
32 40 52
35 44 58
36 44 57
38 47 61
36 45 60
33 41 54
35 43 56
33 41 52
41 51 66
39 48 62
33 41 53
32 39 50
39 48 61
39 48 62
39 47 59
42 52 67
33 40 52
36 45 59
37 46 59
31 38 49
30 38 49
37 46 59
35 43 55
40 49 62
40 49 64
40 49 62
43 53 68
39 47 59
37 46 60
43 53 67
39 48 61
34 42 54
35 43 55
35 44 57
36 45 58
40 49 62
40 49 62
33 42 54
37 46 58
38 47 60
37 46 59
38 48 61
40 49 62
40 48 61
31 39 50
32 40 51
41 50 65
39 48 61
39 49 62
31 39 50
35 43 55
34 43 55
35 44 56
38 47 60
39 48 61
39 48 61
33 41 53
40 50 64
41 51 65
37 46 60
40 49 63
38 48 62
42 52 66
41 51 66
38 46 58
37 46 59
38 48 61
32 40 51
37 45 58
44 54 69
42 51 65
42 52 66
38 47 60
41 51 66
37 45 58
36 45 59
41 51 65
36 45 58
37 46 60
37 45 58
39 49 63
32 39 50
38 47 60
37 46 59
41 50 64
41 51 65
44 55 71
41 50 64
40 50 64
37 46 60
38 47 59
36 44 57
34 42 54
38 46 58
37 45 58
37 46 59
35 44 57
37 46 59
38 46 60
35 43 54
36 44 56
42 51 65
38 47 61
36 45 58
33 40 52
36 44 56
33 40 52
36 45 57
37 46 61
31 39 50
37 46 59
30 37 48
36 44 56
30 38 49
36 44 56
33 41 54
33 41 53
39 48 62
32 39 51
40 50 64
30 38 49
31 39 50
37 45 58
41 50 65
36 45 57
30 38 49
33 41 52
34 42 53
33 41 54
37 45 59
35 44 57
30 38 50
35 44 57
34 43 55
29 36 47
30 37 47
26 32 41
32 40 51
39 48 61
35 43 56
35 43 56
34 42 54
29 37 48
34 43 56
35 43 54
35 44 56
32 40 53
34 43 55
31 39 50
35 44 56
29 36 45
33 41 52
30 37 47
29 36 47
28 35 46
30 37 48
35 44 57
29 36 47
28 34 44
30 37 48
33 41 53
31 37 48
26 33 43
33 41 52
32 39 51
27 33 43
26 33 42
31 39 50
31 37 48
23 29 37
28 35 45
27 33 44
29 36 46
23 28 36
31 38 49
28 35 46
28 35 45
23 28 36
25 31 40
28 35 45
27 34 44
24 30 39
23 28 36
25 31 39
23 28 37
18 23 30
20 25 32
20 25 32
17 21 27
20 24 31
16 20 25
17 22 28
12 15 19
13 17 21
23 29 37
29 35 45
35 43 56
32 40 51
34 43 56
36 44 56
34 42 54
36 44 57
39 48 62
39 48 61
41 51 65
38 47 62
35 43 55
40 50 65
39 48 62
38 47 61
38 46 58
39 47 60
38 48 62
39 47 60
38 47 60
44 54 68
41 50 65
38 48 62
36 44 57
40 49 63
41 50 64
37 45 59
40 49 62
41 51 65
41 50 64
40 50 64
41 51 66
38 46 59
44 53 67
37 45 58
37 45 58
38 47 60
40 50 64
43 53 69
38 47 59
36 44 56
40 49 64
40 50 65
44 54 69
37 46 59
39 47 60
40 49 63
39 48 62
42 51 65
40 49 63
39 48 61
42 52 67
41 50 65
38 47 60
41 51 65
39 48 62
37 47 61
36 44 57
37 46 59
39 48 61
39 48 61
44 54 70
48 58 73
39 47 60
36 45 58
46 58 74
39 48 61
36 45 57
39 48 62
32 40 52
40 49 63
41 49 63
38 46 59
45 56 71
47 58 74
44 54 68
35 43 56
39 48 63
44 53 68
37 46 60
37 45 58
40 50 64
39 48 61
35 44 56
37 45 57
42 52 66
37 46 59
40 49 62
46 56 72
43 53 68
40 49 63
43 52 67
39 47 61
39 49 63
45 55 71
39 48 62
39 48 61
40 49 64
35 42 54
42 51 66
40 48 62
38 46 59
38 47 59
36 45 57
40 49 63
42 52 68
34 41 52
36 45 57
43 53 68
44 54 69
42 51 65
43 52 67
39 49 64
41 50 64
42 52 67
42 51 64
38 47 59
33 41 54
40 49 63
40 49 63
36 45 59
38 48 62
36 44 56
32 40 51
37 45 58
33 41 52
35 44 58
30 38 49
25 31 40
13 16 20
16 19 24
15 19 25
20 24 31
16 20 26
18 23 29
18 22 28
19 24 31
23 28 36
23 28 36
19 23 30
25 31 40
16 21 27
22 27 35
24 29 38
30 37 48
21 26 34
25 31 39
23 29 37
25 31 39
24 30 39
23 29 37
26 33 43
30 36 46
32 39 50
27 33 43
25 30 39
30 37 49
29 37 47
30 37 47
26 31 40
27 33 42
26 32 41
25 31 40
27 34 43
32 40 52
34 42 55
31 37 48
28 34 44
29 37 48
34 42 55
29 36 46
26 32 40
36 44 57
35 42 54
34 42 54
34 41 53
28 35 45
34 42 54
34 42 53
37 46 59
29 36 47
31 39 51
31 38 49
34 43 55
27 34 44
36 44 57
39 48 62
35 44 57
32 39 50
32 39 50
34 43 55
35 43 55
35 42 54
32 39 51
36 44 57
32 39 51
29 37 48
39 48 62
35 44 57
39 49 63
32 40 51
33 41 53
36 45 58
36 44 57
33 40 50
35 43 54
36 45 58
37 45 58
38 47 60
33 41 52
36 45 58
41 51 66
31 39 50
31 38 49
27 33 43
42 51 66
35 43 54
35 43 55
37 46 60
36 45 58
32 40 51
30 37 47
35 44 58
40 49 62
35 42 54
29 36 46
34 42 54
31 39 50
35 44 56
34 42 53
36 45 58
36 45 57
35 43 56
39 49 63
37 46 60
36 44 58
41 50 63
38 47 61
38 46 59
42 51 65
37 46 58
37 46 59
36 44 56
36 45 58
38 46 59
37 46 59
34 43 56
37 46 59
40 50 63
36 44 56
41 51 66
37 46 58
39 48 61
35 43 55
33 41 53
34 42 54
37 46 59
42 53 68
37 46 59
41 51 66
37 46 59
38 47 59
37 46 59
32 40 52
41 49 63
35 43 55
38 47 60
39 47 61
41 50 64
39 48 62
37 46 59
38 47 61
37 45 58
36 45 58
37 46 59
36 45 57
36 45 57
44 54 68
31 38 49
37 46 59
38 47 60
36 44 57
40 49 62
38 46 59
35 43 54
41 50 64
38 47 61
39 47 60
38 46 59
35 44 56
39 49 63
40 49 63
43 53 68
40 50 64
35 43 55
34 42 54
35 43 56
44 55 71
39 47 61
36 45 58
36 45 57
41 50 63
47 58 75
38 47 60
41 50 63
31 39 51
39 48 60
38 46 58
37 45 58
37 46 59
35 43 56
38 47 60
34 42 54
33 41 53
34 42 53
34 42 55
32 40 51
36 44 57
33 42 54
30 37 48
33 41 53
38 47 60
34 42 53
35 43 55
33 41 53
34 42 54
35 44 57
37 46 59
33 41 53
38 47 60
32 39 50
32 40 52
33 41 53
33 40 51
34 42 54
33 41 53
32 40 52
34 43 55
32 40 52
34 42 54
32 40 53
36 44 56
38 46 60
35 44 56
37 45 58
35 43 55
35 43 55
32 39 50
31 38 48
32 39 50
34 43 56
25 31 40
39 48 62
26 32 42
28 34 44
32 39 49
32 39 50
30 37 48
28 35 46
26 32 42
25 31 40
30 37 48
26 32 41
24 30 39
36 44 57
27 33 43
29 37 48
27 33 42
27 33 42
32 40 52
31 39 50
29 37 47
28 35 45
23 28 37
32 40 52
25 32 41
24 30 38
23 28 37
26 33 44
28 34 44
27 34 43
24 30 38
20 25 32
22 27 34
22 26 34
21 27 34
22 27 35
27 33 42
19 23 30
22 27 35
21 26 34
22 28 36
22 27 35
14 16 21
17 21 26
23 29 37
21 25 32
16 19 25
11 14 18
15 18 24
27 34 45
34 42 54
34 42 55
36 44 58
32 40 51
31 38 50
44 54 70
37 45 58
40 49 63
34 42 54
41 50 65
34 42 54
45 55 70
39 47 61
37 46 58
40 48 61
40 50 64
41 51 65
39 49 63
38 47 60
38 47 60
40 49 63
43 53 68
38 48 61
38 48 63
44 54 69
39 48 61
32 40 52
34 43 56
36 45 57
46 56 71
38 48 62
42 51 65
42 52 67
44 54 70
37 45 57
41 51 65
45 55 71
46 56 71
30 37 47
41 49 62
39 48 62
39 48 62
36 45 58
39 49 63
39 48 61
40 49 63
37 46 59
44 54 69
42 52 66
41 51 67
43 54 70
38 46 59
45 55 71
38 47 61
34 41 52
39 48 62
40 49 63
33 41 52
35 43 55
40 50 63
41 51 66
43 53 67
42 52 66
36 45 57
40 50 65
40 49 62
41 51 66
43 53 67
38 46 59
44 54 68
38 47 60
38 47 60
40 49 64
39 48 61
36 45 57
40 49 63
40 50 65
35 43 55
38 47 61
41 50 63
34 42 54
43 53 67
44 53 68
42 52 66
39 49 63
37 46 59
43 52 67
47 57 73
35 44 56
35 44 57
41 51 65
40 49 62
42 52 66
39 48 61
37 46 60
45 55 71
39 48 63
44 54 68
39 48 62
34 43 56
37 45 58
41 51 66
43 52 66
43 54 70
38 47 59
44 54 69
36 44 57
42 53 68
36 45 59
39 48 61
38 47 60
40 50 64
36 44 57
46 56 71
42 51 65
37 45 57
44 54 69
38 47 60
37 46 58
43 52 67
43 53 69
40 49 62
34 42 53
36 44 56
35 43 57
30 37 48
38 47 61
17 21 27
12 15 19
10 13 17
13 17 22
17 21 27
18 23 29
16 20 25
25 31 40
18 23 30
22 28 36
23 29 37
26 33 42
20 25 33
20 24 31
20 25 32
24 29 38
27 34 44
22 27 35
23 28 37
23 29 37
24 29 37
24 30 38
23 29 38
24 29 38
30 38 49
24 30 39
26 32 43
28 34 44
26 33 43
31 39 49
31 39 50
30 37 48
33 40 52
31 38 49
30 37 47
27 33 43
31 39 50
29 35 45
27 34 43
31 38 50
31 38 48
31 39 49
31 38 50
32 39 50
28 36 47
36 45 57
32 40 52
31 39 51
34 42 55
29 36 46
31 39 50
30 38 49
31 38 49
35 43 55
32 40 52
34 42 55
26 33 42
32 40 52
29 35 46
35 44 57
34 42 54
34 42 54
33 41 52
35 44 56
37 46 60
39 48 63
34 42 54
34 42 55
33 42 54
33 40 51
36 44 56
37 46 60
36 43 55
38 47 59
34 42 55
36 45 58
35 42 54
30 37 48
35 44 56
33 42 54
37 47 61
27 34 45
34 42 53
33 41 53
30 37 47
36 44 56
42 52 67
42 51 64
35 43 55
33 40 51
31 39 49
34 42 53
33 40 51
35 44 57
41 51 65
36 45 57
33 41 53
37 45 59
32 40 51
34 42 54
38 47 61
34 42 53
34 42 54
37 45 58
40 49 63
39 49 63
36 45 58
36 44 56
41 50 63
37 46 58
35 43 55
31 38 49
32 40 53
42 52 67
40 49 64
36 44 57
40 49 62
38 47 60
36 44 56
36 44 56
36 44 56
44 54 70
34 43 56
36 45 58
33 41 53
38 47 61
35 43 56
39 48 62
39 48 61
39 48 62
40 49 63
39 49 63
40 49 63
38 46 60
38 47 61
37 46 60
36 44 58
39 47 60
35 43 56
39 48 61
35 42 54
35 43 55
32 39 51
37 46 59
33 41 53
40 49 64
36 44 57
37 46 60
38 47 60
38 46 58
36 45 59
35 43 56
37 46 59
42 51 65
40 50 64
33 41 51
43 53 68
38 47 61
33 41 54
34 43 56
37 45 57
37 46 58
36 44 57
38 48 62
30 38 49
38 47 60
33 40 51
36 46 59
35 42 53
38 47 60
39 48 61
41 50 64
35 43 56
34 42 54
33 41 52
32 39 50
34 42 53
35 44 56
40 50 65
32 40 52
34 41 51
35 43 56
37 46 59
37 46 59
39 49 63
34 41 53
37 46 59
38 46 59
35 42 54
36 45 58
36 44 57
39 49 62
38 48 62
33 41 53
38 47 60
34 42 54
37 45 57
47 58 74
30 37 49
31 38 50
32 39 50
37 46 59
34 42 55
31 39 50
32 40 51
35 43 55
35 42 54
40 50 64
31 38 49
43 53 67
34 42 54
35 43 54
32 40 51
36 44 55
32 40 52
29 36 46
29 36 47
29 36 46
30 37 46
34 42 55
37 46 59
37 45 58
32 40 52
34 42 54
34 43 55
28 34 44
29 36 47
35 42 54
32 41 53
34 42 54
35 43 56
32 40 52
31 38 48
32 39 50
38 46 59
27 34 44
28 34 44
26 32 42
28 35 44
28 35 45
30 36 46
25 32 42
30 37 47
31 38 49
22 27 35
32 40 52
26 32 42
25 31 39
28 34 43
22 27 34
22 27 34
22 27 35
23 29 37
25 31 39
23 28 36
19 23 29
27 34 44
23 28 36
16 20 26
21 25 32
23 28 35
22 27 35
25 31 39
24 29 37
18 22 28
21 26 34
17 21 27
14 18 24
15 19 24
14 17 23
16 19 25
21 27 34
30 37 48
34 42 55
32 40 53
31 39 50
39 48 60
33 42 55
34 42 53
37 46 58
39 48 62
37 45 59
38 46 58
41 51 65
43 53 68
35 43 56
37 46 59
42 52 67
44 53 66
40 49 63
37 45 57
33 41 54
37 46 59
40 49 63
31 38 49
44 54 68
35 44 57
35 43 56
42 53 68
40 49 62
40 49 63
37 46 60
39 48 61
37 45 58
39 48 62
39 48 62
42 52 65
38 47 61
45 54 68
47 58 75
43 54 70
36 45 58
39 49 63
44 54 71
40 49 63
33 41 53
40 49 63
40 50 64
41 51 65
45 54 69
39 48 62
39 47 61
35 43 55
42 51 65
41 50 64
30 37 48
44 54 70
39 48 61
35 43 56
41 50 64
40 49 62
41 51 65
39 48 62
43 52 66
41 50 64
34 42 55
42 52 66
39 48 61
43 52 66
38 48 62
44 53 67
41 50 63
38 47 60
37 46 60
35 44 58
42 52 66
37 45 58
43 52 66
37 46 59
38 47 61
39 48 60
39 48 61
37 45 57
40 49 64
35 43 55
44 54 70
38 47 60
39 49 63
37 46 58
36 46 60
32 39 50
39 49 63
40 49 63
41 50 63
43 52 66
41 51 65
39 49 63
45 55 71
35 44 57
38 46 59
39 47 60
37 45 59
39 48 62
34 43 56
40 49 63
44 54 69
33 42 54
41 51 66
39 48 62
39 47 60
43 53 68
40 49 62
33 41 52
37 44 56
40 50 64
38 48 61
35 44 57
39 48 62
37 47 60
35 43 56
39 48 62
42 52 67
35 43 56
35 43 55
33 41 53
35 43 55
35 43 55
33 40 50
30 36 47
36 44 56
13 16 20
12 15 19
18 23 29
14 17 22
19 23 30
19 24 30
15 19 24
20 25 32
22 28 36
21 25 32
21 26 33
20 25 33
17 20 26
23 28 37
19 24 30
23 28 36
25 31 41
21 26 34
28 35 45
20 24 31
28 35 46
22 27 34
25 31 39
26 32 42
29 36 46
34 42 54
31 38 49
27 34 44
28 34 44
27 33 41
32 40 52
33 40 52
29 36 45
26 32 42
34 43 55
32 40 51
32 40 53
32 39 51
30 37 49
29 36 46
32 40 52
30 37 48
30 37 49
32 40 52
32 39 50
28 35 45
37 45 58
28 35 45
25 31 40
29 36 46
38 47 59
32 39 51
32 39 51
40 49 63
33 42 54
31 38 48
32 39 51
31 39 51
28 35 45
34 42 54
31 39 50
32 39 50
28 35 45
32 40 51
34 42 53
29 37 48
31 38 49
31 39 50
35 44 56
37 46 60
32 39 50
31 38 48
37 44 56
31 39 50
35 43 55
34 42 54
29 36 47
39 49 63
33 41 53
36 44 57
32 40 51
34 42 54
30 38 49
31 39 49
42 52 66
32 40 52
37 45 58
36 45 58
34 42 53
36 44 56
36 45 57
36 45 57
38 46 58
37 45 57
39 47 60
29 36 47
32 39 50
33 40 52
39 48 61
34 42 53
36 44 56
36 45 58
36 44 57
32 39 51
40 49 63
40 49 63
35 43 56
33 40 52
37 45 56
36 44 57
35 43 55
36 45 58
29 36 46
36 44 56
39 48 62
37 46 60
39 48 62
39 48 62
42 51 65
33 40 51
37 46 59
36 45 59
40 49 62
37 46 58
35 42 54
40 49 63
35 43 56
41 50 65
33 41 52
32 40 50
47 58 74
35 43 56
38 47 59
42 52 66
33 41 52
38 48 62
31 38 48
41 49 62
40 50 65
35 43 55
39 48 61
39 48 62
36 43 55
37 46 59
39 49 64
34 42 54
41 50 64
33 40 52
41 50 63
41 50 63
41 51 66
40 48 62
47 57 73
36 44 57
38 46 58
37 46 59
33 42 54
37 47 61
39 48 62
43 53 69
37 47 61
34 43 55
38 47 60
33 41 52
33 40 52
33 41 54
44 54 69
39 48 62
44 54 68
40 50 64
36 44 56
36 44 56
35 43 55
36 44 57
40 49 62
33 41 54
39 48 61
37 46 60
36 45 57
39 49 62
35 43 55
35 43 57
35 43 55
34 42 53
36 44 56
37 46 59
36 45 57
32 39 49
34 42 54
36 45 58
34 42 54
36 44 56
34 43 55
28 35 46
40 49 62
33 40 51
36 44 56
30 37 47
34 41 53
32 39 50
35 43 55
40 49 63
30 37 49
34 41 53
35 43 55
33 40 52
36 45 57
33 41 53
36 44 57
32 40 51
30 37 47
32 39 50
31 39 50
32 40 52
35 43 55
36 45 58
35 43 56
40 49 62
33 41 53
33 41 52
28 35 45
29 36 45
34 42 54
29 36 46
30 37 47
31 38 49
27 34 43
25 31 40
33 41 53
33 42 54
36 44 56
28 35 46
31 39 51
33 41 53
31 39 50
28 35 45
34 42 54
31 39 50
27 33 43
25 32 42
26 33 43
26 32 41
28 35 45
27 34 43
23 28 37
31 38 49
30 37 48
25 30 39
27 34 45
28 35 46
24 29 38
29 35 45
25 30 39
27 34 44
28 35 45
25 31 40
24 30 39
24 29 37
19 24 32
22 28 35
21 26 33
23 29 38
21 26 34
17 21 26
20 25 32
15 18 23
21 26 33
15 18 24
18 23 29
17 21 27
12 15 19
12 15 20
30 37 48
35 43 56
35 43 54
34 41 53
35 42 54
35 43 56
37 46 58
33 41 53
36 44 56
36 44 56
35 44 57
38 47 60
40 50 65
38 47 60
37 45 58
46 56 72
37 46 59
36 45 58
30 38 49
42 52 67
36 44 57
36 45 57
38 47 60
41 51 65
32 39 50
35 43 56
37 46 58
38 47 60
50 61 78
33 40 50
41 51 66
45 54 69
33 40 51
37 46 60
41 51 66
35 43 56
42 51 66
37 45 57
42 51 65
40 49 62
35 43 54
37 45 58
39 49 63
36 43 55
38 47 61
33 40 51
39 48 61
45 55 70
46 56 71
41 51 65
39 48 62
35 43 56
37 45 58
46 55 70
39 48 61
40 48 61
38 46 58
35 43 55
43 53 68
46 56 71
41 50 64
34 42 54
40 49 62
43 53 68
44 54 68
34 42 53
38 46 59
38 47 60
39 48 60
45 55 70
40 49 61
42 51 66
44 54 69
37 44 56
38 47 61
41 50 64
36 45 57
39 49 63
39 47 60
39 49 64
33 40 51
36 45 57
36 44 58
41 50 64
41 51 67
34 43 55
42 52 66
40 49 62
37 45 58
37 45 57
37 45 56
38 47 60
44 54 69
35 44 56
41 50 64
39 49 63
33 41 53
45 55 71
30 38 49
43 53 68
38 47 60
38 48 62
38 47 59
40 49 63
34 41 53
41 51 66
42 51 66
45 55 70
39 48 61
35 43 56
38 47 61
43 53 67
40 49 63
42 51 65
38 47 59
36 44 56
39 49 63
36 44 55
35 42 54
40 50 65
32 39 50
33 40 51
33 41 52
36 44 56
34 42 55
32 39 49
28 35 47
35 43 55
12 15 19
12 15 19
17 21 26
12 15 20
18 22 28
18 22 28
17 21 27
15 19 25
20 25 32
20 25 33
21 26 33
19 24 31
18 22 28
16 20 26
24 30 39
23 28 36
24 30 39
23 29 37
22 27 35
28 34 44
22 27 35
25 31 40
29 36 46
27 33 43
28 36 46
29 35 45
31 39 49
25 31 39
28 35 45
26 33 42
28 35 45
31 38 50
26 33 42
29 36 47
25 31 40
25 32 41
35 44 57
30 36 46
28 34 44
29 36 46
34 42 53
29 35 46
36 45 58
35 43 55
36 45 57
25 31 40
32 39 50
34 42 55
28 35 46
29 36 47
33 41 53
30 38 49
37 45 57
32 39 50
33 41 52
30 37 48
32 39 50
33 40 52
31 39 50
32 39 50
32 39 51
32 39 50
35 43 56
31 38 50
31 39 49
39 47 60
34 42 55
34 42 54
36 45 58
31 39 51
35 43 55
36 45 57
38 47 61
35 43 56
38 47 60
28 35 45
36 44 56
37 46 58
37 45 58
35 44 56
37 46 59
40 50 64
32 40 52
31 38 48
33 41 52
36 44 57
30 37 47
33 41 53
37 46 60
39 47 60
33 40 51
39 48 61
32 39 50
37 45 59
40 49 63
37 45 58
33 41 53
39 48 62
34 42 54
38 47 59
31 39 50
31 38 48
39 49 63
29 37 48
37 46 59
33 41 53
34 42 53
37 46 59
41 51 65
37 45 58
39 49 63
37 46 59
37 45 58
36 45 58
36 45 58
39 48 61
37 45 58
37 45 58
37 46 58
41 50 64
40 49 63
39 48 61
33 40 51
38 47 60
37 47 60
36 44 56
39 48 61
32 39 49
35 43 54
36 44 55
38 48 62
36 45 57
35 44 57
38 48 62
34 41 53
38 47 60
40 48 62
41 50 64
39 48 61
36 44 57
36 45 58
39 48 62
39 47 59
33 41 52
33 41 53
36 44 56
42 51 66
39 49 62
37 45 57
40 49 62
41 50 63
37 45 57
34 42 54
40 49 63
37 46 58
34 42 54
38 47 60
34 42 54
38 47 61
39 48 62
40 49 62
34 43 56
36 44 57
32 39 49
37 46 59
32 39 50
34 42 54
43 53 67
40 50 64
37 45 58
32 39 50
39 48 63
36 44 57
39 48 62
37 46 59
37 45 59
34 42 53
36 44 56
36 45 57
36 44 56
33 41 54
35 43 54
30 37 49
34 42 54
36 44 57
41 50 64
31 39 51
32 39 50
37 45 58
30 38 49
36 45 58
35 44 57
35 43 55
30 37 48
35 43 55
39 49 63
31 39 50
37 46 59
38 48 62
31 37 47
34 42 54
31 40 52
37 46 58
35 44 57
37 46 59
31 38 49
31 38 48
32 39 49
38 47 60
37 45 59
28 35 45
32 39 50
36 45 57
37 45 58
40 49 62
37 46 59
40 49 62
34 42 53
31 39 49
28 35 44
33 41 53
30 38 50
30 38 49
33 40 50
33 40 52
29 36 47
25 31 40
33 41 52
26 31 40
28 35 46
32 40 52
31 39 50
31 37 48
30 37 47
28 34 44
26 32 41
26 32 40
25 31 42
24 29 38
24 29 37
27 33 43
31 39 50
31 38 48
29 35 45
23 29 37
25 31 40
27 33 41
28 34 43
26 33 43
27 34 43
26 32 41
25 31 40
22 28 36
24 30 38
23 28 36
24 29 37
26 32 41
20 26 34
22 28 36
24 30 39
21 26 34
18 22 29
19 24 30
19 23 30
20 25 31
21 25 32
23 28 35
17 21 26
15 18 23
15 19 24
19 23 30
13 15 19
30 37 47
33 41 53
35 43 56
38 47 60
25 31 40
32 40 50
29 35 45
40 49 64
36 45 59
39 48 62
38 47 60
41 51 66
34 42 55
34 42 54
40 48 62
40 49 63
45 56 72
39 48 62
36 44 57
40 49 63
40 50 64
38 46 58
36 45 59
32 40 51
40 50 64
40 50 64
37 46 59
39 48 62
38 46 59
40 49 63
41 51 65
38 47 60
36 45 59
37 46 58
38 47 61
40 50 64
44 54 70
42 52 66
36 45 57
45 56 73
41 50 64
36 46 59
39 47 60
35 42 53
41 51 66
40 49 62
42 52 67
39 48 60
42 51 66
41 50 63
38 46 58
40 50 64
42 51 66
42 52 67
40 49 62
37 46 60
35 43 56
37 45 58
40 49 62
36 44 56
34 43 56
42 52 67
44 54 69
35 42 54
37 46 59
47 57 72
43 54 69
32 39 51
33 40 51
30 37 48
43 53 68
35 43 56
44 53 67
38 47 60
44 54 70
41 49 63
35 42 54
36 44 56
42 51 65
40 50 65
39 48 62
39 48 62
39 48 61
38 47 60
35 43 55
36 44 56
41 50 63
35 43 55
45 55 70
35 44 57
41 50 64
40 50 64
41 51 65
40 49 63
40 50 65
34 42 54
40 50 64
37 46 59
42 52 66
36 44 57
37 45 57
40 49 63
37 46 58
41 51 65
35 44 57
37 46 59
42 51 65
43 53 67
40 49 63
35 43 54
42 52 66
43 54 69
40 49 61
35 43 56
41 51 65
35 43 56
36 44 57
35 45 59
42 51 65
38 47 61
31 38 49
39 48 61
41 51 64
39 48 62
32 40 51
36 44 56
31 38 50
31 38 48
12 14 18
10 13 16
14 17 22
16 20 25
16 20 27
15 18 24
15 19 24
19 23 30
19 24 31
16 20 26
22 27 35
25 31 40
26 32 41
20 26 34
18 23 29
20 25 32
24 30 38
20 25 32
23 28 36
26 32 41
22 28 36
28 34 44
27 34 44
26 32 41
26 33 43
23 28 36
28 35 45
32 38 48
26 32 42
29 36 46
33 40 52
31 38 49
27 33 43
27 33 42
26 32 40
30 37 47
36 44 55
29 36 47
33 41 54
27 33 43
32 40 51
33 41 53
27 33 43
31 38 48
26 32 41
35 43 55
31 39 51
33 41 53
31 38 50
30 38 49
36 44 57
32 39 51
28 35 45
30 37 48
32 40 50
30 37 48
37 46 58
32 39 51
31 38 49
34 43 56
32 40 51
34 42 54
37 45 58
34 42 55
34 42 54
38 47 61
34 42 53
32 40 51
34 42 54
38 47 62
36 44 56
34 43 56
30 38 50
33 41 52
33 41 53
31 39 50
32 39 51
33 41 52
29 36 47
32 39 50
32 40 51
33 40 51
31 38 49
33 40 50
36 44 56
37 46 58
30 38 48
28 35 45
34 42 55
34 43 55
34 43 55
39 49 63
34 42 54
30 38 49
38 47 60
32 41 53
38 47 61
34 42 54
32 39 51
35 43 56
35 44 57
37 46 59
33 41 53
39 48 62
37 46 58
35 43 56
33 42 54
38 47 60
36 45 57
31 39 50
36 44 55
35 43 56
33 41 52
33 41 53
32 39 50
34 43 55
40 48 61
33 41 52
37 45 57
35 43 55
36 45 58
33 41 52
37 45 58
32 39 50
34 43 55
39 47 60
35 44 57
33 41 52
34 42 53
37 46 59
36 44 56
39 48 61
43 53 68
34 42 54
39 49 63
37 45 58
40 49 64
38 47 60
46 56 72
39 47 60
38 47 62
40 49 63
37 47 61
35 43 55
38 46 58
39 48 61
37 46 59
40 48 60
35 43 55
36 44 56
37 45 58
41 51 65
34 42 54
33 40 52
35 44 56
34 41 52
35 43 55
37 46 59
39 48 62
37 45 57
35 43 55
34 42 54
39 49 63
36 44 57
40 49 62
36 44 57
39 48 62
40 49 63
36 43 55
40 49 63
40 48 62
38 47 60
39 47 61
37 45 57
39 48 61
35 43 55
42 52 67
33 40 52
37 45 58
39 47 59
35 43 56
38 48 61
39 48 62
36 45 57
39 47 60
36 44 56
32 40 50
36 44 56
33 41 52
35 43 55
33 42 54
39 48 62
34 42 54
34 42 54
32 40 51
33 40 52
42 51 65
34 42 55
31 38 49
36 44 56
30 38 49
36 44 56
31 39 50
33 40 52
33 40 52
30 37 46
31 38 48
32 39 50
33 41 53
38 46 59
34 42 54
39 48 62
32 40 51
36 44 56
31 38 49
31 38 50
32 39 50
35 43 55
34 42 54
30 37 47
28 35 45
32 39 51
30 37 48
32 40 52
34 42 54
34 41 51
33 40 51
27 34 43
29 35 45
33 41 53
33 41 53
28 34 43
30 37 48
31 39 50
31 39 50
31 38 48
26 32 42
30 37 47
27 33 42
29 36 47
38 47 60
24 29 38
29 36 46
31 39 50
26 33 42
26 31 40
26 32 41
27 34 45
28 34 43
24 29 38
24 30 39
22 28 37
30 37 48
24 30 39
21 26 34
21 26 34
21 26 34
20 25 32
19 23 29
25 31 39
18 23 29
23 28 36
17 21 28
19 23 30
20 24 31
19 23 29
15 18 23
16 19 25
13 16 20
20 24 31
14 16 21
17 21 26
29 35 44
34 42 54
34 41 53
38 47 61
35 44 56
37 46 59
37 45 58
29 36 46
36 45 58
35 43 55
34 42 53
40 49 63
36 43 55
35 43 55
35 43 56
38 47 59
45 55 70
33 41 53
41 51 66
37 46 59
40 49 64
36 44 57
38 46 59
39 49 63
40 50 64
34 42 54
36 44 58
32 40 53
39 48 62
40 50 64
39 48 61
40 50 64
35 42 54
45 56 71
35 42 54
44 54 69
37 46 60
36 44 57
36 43 55
40 49 62
40 49 63
39 48 62
33 41 53
42 52 66
38 46 58
37 46 60
39 48 61
39 48 61
36 45 58
38 47 61
40 49 63
41 50 64
39 47 59
42 51 65
51 62 80
42 51 66
45 55 70
43 53 67
40 50 63
40 49 63
37 46 60
44 53 68
36 45 59
44 55 71
38 47 59
38 47 61
33 41 54
39 47 58
37 45 58
41 51 65
40 49 62
40 49 62
34 42 54
41 51 65
44 54 70
39 48 63
40 49 63
40 49 62
39 49 63
36 44 56
37 46 58
37 46 59
40 50 64
38 47 61
45 55 69
39 49 62
39 48 61
38 47 60
40 49 63
42 52 66
37 45 57
38 47 61
40 49 63
36 44 56
36 44 57
38 47 61
41 50 64
45 55 70
42 51 65
41 51 64
45 54 68
43 52 66
36 45 57
38 47 61
42 52 67
36 45 58
37 45 58
35 42 53
39 48 62
36 44 55
38 47 61
34 43 56
35 44 56
40 49 63
35 42 53
38 47 59
40 49 62
36 44 57
31 38 49
35 43 55
36 44 56
35 44 57
39 49 63
34 42 55
42 52 67
33 41 52
36 44 57
24 29 37
19 23 28
14 17 22
13 16 21
17 21 27
16 20 26
20 24 31
16 20 25
16 20 25
17 20 26
21 25 33
19 23 29
15 19 24
22 27 35
24 30 39
21 26 34
28 34 45
21 27 35
22 27 35
25 30 38
28 34 45
27 33 43
25 32 41
28 34 44
26 32 41
24 30 38
26 32 42
34 42 53
24 29 37
24 29 37
26 32 41
27 34 44
27 34 43
26 32 41
27 34 43
30 37 47
28 35 45
38 48 62
30 36 46
32 40 51
29 35 44
36 44 56
30 38 49
34 42 53
28 34 44
30 38 48
34 42 53
29 36 47
26 32 41
32 39 50
33 41 53
33 41 53
31 39 50
34 41 53
27 34 44
34 41 52
32 39 51
32 39 49
37 46 59
31 38 49
28 34 45
28 35 45
32 40 51
32 39 50
33 41 53
31 39 51
32 40 51
34 42 54
32 39 50
33 40 52
29 36 46
32 39 50
35 43 54
33 41 52
38 46 60
30 37 47
35 43 55
34 42 55
32 40 52
36 44 57
39 49 62
32 40 50
28 35 46
39 47 60
35 43 54
32 39 50
31 38 50
37 45 57
40 50 63
32 40 51
37 46 60
32 40 52
35 44 56
38 47 61
37 45 58
35 43 56
34 42 54
31 39 50
31 38 50
38 47 59
33 41 53
40 49 63
41 50 65
34 42 54
32 40 52
38 46 58
37 46 58
33 40 51
43 52 66
36 45 58
37 46 59
37 47 60
37 46 59
37 45 58
38 47 60
36 44 57
35 43 55
38 48 62
38 46 59
36 44 57
31 38 49
37 46 60
37 45 58
40 48 61
37 46 59
37 45 57
37 46 59
38 47 60
38 46 59
35 43 55
36 44 56
44 54 68
38 47 60
31 39 50
33 41 53
42 52 66
39 49 62
41 51 65
40 50 65
37 45 57
39 48 60
37 45 58
37 45 58
40 49 63
38 46 59
40 48 60
36 45 57
37 46 59
38 46 59
36 44 57
33 40 52
36 45 57
38 47 59
43 52 65
40 49 63
35 43 55
41 51 65
39 48 61
31 38 50
43 53 68
40 48 62
35 44 56
40 49 62
41 50 63
39 49 62
33 42 55
33 41 52
37 46 60
38 46 60
36 44 55
35 43 56
38 47 60
36 45 58
34 42 54
36 43 55
36 44 57
36 44 56
40 49 61
38 47 61
40 50 65
31 38 49
38 46 59
33 40 51
32 39 50
39 48 62
37 45 57
35 42 54
38 46 60
37 45 57
34 42 54
39 48 61
39 48 60
34 43 56
37 46 59
33 41 53
38 47 60
28 34 44
31 38 49
36 46 60
34 42 53
31 38 49
34 42 54
38 47 61
32 40 51
31 38 49
30 37 48
35 42 54
34 43 55
33 40 51
31 39 50
30 37 48
34 42 54
36 45 57
31 39 50
36 44 56
32 40 52
35 43 55
34 42 53
35 43 56
33 41 54
34 43 55
32 39 51
31 39 50
34 43 55
26 32 41
31 39 50
35 43 55
34 42 54
29 36 47
29 35 45
29 36 46
30 37 48
30 37 48
31 39 51
29 36 47
25 31 39
26 33 43
25 31 40
27 33 42
30 38 49
31 38 49
22 27 35
30 37 47
29 36 46
27 33 42
30 37 47
25 31 39
23 29 37
26 32 41
26 32 42
28 35 44
23 28 37
23 28 36
24 29 38
24 30 39
28 35 44
25 31 40
25 31 40
25 31 41
22 27 34
19 23 30
22 27 35
19 24 30
20 24 31
22 26 34
23 28 36
19 23 30
22 27 34
16 20 26
17 21 27
16 20 25
12 15 20
11 14 18
20 25 32
28 34 44
37 46 59
34 42 54
33 41 54
30 37 47
36 44 57
35 43 56
31 39 50
40 49 62
34 42 53
41 51 65
41 51 65
36 44 56
39 48 62
37 46 59
40 49 62
41 51 65
42 51 66
34 42 53
42 52 66
42 52 67
33 41 53
38 46 58
35 44 56
37 45 58
42 51 65
34 42 54
35 42 54
38 47 61
42 52 65
39 48 61
41 50 65
44 53 68
39 48 61
35 43 55
40 49 63
39 48 61
38 47 61
40 50 64
47 57 73
37 45 58
40 49 63
40 50 64
40 49 63
44 54 69
37 46 59
39 48 61
38 47 60
42 52 66
36 45 58
40 50 64
39 48 60
41 50 63
36 44 56
43 53 67
36 46 59
40 49 63
39 47 60
39 47 60
42 50 63
36 44 57
43 53 67
41 50 63
45 55 70
45 55 70
44 54 69
37 45 58
38 48 62
43 53 67
40 50 64
41 51 65
41 50 64
41 51 65
42 52 67
36 44 56
44 55 70
39 48 61
40 49 63
37 45 58
37 45 57
41 50 63
41 50 64
32 40 52
44 54 69
41 49 62
45 56 72
43 52 67
37 45 58
38 47 60
36 44 57
41 50 64
42 51 65
41 50 63
37 46 59
37 45 58
38 47 61
37 45 57
39 48 61
35 43 55
40 49 63
41 51 65
33 40 51
39 48 61
41 50 63
38 47 61
44 53 66
43 52 67
36 44 55
38 47 60
43 53 68
40 50 64
36 44 56
40 49 64
34 43 56
37 45 58
38 47 60
34 42 54
42 52 67
36 45 57
37 46 59
35 43 54
33 41 52
32 39 51
39 47 60
33 41 52
26 33 43
19 24 31
10 12 16
16 19 25
13 15 19
15 18 23
15 19 24
13 16 21
22 26 33
22 27 35
14 18 23
21 26 34
17 21 27
24 29 37
21 26 33
20 24 31
23 28 36
22 27 35
29 35 45
25 31 40
20 25 32
22 28 36
29 36 46
25 30 39
23 28 37
25 31 40
24 30 38
26 32 40
31 38 49
25 31 41
28 34 44
30 38 49
27 34 44
27 34 43
31 38 48
26 32 40
31 38 49
30 37 48
26 33 43
25 31 40
32 40 51
30 37 48
27 33 42
28 34 44
37 45 58
29 36 46
42 51 64
33 41 53
35 44 56
30 37 48
26 33 43
25 31 40
30 37 47
32 40 51
31 38 49
31 38 49
32 39 50
30 36 46
29 35 46
29 36 47
32 40 51
32 39 50
32 40 52
30 38 50
37 45 58
32 40 51
28 35 45
32 40 52
33 40 52
32 40 51
34 42 53
37 45 57
31 38 49
31 38 48
36 44 57
35 43 55
37 46 58
32 40 51
31 39 50
28 34 44
34 42 55
30 37 47
29 37 47
35 43 55
29 35 45
40 49 62
39 48 62
39 47 60
37 45 56
36 45 57
35 43 55
36 44 56
36 44 57
38 46 59
35 42 54
37 45 57
31 39 50
34 42 53
42 52 66
39 48 62
35 43 55
36 44 57
34 42 54
37 45 59
36 45 58
33 40 52
33 40 51
35 44 57
38 47 60
29 36 47
36 45 58
40 49 62
38 46 58
31 39 50
34 42 53
40 49 63
35 43 55
35 44 58
36 44 56
34 42 54
40 49 63
39 47 60
42 52 67
40 49 62
41 50 63
36 44 56
37 44 56
40 50 65
39 48 62
36 45 58
37 46 59
39 48 61
37 45 57
44 53 68
41 51 65
37 45 58
34 42 54
37 46 59
44 54 68
35 43 55
34 42 53
43 52 67
39 48 60
41 51 65
42 52 66
41 51 65
33 40 51
32 40 50
38 47 60
37 45 58
35 43 54
34 42 54
43 52 66
39 49 63
38 47 61
36 44 57
37 46 60
38 47 59
40 49 63
39 48 60
30 38 49
39 47 59
38 47 61
36 44 57
39 48 62
37 45 57
33 40 52
40 49 63
33 41 53
35 43 54
38 47 60
39 47 60
39 49 63
38 47 60
39 48 62
38 47 61
36 44 56
32 40 51
36 45 58
37 46 58
38 46 60
31 38 49
37 46 59
36 44 57
35 43 55
35 43 55
31 39 50
37 46 58
37 45 57
37 46 59
35 43 55
39 48 61
32 40 52
31 39 50
31 38 48
33 41 52
37 46 59
33 41 52
33 40 52
32 39 50
40 49 63
36 45 57
38 47 60
34 42 53
35 43 55
31 39 50
35 44 58
32 40 52
32 40 51
37 47 61
29 36 46
38 47 61
34 42 55
35 43 56
29 36 46
37 45 58
29 36 46
31 38 49
33 40 51
36 44 56
31 38 50
28 35 46
31 39 51
29 36 46
29 36 46
31 38 49
39 47 59
32 39 50
33 40 52
29 36 45
27 33 42
31 39 50
30 37 48
26 31 40
32 39 50
32 40 52
30 38 49
26 32 41
30 37 47
27 34 43
24 30 39
31 39 50
28 34 45
23 29 37
26 32 42
34 42 53
26 32 40
20 25 32
30 37 48
25 32 41
24 29 37
23 28 36
30 36 46
25 31 40
21 26 34
28 34 44
22 27 35
26 32 41
20 25 32
22 28 36
22 27 35
19 23 29
21 27 34
22 28 37
17 22 28
22 27 35
17 21 26
19 23 30
18 22 28
17 21 27
18 22 27
16 20 26
15 18 23
9 11 14
15 19 24
34 42 53
32 39 50
33 40 51
39 48 62
38 47 60
32 40 51
36 44 57
34 41 53
42 51 65
36 45 58
37 45 58
36 44 55
40 49 64
33 41 53
39 48 61
34 41 52
36 45 58
38 47 60
39 48 61
40 48 61
37 46 58
39 48 61
35 44 56
41 50 63
38 47 60
40 49 63
43 52 66
38 47 60
36 45 57
43 52 66
43 53 68
38 47 60
39 48 62
36 45 58
39 48 61
33 41 53
40 49 62
35 43 55
38 47 60
42 51 65
36 45 58
41 50 64
36 45 57
41 50 64
38 47 60
40 49 62
35 42 54
39 48 61
41 49 63
41 51 65
40 49 62
39 47 60
35 42 54
32 40 50
40 49 61
41 49 62
37 45 57
37 46 59
35 43 56
33 41 53
39 48 61
41 51 65
47 57 73
46 55 70
39 48 62
36 44 57
32 40 52
44 54 68
48 59 75
41 50 63
38 47 60
38 46 58
41 51 66
37 45 57
45 54 69
42 52 66
37 45 57
39 47 60
41 51 65
41 50 64
40 49 63
39 48 62
36 44 56
43 53 69
42 51 66
39 48 62
44 54 68
36 44 57
42 51 66
36 44 56
38 48 62
42 52 67
41 51 65
34 42 54
44 53 67
39 48 61
36 43 55
36 45 57
46 56 72
39 47 60
40 48 61
40 49 63
36 45 58
39 48 61
37 45 58
36 44 57
41 50 64
36 45 58
39 49 63
43 53 67
34 42 54
38 46 59
40 49 62
33 40 52
36 45 58
38 47 60
39 48 62
34 42 54
38 47 61
35 43 56
27 33 43
30 37 48
40 50 64
34 41 53
32 39 50
31 38 49
21 25 32
12 15 18
15 18 23
15 19 23
16 20 25
17 21 27
19 23 29
16 20 25
16 20 25
18 22 28
16 20 26
20 25 31
23 28 35
23 28 36
19 23 30
22 27 35
19 24 30
24 29 37
21 27 34
24 30 38
23 29 37
21 26 33
21 26 33
26 32 40
21 26 34
22 28 37
21 26 33
25 31 39
25 32 41
23 28 35
21 27 34
32 39 50
32 39 50
31 38 49
29 36 46
28 35 45
29 36 46
30 37 48
28 35 46
26 32 42
27 34 43
26 32 41
30 37 48
37 45 58
34 41 53
30 37 47
35 43 55
33 41 53
33 41 52
28 35 46
25 31 40
30 38 49
32 40 51
33 41 53
28 35 46
33 41 53
33 41 54
33 41 52
37 45 58
29 36 47
33 41 53
30 37 48
30 36 47
32 40 51
32 40 52
33 40 51
32 39 50
39 49 63
33 40 52
37 46 59
29 36 46
36 45 58
37 46 59
30 37 47
30 37 48
30 37 48
35 44 57
30 38 50
36 44 56
33 40 51
38 47 60
34 42 53
34 42 54
40 49 62
33 40 52
34 42 54
33 41 52
33 40 51
34 42 54
32 40 52
32 39 51
36 44 56
33 41 53
35 43 55
36 44 57
38 47 60
41 50 65
32 39 50
34 42 54
38 47 60
36 45 58
33 41 52
41 51 65
38 46 58
41 50 63
34 42 54
34 42 53
34 42 53
41 50 64
30 38 49
36 44 57
37 46 58
37 45 57
36 44 56
37 45 58
34 42 55
33 42 54
38 47 60
34 42 53
36 44 56
33 41 52
37 45 58
33 41 52
37 46 58
36 45 58
37 45 57
30 37 49
38 47 61
36 43 55
42 52 66
31 39 50
33 42 55
33 40 51
34 42 54
36 44 57
37 46 60
38 47 60
37 45 57
43 52 66
37 46 59
38 47 60
34 43 56
33 41 52
35 44 57
41 51 64
40 49 63
40 49 62
37 45 57
38 47 61
37 46 58
36 44 56
35 43 55
37 46 59
37 45 57
36 44 56
40 49 62
39 48 61
42 52 66
35 42 54
35 44 56
36 44 56
36 44 58
36 45 57
43 53 68
37 45 58
35 43 55
37 45 57
35 43 55
39 48 62
34 42 53
36 44 56
37 46 59
35 42 54
36 44 56
31 38 50
42 51 64
34 42 54
36 44 56
37 45 58
31 38 50
35 44 56
38 47 59
35 42 54
33 41 53
34 41 53
37 45 58
40 49 64
36 45 57
30 37 47
30 37 47
36 45 57
37 45 58
35 43 55
37 45 57
34 42 54
33 41 52
36 45 58
28 35 45
33 42 54
31 39 50
30 37 48
33 41 53
33 41 53
33 40 50
32 40 52
29 36 46
31 38 48
34 41 53
35 43 56
28 34 44
34 42 54
37 45 58
34 42 54
33 40 51
32 40 52
29 36 46
31 38 49
33 40 52
30 37 48
30 38 49
29 35 45
30 37 48
29 36 47
30 37 47
24 30 39
30 37 48
27 34 45
28 34 43
27 34 44
32 39 50
28 35 45
28 34 44
34 42 55
26 32 41
31 38 50
27 33 43
27 33 43
26 33 42
25 31 39
25 30 38
32 39 49
29 36 46
23 28 36
28 34 44
26 33 43
26 31 40
25 31 41
26 32 41
24 30 38
27 33 43
28 35 45
29 34 43
21 26 33
26 33 43
27 33 44
21 26 33
27 34 44
22 28 35
27 32 41
21 25 32
19 23 30
18 23 29
20 24 31
21 26 34
18 23 29
18 22 27
16 20 25
15 19 24
13 16 21
17 21 27
16 19 25
12 15 19
10 12 15
15 18 22
29 35 46
35 43 55
36 44 57
37 45 59
38 46 59
38 47 60
33 40 51
39 48 61
36 45 59
37 46 58
38 46 59
39 48 61
36 44 56
35 44 57
39 48 63
42 51 64
37 45 58
40 49 64
37 45 57
37 44 56
36 45 59
32 40 51
38 47 59
41 50 63
42 52 66
41 50 64
40 49 62
42 52 66
41 51 65
37 46 58
37 46 59
35 44 57
37 45 58
45 55 70
34 41 51
40 48 61
43 52 67
39 48 62
36 45 58
38 47 62
33 42 54
41 50 63
46 56 71
39 48 61
34 41 52
39 48 61
38 46 59
41 50 63
40 49 62
35 44 58
41 50 65
42 52 67
42 51 65
40 49 61
36 44 56
41 50 63
36 44 56
40 49 62
37 45 57
39 48 61
40 49 64
36 44 55
37 46 58
38 46 58
43 52 66
38 47 60
38 47 60
39 47 59
41 50 64
39 49 63
41 51 65
37 46 59
39 48 62
34 42 55
35 42 54
37 46 59
38 46 60
40 49 64
42 52 66
36 44 57
40 49 62
37 45 58
44 54 69
45 55 69
39 48 62
36 44 57
39 48 61
38 47 61
40 49 62
37 45 58
37 45 58
37 45 59
36 44 57
39 47 60
39 47 60
34 41 53
38 48 62
39 48 62
39 47 60
42 51 65
39 47 59
37 46 60
36 44 56
42 51 64
37 46 60
34 43 55
37 45 58
42 52 68
39 47 61
34 43 55
37 45 57
35 42 54
36 44 56
36 44 56
33 41 53
35 43 55
38 46 59
42 51 65
38 46 58
38 47 60
36 44 56
34 42 55
30 37 47
33 41 54
34 42 54
28 34 43
15 18 22
14 18 22
17 20 25
16 19 24
13 16 21
17 21 26
16 20 25
18 22 28
22 27 34
20 24 30
22 27 36
17 21 28
21 26 34
22 27 34
22 27 34
22 27 34
20 24 31
19 23 29
26 33 42
23 28 36
24 30 38
24 30 38
26 32 41
31 38 48
29 36 47
24 29 37
22 27 35
32 39 50
30 37 47
23 29 37
23 29 38
26 33 42
36 44 56
30 37 47
31 38 48
24 30 39
27 33 42
31 39 49
25 31 41
29 35 44
29 36 46
27 34 45
27 34 44
29 36 47
31 38 49
35 42 54
36 45 57
35 43 55
33 41 53
32 40 51
31 38 49
29 36 46
27 34 44
31 38 49
43 52 65
28 34 44
33 41 52
31 39 51
32 40 51
31 38 48
33 40 51
36 44 57
32 39 51
31 38 49
33 39 48
27 33 43
37 46 59
29 36 46
39 48 61
32 39 51
34 42 54
35 43 56
30 38 49
35 42 53
35 44 56
35 43 55
37 46 60
34 42 55
32 39 51
34 43 55
32 39 50
40 49 62
37 46 59
40 49 62
32 39 50
35 43 55
35 44 57
30 37 48
37 46 60
33 40 52
39 48 61
31 38 48
36 44 58
36 44 57
31 39 50
37 46 59
30 37 47
37 45 59
35 43 55
33 40 51
34 42 53
43 53 67
39 48 62
32 39 50
36 44 57
37 45 59
39 48 61
42 52 67
33 41 52
35 44 56
36 44 56
39 49 63
34 43 55
38 47 60
39 47 60
35 43 55
32 39 49
36 45 58
35 43 55
37 45 57
35 43 55
35 43 56
30 38 49
38 47 60
35 44 56
38 47 60
41 50 64
33 40 51
37 45 58
34 42 54
36 44 56
38 47 60
42 51 65
42 51 66
39 48 61
36 44 55
33 40 51
38 46 59
35 43 55
34 42 54
40 49 62
40 49 63
43 52 67
37 45 57
36 45 58
39 48 62
38 47 60
37 45 58
41 50 63
39 48 61
39 48 61
38 47 60
36 45 57
39 47 61
39 48 62
33 40 52
36 45 58
33 41 53
36 43 55
36 45 58
38 47 60
30 38 48
40 49 62
41 52 67
40 49 63
39 48 61
36 44 55
34 42 54
34 42 53
37 45 58
39 48 61
40 49 63
30 38 50
40 50 64
33 40 51
35 43 55
38 47 60
36 44 56
32 39 50
33 41 52
36 45 59
32 40 51
35 43 56
37 46 59
34 42 54
33 41 52
32 39 51
34 42 55
34 43 55
40 50 64
35 43 55
34 42 55
37 46 60
34 42 54
36 43 55
35 42 53
33 41 53
30 37 48
34 42 54
36 44 56
35 44 57
32 40 51
33 40 51
39 48 61
36 45 58
37 45 57
30 37 47
40 50 64
28 34 43
35 43 55
32 39 49
30 37 47
32 40 52
33 42 54
32 40 53
30 37 48
37 45 58
33 41 53
28 35 45
34 42 54
33 41 52
31 38 48
28 35 45
30 37 47
25 31 40
29 36 46
32 39 50
33 40 51
31 38 48
31 39 50
36 45 59
31 39 49
31 37 47
30 37 48
28 35 44
33 41 53
24 30 40
28 33 42
28 35 44
26 32 42
29 36 46
31 38 48
24 30 40
24 30 39
21 26 33
28 34 43
25 31 40
22 27 35
23 28 35
23 29 37
26 32 41
26 32 40
27 33 42
19 23 29
24 30 39
24 29 36
21 26 33
23 28 36
25 31 39
19 23 30
17 21 27
21 26 33
20 25 32
24 29 37
21 26 33
15 18 23
14 17 22
16 19 24
15 18 23
12 15 19
12 15 19
12 14 19
14 17 22
14 17 21
24 29 37
35 43 56
35 43 56
35 42 54
37 45 56
33 41 52
33 41 53
29 36 46
34 42 54
36 44 57
39 47 60
33 41 53
41 51 65
35 43 54
32 41 53
35 44 58
39 48 61
32 39 50
37 46 60
36 44 56
43 52 65
32 39 50
40 49 62
35 43 55
40 49 62
38 47 61
39 48 62
39 49 62
43 53 67
35 42 54
36 45 58
36 45 57
37 46 59
39 47 60
46 56 71
39 48 62
39 48 62
40 49 62
39 48 61
44 54 70
37 46 58
38 47 61
34 43 55
44 55 70
42 51 66
33 40 51
31 39 51
41 50 64
35 43 55
39 48 62
41 51 65
39 48 62
37 45 57
41 51 65
38 47 61
38 46 58
39 48 61
34 42 54
40 49 63
39 48 60
37 46 60
39 47 60
42 51 66
39 48 62
39 48 62
36 45 57
38 47 61
44 53 67
36 43 54
41 51 65
38 47 60
40 48 62
39 48 61
42 51 66
40 50 65
37 45 57
42 52 66
39 48 62
37 46 58
41 50 64
42 53 68
41 50 64
34 42 53
39 48 62
38 47 60
43 53 67
40 50 64
42 52 66
35 44 57
42 51 65
40 50 63
37 45 58
39 48 62
39 48 62
40 49 62
39 47 61
37 45 57
45 55 71
38 46 59
40 49 62
35 44 56
35 43 55
39 48 61
38 47 60
36 44 56
44 54 70
36 44 56
40 50 64
36 45 58
40 49 63
38 46 59
39 48 61
34 42 54
39 48 62
40 48 61
36 45 58
35 43 54
34 42 53
36 44 56
32 40 52
34 42 53
34 43 55
35 43 55
30 37 46
30 38 48
27 33 41
16 19 24
14 18 23
17 21 26
14 17 22
15 20 26
18 22 28
13 16 21
16 20 26
19 23 30
20 24 32
20 25 32
25 31 40
17 20 26
18 23 29
21 25 32
21 25 32
26 32 40
28 34 44
22 27 34
23 28 36
26 33 42
26 32 40
24 30 39
21 26 34
23 28 36
28 34 43
21 26 33
25 31 40
26 31 40
26 32 41
30 36 46
29 36 46
35 43 56
29 36 47
25 31 40
27 34 43
33 42 54
25 31 40
32 39 50
30 37 47
33 40 51
25 31 41
30 37 48
32 39 50
34 42 53
29 36 47
30 37 48
34 42 54
33 40 52
32 39 50
30 37 47
34 43 56
30 37 48
32 40 51
33 41 52
31 38 49
30 37 47
31 38 49
36 45 58
31 38 50
33 41 54
34 42 54
32 40 51
34 42 53
28 34 44
30 37 47
31 37 47
30 37 47
35 42 53
31 38 50
34 41 52
31 38 48
30 38 49
37 45 58
36 44 57
28 35 45
29 35 45
37 46 58
33 41 53
33 41 53
39 49 63
36 44 56
35 43 56
31 38 50
38 46 58
30 37 48
37 46 60
35 43 55
38 46 58
33 42 54
36 44 56
35 44 57
32 39 50
33 40 52
39 47 60
36 44 55
31 39 51
35 43 56
31 38 49
32 40 51
34 42 55
37 46 59
41 51 64
33 40 51
38 47 60
33 40 51
40 49 63
38 46 59
28 35 45
35 43 55
34 43 56
37 45 57
38 47 60
41 50 64
35 43 55
35 43 54
30 37 48
35 42 54
39 48 61
43 54 69
39 49 62
37 45 58
38 46 59
35 43 56
38 47 59
38 47 60
36 45 57
37 46 58
34 42 54
39 49 63
41 50 64
37 45 58
40 49 62
34 42 54
33 41 54
36 44 56
43 52 66
37 45 57
37 46 59
34 42 54
38 46 59
32 40 51
36 44 56
39 48 62
36 44 57
44 53 67
38 47 61
36 44 57
32 39 51
36 44 56
38 46 59
41 50 63
39 47 60
36 45 58
31 38 48
35 44 57
36 45 57
42 51 66
38 47 60
36 46 59
35 44 57
41 51 66
38 47 60
39 49 63
36 44 57
34 42 53
37 45 57
35 42 54
39 47 60
32 40 52
36 45 58
40 49 63
36 45 58
37 45 58
36 45 59
38 47 61
33 41 52
34 42 55
39 49 63
36 45 58
35 44 56
36 45 58
35 43 55
36 45 57
34 42 54
38 46 59
31 38 50
33 41 53
39 48 60
36 44 56
35 44 56
34 41 53
32 40 50
30 37 48
34 42 53
35 43 56
35 43 55
39 48 61
40 49 63
34 42 53
33 41 53
38 47 60
36 44 56
36 45 58
34 43 55
31 38 49
29 36 46
24 30 38
34 42 55
30 38 49
31 38 48
35 43 56
31 38 49
28 34 44
31 38 49
32 40 52
32 39 50
33 40 52
25 32 41
37 46 58
31 39 50
35 44 56
32 40 52
31 38 48
31 38 47
28 34 43
37 45 58
28 34 43
30 37 47
29 36 47
24 30 38
30 37 48
23 29 38
26 32 42
19 23 30
31 38 49
26 32 40
32 39 50
26 32 41
26 32 42
25 31 40
27 33 42
25 31 40
26 32 41
27 34 43
28 34 42
28 35 46
23 29 37
24 30 37
25 30 39
25 31 40
25 30 38
22 27 34
22 28 36
26 32 40
20 25 32
26 32 41
28 35 45
22 27 34
22 27 35
22 26 34
19 23 29
19 24 30
17 21 27
19 24 31
18 22 28
15 19 25
21 25 31
16 20 25
19 23 29
13 16 20
14 18 23
13 16 20
15 18 22
14 18 23
29 35 45
34 42 53
37 45 57
32 39 50
41 49 62
37 46 58
33 41 53
36 44 57
40 50 64
31 38 48
38 48 62
37 46 59
39 48 61
36 43 55
39 48 62
40 50 65
37 45 58
39 48 61
40 50 64
35 43 56
46 57 72
44 54 68
35 43 56
39 48 61
35 44 56
39 48 61
34 43 56
37 46 60
38 47 59
41 49 62
38 47 60
41 49 62
32 40 52
39 48 62
40 49 63
40 49 62
41 51 65
38 47 60
38 47 60
42 51 64
37 45 58
40 50 63
44 54 69
40 49 63
38 47 61
39 47 60
41 50 63
43 53 67
44 54 69
39 48 61
38 46 59
39 49 63
38 46 58
37 46 59
40 49 63
36 44 57
44 55 70
39 48 61
43 52 66
39 47 60
42 51 66
40 48 60
40 49 63
38 47 61
40 49 63
37 46 59
38 46 59
37 45 57
43 52 66
33 41 52
40 48 61
42 51 66
36 44 56
40 49 63
36 45 58
35 42 54
40 49 62
41 50 64
45 55 70
38 47 60
36 44 57
39 49 62
40 49 63
41 50 63
41 50 63
38 46 59
38 47 60
41 51 66
35 43 55
36 44 57
34 42 53
37 46 59
42 52 67
36 45 58
34 42 54
37 46 59
37 46 60
39 48 61
38 47 61
39 48 61
37 46 59
36 45 58
37 46 59
28 35 45
33 41 52
41 50 64
39 49 63
36 44 56
38 47 61
37 45 57
39 47 60
40 49 63
38 46 58
36 44 56
37 45 57
38 47 60
33 40 52
39 48 62
35 43 55
35 43 55
33 41 53
31 38 49
34 42 54
33 40 52
16 20 26
12 15 19
15 18 23
15 18 23
14 17 21
14 17 22
19 23 30
21 26 32
17 21 26
16 19 25
15 19 24
17 22 28
19 23 30
24 29 37
20 25 32
18 22 29
20 24 31
21 25 32
25 30 38
22 26 34
24 29 37
22 27 35
28 34 44
24 30 38
19 24 31
28 34 44
27 33 42
22 27 34
27 33 43
23 29 36
27 33 43
30 37 48
27 33 42
23 29 38
33 41 53
34 42 54
29 36 45
29 36 45
31 38 48
33 41 52
25 31 40
25 31 40
33 40 52
26 31 40
34 41 53
37 45 56
25 32 41
31 39 50
26 33 42
30 36 46
31 38 49
28 35 45
29 37 48
31 39 50
30 37 48
30 37 47
32 40 52
33 41 52
26 32 42
34 42 54
30 37 47
31 38 49
25 31 40
35 44 56
36 43 54
33 41 52
34 42 54
29 36 46
29 36 46
33 41 52
30 37 48
32 39 49
35 43 56
32 39 50
34 42 55
32 39 49
31 38 49
34 42 55
35 43 55
32 40 51
34 42 54
31 38 49
35 43 56
38 46 58
33 41 52
29 36 46
34 42 54
33 41 52
39 49 64
34 42 54
31 39 50
34 41 52
38 47 61
33 40 51
38 46 59
37 44 56
35 44 57
34 42 55
39 47 60
36 44 56
33 41 52
38 46 59
34 42 55
35 43 55
37 46 60
37 47 60
35 43 54
36 44 56
38 47 61
41 51 65
31 38 48
37 45 59
32 39 50
39 48 61
36 44 57
32 40 52
34 42 55
36 44 57
32 40 51
39 48 63
34 42 53
33 40 52
35 44 56
35 43 56
35 44 57
30 37 47
36 44 57
32 39 51
34 42 55
34 42 53
39 48 61
37 45 57
36 44 56
39 48 60
34 42 54
38 46 59
39 48 62
40 50 65
40 49 62
38 47 61
37 46 59
44 53 67
34 41 52
42 51 65
31 37 47
34 42 54
35 43 55
36 44 56
36 45 57
37 45 58
38 46 58
35 44 57
36 44 56
37 47 60
36 45 59
39 48 61
36 45 57
35 43 55
30 37 47
34 42 55
37 45 57
39 48 62
36 44 57
32 39 51
35 44 56
36 44 57
34 42 54
39 48 62
32 39 50
34 41 53
36 44 56
39 48 61
35 44 56
35 42 54
32 40 51
36 44 57
38 47 61
38 46 59
35 43 55
38 47 60
34 41 53
35 44 56
37 46 58
36 44 55
39 48 61
33 40 52
37 45 58
40 49 63
36 45 58
33 40 51
34 42 54
29 35 45
30 38 49
34 42 53
34 42 54
33 40 52
36 44 56
36 44 56
36 44 56
36 44 56
32 40 52
31 38 48
40 50 64
37 45 58
29 36 47
33 41 53
34 42 55
32 40 51
33 40 52
28 35 45
30 37 48
34 41 53
35 44 56
32 39 51
31 38 47
34 42 54
35 43 55
33 40 51
31 38 48
33 40 52
31 38 48
31 38 49
30 38 49
33 41 54
32 39 50
26 32 41
31 39 50
32 39 50
27 34 43
32 39 51
32 39 50
29 37 47
28 34 44
31 38 49
29 36 45
32 39 49
27 33 42
29 35 46
32 40 51
26 31 40
26 32 42
27 34 43
25 31 40
23 28 36
29 35 46
28 34 44
27 33 43
28 35 45
29 36 45
24 29 37
26 32 41
25 30 38
28 34 43
27 33 43
17 21 26
24 30 38
18 22 29
20 24 30
20 24 31
22 26 34
20 25 32
26 32 41
17 21 27
21 25 32
16 20 25
21 26 33
16 20 27
17 21 26
21 25 32
20 25 31
16 19 24
12 15 18
15 18 22
15 18 23
15 18 23
11 14 17
32 39 50
28 34 44
40 49 62
34 41 53
34 42 53
42 51 64
34 42 54
31 39 51
43 53 68
31 38 48
35 44 57
42 50 63
36 44 57
33 40 51
42 51 64
41 50 63
36 44 57
44 54 69
35 43 55
32 39 51
40 49 63
31 38 49
32 39 50
39 48 62
39 48 61
38 47 60
38 47 60
34 43 55
38 47 60
41 50 63
39 48 61
39 47 61
38 47 61
40 50 64
36 44 55
42 52 65
36 44 56
38 47 60
38 46 59
38 48 62
42 50 63
40 49 63
37 45 58
35 44 57
37 45 58
42 52 66
39 48 62
39 48 61
44 54 68
39 47 61
40 48 60
38 48 62
39 47 60
39 48 62
42 52 66
42 50 63
34 43 55
40 48 61
34 42 54
37 46 60
42 52 66
42 52 66
43 52 67
42 52 66
43 53 68
39 49 62
42 52 66
36 44 56
41 50 65
39 47 60
36 45 57
43 52 66
36 43 55
37 46 58
41 50 64
40 49 62
36 45 58
44 53 68
38 47 60
33 41 53
33 41 52
40 49 63
37 46 60
40 49 62
42 52 65
36 44 56
41 49 62
38 47 60
34 43 55
38 47 61
42 51 64
39 48 61
32 41 53
37 45 57
32 40 52
40 50 64
38 48 62
38 46 59
39 48 62
36 44 56
36 44 56
39 49 63
41 51 65
35 43 56
34 42 54
41 51 66
39 48 62
36 44 57
37 45 58
42 52 68
40 50 64
36 44 56
42 51 64
40 50 64
37 46 60
34 41 53
35 43 55
37 46 59
40 49 63
33 41 53
38 47 61
36 44 56
30 37 48
32 39 50
16 20 26
15 18 23
17 20 25
10 12 15
13 16 20
13 16 21
17 20 26
18 22 29
18 22 29
18 21 27
22 26 33
21 26 33
18 22 28
21 26 34
19 24 30
17 21 28
21 25 32
22 27 35
22 28 36
20 25 32
23 29 37
20 25 31
23 29 37
21 26 34
21 26 33
27 33 42
20 25 32
26 31 40
22 27 35
27 34 44
27 33 42
28 34 45
25 31 39
24 30 38
30 38 50
29 36 47
29 36 45
24 29 37
27 34 43
29 35 44
33 40 51
31 39 50
30 37 47
32 40 52
27 33 42
27 33 42
31 38 49
33 41 52
32 40 51
30 37 48
28 34 44
31 39 50
27 33 42
29 36 47
28 34 45
30 37 48
28 34 44
28 35 45
35 43 54
35 43 55
29 36 46
27 33 43
36 45 58
34 43 55
31 38 49
28 35 45
34 42 54
31 38 48
31 39 50
33 41 52
32 39 50
29 37 47
34 41 52
28 34 44
31 38 48
36 44 56
29 36 47
33 41 52
29 35 45
35 43 55
28 34 43
31 39 51
31 38 49
35 43 55
38 47 60
37 45 58
31 38 48
34 42 53
30 36 47
33 41 53
32 39 51
38 47 60
41 50 64
36 45 58
39 47 61
35 43 55
29 36 47
31 38 49
32 39 50
31 39 50
34 42 54
39 49 64
33 41 52
36 44 57
35 44 57
34 42 55
41 50 65
38 47 60
34 42 54
38 47 61
34 42 54
40 49 62
35 43 55
32 40 53
39 48 61
37 47 61
37 45 58
37 45 58
43 52 67
34 42 55
35 43 55
36 44 56
41 50 65
34 41 53
36 44 56
43 53 68
42 52 66
38 46 59
39 47 60
38 47 61
33 41 52
35 43 54
34 41 52
34 42 54
35 43 55
40 49 62
38 47 59
31 39 51
34 42 54
40 48 61
34 43 55
40 49 62
43 52 66
36 45 58
37 45 57
42 51 65
37 45 58
35 42 54
41 50 63
41 49 62
36 45 58
37 45 58
34 42 54
38 47 60
34 42 54
33 41 52
37 46 59
32 40 51
38 47 60
35 43 54
38 47 60
44 54 69
38 46 59
40 50 64
39 49 63
35 43 55
30 37 47
35 43 55
37 46 59
37 46 58
38 46 59
35 43 54
38 47 59
30 37 48
36 44 57
41 50 65
35 44 56
33 41 52
31 38 48
38 47 59
35 44 56
37 46 58
37 46 60
33 41 51
36 44 58
34 42 54
33 41 53
36 45 57
30 37 48
34 41 53
35 43 55
32 39 51
34 42 54
36 44 56
35 43 55
32 38 49
35 42 53
29 36 46
27 33 43
40 49 62
29 36 47
33 40 51
37 45 57
38 46 59
34 41 53
34 41 53
36 44 57
30 38 49
33 40 51
30 36 46
32 40 51
29 36 46
37 45 58
26 32 42
32 40 51
29 36 46
34 42 53
31 39 50
32 40 51
28 34 44
27 33 42
31 38 49
27 33 43
32 40 51
35 42 53
30 36 46
30 36 46
33 41 53
26 32 41
32 40 52
33 41 52
28 34 44
30 36 46
33 40 51
33 41 53
31 38 48
28 35 45
28 34 43
28 34 44
26 31 40
27 34 44
21 26 33
24 30 38
27 33 42
26 32 41
24 29 38
24 30 39
22 27 34
24 29 37
22 28 36
29 36 46
22 27 34
21 27 35
22 27 35
24 30 37
24 29 37
19 24 31
21 25 33
29 35 45
22 27 35
21 27 34
19 24 31
19 23 29
13 16 20
20 24 31
19 23 29
20 24 31
19 24 30
20 25 31
15 19 24
16 19 24
15 19 24
14 17 22
14 17 22
15 18 22
13 16 20
30 37 47
29 37 48
32 40 50
33 40 52
28 35 46
34 42 55
36 44 56
36 45 58
34 43 55
43 52 67
39 48 61
39 47 60
37 45 58
37 45 57
38 47 61
42 51 64
42 51 65
34 42 53
35 43 55
39 47 59
40 49 61
36 45 57
37 46 59
36 44 56
34 42 55
37 46 60
40 49 63
39 48 62
35 43 56
43 53 69
40 50 65
42 51 66
40 50 64
38 47 59
36 44 57
41 49 63
37 45 58
36 45 57
38 46 59
39 49 63
38 46 59
38 47 59
38 47 61
42 51 66
41 51 65
40 49 63
38 46 58
32 40 51
45 55 70
39 48 61
39 48 62
39 48 61
39 47 60
35 43 55
41 50 64
37 46 59
42 52 66
39 49 63
38 47 61
43 52 66
38 46 58
36 44 57
39 48 61
39 48 62
38 47 60
37 45 58
44 53 68
40 49 62
43 52 67
32 39 50
40 49 62
43 53 67
40 49 63
39 48 60
42 51 65
38 46 59
34 42 54
39 49 62
33 42 54
39 47 60
45 55 70
42 51 64
34 42 54
38 46 60
39 49 63
37 46 58
33 40 52
40 49 62
40 50 64
36 44 56
38 47 60
38 48 62
35 43 55
34 42 54
38 46 58
41 50 64
44 54 69
34 43 56
36 44 57
32 39 50
38 47 60
40 50 64
40 50 64
39 48 62
36 45 57
34 42 54
38 47 60
36 43 55
39 48 61
35 43 55
38 47 60
34 42 54
40 49 64
33 40 51
36 44 56
37 45 56
33 41 53
27 33 42
41 51 64
37 46 59
30 37 48
31 38 49
28 35 45
19 23 30
14 17 22
17 21 26
14 17 21
16 20 25
14 17 21
19 23 29
18 22 28
18 22 28
16 20 25
20 25 33
14 17 22
16 20 26
18 22 28
21 25 32
21 26 34
19 24 31
20 25 32
23 28 36
25 31 39
21 25 33
21 25 32
28 33 41
24 30 38
28 35 44
22 28 36
29 36 46
24 30 39
27 34 44
24 30 39
24 29 37
22 27 35
23 28 35
29 36 47
30 36 46
30 37 47
27 34 43
24 30 39
28 35 44
25 31 40
31 38 49
33 40 51
27 33 43
34 42 54
32 39 50
35 42 53
29 35 45
32 40 50
36 44 56
32 39 50
31 38 48
26 32 41
31 38 49
32 39 50
31 38 49
28 34 44
31 38 49
27 33 43
32 39 51
28 34 42
29 36 46
28 35 45
30 37 47
31 38 49
28 36 46
31 38 49
34 42 54
35 43 55
39 48 61
30 36 46
35 43 56
36 43 55
30 37 47
35 43 54
28 35 44
37 46 59
29 35 45
32 39 50
35 43 55
29 35 45
35 43 55
29 35 45
33 41 52
38 47 60
36 44 57
33 42 54
33 41 53
33 41 53
33 41 52
32 40 52
30 37 48
31 38 49
33 40 52
35 43 55
32 40 51
33 41 53
36 45 58
37 45 57
43 53 67
34 42 54
31 38 49
37 46 59
35 43 55
37 45 57
31 38 48
35 43 56
30 38 49
36 44 57
33 41 53
36 44 56
37 45 56
35 43 55
38 46 59
35 43 55
39 47 60
35 43 54
36 43 55
29 36 47
34 42 53
29 36 47
36 44 57
36 45 57
34 42 54
33 41 53
42 51 64
29 36 47
41 50 64
33 41 52
37 45 57
39 48 61
34 42 54
32 40 52
36 44 56
36 44 56
41 50 64
39 47 60
32 40 52
37 46 59
39 47 61
36 44 56
40 49 62
41 49 63
35 43 56
39 47 60
34 41 52
37 46 58
41 50 65
39 47 60
33 40 51
37 45 57
36 44 57
38 46 59
36 43 55
35 43 56
38 47 61
36 45 59
33 40 52
43 53 68
37 45 58
36 44 56
38 46 59
29 36 46
38 46 59
34 42 54
38 48 62
39 48 61
35 43 55
42 51 64
35 43 55
34 41 53
29 36 46
31 38 48
36 45 59
42 52 66
31 38 48
32 40 52
33 40 52
35 43 55
34 42 54
38 47 60
35 43 55
33 41 53
33 41 52
32 39 50
31 38 48
36 44 57
36 44 56
35 42 54
32 39 49
34 42 53
34 42 53
34 41 52
33 40 51
33 40 52
32 40 51
30 37 48
33 41 52
33 40 51
32 39 50
38 47 60
27 34 44
33 40 52
33 41 54
35 43 55
34 42 54
28 36 46
34 42 54
32 40 52
34 43 55
30 37 48
31 38 48
30 37 48
32 39 50
29 36 46
35 42 53
36 44 56
31 37 47
30 37 47
30 37 47
29 36 46
29 36 46
34 41 53
26 33 43
32 39 50
29 35 45
29 36 46
29 36 47
30 37 48
29 36 46
26 33 43
27 33 43
26 33 42
29 35 46
32 39 50
25 31 39
27 34 44
26 32 41
29 37 48
26 32 41
32 40 51
30 37 47
25 31 40
31 38 49
29 35 44
29 35 45
27 34 43
24 29 38
26 31 39
25 31 40
25 30 39
25 31 39
24 29 38
23 29 38
23 28 37
24 29 37
22 28 35
19 23 29
23 28 36
19 24 30
20 25 31
23 28 35
16 20 26
18 22 28
19 23 29
17 21 27
19 23 30
17 21 27
19 23 30
17 20 26
19 23 29
14 18 23
14 17 22
13 16 20
14 17 22
17 20 25
15 18 23
15 18 23
19 23 29
33 41 52
28 35 46
40 49 63
31 38 49
34 42 54
32 40 51
36 44 56
36 45 57
37 45 58
36 44 55
33 40 52
33 40 52
37 45 57
37 46 59
40 49 63
38 47 60
41 50 64
39 48 62
41 50 64
39 49 62
38 46 59
40 49 62
36 45 58
38 46 58
39 48 62
39 47 61
39 48 62
37 45 58
39 48 61
35 43 55
39 48 61
40 49 62
40 49 62
41 50 64
37 45 57
38 46 58
43 52 66
42 51 66
42 51 64
38 47 60
37 45 57
46 56 71
37 46 58
37 45 58
33 41 54
41 51 66
45 55 70
38 46 58
37 46 59
37 45 57
41 50 65
39 47 60
40 50 64
45 55 70
39 49 63
36 44 56
41 50 63
41 49 63
39 48 62
41 50 63
40 49 63
37 45 58
36 45 57
31 39 50
43 52 67
41 50 64
41 50 64
34 43 55
39 47 60
41 49 63
43 53 67
41 51 66
35 43 56
40 49 63
35 43 55
41 50 63
39 48 61
39 48 62
42 51 63
36 45 57
43 52 66
40 49 61
41 51 65
38 46 60
36 45 57
36 44 57
40 50 65
34 42 53
35 43 56
40 49 63
36 44 57
40 49 62
42 52 67
36 44 57
37 45 57
40 49 62
35 43 55
39 48 61
32 40 51
40 49 63
35 44 56
36 45 57
36 44 56
31 39 49
31 39 51
38 47 59
38 47 61
38 47 60
36 44 56
32 39 50
39 48 63
34 43 55
39 48 61
42 50 64
38 48 62
34 41 52
36 44 57
34 42 54
33 41 53
28 35 45
29 36 45
31 37 48
19 24 31
11 14 17
11 13 17
14 17 21
13 16 20
17 21 26
20 24 30
14 17 21
13 16 21
16 19 24
16 19 25
15 19 24
17 21 27
17 21 26
17 21 27
18 22 28
20 24 31
17 21 27
20 24 31
23 28 35
24 30 38
19 23 29
20 24 32
24 30 38
19 24 31
23 28 36
21 26 33
28 34 43
23 29 36
25 31 39
26 33 42
27 33 42
24 29 38
23 29 38
26 32 41
24 29 37
27 33 43
24 30 38
28 35 45
24 29 38
25 31 40
26 31 40
29 36 47
31 38 48
31 38 48
30 37 47
29 36 46
34 42 53
32 40 51
28 34 44
29 35 44
29 35 44
25 31 40
31 39 51
38 46 58
29 36 45
27 33 42
28 34 43
34 42 55
33 41 52
28 34 43
28 34 44
30 37 48
33 41 53
35 43 55
36 43 54
30 37 47
31 38 48
34 42 53
33 41 53
32 40 52
34 41 53
33 40 51
30 37 47
32 40 51
34 41 52
34 43 55
32 39 49
35 43 56
35 43 56
28 34 44
33 40 52
32 39 51
36 44 56
37 45 57
29 36 47
37 45 57
38 47 60
36 44 56
30 37 47
32 40 51
30 37 47
37 45 56
33 41 52
29 35 45
34 41 51
33 41 51
36 45 57
36 45 58
34 42 53
34 42 53
32 39 50
34 42 53
41 50 65
35 43 55
36 44 55
33 40 52
35 43 55
30 37 48
38 47 60
34 42 54
30 37 47
34 41 52
35 43 55
34 42 55
30 37 48
35 44 56
36 44 57
40 49 62
37 46 59
38 47 61
36 44 56
34 42 54
36 44 56
35 42 53
35 42 53
37 45 57
40 49 62
36 45 58
35 43 55
34 41 52
34 43 55
29 36 47
33 41 53
35 43 55
36 44 57
32 39 50
29 36 47
35 43 55
39 48 60
36 44 56
35 42 54
37 45 58
33 40 51
36 44 58
39 48 62
36 44 56
35 42 54
37 46 58
38 46 58
37 45 57
34 41 53
36 44 57
41 49 62
37 46 59
35 44 56
30 36 46
38 46 59
36 44 56
39 48 60
31 39 50
36 43 55
31 38 49
44 53 66
31 39 52
37 46 58
34 41 52
38 46 59
34 43 55
44 53 66
36 44 56
34 42 52
37 46 59
35 43 55
37 46 59
33 40 51
34 42 53
43 53 68
31 38 49
34 42 54
39 47 61
34 42 53
33 40 51
29 36 46
37 45 59
34 42 54
34 42 54
34 42 55
33 41 52
34 41 53
38 47 59
32 39 50
34 42 54
35 43 55
28 35 45
33 40 52
32 39 50
39 48 62
32 39 50
34 42 54
33 40 50
30 37 47
35 43 55
31 38 48
28 34 43
34 41 51
30 36 46
28 35 46
34 42 54
32 40 52
33 40 52
31 38 48
29 36 46
34 42 54
32 39 50
30 38 49
30 36 45
29 35 45
36 44 56
32 39 49
30 37 47
32 40 51
35 42 54
34 43 56
31 38 49
30 37 47
28 35 45
27 33 42
32 39 49
27 34 43
34 41 52
26 31 40
24 30 39
24 30 39
31 37 47
27 34 44
26 32 41
31 38 48
27 34 43
27 33 43
28 35 44
27 33 43
30 37 47
27 34 43
30 37 46
25 31 40
26 32 41
25 31 39
24 29 37
23 28 35
22 27 35
23 28 36
27 34 43
29 36 46
21 25 32
27 33 42
22 26 33
24 29 37
20 25 32
22 27 35
25 30 38
20 24 31
17 21 27
19 23 29
21 26 32
18 22 28
19 23 29
19 24 30
13 15 19
16 20 25
18 22 28
18 23 29
14 17 21
11 14 18
13 16 20
14 17 22
12 15 19
14 17 22
31 39 49
34 41 52
34 42 53
30 36 46
31 38 49
37 46 60
34 42 54
34 42 53
33 41 53
35 43 55
40 50 64
34 41 53
37 46 58
42 51 65
41 50 64
35 43 55
35 42 54
39 48 62
42 52 67
38 46 58
38 47 60
38 46 59
36 44 57
38 47 61
37 46 58
40 49 62
34 42 54
38 47 60
34 42 54
36 43 54
41 51 65
32 40 51
46 56 71
36 44 57
37 46 58
35 43 54
38 46 59
41 50 64
34 42 55
38 47 61
41 50 65
36 46 59
43 53 67
36 44 55
40 49 62
33 40 52
39 49 63
40 49 63
40 48 61
37 45 57
35 43 55
38 47 61
38 47 61
39 48 61
44 54 69
40 48 61
40 49 62
35 43 55
35 42 53
37 47 61
38 46 59
33 40 51
37 45 58
38 46 59
42 52 66
44 54 69
34 43 55
41 50 62
40 49 63
37 46 59
45 55 70
41 51 66
41 50 65
34 43 55
44 53 67
32 40 51
39 47 60
37 46 59
40 50 64
38 47 60
40 50 64
37 46 58
40 49 62
40 49 62
38 47 60
41 50 64
41 50 64
34 42 53
35 43 55
35 42 54
42 51 65
44 53 67
45 55 70
38 46 59
35 43 55
33 40 52
34 41 53
42 50 63
40 50 64
35 44 56
42 52 67
35 43 56
41 50 63
37 46 59
35 43 54
43 53 68
37 45 57
43 53 68
35 44 57
42 51 65
37 45 58
33 41 52
31 38 49
41 50 64
36 45 58
32 38 49
33 42 54
32 39 49
32 39 50
34 42 54
33 40 51
24 29 38
12 15 19
13 16 20
18 21 27
13 15 19
17 20 26
14 17 22
15 18 22
13 16 20
18 22 28
20 25 32
15 19 23
18 23 29
21 26 33
21 25 32
18 22 27
20 24 30
20 25 32
24 29 37
25 30 38
23 29 36
23 28 35
21 26 33
28 34 43
24 28 36
21 26 34
24 30 39
29 35 45
22 27 34
24 29 38
29 36 46
23 28 36
26 32 41
24 29 38
28 34 43
26 32 41
24 30 39
28 34 43
24 30 40
28 34 44
30 37 47
27 33 42
27 34 43
29 36 47
31 37 48
27 33 42
29 36 46
29 36 46
27 33 42
30 37 48
29 36 46
27 33 43
33 40 51
30 37 48
34 41 52
30 37 48
28 34 43
26 32 40
28 35 45
28 35 45
34 41 53
27 34 45
27 34 43
30 37 47
32 40 50
28 35 44
31 39 50
28 34 44
29 36 46
33 40 51
37 45 57
28 34 44
36 43 55
25 31 40
31 38 49
30 37 47
34 41 53
37 45 56
36 44 57
31 39 50
37 45 57
35 43 55
35 43 54
34 42 55
36 44 56
40 49 62
37 46 58
32 39 51
37 45 58
32 40 51
35 44 56
36 44 55
32 39 50
33 40 52
37 46 59
33 41 52
37 46 59
31 39 50
32 39 50
38 47 60
36 45 57
37 45 58
33 41 53
32 39 51
30 37 47
31 38 48
36 44 56
38 46 58
35 43 55
34 42 53
35 43 55
35 43 56
39 48 61
34 42 53
37 45 58
34 42 53
31 38 49
34 42 54
35 43 55
36 44 57
31 38 48
33 41 53
35 43 55
40 48 61
38 47 60
35 44 56
42 51 65
37 45 57
34 42 55
37 45 57
45 55 70
38 46 58
36 45 57
32 39 49
36 45 59
39 47 59
38 47 60
35 43 56
30 37 47
39 47 60
35 43 55
32 40 51
34 41 53
35 44 57
34 42 53
42 51 66
36 45 57
31 39 50
37 46 59
33 41 52
36 44 57
36 45 57
46 57 73
34 41 52
40 50 63
36 45 57
32 39 50
32 39 50
37 46 58
36 45 57
34 42 54
38 47 60
30 38 49
36 45 58
37 46 59
35 44 58
31 38 49
35 43 56
35 43 56
36 45 57
30 37 48
36 44 56
35 43 55
29 36 46
36 44 56
38 46 58
32 39 49
39 48 61
33 41 52
37 45 56
33 41 52
38 47 59
39 48 60
40 49 63
32 39 50
33 40 52
37 45 58
32 40 52
29 36 46
35 43 55
34 42 53
38 47 60
31 38 49
35 43 56
35 42 54
34 43 55
29 35 46
37 45 57
35 43 55
32 40 51
34 41 52
30 37 47
34 42 54
38 47 60
31 38 50
34 42 54
32 40 51
25 31 39
31 38 49
36 44 56
33 41 52
30 37 48
31 39 50
38 47 60
31 38 49
34 42 53
30 36 47
29 36 46
28 34 44
31 39 50
30 36 46
31 38 48
26 33 43
22 27 33
28 35 46
31 38 48
29 35 45
29 35 46
27 33 43
25 31 39
26 32 42
29 36 46
27 33 42
30 37 48
26 31 40
29 36 47
25 31 40
27 33 42
29 36 46
30 36 46
28 35 44
22 27 34
26 32 41
22 26 33
30 37 47
27 32 41
28 36 47
24 29 38
24 29 37
26 32 42
22 27 35
24 29 38
27 34 44
21 25 32
19 24 30
26 31 39
16 20 26
26 33 42
23 29 36
21 25 33
17 21 28
20 26 33
20 25 31
13 16 21
13 16 20
19 23 30
16 19 24
17 20 26
16 20 25
15 18 23
17 21 27
17 21 26
19 23 29
12 15 19
13 15 19
14 17 21
13 16 20
14 17 21
16 19 24
25 31 40
31 38 49
34 42 54
27 33 43
32 39 50
33 42 54
32 40 51
41 50 64
37 46 59
32 40 53
36 45 58
34 41 53
33 40 51
43 53 68
36 44 55
37 44 55
37 46 59
29 36 47
45 54 69
35 43 54
40 49 63
37 45 57
39 48 61
40 48 62
42 52 66
35 44 56
38 47 59
39 48 62
39 48 61
41 50 63
36 44 56
41 51 65
40 49 62
38 46 59
44 53 67
39 48 62
35 43 56
41 50 63
39 48 62
41 51 66
39 47 60
40 49 62
36 43 55
39 48 62
36 44 56
38 46 59
36 44 57
33 40 51
37 46 58
40 49 63
39 48 62
36 45 57
32 39 50
36 44 55
38 47 61
40 49 63
38 47 59
42 52 66
39 48 61
38 46 58
39 48 60
43 52 65
37 45 58
38 46 59
39 47 60
38 46 59
35 43 55
38 46 58
32 40 51
40 49 62
42 51 64
36 44 56
37 46 59
42 52 67
37 46 58
40 49 63
36 44 56
34 42 55
35 43 55
42 52 66
40 49 62
35 43 55
41 51 66
39 48 62
38 46 58
33 40 52
37 45 58
37 46 59
41 50 64
37 46 59
36 45 57
34 42 54
43 53 68
37 45 58
38 46 57
37 46 59
35 42 53
34 42 55
39 47 60
35 43 55
37 45 57
35 44 56
43 52 67
39 48 60
39 48 62
34 42 54
33 41 52
36 44 57
32 40 52
35 43 55
31 38 48
36 44 57
32 40 51
35 42 53
35 43 56
35 44 56
31 38 49
33 41 52
35 43 55
30 37 47
29 36 46
23 28 36
18 22 27
13 16 20
11 14 17
12 15 19
14 17 21
16 19 24
16 19 24
15 18 23
22 26 33
16 20 26
19 23 30
19 23 30
17 20 26
18 22 28
17 20 26
18 22 28
21 26 33
18 22 28
24 30 38
19 24 30
24 29 37
20 24 30
25 31 39
16 20 25
25 30 38
24 30 39
26 32 41
24 29 37
25 31 39
27 34 43
22 28 37
27 34 43
23 28 35
25 30 39
28 35 44
32 39 50
26 32 41
24 30 39
29 36 45
28 35 44
21 27 34
24 30 39
29 36 46
26 31 40
29 36 45
24 30 39
26 31 40
29 35 44
30 37 47
29 35 45
23 28 37
32 39 51
31 38 50
31 38 48
31 38 50
31 38 49
28 34 44
23 28 36
30 37 48
28 34 44
28 34 44
31 38 48
33 40 51
32 40 52
29 35 45
30 37 48
27 33 43
31 38 50
30 38 49
31 38 48
30 37 48
32 39 50
36 43 54
31 38 49
33 41 52
34 42 53
35 43 54
36 45 59
28 34 42
33 41 52
34 42 53
29 36 46
32 39 51
32 39 50
27 33 42
30 37 47
33 41 52
34 42 53
31 39 51
39 48 61
35 43 55
39 47 59
31 38 49
31 39 50
35 42 54
36 45 58
37 46 58
29 36 46
35 42 54
33 39 50
32 40 51
30 37 48
36 45 57
36 44 56
37 46 58
32 40 50
34 42 54
36 45 57
37 46 59
38 47 60
37 45 57
34 42 54
34 41 52
32 39 50
40 48 61
37 45 56
36 45 58
28 35 45
33 41 53
35 43 56
34 41 53
36 44 56
37 46 59
33 40 52
37 46 58
39 48 62
40 48 61
37 45 58
33 41 53
41 50 63
34 42 54
33 40 50
37 45 57
35 43 55
37 46 59
36 44 56
32 40 51
35 43 55
38 47 61
40 49 63
36 45 58
36 44 56
38 47 59
35 43 55
36 44 56
41 50 63
37 45 57
36 45 58
40 49 63
35 43 55
42 51 65
32 39 51
32 40 52
33 41 52
35 43 56
38 46 58
41 50 65
34 42 54
33 40 51
39 48 61
41 50 64
38 47 60
28 34 44
37 46 59
33 40 51
36 44 56
42 52 67
37 46 58
34 42 54
35 43 54
39 48 62
38 46 58
37 45 58
36 45 57
33 41 52
30 37 48
30 37 46
37 45 58
37 45 58
31 38 48
35 44 57
32 39 49
39 48 62
32 39 51
34 41 53
37 45 58
41 50 63
38 46 59
32 39 50
35 43 54
36 44 56
34 41 52
35 43 55
29 36 46
28 34 44
35 42 54
36 44 56
34 41 52
40 50 63
34 43 55
32 38 48
27 33 42
26 32 41
35 43 55
36 44 57
36 44 56
30 37 48
29 35 45
31 38 48
29 36 45
34 41 53
35 44 56
34 41 53
27 34 44
37 46 58
27 33 42
31 38 48
26 33 42
29 36 46
26 32 41
30 37 48
29 36 46
30 37 47
28 35 44
27 33 43
29 37 48
34 41 51
29 36 46
29 35 44
30 37 48
29 36 46
29 36 46
25 30 39
27 34 43
28 35 44
29 35 45
30 37 47
24 29 38
24 29 37
23 28 36
26 32 41
28 35 46
25 30 38
30 37 47
29 36 46
24 30 38
26 32 40
31 38 49
25 31 40
21 26 33
24 30 38
26 32 41
28 33 42
25 31 39
20 25 32
22 27 35
22 28 35
21 25 32
22 26 33
22 28 35
19 23 30
17 21 27
18 22 28
17 21 27
14 17 21
15 18 23
16 20 26
17 21 27
13 16 21
17 21 26
14 17 22
15 18 23
15 18 23
18 21 26
15 18 22
16 19 24
17 20 26
14 17 21
21 26 33
32 39 50
33 41 52
28 35 44
39 46 58
33 41 52
34 41 52
34 42 55
36 45 58
35 43 55
35 43 56
36 44 56
35 43 54
39 49 63
34 42 53
37 47 60
37 47 60
35 43 55
39 48 62
38 47 60
40 49 61
40 49 62
37 45 58
37 45 57
39 47 61
43 52 66
36 45 57
31 38 50
40 49 62
39 48 62
37 46 60
35 43 55
38 46 58
40 48 61
38 47 60
35 43 55
36 45 57
35 44 57
35 43 56
34 43 55
40 49 62
38 46 58
34 42 53
37 46 59
41 50 63
33 40 51
37 46 59
39 48 62
38 46 59
43 53 68
40 50 64
39 47 60
37 45 57
38 46 59
43 52 66
37 45 57
39 48 60
39 49 63
46 56 71
46 55 70
41 51 65
42 52 67
39 47 60
37 45 58
35 43 54
36 44 55
36 44 56
38 45 57
38 47 60
39 48 60
34 42 54
42 52 67
36 45 58
41 50 64
37 45 57
40 49 63
42 52 66
34 42 54
37 45 57
38 46 59
35 43 55
40 49 62
37 46 59
32 40 51
37 46 59
41 50 64
42 52 67
37 45 57
38 47 60
39 48 61
34 42 54
41 50 64
33 40 50
41 50 63
35 43 55
40 49 62
42 51 66
38 47 60
40 48 62
40 49 63
42 52 66
38 48 61
32 39 50
37 46 59
38 47 61
32 40 50
39 48 61
32 40 52
35 43 55
31 39 49
35 43 56
39 48 61
36 45 58
34 42 53
33 41 52
35 42 53
36 44 57
38 48 61
27 33 43
34 42 53
30 37 47
17 21 26
12 15 19
15 18 23
11 14 18
12 15 19
13 16 20
15 18 22
20 24 30
15 18 22
16 20 26
16 20 25
16 20 25
14 18 23
18 22 28
14 18 23
19 23 29
17 21 27
18 22 28
21 26 33
19 23 29
20 24 31
24 29 38
21 26 32
20 25 31
22 27 34
25 31 40
24 30 38
23 28 36
25 31 39
24 30 38
25 31 39
23 27 35
21 27 35
26 32 40
22 27 35
23 28 36
25 31 39
27 33 43
27 34 43
29 36 47
24 30 39
25 30 38
23 28 35
28 34 43
27 34 44
25 30 38
30 37 46
34 42 54
24 29 37
33 40 52
33 40 52
29 36 45
26 32 41
31 38 49
29 36 45
26 33 43
25 31 40
29 35 45
30 38 48
31 39 49
29 36 45
28 34 44
30 37 47
29 35 45
36 44 57
27 32 41
33 40 52
27 33 42
30 37 48
27 34 43
33 41 52
34 42 54
30 37 47
30 37 48
32 38 49
29 36 47
33 41 53
32 39 50
38 47 61
33 40 52
34 42 53
29 36 46
35 43 54
39 47 59
38 47 60
29 36 46
33 40 51
37 45 58
36 44 56
35 43 54
32 40 52
40 49 63
36 44 56
32 40 51
30 37 48
35 43 56
36 45 57
37 45 57
32 39 50
30 37 48
33 41 53
31 38 49
38 46 58
31 39 50
34 42 53
34 42 55
29 35 45
33 40 52
37 46 58
35 43 53
33 41 53
35 44 58
34 42 54
34 41 53
33 40 52
35 42 54
36 43 55
36 45 58
33 40 52
37 45 56
35 43 56
35 42 54
38 46 59
37 46 59
32 39 50
34 42 54
32 39 50
37 45 57
31 38 49
36 44 56
33 41 53
40 49 63
31 38 49
29 36 46
35 43 55
33 41 53
34 43 55
32 40 51
33 40 51
35 42 54
38 47 59
38 47 60
34 41 53
35 43 55
36 45 57
39 47 60
39 48 62
39 48 61
39 47 60
37 45 57
33 40 50
36 44 57
42 51 66
39 48 61
37 46 59
39 48 61
33 41 52
40 50 64
41 50 64
34 42 54
41 50 63
38 47 60
44 53 67
33 42 54
31 38 49
38 46 59
34 42 55
35 43 56
38 46 59
41 50 64
30 37 48
36 45 57
37 46 59
32 39 51
36 45 57
37 45 58
37 45 58
40 49 63
35 43 54
39 47 60
34 41 53
34 42 54
33 40 52
30 37 48
29 36 46
34 41 53
35 43 55
34 42 53
36 45 57
30 37 47
37 45 58
30 37 48
36 45 58
30 37 46
33 41 53
31 38 49
31 39 49
29 36 46
32 40 52
32 40 52
32 40 52
35 44 56
37 46 59
33 40 50
36 44 57
33 41 52
39 47 60
36 44 56
30 37 49
28 34 43
27 33 42
31 39 49
34 41 52
33 40 52
33 41 52
34 42 54
28 34 44
31 38 49
28 35 45
31 38 49
32 39 50
28 34 43
28 34 42
32 40 51
28 34 42
31 37 47
31 38 48
26 32 41
25 32 41
29 36 46
28 35 44
22 27 34
31 39 50
21 27 34
30 37 46
32 39 51
28 35 45
23 29 37
29 36 46
27 33 42
28 34 43
27 33 42
29 36 47
22 27 35
27 34 43
25 30 39
26 32 40
24 29 38
29 35 44
22 27 34
23 28 35
22 27 34
25 30 37
21 26 32
21 26 33
23 28 35
23 28 36
23 28 36
21 26 33
26 32 41
19 23 29
22 26 33
16 20 25
18 22 29
20 25 32
18 21 27
18 22 29
16 20 25
17 21 26
19 23 30
14 17 22
15 18 23
15 18 23
16 19 24
15 18 23
18 23 29
18 22 27
13 16 20
18 21 27
14 17 21
25 31 39
29 35 45
31 38 49
35 43 55
36 44 56
30 37 48
36 44 56
40 49 62
38 47 60
35 42 52
39 48 62
34 41 52
33 41 53
36 45 57
40 49 63
39 48 61
36 44 56
36 44 56
35 43 55
44 54 69
46 56 71
38 46 58
42 52 67
39 48 62
44 54 69
38 47 59
38 46 59
35 44 56
38 46 58
42 51 65
41 50 64
39 48 62
38 46 60
36 44 57
37 46 59
32 40 52
33 41 52
36 44 56
36 45 57
36 44 56
38 47 60
40 49 63
34 42 54
41 50 65
36 44 56
35 42 53
44 53 68
40 49 63
39 48 62
40 49 62
36 44 57
39 48 60
39 47 60
36 44 55
39 48 61
40 49 62
40 49 63
40 49 62
33 40 51
40 49 63
36 44 56
38 47 60
35 43 54
45 54 68
36 44 56
40 48 61
39 48 61
39 49 63
40 49 62
40 49 62
41 50 64
38 46 59
36 44 57
42 51 64
35 43 55
37 46 59
39 48 62
39 48 61
37 46 59
39 48 60
39 47 60
41 51 65
41 51 65
42 51 66
39 49 63
35 43 54
39 48 61
32 39 50
39 47 60
35 43 55
36 44 57
37 46 59
39 47 60
36 45 58
34 42 54
36 45 58
41 50 64
40 48 60
40 49 63
39 48 61
35 43 55
41 50 65
39 48 61
39 47 59
38 47 60
37 45 58
37 46 58
40 49 62
32 39 50
34 42 54
37 45 57
29 36 46
33 40 51
37 45 57
32 39 50
32 39 50
34 41 52
32 40 50
35 43 55
28 34 44
16 20 25
15 18 23
14 17 22
12 14 18
17 21 26
16 19 23
13 16 20
23 27 34
16 20 25
17 20 26
18 22 28
13 16 20
17 21 27
19 23 29
20 25 32
21 26 33
10 13 16
25 30 38
23 28 35
16 20 25
19 23 29
23 29 37
23 27 35
21 26 33
24 29 38
25 31 40
22 27 34
24 30 39
26 32 41
26 31 40
24 29 37
30 36 46
28 34 44
27 33 42
26 32 41
25 31 39
32 39 49
24 30 39
30 38 50
31 38 48
23 29 37
29 36 46
28 34 44
25 30 39
30 37 47
31 38 48
24 30 38
30 36 47
32 39 50
24 30 38
28 34 44
25 30 38
33 40 50
24 30 38
31 39 49
28 35 44
24 29 37
28 34 43
31 38 48
29 35 45
33 40 51
29 36 46
27 34 43
33 41 53
30 37 47
29 36 45
32 41 53
30 37 47
31 38 48
32 39 50
32 39 50
28 35 44
30 36 47
34 42 54
28 35 45
32 41 53
34 41 52
31 38 49
32 39 50
35 43 55
29 36 46
34 41 52
28 34 43
35 44 56
33 41 52
37 46 58
32 39 51
32 38 49
38 46 58
38 46 58
39 48 61
34 41 52
30 37 48
34 41 52
35 43 56
37 45 57
32 39 50
41 50 65
34 41 53
28 35 45
35 43 55
35 43 55
33 40 51
31 37 47
32 39 51
33 40 52
34 42 54
31 38 49
31 38 49
29 36 46
36 44 55
30 37 48
34 42 53
33 42 54
35 43 56
38 46 58
39 48 61
39 47 59
36 44 57
40 49 62
39 48 61
35 43 55
33 41 53
35 42 54
32 39 50
34 41 52
32 39 50
36 44 55
39 48 61
31 38 48
38 47 59
35 42 53
36 44 56
32 39 50
35 44 56
35 42 54
37 45 57
36 45 58
36 44 55
29 36 46
37 46 59
34 42 53
35 43 55
37 46 59
30 37 48
39 47 60
36 44 57
39 48 62
37 45 58
36 43 55
30 37 48
37 45 57
42 51 64
34 42 53
39 48 61
42 52 66
34 41 53
29 36 46
30 36 46
37 46 59
37 46 59
38 46 58
38 46 59
35 43 55
36 44 57
36 43 55
34 42 53
37 45 56
36 44 56
34 42 53
30 37 48
38 46 59
43 53 68
32 39 50
34 42 54
36 45 57
37 45 57
33 40 51
33 40 52
37 45 58
33 41 54
36 44 55
34 43 55
29 35 45
36 44 55
34 42 54
34 42 55
35 43 55
40 49 63
34 42 54
34 42 53
41 50 64
33 41 52
34 42 53
31 37 48
33 40 50
32 38 48
28 34 43
30 37 48
37 46 60
37 45 58
35 43 54
31 37 47
29 36 45
30 37 47
36 43 55
29 36 46
31 38 49
31 38 49
32 40 51
34 42 54
35 43 55
29 35 45
34 41 52
25 30 39
38 47 61
36 44 57
33 41 52
23 28 35
31 38 49
29 36 46
30 36 46
30 37 47
26 32 41
27 33 42
31 39 49
31 38 48
27 33 42
31 38 48
27 33 42
29 36 46
28 34 44
30 37 47
27 34 44
26 32 40
22 28 36
26 31 40
28 35 45
27 33 42
26 32 41
22 27 34
30 37 48
28 34 45
26 32 41
23 28 35
26 32 41
29 36 45
26 31 39
24 29 37
26 32 40
29 35 45
22 27 35
20 24 31
21 26 33
20 25 32
24 29 38
22 27 35
23 29 37
24 29 38
22 26 33
19 24 30
21 26 33
19 23 29
15 18 23
19 23 29
20 24 30
18 22 29
16 19 24
20 25 31
19 23 29
18 22 27
17 20 26
13 15 19
15 18 22
13 16 20
11 14 17
13 15 20
14 17 21
13 16 20
19 23 28
25 31 39
28 34 44
36 44 56
34 43 55
34 42 55
31 38 49
32 39 50
37 45 57
32 39 51
36 44 56
36 44 56
36 44 57
39 48 61
38 46 59
47 57 73
33 41 51
36 45 57
32 39 50
37 45 57
39 48 61
42 51 64
35 43 55
36 44 56
35 44 57
39 48 61
34 41 52
36 44 56
42 51 66
37 45 57
35 43 56
39 47 61
38 47 61
42 51 66
39 48 62
40 49 63
36 44 56
47 58 73
36 44 57
35 43 55
41 50 64
34 42 55
34 43 56
38 47 61
40 49 62
38 46 58
42 51 65
36 44 57
36 44 56
36 44 56
38 47 60
38 47 60
36 44 55
41 49 63
33 41 54
37 45 58
42 51 64
37 46 58
34 42 53
41 51 66
39 49 62
38 48 62
38 46 58
32 39 49
33 41 53
42 51 65
33 41 54
37 45 58
39 49 63
35 43 55
35 43 55
31 38 49
36 45 58
38 46 59
39 47 60
39 47 61
39 48 62
38 47 59
35 43 56
31 38 49
35 43 55
34 41 52
40 49 63
38 47 61
45 55 69
37 45 57
36 44 56
36 43 54
37 45 58
36 44 57
39 48 61
40 49 62
38 47 60
37 45 57
37 45 57
43 52 66
39 48 62
42 52 66
41 50 64
34 42 54
33 40 52
35 43 55
32 40 51
39 48 61
36 44 57
34 42 53
38 46 59
35 42 53
34 41 52
32 40 51
35 44 56
36 45 57
37 46 59
38 47 60
37 45 57
31 38 49
36 44 56
34 41 53
31 39 50
25 30 39
24 30 38
16 19 24
16 20 25
11 14 17
15 19 24
15 17 21
16 20 25
14 17 22
17 21 27
15 18 23
15 18 23
17 21 27
14 17 22
15 18 23
23 28 35
20 24 30
18 22 28
16 20 25
17 21 26
20 25 32
17 21 26
20 25 31
21 25 32
28 34 42
24 29 38
22 27 34
17 20 25
25 30 39
18 22 29
23 28 35
30 37 47
26 31 40
22 27 35
26 33 42
26 31 40
21 26 33
27 33 41
27 34 44
27 33 42
27 33 42
28 34 43
23 29 38
29 35 45
29 36 46
33 40 51
27 33 43
26 32 40
29 36 46
29 36 46
33 40 51
31 38 48
32 39 49
27 33 42
26 32 41
27 33 41
29 35 45
30 37 48
29 36 46
35 43 55
35 43 55
27 33 42
26 32 40
28 35 44
33 40 51
29 35 45
31 38 48
31 38 49
30 36 46
28 35 45
37 46 58
29 36 47
36 44 56
35 42 53
31 38 49
35 42 54
30 37 47
28 34 44
32 39 50
31 38 49
34 41 52
36 43 55
29 36 46
39 47 61
29 36 47
32 39 49
32 39 50
31 38 49
33 41 52
35 43 54
32 39 51
33 40 52
32 39 51
31 39 50
26 32 42
35 43 56
38 46 58
40 48 61
38 46 57
34 42 53
33 41 52
34 42 53
28 34 44
30 37 48
31 38 49
39 47 60
39 47 60
37 45 57
33 41 52
38 46 59
36 44 56
39 48 62
36 44 56
37 45 58
35 43 55
37 45 57
33 41 53
33 41 52
28 34 43
30 37 47
30 36 46
30 36 47
30 37 48
35 44 57
34 42 55
35 44 56
38 46 59
36 44 55
37 45 58
30 37 48
35 43 55
34 42 53
37 45 58
32 39 49
37 45 58
30 37 47
33 40 52
38 47 59
38 47 60
35 43 55
38 46 58
39 48 60
35 42 54
37 44 56
32 40 51
34 41 52
35 42 54
35 43 55
38 46 59
39 47 60
37 45 56
32 40 51
36 44 56
39 48 62
35 43 54
37 45 58
36 43 55
34 42 54
38 47 59
34 41 53
37 45 57
39 48 62
38 46 59
34 41 52
29 36 46
39 48 61
37 46 58
36 44 56
32 40 50
31 38 49
34 42 53
34 42 54
33 41 53
33 40 52
34 41 52
37 45 58
35 43 55
33 41 52
35 43 55
37 45 58
28 35 45
35 42 54
34 42 54
38 47 60
27 34 44
35 43 56
40 48 61
36 45 58
33 41 53
37 46 58
33 40 51
32 40 51
38 47 60
34 42 53
36 44 56
36 44 56
33 41 52
34 42 54
40 50 63
30 37 47
32 39 50
31 37 47
33 42 54
36 44 57
29 36 47
35 43 55
33 40 51
32 39 49
30 38 48
34 42 54
37 45 58
30 36 46
29 37 47
30 36 46
33 41 52
30 36 46
32 39 50
35 43 55
35 42 54
35 43 55
28 34 43
29 35 46
32 39 50
33 40 51
28 34 44
27 33 43
26 33 42
33 41 51
32 40 51
25 31 40
31 38 48
25 30 39
29 35 45
27 34 43
23 28 36
30 37 47
30 37 47
24 29 37
24 29 37
27 33 43
22 27 34
26 32 40
28 34 43
27 34 44
27 33 42
23 28 35
27 33 42
22 27 35
24 30 38
25 31 40
21 26 33
24 30 39
25 30 39
20 25 32
27 34 43
24 29 37
26 32 42
19 23 30
25 30 39
17 21 27
23 28 36
20 24 30
18 22 29
17 21 27
22 27 34
22 27 35
16 20 25
17 21 26
20 24 30
15 19 23
17 20 26
19 23 30
17 21 26
13 17 22
15 18 23
12 15 19
18 22 27
19 23 28
16 19 23
21 25 31
14 17 22
14 17 21
44 54 70
30 37 46
30 37 46
30 37 46
32 39 50
37 45 56
35 43 54
33 41 52
33 41 53
38 47 60
36 44 57
32 39 50
37 45 58
37 45 58
37 45 57
32 40 51
36 45 57
36 45 58
34 41 51
36 44 56
37 46 59
32 39 49
38 47 60
43 52 67
38 47 60
38 47 60
35 43 54
37 46 59
40 49 62
37 45 57
37 46 60
34 42 53
41 51 65
38 46 58
35 42 54
39 48 62
35 43 56
39 48 62
34 42 54
36 46 59
39 47 60
38 47 59
36 44 56
33 41 52
38 47 60
38 47 60
36 44 56
39 48 61
40 48 61
34 41 53
42 51 65
40 49 62
39 48 62
42 51 66
37 45 57
35 43 55
38 46 59
40 49 63
43 53 67
40 49 62
33 41 52
39 48 61
38 47 60
40 49 61
37 46 58
37 46 59
37 46 59
38 46 58
37 45 56
39 47 60
37 46 59
40 49 63
42 52 65
40 49 63
46 56 71
33 40 51
37 46 58
43 52 66
40 49 61
40 49 62
34 42 55
33 40 52
39 47 60
39 48 61
42 52 65
41 51 64
43 53 66
38 46 59
38 47 60
35 43 55
38 47 60
45 54 69
41 50 64
40 49 62
36 44 57
36 44 56
42 52 66
41 50 65
35 43 55
36 45 58
35 43 54
47 57 72
38 47 60
41 50 64
31 38 48
35 42 54
39 47 60
38 46 60
36 45 57
43 53 68
33 40 52
34 42 54
36 44 57
39 48 61
30 36 46
35 44 57
30 37 47
30 37 47
33 40 52
52 64 82
17 20 25
14 17 21
14 17 21
15 18 22
12 15 18
17 21 26
17 20 25
20 23 29
15 18 23
19 23 30
18 22 28
17 21 27
19 23 29
14 18 22
19 24 30
24 29 37
15 18 23
13 16 21
18 21 27
18 22 29
23 28 36
19 23 29
20 24 31
22 27 35
25 31 39
22 27 34
17 21 26
23 28 36
24 30 38
19 24 31
26 32 40
25 31 40
21 27 34
28 34 44
23 28 36
26 32 41
26 32 41
29 35 44
24 29 37
33 40 51
29 36 45
27 34 44
28 34 44
30 37 47
27 33 42
26 32 41
27 33 42
23 29 37
29 35 45
30 38 49
30 37 47
35 42 53
30 37 47
29 35 44
27 33 42
29 35 45
29 35 45
28 34 44
30 36 47
28 34 43
26 32 41
32 39 49
26 32 42
31 38 48
30 37 48
28 34 43
29 36 46
29 36 46
36 44 56
32 39 50
29 37 48
33 41 52
28 35 46
25 30 39
31 38 49
38 46 59
30 37 48
27 33 42
30 37 48
34 42 53
30 37 47
31 39 50
32 39 50
33 39 50
31 38 49
31 38 49
29 36 46
30 37 48
37 46 58
32 39 51
33 40 51
36 44 57
36 45 58
34 42 53
32 40 51
39 47 59
33 40 52
31 38 49
36 44 57
37 46 59
32 39 51
28 34 43
33 40 50
36 44 57
34 42 54
36 45 57
37 46 58
31 38 49
35 43 56
31 37 47
34 42 54
38 47 59
32 40 51
33 40 52
31 39 51
31 38 49
31 38 49
41 51 65
34 42 54
37 45 58
29 35 45
37 46 58
30 37 48
35 43 54
38 46 58
41 50 64
28 34 44
36 44 56
30 37 46
30 36 46
36 45 57
32 40 50
36 44 56
38 46 59
36 44 56
38 46 59
36 44 57
34 42 54
37 46 60
38 46 58
35 43 55
34 42 54
37 45 57
36 44 57
31 38 48
36 44 56
29 35 45
34 42 53
35 43 54
36 44 56
41 49 62
37 46 58
35 43 56
32 39 50
31 39 50
38 47 60
30 36 46
36 44 57
34 42 53
38 46 59
45 54 69
37 45 56
42 51 66
35 43 54
33 40 51
35 42 54
34 41 53
37 45 57
33 42 54
34 41 53
34 42 53
29 36 47
32 39 50
33 40 52
32 39 50
34 41 52
40 48 61
35 43 55
31 39 49
35 43 56
34 42 53
34 42 53
30 37 47
36 43 55
36 45 57
31 38 48
32 38 48
31 39 50
31 37 48
31 39 50
34 41 53
32 40 51
36 45 57
30 37 47
29 36 46
32 39 50
29 36 46
30 37 48
29 35 45
37 45 56
37 45 57
30 37 48
26 33 43
34 42 54
34 42 54
32 39 50
31 38 49
32 40 51
31 38 50
28 35 44
29 35 45
32 39 50
31 37 47
29 36 46
28 35 45
30 37 48
32 39 50
32 39 50
32 39 49
33 40 52
32 40 51
29 35 45
31 38 48
33 40 51
33 40 51
27 34 43
26 32 41
27 33 42
32 40 51
29 36 46
28 34 43
29 35 45
32 39 49
25 31 40
29 36 46
27 34 44
25 31 40
22 26 34
29 36 45
34 41 52
25 30 38
26 32 41
27 33 42
24 30 38
24 29 37
30 37 47
28 34 43
22 27 34
26 32 40
26 31 40
20 24 31
20 24 31
22 26 34
23 29 38
22 28 35
22 27 34
26 32 40
22 27 35
15 18 23
18 22 28
19 23 29
24 29 37
19 23 31
23 28 35
19 23 29
16 20 25
19 23 29
16 20 25
19 23 28
19 23 29
15 18 23
14 17 22
14 17 21
15 18 23
18 22 28
17 20 25
17 20 25
15 17 22
20 24 30
42 52 66
61 77 100
37 47 61
29 35 45
29 35 45
30 36 47
30 38 49
32 39 49
32 39 50
36 44 57
38 46 58
38 47 60
34 42 54
38 47 60
37 46 59
29 36 46
38 47 60
34 42 54
34 43 55
38 47 60
32 40 51
39 48 62
39 48 62
39 47 59
37 46 59
39 48 61
40 49 62
37 45 58
39 47 60
35 42 54
39 47 61
41 50 65
39 48 61
35 43 55
37 46 59
35 43 54
41 50 64
39 48 62
36 44 56
40 49 62
36 44 56
39 47 60
42 52 65
39 47 60
39 48 62
37 46 59
37 44 56
36 44 57
41 50 63
48 58 73
36 43 55
42 51 65
36 45 57
40 49 62
34 42 54
36 45 57
39 48 62
36 44 56
39 48 61
41 50 64
37 46 58
39 47 60
41 51 65
36 44 56
42 52 67
34 42 53
37 45 58
35 43 55
30 37 48
41 50 64
46 56 71
39 47 60
39 48 60
38 47 61
32 40 51
36 45 58
40 49 62
39 48 62
37 45 57
41 50 63
36 44 56
42 51 65
34 42 54
36 44 56
37 45 58
35 43 56
37 45 57
36 44 56
41 50 63
31 39 49
43 52 65
32 39 51
40 49 62
41 51 65
32 39 50
39 48 62
35 42 53
35 42 54
35 43 56
41 50 64
36 45 57
34 42 54
38 46 59
35 42 53
34 42 54
37 46 59
36 44 57
36 45 58
33 41 53
33 40 51
33 41 52
33 41 52
29 36 46
30 37 47
34 42 53
33 41 53
28 35 44
35 43 55
33 40 51
43 53 68
59 76 100
34 42 55
20 24 30
18 22 27
17 20 25
19 22 28
16 19 24
16 20 25
15 17 22
16 19 23
17 20 25
16 20 25
15 18 24
19 23 29
19 23 29
20 25 31
18 21 27
20 24 31
20 25 32
19 24 30
23 28 36
19 23 30
25 30 38
20 24 31
19 23 29
25 31 39
22 27 35
20 25 32
23 29 37
26 31 40
22 28 35
22 27 35
24 29 37
23 29 37
25 31 39
27 33 43
25 31 40
25 31 40
23 28 36
26 32 40
19 24 31
23 28 35
28 34 44
22 27 34
28 34 44
32 39 50
27 33 43
30 36 46
29 36 46
30 36 46
33 40 50
26 33 42
25 30 39
33 40 51
31 38 48
30 37 48
29 36 46
29 36 46
24 30 39
24 30 39
28 35 44
26 32 40
34 42 54
30 37 46
32 39 50
35 43 54
30 38 49
36 44 57
30 37 48
30 37 47
28 35 44
26 32 41
26 33 43
28 34 43
27 33 42
34 42 54
30 37 47
29 36 46
32 39 49
30 37 48
29 35 45
37 46 59
29 36 45
27 33 43
33 40 51
31 38 48
36 44 56
33 41 53
31 38 49
30 37 47
37 46 58
35 43 55
33 41 53
30 38 49
30 37 48
33 40 51
32 39 50
39 47 60
33 40 50
32 40 51
33 40 51
28 34 44
37 46 59
35 43 56
33 40 52
34 43 56
37 45 57
35 42 53
32 40 51
42 52 66
35 42 52
31 39 49
33 39 50
31 38 48
32 39 50
31 38 49
33 41 52
32 40 51
31 39 50
30 36 46
35 43 55
39 48 61
36 44 56
33 40 50
36 44 57
31 38 49
34 41 53
35 43 56
33 41 53
33 41 52
37 45 57
34 42 53
35 43 55
33 40 51
38 47 60
35 43 55
38 46 58
30 37 48
37 46 59
33 40 51
34 42 53
38 47 60
35 43 56
44 53 67
40 49 63
35 43 55
37 45 58
40 49 62
37 45 57
29 35 45
31 38 49
42 51 65
36 44 56
32 39 50
37 45 57
38 47 61
37 45 57
36 44 55
36 44 57
40 48 61
43 52 66
34 42 54
33 40 51
38 47 60
37 46 59
33 41 53
35 43 55
38 46 58
34 42 52
35 42 54
33 40 52
33 41 52
35 43 55
33 40 51
35 43 56
37 45 57
34 41 53
34 41 52
34 42 54
30 37 47
29 37 48
30 37 48
29 36 46
38 46 59
33 40 50
34 42 54
33 42 54
34 42 54
36 43 55
34 42 53
32 40 52
30 37 48
32 39 49
38 46 59
37 45 57
31 38 48
38 47 59
33 40 51
32 40 52
32 38 48
38 46 59
30 37 47
37 44 56
31 39 50
32 39 50
31 38 49
32 39 50
32 39 50
29 35 44
25 30 39
33 41 52
35 44 56
37 46 58
27 33 42
28 34 44
26 33 43
30 37 47
35 43 55
28 34 44
33 41 53
35 43 54
31 38 49
27 33 43
22 27 35
27 32 41
26 32 41
33 40 51
27 34 43
30 36 46
25 30 39
29 35 45
27 33 42
22 27 34
27 33 43
31 38 48
27 34 43
24 29 37
29 35 44
27 33 42
33 41 52
28 35 45
23 28 37
23 28 35
27 33 42
30 36 45
25 30 39
27 33 42
23 28 36
22 27 35
23 28 36
24 29 37
28 34 43
19 23 30
26 31 40
18 22 28
29 36 45
22 28 36
21 26 33
20 25 32
22 26 33
18 22 28
18 21 27
19 23 29
21 25 32
17 20 26
17 20 26
20 25 31
22 26 33
19 23 29
15 19 24
20 23 29
17 20 25
17 21 26
14 16 21
17 20 25
14 16 20
13 16 21
14 17 22
16 19 24
30 37 47
61 76 98
57 72 95
60 76 99
31 38 49
27 33 43
25 31 40
35 42 54
27 34 44
30 38 48
37 45 57
31 38 49
39 49 62
32 41 54
32 40 50
41 50 63
33 41 52
35 44 56
33 41 52
40 48 61
37 46 58
34 42 54
43 53 67
36 44 56
41 50 64
36 45 57
42 52 66
39 48 61
43 52 66
41 50 63
39 48 62
40 49 62
37 45 58
34 42 54
36 44 56
36 45 57
46 56 72
41 50 64
39 48 61
37 46 59
37 46 60
38 47 60
36 44 56
36 44 57
37 45 58
34 42 53
44 54 69
40 49 63
35 42 54
34 42 54
37 46 59
34 43 55
35 43 54
40 48 61
34 42 54
40 49 62
41 50 63
37 46 59
38 46 57
35 43 56
41 49 62
34 42 53
32 40 52
40 49 62
40 50 65
37 46 58
41 50 63
43 52 66
37 46 59
36 44 56
37 45 57
42 51 65
38 46 58
39 47 60
37 46 58
35 43 56
42 51 64
37 45 57
41 50 64
33 40 51
39 47 60
39 47 60
37 46 59
41 50 63
42 51 64
29 35 45
36 44 57
36 44 57
38 47 60
37 45 57
37 46 59
39 48 62
34 41 52
38 47 60
38 47 60
37 45 58
33 40 52
34 42 54
38 46 58
40 49 63
33 40 51
35 43 54
39 47 60
37 45 58
39 47 60
37 45 58
39 47 59
32 39 51
35 43 55
37 45 57
30 37 48
38 46 59
36 44 56
32 39 49
33 41 52
34 41 52
30 37 47
33 40 51
31 38 49
29 35 45
58 72 93
62 77 101
58 74 97
27 34 43
17 21 26
16 19 24
17 20 25
18 22 27
10 12 15
14 17 21
12 15 19
18 22 27
16 20 25
18 21 27
16 19 24
21 25 32
21 26 33
17 21 26
21 25 32
22 27 34
18 22 27
23 28 36
21 25 32
15 18 23
21 26 33
25 31 39
25 31 39
23 28 36
27 33 42
21 26 33
23 28 36
24 29 37
23 28 36
22 28 36
23 29 36
24 29 36
26 32 42
23 28 35
27 34 44
25 31 39
29 36 46
24 29 36
25 31 40
25 31 40
29 35 45
25 31 39
24 29 37
30 37 48
26 32 40
26 32 42
25 31 40
29 35 45
28 35 44
25 30 38
26 32 40
28 35 44
23 28 35
27 33 42
30 36 46
27 33 41
33 40 52
27 34 44
30 36 45
28 35 45
30 36 46
29 36 47
28 34 44
26 32 40
29 36 46
29 36 46
32 38 48
34 41 52
33 41 53
31 38 49
32 39 51
29 36 46
29 36 47
29 36 46
32 40 52
33 42 54
29 36 47
38 47 60
28 35 45
35 42 53
31 37 48
31 38 48
37 44 55
27 34 43
26 32 41
36 44 56
27 33 42
36 44 56
33 41 53
33 41 53
30 37 48
32 40 50
35 42 54
34 42 54
32 39 50
33 40 51
27 33 42
32 39 50
29 36 46
29 36 45
36 44 57
30 37 48
29 36 46
35 43 55
39 47 59
30 37 47
37 46 59
39 47 61
37 46 59
28 35 44
27 34 44
32 39 50
33 40 52
35 42 54
38 46 58
29 36 46
38 47 60
34 42 53
34 42 54
32 40 51
36 44 56
38 46 59
37 45 57
37 44 56
34 43 56
34 43 55
36 44 56
32 39 50
39 47 60
34 41 51
33 41 52
36 45 57
37 45 57
37 45 57
36 44 56
35 43 54
38 47 60
37 45 57
36 44 56
36 44 57
31 38 48
41 50 63
36 44 56
40 49 62
33 41 52
41 50 63
37 46 58
37 46 59
32 40 52
39 48 60
38 46 58
36 44 57
36 44 56
38 47 59
34 42 53
32 39 50
38 47 60
34 42 54
37 44 56
28 35 45
42 51 65
30 37 47
39 47 60
34 42 53
36 43 54
32 39 50
39 47 59
37 46 59
34 41 52
34 42 55
32 40 52
34 42 55
29 36 47
36 45 57
31 38 49
29 36 46
34 42 55
31 38 48
31 38 49
39 47 59
32 39 50
36 44 57
41 50 64
37 45 57
32 39 49
36 45 58
34 41 52
31 38 49
35 43 55
27 34 44
33 40 51
33 40 51
33 41 52
34 41 53
33 40 52
36 44 55
33 40 50
32 40 51
28 35 45
34 41 52
30 37 48
28 34 44
29 36 46
30 36 46
34 42 54
34 42 53
30 37 46
32 39 51
32 38 49
30 37 48
34 42 53
27 34 43
33 40 50
31 39 50
31 38 49
28 34 42
29 36 46
29 35 45
27 33 43
29 35 45
32 39 49
32 39 49
31 38 48
31 37 47
26 32 41
30 37 47
31 38 48
23 28 36
32 39 50
28 34 44
29 35 45
25 30 39
26 32 41
24 29 37
27 33 43
28 34 43
29 36 46
24 29 38
22 26 33
23 28 35
28 34 43
25 31 40
25 30 38
34 41 52
22 27 34
24 29 37
29 35 44
18 22 29
22 27 34
23 28 36
24 30 38
19 23 29
18 23 29
20 24 31
22 27 34
23 28 36
19 23 29
17 20 26
19 24 30
19 23 29
18 21 27
21 26 33
19 23 29
24 28 35
16 20 25
17 20 25
19 23 29
16 20 25
19 23 29
21 25 32
18 21 27
16 20 24
13 16 19
14 17 22
19 23 29
23 28 36
58 73 94
59 73 94
61 76 98
60 76 99
44 54 69
34 42 53
29 36 46
32 39 50
26 32 41
41 51 64
32 40 50
33 40 51
31 39 50
35 42 53
40 49 63
31 38 48
38 46 59
33 41 52
35 43 55
35 43 55
35 43 55
36 44 56
33 41 54
37 45 58
36 45 58
38 47 60
44 55 70
40 49 62
40 49 62
37 46 59
35 42 53
38 47 59
42 51 64
37 45 58
40 49 62
43 53 68
37 45 58
38 46 59
34 42 53
39 48 61
38 47 61
37 45 57
38 46 60
42 52 66
41 50 64
33 42 54
38 46 59
36 44 56
38 46 57
35 43 55
40 49 63
35 43 55
33 41 52
42 52 67
42 52 67
39 48 60
33 41 52
41 50 62
35 42 54
41 51 65
39 48 61
27 34 43
37 45 57
35 43 54
40 49 62
41 50 64
38 46 58
30 37 48
40 48 61
34 42 53
36 44 56
37 45 57
36 45 57
42 51 65
39 47 59
38 47 59
36 44 56
37 45 57
39 48 61
39 48 61
29 36 46
34 42 54
38 47 60
37 45 58
33 41 53
33 41 52
36 45 58
36 44 57
37 46 59
41 51 65
36 44 57
41 50 63
38 46 59
36 44 57
36 44 56
36 44 55
29 35 45
35 44 56
33 41 53
38 46 58
40 49 63
30 36 45
37 45 58
33 41 52
40 48 62
36 44 56
38 47 60
41 50 63
38 46 59
31 38 49
32 39 49
36 44 56
33 41 52
32 40 51
33 41 52
32 39 50
34 42 53
33 40 51
28 34 44
41 51 66
61 76 98
55 68 89
63 78 101
56 70 90
21 26 33
17 20 25
17 21 26
16 20 25
13 15 19
17 20 25
17 21 26
17 20 26
15 18 22
16 20 25
20 24 31
15 18 23
19 23 29
12 15 19
19 23 30
21 26 34
18 22 28
21 26 33
21 26 32
23 28 36
20 24 31
19 23 29
21 26 34
26 31 39
25 30 39
17 21 27
19 23 29
29 36 46
17 20 26
22 26 33
26 31 39
20 25 32
24 29 36
23 28 36
31 38 49
27 33 42
31 38 48
26 32 41
25 31 40
25 31 39
29 35 46
29 35 45
30 36 46
30 37 47
30 37 48
22 28 35
27 33 42
27 33 42
30 37 47
28 34 44
32 38 48
26 31 39
28 35 45
27 33 42
31 38 49
23 28 37
33 40 51
29 36 46
32 39 50
28 35 45
26 33 43
32 39 50
29 36 46
29 36 45
28 34 43
29 36 46
31 38 49
32 40 51
32 39 50
33 40 52
31 38 48
28 35 45
37 45 58
24 29 36
29 36 46
30 37 48
34 41 51
35 43 55
31 37 47
31 39 49
30 37 48
35 43 55
30 36 46
33 41 53
35 43 55
30 38 48
36 44 56
31 38 48
29 36 46
29 36 47
29 36 46
35 43 54
33 41 53
34 42 54
36 44 55
34 42 53
29 36 46
34 41 53
37 45 57
31 38 48
31 38 48
38 47 60
31 38 49
34 42 53
34 41 52
34 42 53
30 38 48
34 42 53
38 46 58
30 37 48
37 45 58
34 41 53
33 40 51
34 42 53
28 34 43
37 46 58
29 36 46
39 48 62
33 41 53
35 43 55
36 44 56
33 41 52
35 43 55
28 35 45
33 41 52
33 41 52
36 44 55
33 40 51
33 41 52
37 45 58
36 45 57
40 50 64
37 45 57
37 45 58
31 38 50
36 45 58
39 48 61
30 37 48
35 43 55
36 44 56
36 45 57
30 37 47
35 43 54
33 40 51
33 42 54
41 50 64
33 40 50
36 44 56
34 42 54
37 45 58
34 42 53
39 48 61
36 43 55
38 46 58
41 50 65
34 42 53
37 45 57
35 43 55
34 41 53
32 39 50
35 43 54
34 43 55
36 43 54
38 47 60
30 37 48
36 44 57
35 44 57
35 43 55
39 48 61
31 39 49
34 42 54
30 37 47
35 43 55
33 40 50
38 47 60
34 42 54
26 32 41
29 37 48
30 37 47
33 40 51
33 41 52
32 40 50
31 38 49
35 43 55
34 41 53
30 37 47
30 37 48
33 41 52
30 37 46
33 41 52
29 36 46
33 41 52
38 46 58
35 44 56
33 40 50
37 45 57
33 40 51
30 37 48
27 33 43
38 47 60
34 41 52
34 42 54
38 47 60
27 34 43
23 28 36
30 37 46
30 37 47
28 35 44
29 36 45
26 32 40
27 33 42
26 32 41
25 31 40
31 38 48
27 33 42
33 41 52
29 36 45
25 31 40
25 31 41
26 32 41
28 34 43
28 35 44
28 34 44
25 30 38
34 42 53
27 34 43
29 36 46
29 35 44
30 37 47
31 38 49
30 37 47
25 31 39
30 37 46
30 37 47
21 26 34
32 39 51
23 28 36
22 28 36
26 33 42
24 30 38
22 27 35
25 31 39
18 22 28
27 32 41
30 37 46
23 28 35
21 26 33
28 33 42
23 28 35
22 26 34
25 30 38
20 25 32
22 27 35
21 26 33
20 25 32
22 27 35
19 23 29
21 26 33
23 27 33
20 24 30
22 27 34
14 18 22
21 26 33
17 21 27
22 27 34
21 25 32
18 21 27
15 18 23
15 18 23
19 23 28
14 17 21
18 21 27
17 20 25
13 16 20
21 26 32
50 62 80
58 73 95
58 72 94
57 72 94
57 73 96
50 62 81
31 39 50
29 35 44
36 44 56
27 33 42
31 38 49
32 39 50
30 37 48
32 39 50
35 43 56
39 47 60
44 54 67
33 40 51
37 45 58
36 44 56
38 46 58
38 47 60
35 42 53
41 50 64
39 48 62
38 46 58
37 45 58
39 47 59
33 41 53
38 46 58
40 49 62
36 44 56
40 49 63
36 44 57
38 47 60
40 49 63
41 50 63
36 44 56
39 49 63
34 42 54
36 44 55
37 46 59
39 48 61
38 47 60
44 54 69
38 47 60
38 47 60
36 43 55
38 47 59
33 40 51
40 49 63
43 53 67
35 43 55
37 45 57
33 41 52
39 47 60
36 44 57
36 44 56
38 47 61
39 47 60
35 43 54
35 44 56
40 49 63
37 45 57
33 41 53
33 41 53
41 51 64
34 41 52
42 52 65
35 43 54
39 47 59
35 43 54
43 53 68
38 46 59
39 47 59
34 41 53
38 46 59
33 41 53
40 49 62
45 55 69
38 47 59
40 49 62
39 47 59
36 45 58
35 43 55
37 46 58
39 48 61
34 42 54
33 39 50
36 44 56
33 40 51
38 46 58
35 42 54
39 47 60
39 48 61
42 51 63
35 43 55
35 43 55
39 47 61
38 47 60
40 49 62
38 47 60
36 44 56
27 34 43
34 42 53
31 39 50
32 39 50
36 44 57
35 43 55
42 51 65
34 42 53
30 36 46
36 45 57
29 35 45
32 40 50
32 39 49
31 38 47
30 36 46
30 38 49
28 34 43
54 68 89
54 68 88
58 73 94
59 73 95
57 71 92
49 61 80
14 17 21
12 15 18
17 20 25
13 15 19
14 17 21
20 24 30
19 23 30
17 21 26
17 21 27
15 19 24
17 21 26
18 22 27
16 20 25
17 21 27
15 18 23
16 20 25
24 29 37
22 26 33
25 30 38
23 28 35
19 24 31
20 25 32
25 30 38
26 31 39
24 30 38
23 29 37
22 27 34
25 31 39
22 27 34
19 23 29
23 29 37
23 29 36
23 28 36
25 30 39
23 27 35
27 32 40
24 29 37
28 35 44
29 35 45
26 32 42
27 33 43
22 27 35
28 34 43
32 39 50
31 38 48
22 27 34
28 34 43
24 30 39
27 34 43
31 38 48
31 38 48
32 39 51
31 38 48
30 37 47
27 34 43
32 39 50
29 36 47
32 39 50
31 38 48
28 35 44
30 37 47
26 32 40
28 34 43
32 39 50
32 39 49
33 40 51
33 40 50
34 41 52
30 36 46
32 39 49
29 35 45
32 40 50
35 44 56
31 38 49
34 42 53
31 38 48
38 47 60
28 34 45
30 37 48
35 43 55
33 40 50
30 37 48
30 37 48
33 41 52
38 46 58
34 41 52
34 41 53
30 37 48
37 46 59
31 38 49
36 43 55
30 36 45
34 41 52
35 43 55
30 38 48
32 39 50
35 43 55
32 39 50
33 41 52
29 35 45
33 41 52
35 43 55
35 43 55
38 46 60
36 44 55
35 43 54
37 45 57
33 40 52
29 36 47
32 40 51
31 38 49
37 45 58
36 44 55
36 44 56
36 44 56
33 40 51
35 44 57
37 45 57
31 39 50
37 45 58
39 48 60
40 49 62
30 37 49
33 40 52
30 36 45
32 39 50
31 38 48
30 37 47
39 48 60
37 46 59
36 44 56
34 43 55
41 50 63
34 42 53
32 39 49
35 43 55
36 45 57
32 39 50
38 45 57
34 42 54
34 41 52
34 42 53
41 50 64
37 45 58
36 43 55
35 43 55
33 40 51
36 45 58
34 41 52
34 41 53
35 42 54
37 45 58
39 47 60
37 45 57
32 40 51
37 46 59
36 45 59
34 42 53
38 46 58
39 48 61
35 42 54
37 46 60
28 35 44
31 38 49
35 43 54
29 36 46
35 43 56
34 42 53
35 44 56
32 39 50
36 44 55
39 47 59
32 40 50
29 35 45
34 42 54
34 42 53
37 45 57
33 41 52
37 45 57
40 49 63
30 37 48
33 40 51
34 41 52
35 42 53
26 32 40
38 46 59
36 44 56
31 38 49
30 37 48
38 47 60
33 41 54
31 39 49
29 35 45
30 37 47
36 44 55
31 39 50
35 43 54
30 37 47
38 46 58
32 39 50
28 34 43
30 37 48
37 46 58
29 36 46
30 38 49
26 32 40
30 37 47
26 32 41
30 38 49
35 43 54
29 36 45
28 34 43
29 36 46
25 31 40
35 42 53
35 42 52
31 39 50
26 32 41
32 39 50
32 39 50
27 33 42
24 29 36
26 33 42
29 36 46
27 33 42
27 33 42
23 29 37
29 35 46
23 28 36
30 37 47
28 34 43
25 31 39
25 30 38
27 33 42
25 31 39
26 31 40
29 35 45
28 35 44
26 32 41
22 27 35
22 27 35
22 27 34
21 25 32
24 29 36
28 34 43
22 27 34
23 28 35
19 23 28
21 26 34
18 22 28
23 28 36
20 24 31
27 33 42
26 32 41
21 26 33
22 27 34
17 21 27
18 22 28
17 21 26
18 21 26
16 19 23
22 26 33
18 22 28
19 23 29
15 19 23
14 17 21
13 16 21
16 19 23
17 21 26
17 21 26
15 18 23
15 18 23
16 19 24
41 53 70
55 69 89
55 69 89
57 70 91
56 71 92
54 68 89
58 72 94
42 52 67
32 40 51
35 42 53
33 40 51
33 41 53
27 34 44
34 43 55
34 42 53
32 39 50
34 41 52
41 50 63
37 44 56
37 45 57
31 38 48
35 43 55
36 44 56
35 43 54
34 41 52
33 40 51
37 45 57
36 43 55
33 40 51
39 48 61
31 38 49
37 45 57
40 49 62
43 53 67
39 47 60
38 46 59
37 45 58
43 53 68
37 45 58
41 50 63
38 47 60
40 48 61
39 47 60
36 44 56
40 49 63
35 42 54
41 50 63
32 40 52
33 41 53
38 47 60
38 46 58
38 48 61
37 45 58
42 51 64
37 44 55
38 46 58
30 37 47
41 50 64
35 42 53
38 47 59
40 48 61
40 48 62
40 49 62
37 45 56
34 42 55
37 45 57
41 49 61
36 44 55
41 50 63
36 44 57
41 50 64
36 44 56
40 49 63
35 44 56
37 46 59
41 50 63
39 48 62
37 46 58
40 49 63
40 49 62
34 41 53
40 49 63
45 55 69
40 49 62
36 43 55
34 41 53
41 51 65
37 45 58
41 50 64
34 41 51
36 45 57
32 40 50
39 47 60
36 45 57
40 49 63
36 45 57
43 53 68
37 45 57
35 43 55
37 45 57
41 51 66
34 42 54
34 42 53
35 42 54
38 47 59
33 40 52
35 43 56
36 44 56
34 41 52
30 37 48
35 43 54
31 38 49
34 42 54
29 36 45
29 35 45
35 43 54
32 38 48
35 43 55
28 33 42
29 36 47
44 55 70
57 70 91
54 67 86
60 75 99
53 67 87
56 70 91
63 78 101
43 53 69
15 18 22
14 17 21
16 19 24
16 19 24
18 22 27
16 20 25
15 19 24
18 21 27
15 19 24
14 17 21
19 23 28
19 24 30
17 20 26
19 23 29
17 21 26
17 21 26
18 22 28
24 29 37
23 28 37
17 21 26
26 32 40
22 26 33
21 27 34
23 28 36
23 28 36
26 31 40
25 31 40
21 26 32
26 32 41
27 33 41
26 32 41
26 31 40
25 30 39
22 27 35
30 37 47
24 29 37
26 31 40
25 31 41
28 35 45
22 28 36
32 39 50
29 35 44
28 35 44
31 37 47
27 32 41
31 37 48
29 36 46
24 30 38
28 35 44
28 34 44
26 32 40
28 34 43
31 38 49
25 31 40
21 27 35
29 36 45
27 34 43
33 40 52
31 39 49
24 29 37
31 38 49
29 36 46
27 33 43
26 32 40
29 35 46
29 35 45
33 41 52
31 39 50
29 35 45
29 36 46
27 34 44
36 44 57
30 37 47
33 40 51
32 39 49
32 38 48
32 40 51
31 38 49
29 35 45
28 35 45
33 40 51
33 40 51
30 36 46
33 41 51
32 39 49
39 48 60
33 40 51
29 36 46
28 34 44
34 43 55
36 43 55
29 36 46
31 38 49
34 42 54
32 39 50
29 35 45
34 41 52
31 38 49
33 40 51
35 43 55
31 38 47
30 36 45
36 43 54
31 38 48
34 42 52
32 40 51
33 40 50
40 49 63
28 34 43
34 42 54
35 43 54
33 41 52
33 41 54
34 42 54
33 41 52
36 44 55
34 42 53
32 39 50
30 36 46
31 38 48
32 39 50
33 41 51
40 49 62
38 46 58
33 41 52
36 44 56
36 44 56
34 42 54
36 44 56
33 40 52
37 45 57
41 49 63
33 40 51
35 43 55
36 45 57
34 41 52
35 42 54
36 44 56
36 43 55
30 36 46
33 40 51
36 44 55
29 36 47
36 44 56
32 39 49
37 45 57
39 49 62
35 43 55
36 44 56
37 46 59
31 37 48
38 46 59
37 46 58
42 51 65
35 43 55
33 40 51
34 41 53
35 43 55
32 40 51
32 39 49
34 41 53
38 46 59
32 39 49
32 40 51
33 40 52
32 39 50
34 41 52
36 44 55
33 41 52
34 41 52
36 43 55
32 39 49
28 34 44
33 40 51
36 44 57
31 38 49
36 45 57
30 37 48
36 44 55
36 43 55
26 32 40
34 42 54
36 44 56
35 43 55
31 38 48
30 37 46
31 38 48
30 37 48
34 41 52
32 40 52
28 34 43
33 41 52
33 40 51
33 40 51
30 38 49
28 35 44
35 43 54
33 40 51
31 38 49
30 37 47
32 39 50
31 38 49
31 38 49
31 37 47
26 32 41
28 34 43
28 35 45
27 33 43
34 41 52
33 41 51
34 41 52
28 34 43
32 39 50
28 35 45
31 37 47
26 32 42
29 36 46
35 43 55
31 39 49
33 40 51
29 36 46
35 42 53
24 30 38
31 38 48
31 38 48
31 38 48
24 30 38
25 31 40
27 33 42
32 38 48
29 35 45
28 33 42
27 33 43
25 30 38
26 33 42
29 35 45
24 30 38
27 33 41
22 27 34
24 29 37
24 30 38
20 25 32
19 23 30
25 31 40
24 29 37
22 27 34
24 29 36
20 25 31
25 30 38
23 27 35
20 24 30
16 19 25
23 28 35
17 21 27
18 22 28
16 19 24
17 21 26
19 22 28
19 23 28
17 21 27
19 23 29
15 18 23
16 19 24
18 22 28
16 19 24
16 20 25
20 24 30
15 19 23
17 20 26
17 21 26
17 21 26
41 51 66
53 66 85
60 75 97
55 67 85
57 71 91
57 72 94
58 72 94
51 63 82
56 71 93
29 35 45
31 38 48
27 33 42
33 40 51
31 37 47
29 35 46
32 40 51
36 45 57
30 37 48
30 37 47
31 38 49
38 47 59
37 45 57
38 46 57
35 43 55
37 45 58
35 42 54
30 37 48
33 40 51
40 49 62
40 49 62
33 40 51
37 45 58
41 50 63
36 44 55
31 39 49
40 50 63
38 47 60
30 37 47
37 45 57
38 46 58
39 48 61
36 44 56
35 42 53
36 44 56
36 44 55
39 47 59
38 47 59
36 44 56
36 44 56
40 49 62
37 45 58
34 42 54
43 53 68
37 45 57
40 50 64
40 48 62
42 51 64
34 42 54
39 48 61
39 46 58
37 45 57
36 43 55
37 45 57
35 43 55
38 46 58
41 51 65
41 50 64
39 48 61
42 51 64
37 46 60
34 41 53
37 45 57
41 51 65
36 44 57
37 44 56
37 46 59
37 45 57
36 44 57
32 39 50
32 39 49
37 45 57
35 43 55
37 45 58
39 48 62
34 42 54
38 47 59
34 41 53
41 51 65
31 38 49
43 52 66
36 44 55
40 49 62
37 45 57
42 51 64
33 41 52
40 48 61
42 51 64
32 40 51
40 49 63
29 36 46
38 47 60
36 44 56
32 39 50
37 45 57
36 44 57
33 40 51
35 43 55
34 41 53
37 45 56
35 42 54
35 44 56
34 42 53
26 33 43
37 45 57
28 35 45
36 45 57
33 41 52
29 36 46
28 35 45
30 36 46
30 37 47
50 62 80
57 72 94
60 74 96
58 71 92
55 70 91
59 73 95
59 73 93
58 72 93
43 53 67
18 22 28
14 16 20
16 19 24
18 22 27
18 22 27
17 21 26
19 23 29
18 22 28
19 23 29
19 23 29
17 20 25
17 20 25
18 21 27
16 20 25
20 24 30
21 25 31
20 24 30
19 23 30
25 29 37
19 24 30
19 24 30
23 29 37
21 26 32
20 25 33
23 27 35
17 21 26
23 28 35
21 27 34
22 27 34
25 30 38
28 34 43
25 31 39
22 27 34
30 37 46
27 33 41
25 30 38
27 33 42
24 29 37
29 35 44
24 29 37
26 32 41
27 33 43
29 36 46
28 34 44
23 29 37
23 28 36
28 35 44
29 36 46
30 36 47
25 30 39
31 37 47
32 40 51
32 38 49
25 31 39
28 34 44
32 39 50
28 35 44
28 35 44
30 36 46
26 32 41
29 35 44
31 37 47
32 39 50
28 35 44
30 38 49
32 39 50
32 40 51
35 43 55
24 30 39
33 41 53
32 39 50
25 31 40
33 40 50
31 38 49
33 41 51
34 41 52
29 36 46
33 40 51
30 36 46
33 40 52
30 37 47
30 37 47
27 33 42
27 33 42
30 37 48
33 40 51
27 34 44
32 38 48
38 46 59
33 40 52
29 35 45
30 38 48
30 36 46
34 41 53
36 44 55
33 41 52
32 40 51
36 44 56
31 38 48
32 39 51
35 42 54
34 42 53
36 43 55
36 44 56
30 37 48
26 33 43
33 40 50
29 36 46
33 40 51
34 42 54
39 48 61
39 48 62
38 46 59
31 39 50
35 43 55
34 42 54
35 42 53
36 45 57
38 46 58
32 40 51
37 45 58
36 44 56
35 44 57
31 38 49
33 40 51
35 43 54
32 39 49
37 45 57
30 37 47
32 39 50
38 45 57
30 37 47
31 38 49
38 46 58
31 38 49
35 43 54
34 42 53
37 45 57
35 42 53
33 41 52
38 47 59
38 46 58
38 46 59
36 45 57
35 43 55
38 46 59
36 45 58
38 47 60
34 42 54
37 46 59
38 46 59
37 46 58
33 41 52
34 42 54
38 46 58
38 46 58
33 40 52
38 46 58
39 47 60
36 45 57
33 40 51
30 37 46
34 41 52
30 37 47
31 39 50
33 40 51
34 41 53
31 37 47
30 36 46
35 44 56
38 46 59
37 45 57
31 38 48
32 40 50
34 41 52
28 35 44
33 40 51
30 37 48
32 39 50
28 35 44
33 41 52
30 37 47
36 43 55
31 38 49
33 40 51
33 40 50
37 45 57
35 43 55
34 41 53
32 39 50
26 32 41
35 43 55
33 40 51
34 42 54
30 37 47
35 43 55
30 37 47
32 39 50
28 33 42
27 33 42
29 35 45
28 35 45
31 37 46
27 33 42
28 35 44
32 39 50
32 39 50
34 41 52
29 35 45
35 42 53
32 39 49
30 37 47
31 37 47
31 38 49
30 36 46
29 36 45
31 38 48
29 35 44
28 35 45
29 35 45
28 34 43
25 30 38
26 32 40
26 31 39
32 39 49
28 34 43
27 33 42
30 36 46
25 30 38
24 29 38
23 29 37
26 31 40
31 38 48
33 40 50
27 33 42
26 32 41
21 26 34
20 24 30
23 28 35
30 36 45
24 29 37
26 31 39
21 25 32
22 26 33
24 30 38
17 22 28
20 24 31
19 23 30
19 23 30
23 27 35
21 26 32
22 27 34
22 26 33
17 20 25
19 22 28
21 25 32
17 20 25
20 24 31
19 24 30
21 25 31
17 21 27
18 22 27
15 18 22
20 24 31
16 19 24
17 20 25
19 23 29
16 20 25
18 22 27
35 43 54
51 64 83
60 74 94
56 69 89
54 68 88
52 64 82
55 67 85
58 71 92
55 68 88
59 72 93
41 51 66
31 38 48
30 37 47
31 39 50
30 37 47
28 35 44
33 40 50
31 38 49
31 39 49
28 35 44
36 44 56
35 43 55
34 42 54
38 46 59
39 48 61
28 34 43
40 49 64
34 41 53
35 42 53
35 43 54
41 50 64
38 47 60
36 44 56
33 40 50
36 45 58
32 40 51
36 44 57
38 46 59
34 41 52
41 50 64
38 46 59
43 52 66
35 42 53
35 42 54
40 48 62
35 43 56
36 44 55
34 42 54
40 49 62
40 48 62
37 46 59
36 43 55
38 47 60
36 44 55
37 45 58
40 49 62
36 45 57
42 52 66
31 38 49
51 62 78
40 49 63
37 46 58
38 46 58
37 45 57
32 39 50
42 51 64
41 50 62
35 43 54
39 48 60
38 46 59
42 52 66
34 42 54
34 41 52
34 42 54
40 49 62
41 49 63
37 46 59
38 46 58
37 44 56
30 37 47
37 46 58
41 50 63
40 49 62
37 45 57
40 48 61
28 34 44
39 48 61
40 49 64
37 46 58
37 45 56
34 41 53
40 48 61
36 44 56
40 48 61
39 48 62
36 44 56
37 45 57
38 46 59
33 40 51
37 45 57
47 57 72
36 44 56
35 43 55
38 46 57
37 45 57
39 47 61
39 48 61
38 46 59
35 44 56
35 43 55
35 43 55
30 37 48
29 35 45
29 35 45
35 42 54
38 46 58
35 42 54
38 46 59
29 36 46
27 33 42
32 39 49
48 60 77
51 64 82
46 58 75
53 66 87
56 70 92
48 60 79
56 69 88
55 68 87
57 70 91
59 74 95
32 39 51
17 20 25
18 21 27
18 21 26
14 17 22
16 20 25
17 20 26
18 22 28
17 20 25
18 22 27
22 26 32
20 24 30
21 25 32
19 24 30
23 28 36
22 27 34
22 26 33
15 18 23
20 24 30
20 25 32
23 28 36
26 32 41
26 32 40
25 30 38
19 23 30
30 36 47
26 32 40
27 33 42
26 32 39
24 29 37
27 32 40
24 29 36
27 32 41
30 37 47
24 29 37
24 29 36
27 33 41
27 32 40
31 37 47
21 25 32
28 34 43
29 35 44
25 31 39
26 32 41
25 30 39
23 28 35
27 34 43
22 27 35
29 35 44
22 27 34
27 33 42
27 33 42
28 34 44
29 35 45
28 34 43
31 38 49
28 34 43
31 38 48
32 40 51
32 39 50
30 37 46
31 37 47
29 36 47
29 36 46
29 34 43
30 37 48
26 31 39
33 40 50
29 35 45
30 36 46
30 37 48
32 39 50
31 38 48
29 36 47
31 38 49
29 36 47
32 39 49
30 36 47
30 36 47
33 40 51
33 40 51
34 42 54
34 42 54
35 43 55
32 39 50
31 38 48
32 39 50
34 42 53
29 35 45
30 38 49
30 37 47
36 44 57
34 42 54
31 38 49
26 32 41
30 37 48
34 41 53
33 40 50
30 36 46
28 35 44
38 46 59
34 41 51
30 37 47
36 43 55
31 38 48
31 38 49
33 40 51
39 48 61
34 42 53
34 42 53
37 45 57
44 54 68
38 47 59
33 40 51
32 39 49
32 39 49
36 44 56
36 44 57
35 43 54
36 44 56
35 43 54
37 45 57
35 42 54
35 42 54
32 40 52
35 43 54
37 45 58
37 45 57
35 43 56
31 38 49
41 50 64
39 47 60
37 45 59
39 47 60
38 47 60
35 43 55
36 44 56
34 43 56
35 43 54
35 43 54
38 47 60
39 48 60
38 47 60
31 37 47
30 37 47
36 43 54
34 41 52
30 37 48
35 42 53
32 39 50
32 38 48
38 46 59
36 43 54
31 37 47
32 39 50
31 38 49
36 44 56
35 43 55
34 42 54
36 44 57
37 45 57
34 42 53
36 44 57
32 39 49
39 47 61
37 44 55
35 43 56
33 40 51
33 40 51
34 41 53
34 41 53
34 41 52
32 39 49
37 46 58
32 39 50
30 37 48
33 41 52
31 38 49
31 38 49
33 41 53
32 40 51
30 36 46
35 43 55
33 40 51
32 39 50
34 42 54
29 36 46
31 37 47
29 35 44
33 40 51
36 45 57
31 38 49
29 35 46
34 42 53
31 38 48
33 40 51
25 31 39
31 38 49
32 40 51
34 41 53
34 42 54
33 40 52
24 29 37
28 34 43
26 32 41
30 37 47
31 38 48
27 32 41
30 38 49
25 30 38
29 35 45
31 38 50
26 32 41
29 36 46
32 39 50
30 36 46
27 33 42
28 35 44
23 28 36
26 32 41
27 33 42
29 35 45
29 36 45
32 38 48
26 31 39
27 33 43
23 28 36
31 38 48
21 26 34
23 29 37
36 44 55
28 34 43
23 29 37
25 30 38
22 26 33
23 28 35
28 34 43
21 25 32
26 31 40
22 27 34
22 27 35
23 28 35
18 22 28
27 33 41
25 31 40
20 24 31
21 26 33
24 28 36
24 29 37
17 20 25
23 28 35
21 25 32
17 21 26
20 25 31
21 25 31
19 23 29
19 23 29
18 22 28
18 22 27
19 22 27
18 21 26
17 21 26
19 23 28
20 24 31
19 23 29
15 18 22
13 16 20
15 18 23
35 42 53
54 67 86
52 65 83
47 60 78
50 61 78
56 69 89
51 64 82
51 63 83
52 65 84
56 70 91
58 72 92
54 68 89
32 40 51
22 27 35
34 41 51
31 38 48
33 41 52
31 39 50
31 38 49
29 36 46
39 47 59
32 40 51
34 41 52
34 41 51
31 37 47
33 40 51
33 41 52
30 37 47
36 44 55
35 43 54
39 47 59
37 45 58
37 45 57
37 45 57
40 48 62
36 44 57
39 47 61
36 45 57
33 40 50
36 44 56
33 40 51
34 41 52
37 45 57
37 45 58
35 42 54
39 47 60
38 47 60
39 48 61
41 49 62
41 50 64
41 51 64
38 46 58
35 42 53
34 41 52
37 46 58
40 48 60
40 50 63
31 38 47
36 44 55
38 47 59
39 48 62
42 51 65
30 37 47
38 47 59
40 49 63
41 51 66
31 38 49
38 46 58
38 46 59
36 45 57
42 50 64
39 47 59
40 48 60
34 42 53
32 39 49
40 48 60
37 45 56
37 46 58
39 47 60
38 47 61
45 54 68
36 43 54
33 40 51
42 52 66
33 41 51
41 50 63
42 52 66
33 40 51
33 41 53
33 40 52
36 44 56
36 44 56
39 48 60
38 46 58
35 43 55
33 41 52
33 41 52
33 41 52
32 39 49
37 46 58
40 48 61
36 44 56
31 38 49
36 44 56
32 39 50
35 43 54
37 46 58
34 42 53
35 43 54
34 42 53
33 41 52
33 40 52
34 42 53
30 37 48
39 48 63
28 34 44
30 37 47
34 40 51
37 45 58
24 30 38
36 43 54
29 36 47
54 67 86
53 66 85
51 63 80
60 75 97
52 65 83
57 71 92
56 68 87
53 66 85
55 67 86
58 73 95
57 71 91
29 35 45
14 16 21
17 21 25
14 16 21
17 20 26
16 19 23
17 20 26
18 22 27
17 21 27
17 20 26
23 28 35
21 25 32
22 26 33
20 25 31
20 24 30
23 28 35
20 24 30
16 19 24
21 26 32
27 32 40
20 24 31
23 28 36
24 29 36
26 31 39
20 24 31
28 34 42
28 33 40
22 27 35
26 32 40
25 31 40
20 24 31
22 26 34
25 31 39
24 30 38
22 27 34
26 32 41
29 36 46
30 36 46
28 34 43
24 30 38
24 30 39
28 35 44
27 33 43
31 38 48
29 36 45
25 31 40
25 30 39
23 28 36
25 31 40
25 32 41
30 36 46
28 34 44
34 42 54
21 26 33
24 30 38
28 35 46
31 37 46
31 38 48
28 34 43
30 36 46
32 39 48
31 37 47
29 35 45
26 32 41
32 39 49
28 34 44
32 38 48
31 38 48
29 35 45
31 38 49
26 32 41
34 41 52
34 41 52
32 39 50
28 34 43
31 38 48
33 41 53
27 33 42
34 42 53
35 42 53
30 37 47
35 43 56
34 41 52
33 40 51
29 36 46
36 45 58
32 39 50
30 37 48
26 32 41
29 36 46
33 40 52
45 54 68
31 38 49
34 42 53
29 36 46
29 35 45
33 41 53
36 43 54
37 45 57
33 40 51
31 38 50
33 41 52
33 40 50
33 41 52
36 45 57
33 41 52
35 43 55
32 39 50
31 38 49
32 39 49
34 41 52
29 36 46
35 43 56
33 40 51
32 39 49
34 42 54
34 42 54
33 41 51
32 39 50
37 45 58
31 37 47
37 45 57
34 42 53
28 35 44
33 41 52
34 42 54
38 45 57
32 39 50
39 47 61
30 37 48
33 40 52
39 48 60
31 38 49
36 44 56
40 48 60
40 49 62
37 45 57
32 39 49
37 46 60
36 43 55
38 46 58
37 45 57
28 35 45
35 43 54
33 40 51
34 42 54
35 44 57
31 38 48
42 51 64
32 39 49
37 45 58
35 43 55
36 44 57
36 44 57
32 39 50
33 41 52
33 39 50
31 38 48
37 45 58
29 36 46
34 43 55
35 42 54
29 35 44
32 40 50
35 43 55
31 39 50
28 34 44
39 47 59
35 42 54
36 44 55
33 41 52
35 43 55
32 39 50
37 45 56
32 39 49
39 47 60
35 42 54
32 39 50
31 39 49
37 45 57
29 35 44
31 39 49
36 44 55
31 37 48
29 35 46
32 40 52
34 41 51
31 38 48
34 41 52
28 35 45
32 40 51
30 37 48
33 40 50
37 46 59
30 37 46
33 40 51
28 35 45
30 37 47
36 44 56
28 34 44
30 37 47
28 34 43
25 31 39
32 40 51
27 33 42
30 36 46
31 37 47
32 40 51
28 33 42
26 32 41
32 39 51
29 35 44
33 40 52
26 31 39
25 31 39
25 30 38
29 36 46
25 31 40
25 31 40
29 35 45
24 29 37
31 38 48
25 31 39
28 35 44
24 29 37
27 33 42
31 38 48
22 27 35
30 36 45
25 31 39
26 32 40
26 32 40
32 39 49
24 29 36
26 31 40
27 33 42
24 30 38
25 31 40
27 33 42
19 23 29
24 29 37
27 33 41
22 27 35
25 31 40
20 25 32
20 25 31
23 28 36
18 22 28
19 24 30
24 29 36
20 25 31
20 24 30
22 26 33
18 22 28
20 24 30
15 18 23
15 19 24
24 28 35
16 19 24
14 17 22
18 22 27
12 14 18
18 22 27
17 20 25
18 22 27
15 18 23
32 40 51
51 64 82
58 71 92
52 65 86
51 63 81
48 59 76
51 62 80
48 59 76
55 68 88
56 69 89
49 61 78
50 62 80
52 65 85
49 60 77
26 31 39
27 32 41
27 33 42
31 38 48
35 42 53
34 42 53
32 39 49
35 42 53
32 39 49
29 36 45
31 38 49
36 45 57
37 45 56
38 47 60
36 44 56
38 46 59
30 37 47
34 40 51
33 40 51
38 46 59
37 45 58
38 46 58
36 44 57
36 44 56
31 38 49
33 40 51
35 42 53
40 48 61
34 42 55
42 51 64
29 36 45
38 46 59
41 49 62
33 41 53
33 41 53
40 48 61
34 42 53
35 43 55
31 38 49
41 49 62
40 49 62
36 45 58
34 42 54
37 45 57
37 45 58
33 40 51
39 48 61
39 48 62
43 53 68
34 41 53
35 42 53
40 50 64
40 49 63
42 50 63
42 51 65
36 44 56
35 43 54
38 46 59
32 40 51
38 46 59
40 50 63
37 45 57
40 48 61
42 51 65
34 43 55
32 40 50
36 43 55
35 43 55
34 42 54
37 46 59
37 45 57
35 43 55
38 46 57
40 49 63
37 45 56
41 51 65
34 42 53
32 40 51
33 41 53
35 43 54
40 49 63
31 38 48
36 43 55
43 53 68
39 47 60
31 38 48
35 43 54
34 42 53
36 43 54
36 44 56
31 38 49
32 40 51
35 43 55
38 46 59
33 41 52
35 43 55
32 39 51
33 40 51
33 41 52
35 43 54
34 41 52
35 43 55
32 39 50
32 39 49
34 41 51
30 37 48
29 35 44
29 35 44
48 59 75
50 61 79
47 60 78
49 61 80
51 63 82
52 64 82
53 66 84
50 62 80
50 61 79
50 62 80
50 63 81
52 64 83
51 63 82
35 43 55
14 17 22
17 20 25
16 19 24
20 24 30
14 17 22
13 15 20
17 20 25
20 24 30
16 20 24
19 23 29
18 22 27
19 23 29
21 25 31
18 22 28
23 28 36
18 22 27
23 27 35
17 21 26
22 26 32
18 22 28
24 30 38
22 27 34
23 29 37
22 27 34
24 29 37
23 28 36
21 26 33
24 29 37
25 30 39
29 36 46
26 31 40
20 25 33
24 28 35
28 34 43
29 36 45
24 30 37
26 32 40
27 32 41
22 27 34
23 28 35
29 36 46
26 32 41
25 30 39
26 32 40
29 36 46
30 37 46
30 36 46
26 32 42
29 36 45
30 37 47
28 34 44
28 34 43
31 38 49
32 39 49
27 33 42
28 34 44
25 30 38
31 38 48
25 31 40
30 37 48
31 38 48
27 33 43
27 33 42
26 32 42
35 42 54
27 33 41
28 35 44
35 43 55
29 36 46
30 37 47
26 32 40
34 42 54
30 36 47
33 40 51
30 37 47
33 40 51
31 37 47
27 33 42
33 41 53
33 40 51
32 40 50
27 32 41
38 46 58
31 38 48
31 38 48
32 39 50
38 46 59
35 43 55
33 40 51
35 43 55
30 37 47
34 41 51
28 35 45
29 36 46
30 37 48
32 39 50
32 39 50
34 41 53
39 48 60
34 42 54
39 48 61
37 45 57
34 41 53
37 45 58
33 40 51
24 29 37
33 40 51
37 45 58
39 47 60
36 45 57
34 41 53
33 41 52
30 37 47
36 43 55
32 39 50
37 45 56
37 44 56
35 42 54
40 49 62
40 49 62
30 37 48
31 38 48
26 32 42
33 41 51
41 50 63
31 38 49
34 41 53
34 41 53
38 47 59
35 43 55
36 44 55
32 39 50
38 46 57
37 45 56
38 46 59
41 50 64
43 51 65
34 42 53
36 45 57
34 42 53
37 44 55
35 43 55
31 38 49
40 49 61
36 44 56
37 45 57
33 40 52
37 44 56
38 47 60
30 37 47
33 40 51
28 35 45
35 43 54
36 44 56
32 38 49
32 39 49
36 43 55
34 42 53
39 47 59
36 44 55
31 39 50
32 40 50
39 47 60
35 42 54
32 40 51
31 37 47
36 43 55
31 38 48
33 40 52
36 43 55
33 41 52
36 44 57
34 41 52
30 37 47
29 36 46
37 45 57
31 38 48
31 38 48
35 43 54
32 40 51
33 39 49
36 45 58
35 43 54
33 40 50
31 38 48
31 38 48
35 43 54
30 37 48
35 43 54
34 42 53
34 41 52
32 38 49
32 39 49
28 35 45
33 41 53
29 36 46
30 37 47
28 35 44
28 34 44
29 36 47
35 42 54
28 34 44
31 38 48
28 35 44
28 35 45
28 34 43
34 41 52
24 29 37
28 34 44
35 43 55
29 35 44
31 37 47
34 41 52
27 32 41
24 30 38
34 41 52
27 33 42
22 27 36
27 33 42
30 36 46
21 26 33
28 34 43
28 34 44
23 29 38
28 34 43
24 29 37
32 40 51
25 30 38
22 26 33
25 31 40
27 33 41
22 27 35
24 30 38
22 27 34
24 29 36
26 32 41
28 34 43
24 29 37
25 30 38
25 30 38
22 27 34
22 27 35
22 26 33
25 30 38
29 35 44
23 28 35
19 23 29
19 23 29
17 21 27
16 19 23
17 21 27
23 28 34
21 25 32
21 26 32
15 18 23
17 21 26
16 19 24
13 16 20
19 22 28
19 22 28
15 18 23
17 21 26
22 26 33
34 42 53
47 58 75
49 61 78
53 65 82
51 63 81
55 69 88
54 67 86
45 56 72
51 64 83
43 53 67
48 60 79
42 52 68
41 51 65
48 60 77
50 62 80
42 52 67
30 37 46
33 40 50
28 34 43
34 42 54
28 35 44
27 33 42
30 36 46
34 41 52
33 40 52
35 43 54
36 44 56
34 41 52
33 41 52
29 36 46
34 42 53
40 49 62
33 41 52
32 39 50
32 39 51
33 40 50
43 52 65
41 50 63
35 43 55
36 44 56
37 45 57
36 43 55
36 45 57
36 44 55
38 46 59
37 45 57
38 46 58
34 42 54
40 49 62
35 43 55
34 42 54
36 45 58
35 43 55
39 48 62
38 47 60
30 38 48
39 47 60
39 48 60
37 45 57
30 37 47
37 44 56
41 50 63
39 47 60
36 44 57
34 42 53
38 46 58
40 49 62
39 47 58
38 47 60
33 40 51
38 46 57
34 42 53
36 44 56
38 46 58
38 47 59
40 49 62
39 48 61
35 43 56
40 49 62
33 40 52
30 37 46
36 44 55
35 43 55
36 44 55
39 48 60
37 45 57
35 42 54
39 47 59
39 47 60
35 42 54
32 39 51
28 34 44
38 46 57
39 48 61
36 45 58
39 47 59
34 42 54
35 42 53
36 44 55
36 44 57
36 43 55
34 42 53
35 42 54
33 41 52
39 47 60
42 51 65
37 45 57
37 46 59
40 48 61
35 43 55
37 46 58
33 40 51
33 41 52
32 39 50
31 37 48
35 44 56
32 40 51
35 43 54
34 40 51
36 44 55
29 35 45
26 32 41
40 49 62
46 57 75
46 57 73
45 56 73
45 57 75
47 58 74
50 61 78
55 67 84
52 64 83
48 59 76
53 65 84
49 60 77
48 60 77
47 58 75
50 61 79
33 41 52
13 16 20
15 19 23
18 21 26
19 23 29
14 16 20
18 22 27
20 23 29
16 19 24
19 23 29
15 19 24
19 23 29
23 27 34
20 24 30
22 27 34
22 27 33
19 23 29
21 25 32
20 25 31
26 31 39
21 26 32
19 23 29
22 27 35
26 32 40
23 27 34
25 31 39
17 21 27
21 26 33
23 27 34
25 30 38
25 31 39
25 31 39
27 33 42
25 30 38
22 26 34
28 34 43
31 37 46
28 35 45
28 34 43
30 36 46
24 30 39
23 29 37
24 30 39
27 33 42
30 37 46
26 32 40
23 28 36
29 35 44
27 32 41
24 30 38
25 30 39
29 36 45
28 34 43
31 37 46
22 27 35
28 35 45
29 36 46
34 41 53
27 32 41
34 42 54
29 36 46
33 40 50
38 46 59
29 35 44
33 40 50
24 29 37
24 30 38
33 41 52
36 44 57
30 37 47
33 40 51
37 45 58
28 35 44
31 37 47
38 46 59
31 38 49
31 38 49
31 38 48
33 40 51
31 38 48
29 36 45
33 41 52
34 42 53
35 43 54
32 39 50
34 41 53
35 43 55
32 39 50
33 40 50
29 35 45
34 41 51
35 43 54
32 39 51
30 37 47
33 40 51
32 40 51
35 43 54
36 44 55
31 38 49
35 43 54
32 39 49
28 34 43
40 49 63
28 34 44
34 41 53
39 47 59
36 44 55
35 42 53
29 36 46
36 44 55
30 37 46
32 39 49
33 40 52
38 46 59
36 45 57
37 45 57
32 39 50
32 38 47
38 45 57
36 44 56
40 49 62
41 50 63
34 41 52
34 41 53
30 37 47
35 43 55
38 46 59
34 42 53
35 42 54
32 40 52
38 46 58
35 43 54
34 41 53
34 41 51
31 38 49
36 43 55
32 39 51
40 48 62
37 46 58
34 41 52
30 37 48
37 46 58
33 41 52
33 40 51
33 40 51
38 46 59
31 39 49
36 44 56
40 49 62
37 45 58
35 43 55
36 44 56
37 44 56
37 45 58
36 44 56
37 46 58
37 44 56
31 39 49
32 39 49
33 40 51
37 45 57
32 39 50
33 41 52
34 42 54
29 36 46
34 41 53
32 39 50
31 38 48
32 39 50
32 39 49
38 46 58
31 39 49
35 43 55
30 36 47
28 35 45
34 41 52
31 38 48
31 38 49
32 39 50
35 43 54
28 34 43
33 40 51
32 38 48
30 37 47
29 36 46
29 36 46
35 42 53
25 31 39
33 40 51
33 41 52
33 41 52
33 40 52
32 38 49
29 35 45
29 36 45
28 34 44
29 34 43
28 34 44
29 36 46
34 42 54
29 36 45
35 43 54
30 37 47
30 37 47
27 34 43
31 37 47
30 37 47
33 41 52
30 36 46
30 36 46
28 35 44
35 43 54
24 29 37
27 33 41
29 35 45
32 38 48
26 32 40
25 31 40
27 33 42
28 34 43
29 35 45
26 32 41
26 32 40
26 31 39
21 26 33
25 30 38
25 30 38
28 34 44
28 35 44
25 30 38
24 29 37
23 28 35
31 38 48
21 26 33
27 33 41
23 28 36
20 23 29
23 27 35
21 26 34
17 21 27
21 26 32
16 19 24
27 32 40
24 29 36
20 24 30
20 25 32
19 23 29
21 25 31
20 24 30
19 23 29
22 26 32
19 23 29
15 19 24
16 20 25
19 23 28
16 19 24
17 21 26
19 23 29
16 20 25
17 20 25
20 24 30
14 17 21
30 37 46
48 59 76
50 62 78
52 64 81
45 54 69
47 57 72
51 62 79
54 67 85
42 51 65
52 64 82
49 61 78
48 60 77
50 62 81
49 61 78
51 62 80
46 58 75
49 60 78
33 40 51
33 40 50
28 34 43
29 35 44
36 44 56
28 34 44
30 36 45
32 40 51
36 43 54
32 39 49
38 46 59
34 42 53
35 43 54
30 37 47
34 41 53
31 38 48
38 46 58
33 40 50
30 36 46
35 42 54
35 43 55
36 44 56
34 42 52
37 46 59
32 40 51
35 43 55
39 47 60
35 43 54
34 42 53
33 41 52
32 39 50
34 41 52
42 51 65
33 40 51
36 44 56
37 45 57
32 40 51
41 50 62
36 43 55
40 48 61
40 48 62
38 47 60
38 46 58
35 42 53
39 48 62
33 41 52
34 42 54
35 42 54
32 40 50
39 47 59
33 41 52
33 40 51
37 45 58
33 40 52
32 39 50
32 39 49
35 43 54
38 46 59
36 44 57
37 44 56
39 48 61
34 42 53
41 50 63
38 47 60
38 47 60
35 43 53
30 36 47
41 49 62
38 47 61
32 39 50
36 43 55
41 49 62
36 44 56
38 46 58
40 48 60
35 43 54
29 35 45
33 41 52
33 40 51
37 45 58
34 42 54
33 40 51
36 44 56
36 45 57
32 39 50
35 42 53
38 46 59
35 42 53
35 43 54
32 39 50
37 45 57
32 39 51
38 47 59
37 45 57
31 38 47
36 44 56
33 41 51
30 37 47
37 45 58
33 40 50
30 36 46
37 44 56
30 37 46
28 35 44
30 36 46
35 43 56
47 59 76
43 53 68
42 53 70
57 69 88
45 56 72
42 52 68
42 53 68
46 58 75
56 68 86
42 52 67
44 55 71
53 66 86
50 62 80
47 58 75
49 60 77
52 64 82
32 40 51
14 17 22
20 24 30
21 26 32
19 23 28
12 15 18
19 23 29
20 24 31
17 21 26
20 25 31
21 25 31
21 25 31
21 25 31
20 24 30
18 22 28
23 28 36
19 24 30
24 29 37
21 25 32
24 29 37
28 34 43
21 25 32
25 31 39
22 27 34
22 27 34
22 27 34
20 24 31
23 28 35
25 31 39
28 35 44
26 31 40
23 28 36
28 34 43
26 31 39
29 36 46
28 35 44
24 29 37
26 32 40
25 31 39
27 32 40
28 35 45
24 29 37
26 32 41
28 35 45
29 35 44
33 40 51
27 33 41
25 31 39
26 32 41
27 33 41
28 34 44
25 31 40
29 35 45
29 35 45
31 37 47
28 35 44
26 32 41
28 34 44
26 31 40
27 33 43
25 31 39
31 38 49
28 33 42
26 32 42
28 34 42
25 31 40
33 40 51
28 34 44
32 39 50
28 35 45
33 39 49
34 41 52
29 36 47
29 36 46
30 37 47
29 36 46
34 41 52
38 46 59
29 35 43
28 34 44
30 37 47
35 42 53
30 37 48
32 39 50
29 35 44
31 39 50
33 40 50
36 44 57
30 37 47
32 39 49
32 38 49
35 43 54
35 42 53
32 39 50
28 35 44
35 43 54
33 40 51
32 40 51
29 35 45
37 44 55
28 35 44
33 40 50
30 36 46
37 45 58
27 32 41
32 39 49
35 43 56
34 41 52
32 39 51
30 37 47
31 38 48
34 41 52
37 46 59
32 39 50
34 42 53
37 45 57
34 42 54
28 35 45
36 44 56
35 44 56
32 39 49
34 41 52
33 40 52
33 41 52
35 42 53
38 46 59
34 41 52
32 39 50
33 41 52
33 41 51
32 39 50
31 39 50
32 39 51
35 43 55
38 46 58
35 42 54
36 43 55
32 39 50
37 45 57
36 43 55
41 49 61
31 38 49
29 35 45
36 44 55
31 38 48
34 42 54
35 43 55
33 40 51
32 39 50
35 43 54
34 42 53
33 40 51
31 39 50
30 37 48
31 38 48
35 43 54
33 40 51
36 44 57
34 41 52
31 37 47
29 36 46
32 38 48
35 42 54
32 39 49
37 45 57
38 47 60
30 36 46
33 40 51
29 35 45
31 37 48
31 38 48
35 43 55
38 47 59
37 45 57
34 42 53
40 48 60
34 42 54
30 37 46
36 44 56
29 36 46
34 41 52
33 41 52
30 37 47
34 41 52
35 43 55
28 34 43
30 36 46
31 37 47
28 35 45
27 33 42
33 40 51
33 40 50
30 36 46
29 35 44
32 39 49
29 35 45
27 33 42
30 37 48
29 35 44
32 38 48
29 35 44
33 41 53
30 37 47
33 40 50
25 30 38
26 32 41
27 33 42
26 33 42
30 36 46
34 41 53
28 34 44
31 38 48
27 33 41
30 38 48
28 34 43
24 29 37
22 27 35
30 37 47
28 33 42
31 38 47
23 28 35
28 34 43
26 32 40
28 33 42
20 25 32
29 36 46
31 38 48
22 27 34
25 30 38
25 30 38
27 33 42
26 32 41
22 27 34
24 29 37
22 27 33
25 30 37
22 27 34
27 32 40
23 28 36
21 25 32
26 32 40
24 29 37
22 27 34
22 27 34
21 26 33
16 20 25
20 25 31
18 21 27
20 24 31
17 20 26
17 20 25
17 21 26
12 15 19
16 19 24
15 19 23
18 22 27
15 19 23
16 19 24
16 20 25
16 19 23
33 42 54
56 69 90
41 50 64
47 58 74
47 58 75
54 65 82
50 61 78
50 63 82
44 54 69
40 49 63
46 56 71
42 52 67
45 55 69
45 56 73
50 62 79
47 58 74
46 56 73
44 55 70
44 55 71
31 37 47
36 44 56
31 38 49
31 37 47
32 39 50
29 37 47
35 42 53
28 34 43
38 46 59
30 36 46
37 45 56
28 34 44
32 39 49
33 40 51
34 42 53
36 44 56
32 39 49
35 42 54
29 36 46
37 44 56
38 46 58
34 42 53
33 41 52
40 49 62
30 36 47
39 47 60
32 40 51
34 42 53
36 44 55
35 43 54
36 44 56
36 44 56
37 46 58
38 46 59
39 47 60
34 41 52
40 48 60
35 42 54
32 40 51
41 50 63
37 46 58
33 40 52
33 40 51
38 46 57
37 45 58
36 44 57
39 48 61
36 43 55
36 44 56
33 41 52
35 43 54
33 41 53
41 50 62
34 42 54
37 46 58
43 52 67
34 42 53
31 38 49
32 39 49
34 42 54
34 42 54
43 53 68
34 42 54
38 46 59
40 48 61
37 45 57
41 50 62
35 42 53
40 50 65
36 43 55
35 42 54
38 47 59
34 41 52
37 45 57
36 44 56
38 46 58
32 40 51
40 49 62
40 49 62
39 47 61
37 45 57
33 40 51
34 41 53
34 42 53
33 40 51
33 41 51
34 41 52
36 44 55
34 42 53
40 48 60
33 41 51
33 41 53
28 33 42
32 40 51
32 40 51
29 36 45
24 29 38
35 42 54
36 44 55
35 43 55
31 38 47
29 35 45
28 34 44
27 33 42
47 58 75
47 58 74
42 52 66
47 59 76
54 66 85
45 55 71
48 60 76
48 59 76
46 56 72
44 54 69
50 62 80
44 54 70
49 60 77
48 59 76
50 62 79
47 58 73
45 56 72
48 58 74
35 43 56
16 19 24
16 19 24
19 22 28
15 18 22
17 20 25
16 20 25
20 24 30
20 24 31
22 27 34
20 24 30
15 19 24
24 29 36
17 21 27
24 29 36
20 24 31
23 28 36
22 27 35
22 26 33
21 25 32
25 30 39
29 35 44
21 26 33
24 30 37
23 28 35
22 28 35
21 25 32
18 22 28
27 33 42
25 30 39
27 33 42
25 30 39
24 29 37
27 33 42
28 34 43
28 35 44
30 36 46
25 30 39
30 37 47
25 30 38
30 37 47
28 34 44
25 31 40
32 39 49
30 36 46
26 32 41
31 37 47
27 33 42
25 30 39
26 32 40
28 34 43
30 37 47
29 36 46
32 39 50
33 40 51
26 31 40
31 38 49
25 31 39
32 39 50
30 37 47
33 40 51
32 40 51
31 38 49
29 36 46
28 34 43
32 40 51
32 39 50
32 40 51
37 45 57
29 36 46
26 32 40
28 34 43
32 39 49
33 41 51
31 38 49
32 39 49
25 31 40
30 37 47
33 40 51
37 45 58
27 34 43
35 43 54
27 33 42
27 33 43
33 40 50
26 32 41
28 34 43
31 38 48
34 42 54
31 38 48
33 41 53
37 45 57
37 45 56
35 42 54
33 40 51
27 33 42
35 42 54
31 38 48
35 43 54
28 34 43
30 36 46
33 41 52
36 44 55
30 36 46
32 39 49
42 51 64
29 35 45
33 40 50
33 40 52
34 42 53
40 48 61
37 45 58
33 40 50
36 44 56
30 37 47
35 43 55
27 33 43
31 38 48
40 49 61
33 41 52
33 41 52
38 46 59
37 45 57
36 44 56
34 42 54
33 41 52
38 46 58
37 45 57
37 45 56
37 45 57
35 43 54
26 33 42
34 41 52
31 38 49
38 46 58
39 47 60
34 42 54
35 44 56
34 42 53
42 51 65
32 39 49
38 46 59
32 39 50
36 44 56
32 40 51
34 42 54
36 45 57
30 37 47
33 40 51
40 50 65
33 41 52
33 40 51
35 43 54
28 34 44
30 37 47
34 42 53
31 38 48
30 36 46
36 43 55
37 45 57
40 49 63
36 44 57
28 35 44
29 36 45
32 39 49
37 46 58
34 42 53
36 44 55
32 39 49
39 48 61
32 39 50
39 47 60
35 42 53
31 38 49
30 36 46
37 45 57
29 36 47
30 36 46
31 38 48
25 30 39
34 42 54
31 38 48
34 42 53
37 45 56
26 32 41
34 41 52
27 32 41
27 33 42
28 34 43
28 35 44
32 39 49
25 30 38
28 34 43
34 41 53
32 38 48
27 33 43
37 45 57
32 38 48
26 32 41
29 34 43
32 39 50
26 32 40
29 36 46
26 32 40
28 34 44
27 33 42
25 31 39
22 27 34
27 33 42
27 34 44
31 37 47
28 35 45
26 31 40
30 36 45
28 35 45
24 29 37
24 30 38
27 33 42
20 25 32
24 29 37
28 34 43
20 25 32
22 27 35
28 34 43
29 36 46
28 34 43
24 29 37
24 29 37
23 28 36
20 25 32
25 31 41
30 36 45
26 32 40
17 22 28
26 31 39
21 25 32
21 26 32
24 29 36
23 29 36
23 28 36
23 28 35
23 27 34
23 28 35
20 24 30
24 29 36
19 23 29
23 28 35
20 25 31
25 30 38
24 29 36
20 24 30
20 24 30
21 25 31
16 20 25
15 18 22
17 20 26
19 23 29
20 24 30
42 52 66
45 54 69
41 51 64
43 53 68
42 52 67
44 54 69
43 53 69
48 58 74
46 57 72
43 53 67
45 54 69
46 57 73
42 52 67
43 53 68
39 48 62
46 57 72
50 61 79
43 54 70
47 58 74
47 57 72
46 56 71
32 39 49
30 36 46
30 37 47
33 40 50
33 40 52
32 39 49
32 38 48
34 40 51
33 41 52
32 38 48
34 41 53
37 45 57
32 39 50
34 41 52
28 35 45
35 42 53
36 45 57
39 48 61
40 50 64
36 45 57
31 38 48
34 41 52
30 36 47
34 42 54
35 43 54
43 52 65
37 44 56
33 41 53
35 44 57
32 39 49
39 48 61
33 41 53
32 38 48
30 37 47
39 47 60
45 55 70
34 42 53
40 48 61
35 43 55
37 44 55
37 46 58
31 38 48
37 45 57
34 41 53
41 51 65
39 48 62
40 48 61
36 45 57
36 44 55
35 42 54
36 43 55
38 47 60
32 39 50
37 45 58
41 50 64
38 46 59
39 47 60
36 44 56
36 44 56
36 44 56
35 43 54
36 44 55
33 41 52
34 42 53
36 44 56
33 41 52
31 38 49
32 39 50
38 47 59
38 46 57
36 44 57
33 40 50
40 48 61
36 45 57
38 47 60
34 42 54
37 45 57
31 38 48
31 38 48
37 45 58
34 41 53
35 43 54
30 37 48
35 43 54
32 39 50
36 45 57
35 42 54
29 36 45
37 45 57
32 38 48
34 41 52
32 39 49
36 44 56
32 39 49
33 40 51
32 39 49
32 40 52
33 40 51
32 39 49
31 38 49
31 38 47
33 40 50
44 54 70
46 57 73
51 63 81
43 53 68
44 54 70
46 57 73
45 55 71
47 57 73
39 49 63
44 54 70
52 64 81
44 54 69
49 60 77
45 56 71
41 51 66
49 59 75
47 57 71
46 56 71
47 58 73
52 64 81
37 45 57
18 22 28
19 23 28
15 19 24
18 22 27
22 26 32
14 17 22
16 19 24
20 24 30
20 24 29
16 19 23
19 23 29
18 22 27
14 17 22
18 22 27
18 21 26
22 27 34
22 26 33
21 25 31
16 19 25
26 31 39
21 25 32
19 23 30
21 26 33
28 34 43
24 29 37
23 28 36
24 29 36
28 34 43
23 28 36
25 30 38
22 26 33
29 35 44
29 35 44
23 28 35
27 33 42
27 33 41
29 35 45
31 38 48
27 33 41
28 33 42
27 33 41
24 30 39
28 34 42
33 40 51
25 31 40
25 30 38
27 33 42
33 40 50
28 34 43
29 36 45
33 39 50
33 40 51
30 37 47
28 34 43
24 30 38
28 34 44
28 35 44
26 32 41
29 35 44
33 40 50
29 35 45
30 36 46
30 37 47
29 36 46
32 39 50
24 29 37
30 36 45
27 33 42
27 33 43
27 33 42
29 35 45
28 34 44
29 36 45
34 41 52
32 39 49
32 39 49
29 36 46
28 35 45
33 41 52
26 32 42
34 42 53
26 32 41
29 36 47
32 39 49
30 37 46
34 41 52
31 38 48
36 44 56
35 42 53
33 40 51
30 37 46
36 44 55
31 38 48
33 40 51
36 44 55
33 40 51
36 45 57
30 37 48
34 42 53
35 43 55
35 42 54
32 39 51
35 42 53
30 37 47
30 36 45
34 42 54
33 40 50
32 40 51
32 39 50
32 40 51
36 44 55
35 42 54
35 43 55
33 40 51
36 43 54
31 38 48
34 42 53
33 40 51
35 44 56
32 39 50
33 41 51
44 54 68
34 42 53
35 43 55
31 38 48
40 49 62
30 37 46
32 39 49
35 43 55
34 41 52
38 47 59
37 45 57
35 43 53
35 42 54
34 42 54
29 35 44
32 39 50
40 49 62
33 40 51
36 44 56
32 39 50
40 49 61
28 34 43
35 43 55
39 47 59
34 41 52
33 40 50
38 46 59
38 46 58
31 39 50
33 40 52
29 36 46
33 41 52
31 38 48
32 39 49
33 40 51
35 43 55
35 42 53
30 37 47
32 39 50
36 44 55
37 45 57
35 43 54
35 43 54
31 38 49
33 40 51
35 42 53
30 37 47
31 37 47
35 43 55
33 40 51
31 38 48
35 42 53
30 37 47
31 38 49
35 42 53
33 41 51
29 36 46
29 36 46
34 41 51
31 38 48
34 40 51
37 44 55
31 38 48
25 31 40
31 38 49
29 35 43
28 35 44
34 42 54
31 37 47
34 41 52
36 43 55
25 30 38
28 34 43
28 34 44
27 33 42
25 30 38
30 36 47
30 37 46
28 34 43
27 32 41
29 36 46
29 36 46
25 31 39
26 32 41
31 38 49
29 36 46
26 33 42
28 34 43
29 34 43
31 38 48
28 34 43
28 33 42
27 33 42
30 36 45
28 34 44
26 32 41
27 32 41
22 27 35
28 34 43
24 28 35
28 34 44
23 28 36
27 32 41
23 28 36
25 30 38
22 27 34
24 29 37
23 28 35
22 26 33
29 35 44
18 22 28
20 25 31
14 17 21
23 28 35
20 24 31
24 29 37
20 25 31
26 31 40
23 28 35
19 22 28
19 23 29
21 26 33
21 26 33
20 24 30
19 23 29
21 25 30
17 21 26
18 21 27
20 24 29
17 21 26
17 20 25
20 24 29
18 21 27
23 28 35
39 47 59
46 57 72
53 65 83
49 59 74
44 54 69
45 55 70
46 57 72
39 48 62
45 54 69
45 55 71
48 59 75
50 61 77
41 50 64
45 54 69
44 54 70
41 51 65
44 54 68
47 57 73
52 64 81
42 52 66
48 60 76
47 57 73
40 49 62
31 38 48
24 29 38
31 37 48
31 37 47
27 33 43
33 41 52
28 34 44
33 40 52
30 36 46
36 43 54
29 36 47
30 36 46
32 40 50
35 43 54
34 42 53
35 43 54
37 45 56
29 36 47
32 39 51
35 42 54
40 49 62
34 42 52
35 43 56
34 41 51
40 49 63
35 43 55
37 45 57
35 43 54
39 47 59
37 46 58
40 49 63
37 46 59
36 44 57
37 45 56
34 42 54
32 39 50
42 51 65
33 41 52
33 40 51
33 40 51
33 41 51
37 45 57
37 45 57
31 38 49
35 43 55
38 46 58
33 40 52
41 49 61
33 40 52
40 49 62
40 48 61
38 46 59
43 52 66
34 41 52
43 52 66
33 40 51
33 40 51
33 40 51
37 45 57
38 47 61
33 41 52
37 45 56
42 51 65
35 42 54
38 46 58
40 49 63
38 46 59
37 45 56
36 44 56
34 41 52
36 44 55
34 42 54
41 49 62
36 45 57
34 42 54
38 46 59
35 43 55
36 45 58
37 46 58
34 41 52
37 46 58
37 45 58
38 47 59
35 43 56
35 43 55
31 38 49
34 41 52
32 39 49
32 39 50
33 40 51
34 42 53
36 44 55
31 38 48
33 40 51
36 43 55
32 39 49
31 38 48
31 37 47
30 36 45
26 32 41
36 44 56
44 54 69
44 55 71
43 53 68
52 63 80
39 48 61
39 48 62
46 57 73
40 49 62
40 49 63
42 53 68
44 53 67
42 51 65
48 58 74
41 50 63
44 54 69
45 55 71
43 53 68
44 54 68
47 57 72
46 55 70
44 54 70
46 56 73
26 31 38
16 19 24
20 24 29
18 22 27
15 19 23
19 23 28
17 21 26
16 20 24
18 21 26
19 23 29
19 23 29
21 26 32
21 25 32
17 21 26
21 25 31
21 26 32
19 24 30
20 25 31
25 29 36
25 30 38
22 27 34
26 32 40
25 30 38
26 32 40
20 24 30
26 31 39
22 27 34
24 29 37
19 24 30
22 27 33
25 30 38
21 25 32
20 25 31
27 33 41
29 35 44
25 30 39
30 37 47
24 30 38
26 31 39
21 25 31
28 34 43
25 30 39
26 31 40
22 27 35
27 33 42
29 36 46
26 31 39
26 31 40
25 30 38
31 38 47
25 31 40
31 38 49
30 36 45
23 29 37
23 29 37
31 38 48
28 35 44
32 39 49
28 35 44
26 31 40
29 36 46
27 33 41
26 32 41
28 34 44
33 39 50
35 43 55
33 40 51
32 39 49
30 36 46
28 34 44
31 38 49
33 40 51
33 40 51
29 35 45
36 44 55
29 36 46
36 44 56
32 39 49
28 34 43
30 37 47
33 41 52
31 39 50
34 42 52
35 43 54
35 42 54
34 41 52
30 37 46
28 35 44
31 37 47
33 40 51
34 41 51
31 38 48
37 46 58
36 44 56
31 38 48
33 40 51
31 37 48
34 41 53
34 41 53
34 41 52
27 34 44
37 45 56
28 36 46
33 40 50
31 38 48
33 40 51
31 39 49
38 47 59
29 36 45
32 39 49
32 39 50
30 37 47
32 39 49
26 32 42
32 40 51
32 39 49
38 45 57
33 41 52
39 47 60
33 40 51
34 42 54
36 44 55
35 42 52
34 41 52
35 43 55
43 52 66
38 47 60
39 48 61
35 43 54
34 41 52
29 35 44
33 40 51
36 44 56
32 39 50
38 47 59
33 41 53
36 43 55
33 41 52
30 36 46
34 41 53
34 42 53
35 42 54
35 43 56
36 44 56
32 39 50
37 45 56
35 43 54
36 44 55
33 41 53
33 40 51
33 40 50
29 35 44
33 41 52
36 43 54
34 41 52
30 38 48
37 45 57
33 40 50
32 38 48
31 38 49
37 45 57
37 45 57
29 35 45
37 45 58
31 38 49
32 38 48
29 36 46
31 39 50
33 40 51
31 39 49
28 34 43
30 37 47
29 36 46
26 32 41
33 40 50
30 36 46
32 39 50
36 44 55
31 38 49
29 36 45
29 35 45
29 36 46
29 35 44
30 37 47
32 39 49
34 42 54
27 33 42
29 36 45
30 37 47
30 37 47
28 34 44
33 40 51
31 38 49
30 37 46
27 33 42
30 37 47
29 35 44
28 34 43
33 40 50
32 39 49
28 34 43
25 30 38
25 30 38
24 29 37
28 35 44
22 27 34
31 37 47
26 32 40
25 31 39
23 28 35
27 34 43
28 34 42
27 33 42
25 30 38
28 34 43
30 36 45
25 31 39
26 31 39
24 29 36
27 33 41
28 33 42
25 31 39
27 33 42
23 28 36
20 24 31
24 29 37
29 35 44
22 26 33
25 30 39
24 29 36
21 25 32
23 28 35
24 29 37
22 26 33
23 28 35
20 24 31
20 24 30
20 25 31
16 19 25
20 24 30
17 21 26
20 24 31
22 26 32
20 24 30
17 21 26
23 28 35
18 22 27
17 21 26
20 24 30
17 20 25
15 18 23
17 21 26
23 27 35
42 51 64
43 52 66
40 48 61
40 49 62
44 54 68
40 49 62
46 55 68
44 53 67
45 54 69
41 50 64
35 43 55
46 57 73
39 48 62
38 47 61
46 56 71
46 55 70
45 55 70
44 53 68
48 58 74
42 52 66
48 59 75
43 52 66
41 51 65
38 46 59
34 42 54
28 35 44
30 36 46
33 41 52
28 33 42
36 44 56
31 38 49
31 37 47
33 40 51
33 40 51
30 37 46
35 43 54
36 44 55
35 44 56
33 40 51
31 37 47
30 37 47
41 50 63
32 40 51
34 41 52
31 38 48
30 37 49
29 35 45
38 46 58
38 46 58
38 46 58
32 39 49
32 38 48
41 50 63
34 41 52
33 40 52
38 46 58
33 40 51
30 36 45
40 48 61
31 39 49
36 44 55
38 46 58
39 48 61
35 43 55
33 40 51
36 44 55
39 47 59
33 40 51
31 39 50
31 37 47
39 48 61
41 49 63
33 40 51
36 44 56
35 43 55
35 43 56
33 41 52
39 46 58
32 40 51
35 43 54
35 42 54
37 46 59
30 36 46
39 47 59
41 50 62
34 41 52
38 46 59
44 54 67
36 44 55
31 39 50
33 40 51
40 49 61
33 41 52
35 43 55
36 45 58
29 35 44
43 52 66
34 41 52
29 36 46
37 45 58
36 43 55
36 44 57
30 37 47
37 45 57
30 37 46
36 44 56
33 40 51
30 37 47
32 40 51
34 41 53
31 37 47
36 43 55
30 37 48
29 36 45
32 38 48
37 46 58
31 39 49
35 42 53
31 37 47
32 39 49
28 34 44
24 29 36
29 35 44
34 41 52
42 52 67
36 44 57
44 54 69
39 48 61
38 48 62
41 50 65
41 50 65
44 53 67
41 49 62
42 52 66
42 52 66
37 45 58
45 55 71
46 56 71
42 52 66
41 50 64
43 53 66
35 42 54
40 50 64
39 48 60
41 50 64
43 52 67
40 49 62
40 49 62
28 34 42
17 20 25
14 17 21
19 23 29
18 22 27
25 29 36
19 23 29
12 15 19
20 24 30
18 22 28
21 25 32
20 24 30
18 22 29
19 23 29
19 23 29
25 30 38
22 27 33
24 29 36
21 25 32
26 32 41
19 22 28
25 30 38
20 25 32
25 31 39
23 27 34
26 31 40
23 28 36
22 26 34
24 29 37
29 34 43
22 27 35
26 31 39
22 27 34
31 38 48
27 33 41
27 33 42
24 29 37
29 35 43
24 29 37
28 34 43
26 32 41
28 35 44
24 30 38
29 35 43
24 29 36
27 33 42
31 38 47
24 29 37
30 37 46
29 35 44
27 33 42
25 31 40
28 35 44
25 31 40
29 36 46
25 30 39
32 39 50
28 35 44
31 38 48
27 34 43
30 37 46
29 35 44
32 38 48
32 39 50
26 32 41
34 42 54
27 33 41
29 35 45
32 39 49
31 39 50
32 39 49
32 39 50
31 38 48
27 33 42
38 46 59
30 37 48
30 36 46
33 40 51
29 36 46
32 39 49
38 46 58
36 43 55
36 43 55
34 41 51
31 38 47
29 35 45
31 39 49
28 36 46
32 39 50
36 44 56
36 44 56
29 36 46
35 43 55
34 42 53
27 33 42
32 39 49
35 43 56
30 37 46
28 34 43
32 39 49
32 39 50
34 42 54
28 35 45
29 35 44
35 43 55
32 39 49
29 35 45
33 40 51
32 38 49
32 40 50
30 36 46
35 43 54
36 44 56
31 38 48
34 42 53
36 44 55
39 47 59
34 42 53
37 45 57
36 44 56
35 42 53
29 35 45
36 44 55
32 38 48
33 41 52
34 42 53
40 48 61
36 45 57
34 42 54
30 37 47
37 45 56
36 44 56
32 40 51
41 49 62
32 39 50
31 39 50
35 43 55
32 39 49
33 40 50
34 41 52
35 42 54
32 40 50
35 43 54
35 42 53
31 37 48
34 41 53
33 41 52
30 37 47
34 41 53
38 46 58
39 47 59
28 35 44
33 40 51
34 42 52
32 39 50
31 38 49
33 40 51
29 36 46
35 42 54
28 35 44
31 38 48
32 39 49
30 37 48
33 40 51
28 34 44
30 36 45
31 37 48
32 38 48
30 36 46
33 40 50
30 37 48
34 41 51
30 37 47
35 42 53
30 37 48
29 35 44
28 34 43
28 34 42
30 36 46
29 36 47
33 39 50
28 34 43
36 43 54
34 42 53
27 33 42
31 38 48
30 37 47
32 39 50
30 37 46
26 31 40
25 30 38
31 38 49
30 37 47
29 35 45
31 38 48
30 36 47
29 36 45
28 35 44
26 32 41
30 36 46
28 34 43
25 30 38
26 32 41
27 32 41
26 32 41
26 32 40
28 34 43
30 37 46
25 31 39
27 33 42
31 37 47
29 36 46
26 32 41
27 32 41
28 34 43
26 31 40
26 31 40
27 32 41
27 32 41
24 30 38
23 29 37
25 31 39
25 31 39
22 26 33
19 23 28
28 34 43
19 24 30
24 30 37
23 28 35
25 30 38
20 24 31
25 30 37
25 30 37
22 27 33
20 24 30
23 28 35
25 30 38
15 18 23
22 27 34
18 22 28
18 22 28
19 24 30
24 29 35
16 19 23
18 22 28
20 24 30
18 22 27
19 22 28
16 19 23
20 24 30
33 40 51
36 43 55
40 49 61
39 47 59
37 45 57
37 46 58
42 51 65
34 42 54
44 54 70
40 49 62
43 53 68
39 48 61
39 47 59
40 49 62
36 44 56
44 54 69
45 55 70
41 50 64
39 48 61
41 50 63
47 57 71
42 52 67
43 53 68
42 51 64
42 52 68
42 52 66
41 51 66
29 36 46
30 36 45
30 36 45
32 39 50
34 41 51
26 31 40
33 40 51
31 39 50
31 38 49
32 39 50
28 35 45
36 44 55
29 35 45
31 38 49
36 44 56
34 42 54
32 39 49
32 39 50
33 40 51
35 41 52
34 41 53
39 47 59
35 43 54
35 42 54
32 39 49
32 39 49
39 47 59
39 47 59
32 39 49
37 45 57
32 39 50
35 42 53
36 44 55
39 47 60
35 42 54
36 44 56
40 49 62
39 48 61
34 41 52
35 43 55
34 41 51
36 43 55
32 39 50
33 40 51
37 45 57
36 44 57
33 40 51
34 41 52
30 37 48
36 44 55
35 43 56
37 46 58
37 45 57
35 43 55
41 50 63
35 42 54
39 47 60
35 43 56
38 46 59
35 42 53
38 46 59
33 40 51
36 43 54
31 38 49
33 41 52
38 46 58
34 42 54
32 39 50
40 48 60
39 47 60
35 42 53
34 40 50
37 45 58
32 39 50
38 45 56
33 40 50
34 42 54
35 43 55
34 42 54
33 41 52
33 40 50
36 44 57
37 45 58
33 40 50
39 47 59
40 49 62
34 41 52
33 40 51
31 37 47
28 34 43
30 37 46
35 43 55
29 36 46
31 37 48
27 33 42
26 32 40
27 33 41
33 40 50
46 56 72
40 49 63
39 48 61
42 52 65
37 45 57
38 46 59
46 57 73
43 53 67
34 41 52
41 51 64
47 57 73
44 53 68
45 56 71
37 46 58
40 50 64
38 46 58
38 46 58
47 57 73
37 46 59
47 56 70
43 52 66
41 50 63
41 50 64
46 56 72
42 51 64
39 47 59
33 40 51
16 20 24
16 20 24
19 22 28
17 21 26
14 17 21
15 18 23
22 27 34
16 20 25
18 22 28
18 22 28
21 25 31
21 26 32
24 29 36
22 27 34
20 24 30
17 20 26
22 27 33
20 25 32
23 28 36
18 22 27
23 28 35
19 23 29
26 32 40
22 27 35
24 30 37
21 26 34
22 26 33
23 28 36
28 34 42
27 32 41
24 29 36
25 31 40
24 29 37
24 29 37
26 32 41
27 32 41
27 33 42
20 25 32
25 30 38
20 25 32
27 33 42
26 31 40
25 30 38
24 29 37
30 36 45
20 24 31
30 36 46
28 34 44
26 32 41
31 38 48
26 32 41
31 38 47
25 31 40
29 36 45
28 34 43
30 36 46
30 37 47
34 41 52
28 35 44
31 37 47
32 39 50
29 35 44
29 35 45
28 34 44
29 36 45
30 36 46
32 38 48
35 42 54
29 35 45
31 38 48
28 34 43
31 38 48
32 40 50
28 35 44
30 36 46
25 31 39
32 39 50
27 33 42
34 42 54
32 40 51
28 34 44
28 35 44
36 44 57
29 35 45
31 38 48
31 38 48
35 42 53
38 46 58
34 41 52
32 38 48
29 36 45
37 46 58
31 38 48
26 32 40
36 44 55
33 40 50
30 36 45
31 38 48
32 40 51
31 38 49
43 52 65
35 43 55
30 36 47
35 42 53
31 38 48
33 40 51
38 46 58
35 43 53
35 42 54
32 39 50
31 38 48
35 43 55
33 40 51
28 35 45
31 38 48
36 44 56
28 34 43
31 38 48
32 39 50
38 46 58
32 38 47
36 44 56
33 41 52
41 50 62
33 40 51
33 40 51
36 45 58
32 39 50
32 39 50
34 40 50
36 43 55
32 39 50
28 34 43
34 42 53
31 38 49
33 40 52
33 40 50
32 40 51
29 36 46
36 44 56
39 48 61
34 42 54
28 34 44
31 37 47
35 43 54
34 41 52
39 47 58
30 37 47
34 42 53
31 38 48
37 45 56
36 44 56
29 35 45
33 40 50
28 34 43
32 38 48
31 39 49
29 36 46
34 41 52
32 39 50
29 34 43
33 40 51
32 39 49
32 39 49
36 44 56
31 38 48
38 46 57
36 44 56
30 37 47
31 38 48
29 36 46
31 38 48
32 39 50
35 43 55
38 47 59
30 37 46
36 44 56
32 39 49
28 34 43
29 35 45
29 34 43
34 41 52
29 35 45
31 38 48
32 39 49
26 32 40
25 31 40
27 33 42
24 30 39
27 33 42
30 37 46
29 35 44
29 36 45
32 39 49
29 35 44
24 29 37
31 38 48
23 29 36
27 33 42
31 37 47
21 26 33
27 33 43
25 31 39
23 28 36
25 31 39
29 35 44
29 35 44
27 34 43
30 37 46
25 30 39
21 25 32
28 34 43
27 33 42
28 34 42
24 30 38
25 30 38
26 31 39
30 36 45
27 32 40
24 29 38
26 32 40
23 28 35
21 26 32
28 34 43
21 26 33
19 23 29
20 24 31
22 26 33
20 24 31
21 25 31
23 28 35
22 27 34
20 24 31
15 18 23
17 20 25
23 28 34
17 21 27
22 26 32
21 25 31
19 23 29
24 28 35
16 20 25
20 23 29
18 22 27
18 21 27
21 25 31
24 29 36
39 47 59
45 54 68
35 43 54
34 41 52
35 43 55
35 43 54
37 45 57
39 48 61
34 41 52
37 44 55
41 50 63
40 48 61
41 50 63
42 51 64
46 56 70
31 38 48
40 49 62
39 48 61
39 48 62
43 52 67
45 55 70
45 55 70
36 45 57
49 60 77
41 51 64
42 52 67
38 47 61
43 53 68
36 43 55
28 34 43
31 38 47
26 32 41
31 37 47
33 40 50
29 36 45
28 34 43
34 41 52
37 45 57
33 40 51
32 39 49
36 44 56
33 40 51
29 35 45
33 41 52
31 38 49
33 40 50
38 46 58
30 36 46
38 47 60
41 49 62
31 38 48
33 41 53
35 42 54
36 45 57
36 44 55
33 40 51
39 47 59
44 53 67
33 40 51
41 50 62
38 46 58
30 37 47
38 46 58
40 49 62
30 37 48
36 44 56
37 45 57
37 45 58
29 35 45
43 52 65
33 41 52
33 41 53
46 55 70
35 43 55
37 44 55
34 41 53
39 47 59
36 44 57
36 44 55
30 36 46
41 49 62
35 43 54
31 38 47
35 43 55
36 45 58
36 44 56
36 44 56
38 47 60
31 38 48
30 37 47
34 42 53
36 44 55
33 40 51
31 38 48
34 42 53
33 41 52
35 42 54
37 45 57
38 47 60
33 41 52
31 38 48
33 40 52
30 37 47
34 42 54
36 44 56
31 37 47
36 44 56
38 46 57
36 44 55
34 42 53
32 40 50
29 36 46
28 34 43
37 45 58
36 44 56
30 36 45
33 41 52
37 45 56
33 40 51
35 42 54
26 32 41
31 38 48
34 42 53
27 32 41
29 36 46
39 47 60
50 61 77
41 50 63
40 49 62
42 51 66
38 47 60
42 51 65
46 57 72
44 52 66
44 54 69
43 53 68
39 48 61
41 50 64
45 54 69
40 49 62
36 44 55
35 42 53
35 42 54
40 49 61
36 43 54
36 44 55
38 46 59
36 44 55
37 44 56
34 41 52
48 59 74
40 49 62
42 51 65
36 43 54
24 29 36
17 21 26
14 16 21
12 14 18
19 22 28
21 26 32
17 21 26
18 21 26
18 21 27
19 23 29
22 26 33
18 22 28
20 24 30
22 27 34
23 28 35
23 27 34
27 33 42
25 30 38
22 27 35
20 25 31
19 24 30
29 36 45
22 27 34
23 27 34
22 27 34
26 31 39
24 30 38
25 31 39
25 30 37
27 33 42
23 27 35
28 34 42
28 34 43
31 37 47
22 27 35
27 33 41
26 32 41
28 34 43
21 26 32
25 31 40
25 31 39
23 28 36
29 35 44
31 38 48
30 37 47
25 30 38
26 32 40
23 28 35
28 34 43
24 30 38
28 34 43
29 35 45
28 34 43
31 38 47
30 36 46
24 29 37
26 32 40
30 37 46
30 36 46
28 34 44
26 31 40
32 38 48
32 39 49
33 41 52
34 42 53
29 35 44
29 35 45
32 38 49
26 32 41
28 34 44
32 39 50
28 34 43
29 35 44
28 34 44
29 36 46
28 34 43
35 43 55
28 34 43
27 33 41
30 37 47
33 40 50
35 42 53
31 37 47
28 35 44
32 39 50
29 35 45
34 42 54
30 37 48
31 38 48
34 41 52
37 45 58
27 33 41
30 37 48
33 40 51
39 47 59
35 43 54
31 38 49
34 42 53
35 43 54
31 38 49
30 37 46
36 44 56
35 43 54
29 35 45
33 40 51
31 38 48
31 38 48
28 35 44
34 42 53
31 38 48
37 45 57
37 45 57
29 36 46
35 43 54
33 40 50
27 33 41
30 37 46
34 41 52
32 39 50
31 37 47
33 40 50
32 39 49
32 39 49
31 38 49
32 39 49
32 40 50
35 44 57
28 34 43
35 42 53
38 46 58
36 44 55
36 43 55
31 38 48
29 35 45
40 49 61
37 45 56
32 39 49
40 48 60
32 39 49
30 36 45
30 36 46
36 43 54
29 36 46
35 43 54
27 33 42
36 43 55
29 35 45
35 42 54
28 33 42
35 43 54
33 41 51
31 39 50
38 46 59
30 37 47
34 42 53
37 45 56
31 38 48
32 39 48
29 36 47
33 40 51
35 42 54
31 38 49
31 38 49
32 39 49
33 41 53
30 37 47
33 40 50
33 40 50
29 36 45
28 35 44
33 40 51
33 40 50
30 37 47
31 38 48
32 39 49
31 38 48
30 37 46
31 38 49
38 46 59
32 38 48
30 37 47
26 32 41
25 31 39
27 33 42
31 37 48
28 35 44
30 37 47
25 31 40
30 36 46
27 32 41
27 33 41
30 36 45
27 33 41
26 32 42
27 32 40
27 32 41
26 31 39
27 34 44
24 29 37
26 32 40
24 29 37
28 34 43
25 30 38
29 35 43
27 32 41
27 33 42
26 32 40
27 33 42
23 28 36
25 31 39
26 31 39
30 36 45
26 32 41
26 31 38
23 27 34
28 34 44
23 28 35
24 29 37
22 26 34
18 22 28
23 28 35
29 35 44
21 26 32
20 25 31
21 26 32
20 24 31
21 25 32
25 30 38
22 26 33
23 27 34
27 32 40
21 25 31
21 25 31
22 26 32
20 25 31
19 23 28
20 24 30
21 25 31
17 21 27
18 21 26
15 18 22
21 25 32
17 20 25
14 17 21
28 33 42
28 33 42
38 45 57
41 50 63
40 48 60
40 49 62
35 43 55
37 45 56
36 44 55
36 44 55
36 44 57
36 43 54
32 39 50
42 51 64
31 37 48
42 51 65
40 49 61
38 47 59
39 47 60
40 50 63
36 44 57
42 52 66
46 55 69
48 58 74
42 51 66
36 45 58
39 48 60
36 44 56
46 57 72
45 54 69
40 48 61
35 43 56
32 39 49
28 34 43
32 38 48
28 34 42
32 39 50
29 36 46
35 43 55
32 39 49
27 33 42
33 41 52
35 42 53
31 38 50
34 41 52
34 42 53
34 40 50
35 42 53
38 47 60
33 41 52
32 39 50
35 43 55
40 48 60
30 37 48
37 45 57
38 46 59
33 40 51
36 43 55
37 45 56
39 47 59
30 37 47
34 42 54
39 47 59
36 43 55
28 35 45
32 39 50
34 41 52
36 44 56
31 38 48
32 39 49
39 48 60
38 46 58
36 43 55
35 42 54
36 44 56
34 41 52
34 42 53
32 39 50
39 47 60
36 44 57
35 42 53
34 42 53
35 43 54
34 42 53
40 49 61
40 49 61
38 47 59
42 51 65
35 42 54
31 38 48
33 40 51
33 40 50
40 49 61
34 42 54
36 44 55
37 45 57
35 43 54
35 42 54
36 44 56
34 41 52
32 39 49
31 38 48
32 39 50
40 48 61
34 41 52
35 43 55
32 39 49
36 44 56
26 32 41
30 36 47
36 44 56
37 45 56
33 40 50
34 42 54
37 45 58
31 38 48
35 42 53
31 39 49
32 39 50
30 36 45
31 38 49
29 35 45
27 33 41
25 31 38
27 33 42
30 37 47
36 44 56
38 47 61
40 49 62
44 53 66
43 53 67
43 52 67
45 55 71
40 49 62
37 46 58
44 54 68
37 44 55
38 47 60
43 52 66
41 50 63
37 45 57
44 54 69
41 50 63
46 55 69
40 50 63
41 49 62
41 50 63
35 42 53
32 38 48
38 46 57
43 52 67
36 43 53
38 46 57
34 42 53
40 48 61
34 42 53
44 53 66
28 34 43
17 21 26
14 16 20
20 24 30
19 22 28
15 18 23
16 19 24
17 20 25
26 30 37
22 26 33
20 25 31
19 22 28
19 23 29
24 29 36
23 27 34
20 24 30
22 26 33
25 30 38
23 28 35
25 31 38
23 27 35
26 31 40
21 26 33
31 38 49
18 22 28
19 23 29
24 29 37
19 23 30
25 30 38
27 32 41
28 34 43
29 35 44
25 30 38
26 31 39
28 34 42
28 34 43
22 27 34
26 31 39
31 38 47
27 33 42
25 31 39
31 37 46
27 33 41
31 37 47
24 28 36
27 32 41
25 30 39
26 32 40
27 32 41
29 35 44
29 35 44
27 33 42
30 37 47
31 38 48
25 30 39
25 30 39
28 35 45
27 32 41
26 32 41
28 35 45
31 38 48
29 36 45
29 35 44
28 34 43
33 41 51
26 32 41
32 39 48
30 37 47
26 31 39
32 39 49
31 38 49
31 37 46
31 37 47
27 33 42
33 41 52
30 36 46
31 38 48
30 37 48
30 36 46
30 37 46
31 38 48
30 37 47
30 36 46
31 37 48
29 35 45
26 33 42
29 36 46
29 35 45
30 36 45
35 43 54
35 42 53
36 44 55
37 45 57
30 37 47
31 37 48
33 41 51
25 30 38
35 42 53
26 32 41
33 40 51
28 34 43
26 32 40
31 37 47
33 40 50
33 40 51
28 34 43
36 43 55
34 41 53
35 43 54
31 37 47
39 46 58
29 35 44
37 45 56
33 40 51
38 46 58
29 35 45
36 44 56
30 37 47
31 38 47
33 41 52
34 41 53
36 44 55
39 48 61
38 46 59
37 44 56
31 38 48
37 45 58
36 43 54
43 52 66
32 39 49
39 47 59
38 46 58
32 39 49
30 36 45
30 37 47
34 42 54
35 43 54
42 51 65
36 44 55
35 43 54
33 39 49
34 42 53
28 34 44
32 39 49
29 35 45
33 39 49
33 40 51
31 38 48
35 42 54
33 40 51
30 36 46
32 39 49
32 40 50
38 46 58
32 38 48
31 37 47
30 37 47
32 39 50
31 38 49
32 39 49
28 34 43
32 39 49
33 40 50
31 38 48
33 40 50
33 40 51
28 34 43
27 32 40
33 39 50
30 37 48
29 36 46
30 36 46
33 39 49
25 30 38
31 38 48
36 43 54
34 40 51
35 42 53
29 36 45
33 39 49
29 35 44
26 31 40
26 32 40
31 38 48
29 35 44
28 34 43
30 37 46
30 36 45
33 41 52
28 34 43
24 29 37
25 30 38
31 38 48
27 33 42
23 28 36
30 36 46
32 39 50
22 27 35
28 33 42
28 35 44
28 34 44
26 31 39
25 31 40
25 31 38
24 30 38
23 28 36
27 33 43
30 36 45
25 30 38
30 37 46
25 30 38
21 26 34
23 28 35
23 28 36
22 27 34
27 33 41
23 28 36
23 28 35
17 20 25
24 29 36
30 36 45
26 31 39
21 25 32
22 27 34
25 30 39
21 25 32
24 29 37
20 24 31
22 26 33
22 27 34
18 21 27
18 21 27
22 27 34
21 25 32
16 19 25
19 23 28
19 23 28
19 23 28
20 24 30
18 22 27
19 23 29
15 18 22
36 43 53
33 40 50
39 46 57
38 46 58
39 47 60
34 41 52
35 42 54
36 44 56
40 48 60
36 44 55
37 45 57
38 46 58
37 45 56
33 40 50
36 44 56
35 42 54
37 45 57
38 45 57
40 48 61
38 46 59
40 49 63
34 42 53
44 53 66
43 51 64
31 38 48
34 41 52
46 55 70
39 48 61
34 42 54
35 43 54
41 50 64
44 54 68
34 41 53
35 42 54
28 34 43
22 28 36
27 32 40
27 33 42
30 37 47
33 40 50
38 46 57
30 36 47
30 37 47
28 34 43
37 46 58
25 31 40
29 35 44
29 35 45
35 43 54
31 37 48
28 34 44
33 40 52
32 40 51
36 44 55
35 43 54
36 45 57
39 47 59
38 47 59
33 40 51
32 39 49
40 48 61
35 42 54
34 41 51
36 44 56
37 45 57
36 44 55
37 45 57
39 48 61
34 41 52
34 42 53
30 37 47
39 47 58
32 39 50
34 41 52
35 43 54
36 44 56
36 44 56
35 43 55
33 41 52
35 42 54
36 44 56
44 53 67
36 44 56
40 49 62
41 49 61
33 40 52
40 48 61
38 47 59
37 45 57
38 46 59
38 46 57
33 41 52
35 43 55
31 38 49
40 48 61
38 46 59
33 40 51
35 43 55
39 47 60
38 46 58
39 48 60
38 47 59
33 40 51
33 40 51
33 40 52
41 50 64
36 44 55
31 37 47
34 42 54
33 40 51
36 44 55
30 37 46
36 44 56
35 42 54
33 41 51
31 38 48
34 41 51
34 41 51
28 34 43
35 42 53
32 39 49
33 39 50
35 43 54
27 33 41
26 31 39
30 37 47
37 45 57
42 50 62
39 48 61
33 41 52
38 46 57
36 43 55
37 45 57
36 44 56
44 52 65
38 46 58
44 54 68
36 44 57
38 47 59
35 43 54
44 53 66
52 63 79
40 49 61
36 44 55
38 46 57
39 47 59
32 39 50
41 49 62
41 49 62
38 46 57
37 44 55
34 42 53
41 50 62
39 47 58
45 53 66
35 42 52
39 47 59
33 40 50
35 43 54
38 45 56
18 22 27
16 19 23
18 22 28
18 21 26
20 24 30
19 23 29
19 23 30
18 21 27
21 25 31
17 21 26
20 24 30
19 23 28
17 21 27
22 27 34
24 29 37
23 28 35
21 25 32
25 30 38
23 28 35
23 28 35
18 21 27
25 30 39
24 29 37
22 27 34
22 27 34
24 30 37
17 21 27
24 29 37
25 30 38
26 31 39
24 29 37
24 29 37
22 27 35
23 28 36
23 29 37
26 32 41
26 32 40
26 32 41
28 34 43
26 32 41
26 31 40
24 30 38
26 31 39
29 35 44
28 33 42
32 38 48
28 34 43
22 27 34
29 35 44
26 32 41
26 32 41
24 29 37
26 31 39
28 35 44
26 32 40
26 31 40
28 35 44
30 36 45
23 28 35
30 36 45
24 30 38
31 37 47
31 38 49
33 40 51
28 34 43
33 41 52
27 33 41
29 36 45
30 36 44
27 33 42
27 33 42
31 38 48
27 33 41
31 37 47
29 36 46
35 42 54
33 40 50
26 32 41
26 31 40
28 34 44
32 39 50
31 38 48
30 37 47
30 37 47
28 34 43
31 38 48
33 40 50
31 38 48
39 47 59
31 38 47
30 36 46
29 35 44
29 35 45
33 40 50
30 36 46
34 41 52
32 39 50
34 41 52
34 41 52
29 35 45
30 36 46
33 40 50
32 39 50
34 42 53
33 40 51
33 40 50
32 39 50
36 43 54
33 40 51
38 46 57
28 34 43
35 43 55
33 40 51
30 36 46
31 39 50
33 39 49
32 39 50
36 44 56
36 43 54
31 37 48
35 42 54
34 41 51
31 38 48
27 33 42
31 38 49
32 39 49
36 44 55
32 39 50
34 41 51
34 41 52
34 41 52
34 42 53
36 44 56
33 40 51
32 39 49
33 40 50
30 37 47
31 39 49
34 42 53
33 41 52
33 40 50
33 40 51
31 38 49
30 36 46
37 45 58
37 44 56
29 35 45
29 35 45
32 38 48
34 42 54
39 47 60
36 44 55
35 42 53
27 34 44
29 36 45
31 39 49
31 37 47
29 36 45
30 37 47
35 42 53
29 36 45
33 40 50
33 40 51
31 38 47
32 39 48
27 33 43
25 31 39
28 34 43
31 38 48
33 40 51
31 38 49
30 37 47
32 39 50
38 46 58
29 36 46
34 42 53
27 33 42
32 39 49
29 36 46
32 38 48
32 39 48
29 36 46
30 37 47
27 33 42
29 35 44
28 34 44
30 36 45
32 39 49
22 27 35
30 36 46
28 34 43
27 33 41
31 37 47
24 30 38
31 37 46
26 31 39
24 29 37
26 31 40
24 30 37
27 33 41
23 28 35
28 33 42
25 31 39
24 30 38
27 32 41
20 25 32
28 35 44
22 26 33
25 31 39
32 39 48
24 29 37
21 25 32
27 33 42
27 33 42
25 30 38
23 27 34
22 26 33
20 24 30
26 31 39
21 25 31
17 21 26
24 29 37
24 29 36
19 23 29
20 24 30
17 21 26
21 25 32
22 27 34
20 25 31
27 32 40
16 19 24
20 24 30
20 24 30
19 23 28
16 19 24
16 19 23
16 20 25
20 23 28
29 34 42
40 47 59
33 39 48
35 42 52
39 47 58
30 36 44
30 36 46
42 50 62
30 36 45
35 42 53
30 36 45
31 38 48
45 53 67
37 44 55
40 49 62
41 49 61
32 39 49
40 48 60
32 39 49
42 50 63
38 47 60
33 41 52
40 48 62
36 44 56
33 41 52
44 53 67
37 46 58
37 45 57
44 53 67
39 47 58
44 53 68
35 43 55
34 42 53
30 36 46
46 55 68
40 49 62
39 48 62
24 29 37
26 32 41
28 34 44
31 37 47
31 38 47
31 38 48
30 36 45
34 42 53
30 37 48
31 38 49
29 36 45
34 41 52
38 46 57
28 35 44
32 40 50
28 34 42
36 44 55
33 40 51
36 45 57
28 34 43
31 38 48
34 42 53
35 43 55
33 41 53
36 44 56
36 43 55
31 38 49
37 44 56
35 42 53
38 47 60
33 39 49
35 42 54
34 42 52
32 39 49
34 41 52
35 43 54
36 44 56
39 48 61
38 47 59
38 46 58
32 39 50
36 44 56
34 41 52
39 48 61
37 46 59
37 44 55
36 44 56
35 43 55
37 45 57
37 45 57
37 44 55
34 42 54
40 48 61
37 45 57
37 45 58
31 38 49
36 44 55
26 32 41
32 39 48
32 38 48
33 41 51
38 47 59
36 44 55
30 37 47
38 46 58
40 48 61
39 47 60
33 40 51
33 40 50
34 41 51
35 43 53
36 44 56
28 35 44
33 41 52
38 46 58
30 37 46
31 37 47
33 40 50
29 35 44
27 34 43
34 42 53
29 36 46
35 42 53
31 37 47
29 35 44
36 44 55
32 39 49
30 36 46
22 27 34
33 40 51
39 47 59
41 50 63
44 53 67
39 47 59
36 43 55
41 49 62
37 45 57
45 54 68
38 46 58
40 49 62
46 55 70
38 47 59
35 43 54
40 48 60
43 52 66
39 46 58
35 42 53
37 45 58
41 50 63
41 50 62
37 45 58
35 42 52
27 33 42
42 50 64
34 41 51
39 47 60
36 43 54
29 35 44
40 47 59
26 31 39
32 39 49
32 38 48
37 45 56
32 38 48
37 44 56
36 44 55
27 33 41
21 25 31
16 19 24
17 21 26
18 21 27
16 19 24
21 25 32
19 23 29
19 23 29
21 25 31
17 20 26
19 23 29
24 29 36
21 26 32
19 23 29
21 25 31
22 26 32
18 22 28
27 32 41
26 32 39
25 30 37
21 26 32
25 30 39
23 29 36
26 31 39
23 28 35
21 26 33
26 31 39
28 34 43
28 34 43
28 35 44
25 30 38
24 29 36
22 26 33
28 34 43
24 29 36
24 29 37
25 31 39
32 38 48
21 26 33
30 36 47
26 32 40
27 33 42
28 34 44
29 35 44
30 36 46
28 34 43
24 29 37
29 35 44
23 28 36
30 36 46
31 38 48
28 34 43
29 35 44
24 29 37
31 38 48
26 32 40
29 35 44
24 29 36
26 32 41
27 33 43
27 33 42
26 32 40
28 34 43
28 33 42
32 39 49
29 35 45
28 34 43
26 32 41
29 35 44
27 33 42
29 36 46
37 45 56
27 33 42
27 34 43
35 42 54
34 41 53
35 42 52
27 32 40
29 35 45
33 41 52
33 40 51
30 37 46
31 37 47
34 41 52
36 44 55
31 38 48
33 40 50
31 37 47
32 39 50
34 41 51
32 39 49
31 38 48
29 36 46
33 40 50
29 35 44
31 38 48
34 42 54
32 39 49
28 35 45
32 39 49
30 37 48
32 39 50
32 39 50
33 40 50
34 41 52
33 40 51
32 39 49
32 40 50
33 41 52
32 39 49
33 40 51
32 39 50
36 44 56
34 41 53
38 46 58
42 51 64
41 50 63
33 41 52
32 39 49
34 42 54
34 41 52
33 40 50
30 36 45
39 47 59
27 34 44
33 41 52
31 38 49
31 37 46
29 35 45
34 42 54
40 49 62
32 38 48
35 43 54
29 35 45
36 44 55
28 34 42
33 41 52
30 36 45
37 45 57
31 37 47
30 37 46
35 42 53
29 35 44
33 40 51
35 43 55
31 37 47
35 42 53
29 36 46
33 40 51
43 51 64
34 42 53
37 45 57
35 43 54
28 34 43
26 32 40
37 46 58
33 40 51
32 39 49
35 42 53
38 46 58
30 36 45
26 32 41
28 34 44
29 35 44
33 40 50
31 38 47
30 37 47
32 39 49
34 41 52
34 42 53
32 38 48
27 33 41
28 34 43
30 36 45
30 36 45
28 34 44
34 41 50
27 33 43
35 43 54
27 33 43
25 30 38
34 42 53
30 37 47
33 40 50
26 32 41
31 37 46
26 32 40
31 37 47
27 33 42
28 34 43
29 35 45
24 30 37
31 38 48
30 36 45
27 33 42
29 34 43
26 32 41
24 30 38
25 31 38
24 30 37
29 35 44
25 30 38
26 31 40
22 27 35
27 32 39
24 29 37
20 25 32
26 32 40
22 27 34
20 24 30
21 26 33
28 34 42
22 26 33
24 29 37
21 26 32
21 26 33
23 28 36
21 26 32
25 30 37
30 36 45
21 25 31
20 24 30
22 27 33
16 20 24
24 29 36
20 24 29
18 21 27
17 21 26
20 24 30
20 23 29
19 22 28
24 28 34
14 16 20
14 17 21
18 21 26
31 37 46
32 39 48
29 35 44
34 41 50
32 39 48
37 44 54
25 30 38
29 35 44
36 43 54
37 44 54
35 42 52
28 33 42
42 50 63
35 42 53
36 44 56
36 43 53
34 41 51
33 39 50
31 39 50
40 48 61
40 48 60
38 46 58
36 44 56
38 46 59
38 45 56
40 48 60
35 42 53
41 51 65
33 40 52
36 43 55
33 40 51
38 46 57
37 46 58
44 53 67
38 47 60
35 42 54
28 34 43
42 51 64
41 49 62
36 43 54
29 36 45
29 35 45
28 34 42
33 40 51
28 34 43
30 37 47
28 34 43
30 35 44
30 36 46
33 40 52
33 40 50
28 35 44
33 40 52
35 43 55
30 37 48
30 37 46
32 39 49
39 47 59
37 44 55
29 35 44
37 45 57
36 44 56
38 46 57
40 49 63
35 43 54
35 42 54
41 49 62
33 39 50
36 43 54
30 37 48
35 44 56
33 40 50
40 48 61
34 41 52
33 41 52
33 41 52
33 41 51
35 42 53
28 35 45
32 38 49
44 53 68
34 41 52
32 39 48
30 37 47
37 45 57
38 45 57
36 44 56
34 41 52
27 33 43
34 41 52
35 42 53
34 42 53
33 40 50
36 44 56
33 40 52
37 45 57
36 43 55
38 46 59
31 38 49
40 49 61
32 38 49
34 42 53
38 46 58
29 36 45
35 43 55
37 45 56
37 45 57
33 40 50
33 40 51
33 40 50
32 39 50
38 45 57
32 39 50
33 40 51
30 37 47
35 43 54
34 41 52
33 40 51
29 35 44
33 40 50
33 40 51
34 41 51
31 38 49
30 36 45
34 41 52
24 30 38
28 35 45
34 40 50
41 49 62
38 46 57
43 52 67
36 43 55
41 50 63
42 51 64
40 48 61
38 46 58
40 48 60
37 45 56
35 43 54
39 47 59
40 48 61
38 47 59
32 39 49
39 47 59
37 45 56
39 48 60
39 47 59
31 38 48
34 41 52
27 33 42
33 40 51
34 42 53
30 36 45
33 39 49
41 49 61
38 46 56
35 42 52
30 36 45
32 39 48
34 41 51
27 33 41
27 32 41
37 44 54
39 46 56
35 41 51
33 40 49
20 24 30
17 20 25
19 22 27
18 22 27
23 27 34
18 22 27
21 25 31
18 22 28
19 23 28
20 25 32
20 24 31
20 24 30
19 23 29
16 19 24
21 25 31
20 23 29
27 33 41
22 27 33
22 27 34
24 29 37
23 28 36
26 32 40
23 28 35
21 26 34
22 27 34
19 23 29
25 30 38
26 31 39
24 30 38
26 32 40
26 31 39
26 31 40
26 31 40
22 26 33
30 36 45
22 27 34
30 36 46
23 28 35
27 32 41
29 35 44
23 28 36
26 31 40
28 34 42
30 36 45
30 36 46
28 35 45
29 35 44
25 30 38
30 37 47
28 33 42
25 31 39
24 30 38
30 37 46
27 33 41
28 35 44
24 29 37
28 34 43
33 40 51
28 34 42
31 38 48
30 36 45
36 43 54
27 33 42
32 38 48
27 33 42
25 31 39
29 36 45
34 41 52
29 35 44
24 30 38
30 36 46
29 35 44
32 39 49
28 34 43
34 41 52
29 35 45
32 39 49
34 41 52
30 37 47
29 36 46
33 40 51
34 42 52
36 43 55
36 44 56
37 45 57
32 39 49
25 30 39
27 33 42
28 35 45
27 34 43
36 43 54
34 41 51
33 41 53
37 45 57
29 34 43
27 32 41
34 41 52
33 40 50
29 35 44
34 41 52
34 42 54
37 45 57
33 40 51
31 38 49
33 41 52
33 40 50
33 40 51
35 42 54
36 44 57
31 37 46
30 37 48
35 42 53
32 40 51
29 37 47
37 44 56
33 40 51
33 41 51
35 43 55
36 43 55
36 44 55
32 39 50
36 44 56
34 42 53
34 41 51
30 36 45
31 38 48
36 43 54
30 37 47
33 40 50
35 42 53
30 36 46
32 39 50
35 42 53
40 48 60
32 39 49
30 37 47
31 38 47
33 40 51
32 39 49
34 41 52
32 39 49
31 38 48
31 37 47
33 40 51
31 37 47
32 38 48
33 39 49
30 36 46
37 44 56
31 37 47
29 35 44
31 37 48
25 30 39
30 37 47
30 37 47
32 40 51
34 42 54
32 40 50
30 37 46
31 38 48
35 43 55
24 29 37
34 41 51
25 30 38
28 35 44
29 35 45
29 36 46
31 38 48
30 37 46
38 47 60
25 31 39
27 33 42
29 35 44
31 37 47
30 37 47
30 37 46
34 40 50
29 36 45
31 38 48
29 35 44
31 38 48
31 38 47
29 35 45
33 40 50
25 31 39
35 42 53
23 27 35
25 29 37
26 32 41
22 27 35
33 40 51
34 41 52
28 34 43
25 30 39
24 29 37
29 35 44
26 32 40
29 35 44
26 31 39
27 32 40
23 28 35
28 34 43
24 29 37
23 28 35
19 24 30
27 32 40
26 31 39
28 34 43
27 33 42
23 28 35
24 29 36
21 25 32
23 27 34
18 22 27
22 26 33
23 28 34
24 28 36
18 21 26
24 28 35
21 26 32
22 27 33
18 22 28
19 23 29
16 20 25
23 27 33
18 21 27
18 21 27
22 27 33
14 17 21
13 16 20
20 23 29
21 25 30
22 26 32
30 36 45
22 26 32
31 37 47
27 32 40
37 44 54
30 36 45
33 39 48
29 35 43
32 38 47
29 35 44
37 44 54
32 38 48
33 39 49
30 36 45
35 42 53
32 38 48
36 44 55
35 43 53
35 42 52
37 45 57
38 45 57
33 40 51
31 37 47
38 46 58
40 49 61
40 48 61
35 43 54
29 35 45
33 41 51
34 41 52
47 57 71
38 46 58
35 42 54
44 52 65
39 48 60
31 37 47
33 40 51
34 42 54
35 43 54
36 44 55
41 50 63
32 39 50
30 37 47
29 35 43
27 33 41
29 35 45
29 36 45
27 32 41
32 39 49
31 37 47
29 35 44
31 37 47
32 39 49
37 45 56
38 46 58
28 34 43
31 38 47
33 41 53
33 40 51
37 45 56
32 38 48
31 38 48
36 45 57
38 46 58
38 46 58
36 43 55
35 43 55
31 39 50
33 40 51
29 35 45
37 45 57
34 41 51
38 46 58
37 44 56
33 40 50
33 40 51
36 43 55
39 47 60
37 44 56
31 38 47
33 40 51
38 46 59
39 47 59
34 41 51
34 41 51
35 43 55
33 41 52
33 41 51
38 46 57
33 40 51
33 40 51
38 46 58
30 37 47
34 42 53
34 42 52
33 40 51
31 38 49
38 46 58
36 44 56
38 46 59
37 45 57
34 42 53
30 37 47
36 43 54
40 48 60
36 44 55
39 47 60
35 42 53
31 38 48
40 47 59
31 38 49
37 45 57
32 39 50
29 35 44
35 42 53
27 33 43
41 50 63
31 38 48
33 40 51
29 36 46
32 39 49
33 40 50
31 39 49
31 37 47
36 43 54
31 38 48
34 41 52
40 49 63
33 40 51
37 45 58
40 49 62
35 43 54
41 49 62
30 36 44
41 50 62
35 42 54
35 42 53
40 48 60
44 53 66
36 44 56
39 47 58
43 51 64
42 50 63
35 43 54
36 43 54
34 40 51
44 53 67
42 50 63
35 43 54
37 44 55
33 39 49
38 46 58
39 47 59
39 47 59
31 38 47
30 36 46
38 46 57
32 38 48
27 33 40
31 37 45
31 37 47
26 31 38
26 31 39
29 35 43
33 39 48
33 39 48
27 32 40
30 35 43
29 34 42
21 25 31
22 26 32
19 23 28
16 20 24
17 20 26
17 20 25
19 23 29
22 27 33
20 24 29
20 24 30
16 19 24
19 22 28
25 30 38
20 24 30
26 31 38
19 23 29
25 31 39
22 27 34
19 23 29
22 27 34
22 27 34
21 25 32
21 26 33
27 33 42
23 28 36
25 30 37
18 22 28
28 34 44
24 30 38
27 33 41
28 33 42
24 29 37
24 29 37
24 29 36
23 28 36
23 29 37
30 37 48
27 33 41
18 23 30
26 33 43
24 30 38
25 31 39
24 29 37
26 31 40
26 31 38
27 32 39
24 30 38
24 29 37
26 31 39
25 30 38
31 38 47
25 30 38
29 35 43
31 38 48
30 37 46
24 30 39
26 32 40
25 30 39
31 37 46
30 36 46
29 36 46
33 39 49
29 36 45
33 39 50
30 36 46
27 33 41
32 39 49
29 36 46
32 39 50
27 33 42
31 38 48
29 35 44
31 38 48
32 39 49
32 38 48
35 42 53
31 38 48
27 32 41
23 28 36
31 37 47
28 33 42
31 38 49
33 40 51
31 38 49
33 40 50
31 37 47
30 36 46
33 40 50
27 33 42
33 40 51
30 37 46
36 44 56
31 38 48
31 38 48
27 33 42
32 39 50
38 46 58
33 40 50
37 44 55
31 38 49
28 35 44
30 36 46
34 41 51
26 32 40
31 38 48
31 38 48
30 37 46
26 33 42
37 44 55
34 41 51
29 34 43
31 37 48
34 42 54
33 40 51
32 38 48
36 44 56
37 45 57
30 36 46
32 39 49
28 34 44
31 38 48
32 39 49
28 35 44
29 36 46
35 42 54
38 47 59
35 42 53
34 41 51
29 35 44
32 39 50
34 41 52
27 32 41
38 47 59
33 40 50
32 38 48
33 39 49
32 38 48
40 47 59
34 41 51
35 43 54
31 38 48
34 41 52
36 43 55
35 43 55
33 40 50
28 34 43
32 39 49
31 38 48
33 41 52
30 36 45
29 35 45
32 38 48
35 42 54
28 34 43
31 38 48
32 39 50
29 35 44
32 39 50
28 34 42
33 40 51
29 35 45
30 36 45
29 36 46
32 39 50
31 38 47
34 41 52
28 34 42
26 32 41
30 36 46
34 41 52
29 36 45
30 36 46
27 33 41
30 37 46
24 30 38
33 40 51
29 35 44
24 30 39
29 36 45
28 34 43
36 44 55
25 31 39
28 34 42
32 38 49
31 38 47
30 37 46
28 34 43
27 32 41
27 33 42
29 35 45
30 37 46
24 29 37
23 29 37
23 28 35
29 35 44
20 25 32
22 27 34
26 31 39
26 31 40
21 25 32
25 31 39
22 27 33
30 36 45
21 25 32
26 32 40
23 28 35
18 22 27
24 29 36
23 28 35
24 29 37
24 29 36
21 25 32
20 24 31
22 26 33
26 31 39
19 22 28
21 25 32
20 25 31
21 25 32
20 24 30
21 25 31
19 22 28
22 27 33
17 20 26
18 22 27
17 20 25
16 20 24
18 22 27
23 27 33
26 31 38
23 28 34
30 35 43
32 37 46
30 36 45
35 41 51
30 36 45
28 33 41
33 39 48
29 34 42
29 35 43
38 46 57
33 39 49
38 45 56
39 46 58
37 45 57
37 44 54
34 41 51
35 42 53
34 41 51
29 35 44
32 38 47
37 45 55
36 43 55
34 41 51
37 45 57
31 38 47
41 50 62
41 48 60
38 46 57
40 49 62
36 43 54
44 54 68
38 45 57
38 47 60
41 50 63
40 47 58
31 37 47
38 46 58
36 43 55
39 47 60
41 49 61
42 51 65
37 45 56
34 41 52
24 29 36
25 30 38
30 36 46
32 38 48
30 37 47
33 40 51
34 41 52
33 41 52
35 42 52
28 34 43
30 37 46
38 46 58
36 43 55
37 45 56
32 39 50
33 41 52
40 48 60
31 38 49
35 42 54
37 46 58
34 41 52
35 42 53
36 43 55
39 47 59
34 42 53
31 38 48
33 40 51
30 37 47
30 36 47
30 37 46
34 41 52
35 43 54
35 42 54
35 42 53
36 43 54
35 43 54
29 36 46
41 49 62
33 40 50
33 40 51
33 40 50
32 39 49
33 40 51
33 39 49
31 38 47
32 38 49
35 42 54
28 34 44
39 47 59
34 42 52
33 40 50
34 41 53
32 40 51
34 41 52
32 39 50
31 38 48
29 36 45
37 44 56
33 40 50
38 46 58
33 40 51
34 42 53
31 37 46
29 36 46
33 40 51
34 41 52
37 44 55
37 45 57
26 32 40
40 48 61
32 38 48
30 37 46
31 38 47
31 38 49
32 39 49
28 34 44
35 43 54
31 38 48
28 33 41
26 32 41
31 37 47
27 33 42
34 40 49
38 46 58
38 46 58
35 43 54
31 37 47
37 45 56
37 45 56
39 47 59
41 50 63
35 42 54
31 37 47
37 46 59
44 53 67
45 55 69
39 47 59
42 51 63
32 39 50
39 47 59
28 33 42
37 45 57
38 46 58
35 42 52
35 42 52
40 48 59
34 41 51
32 39 49
32 39 49
36 44 54
31 38 47
32 39 48
42 50 62
40 48 60
37 44 54
29 34 43
25 30 38
38 46 57
34 41 50
29 35 43
25 30 37
28 34 42
35 42 52
28 33 41
23 27 33
29 34 42
26 31 38
18 21 26
14 17 21
17 20 25
15 18 23
22 26 32
19 22 27
19 23 29
20 24 30
23 27 34
20 24 30
22 26 33
19 23 29
20 24 30
20 24 30
22 26 33
22 27 34
20 24 30
20 24 31
19 23 29
26 31 39
22 27 34
18 22 29
21 26 33
20 24 30
23 29 37
30 36 46
29 35 44
23 27 34
24 29 37
27 32 40
24 30 37
33 40 49
28 33 42
24 29 37
24 29 36
26 31 39
28 34 43
23 28 36
25 30 38
30 36 45
28 34 43
25 30 38
29 34 43
20 25 32
26 31 39
27 33 41
30 37 48
32 38 49
31 38 47
28 35 44
27 32 41
33 39 50
23 28 35
32 39 49
28 34 43
30 37 47
26 31 40
28 34 42
30 37 47
28 35 46
27 32 41
30 37 47
32 39 49
29 35 44
30 36 46
29 35 44
38 45 56
31 38 48
30 36 46
27 33 42
29 35 45
32 38 48
28 34 43
31 37 47
32 40 50
31 38 49
31 37 46
39 46 58
27 33 42
32 39 50
29 35 44
35 42 53
36 44 54
32 38 47
32 40 51
34 41 53
28 35 45
33 41 52
32 39 50
33 40 50
30 36 45
30 37 48
33 40 51
33 40 50
30 37 48
30 38 48
32 39 49
37 44 56
29 35 45
34 42 53
35 43 54
29 35 45
36 44 55
32 40 51
34 41 51
32 39 49
34 42 53
30 37 47
36 44 56
31 38 48
36 44 56
37 44 55
35 42 54
41 50 63
27 33 42
33 41 52
36 44 55
31 38 48
33 40 51
32 39 49
34 41 52
33 39 50
37 44 56
29 35 45
34 40 50
32 39 49
34 41 51
30 37 46
35 43 54
34 41 52
29 36 46
27 32 41
35 43 55
33 40 51
31 38 48
34 42 53
28 34 43
35 43 55
34 41 51
34 41 51
29 35 45
29 36 45
29 36 45
30 37 48
30 37 46
29 36 45
34 41 52
32 39 50
33 41 52
29 36 46
26 31 40
24 30 37
31 38 48
25 31 40
33 40 50
32 38 48
31 37 47
32 38 48
28 34 43
27 32 41
39 47 59
29 35 45
30 37 46
31 38 48
25 31 39
30 37 47
30 36 45
28 33 41
28 34 42
28 34 44
27 33 42
34 41 52
25 30 38
31 37 47
32 39 49
27 32 41
30 36 45
24 30 39
26 32 41
26 32 41
23 28 35
26 32 40
30 36 46
24 29 37
30 37 47
24 28 36
23 29 36
24 30 38
24 29 36
29 35 43
21 26 32
34 41 51
24 29 36
30 36 45
22 27 35
28 34 42
22 26 33
25 31 39
24 30 38
26 31 39
21 25 32
20 24 30
25 30 38
25 30 37
22 27 33
23 28 35
23 27 34
21 26 33
23 28 35
25 30 38
22 26 33
22 26 33
21 25 31
21 26 33
17 21 26
19 23 29
20 24 29
20 25 31
19 23 29
21 25 31
19 23 28
20 24 30
17 21 26
13 16 20
14 16 20
19 23 28
27 32 40
25 30 37
27 31 38
30 36 44
26 31 38
27 32 39
29 34 42
32 38 47
26 31 39
28 34 42
33 40 50
30 36 44
34 40 50
27 32 39
30 36 45
34 40 50
29 35 44
33 40 51
36 43 53
34 41 51
39 46 57
36 44 55
39 46 57
29 35 43
34 41 51
32 38 48
39 47 59
36 44 55
32 38 48
39 47 58
36 43 54
33 40 50
39 47 59
41 50 63
38 46 57
40 48 60
35 43 55
37 45 56
40 48 60
40 48 59
36 43 54
41 50 63
32 39 50
41 49 61
40 48 60
37 45 57
33 39 49
31 37 47
28 34 43
31 37 46
25 31 39
35 42 52
28 34 43
32 39 50
28 34 43
27 33 42
30 37 47
27 33 42
32 38 48
32 39 49
41 49 62
32 39 49
28 34 43
33 41 52
33 41 51
31 38 49
32 39 49
31 38 48
31 38 48
34 42 53
29 36 45
40 48 60
37 45 56
27 33 41
40 49 61
33 40 51
35 42 53
29 35 45
29 35 45
35 43 54
37 45 58
35 42 52
37 45 57
39 47 59
38 47 60
30 36 45
33 40 51
34 42 53
36 43 54
38 46 58
36 43 54
31 38 49
32 38 48
33 40 51
30 36 46
31 38 49
32 39 50
35 43 55
35 43 55
36 43 54
39 48 60
31 38 50
39 47 60
34 41 52
32 39 50
33 40 51
30 37 46
37 44 55
33 39 49
29 36 46
35 43 53
36 45 57
35 42 53
28 34 44
34 41 52
35 42 53
31 38 48
30 37 48
30 36 46
32 38 48
30 36 46
31 38 47
26 33 42
27 33 41
32 39 49
27 33 43
30 37 46
27 33 41
37 45 57
37 45 57
32 38 48
33 40 50
36 43 55
36 43 53
44 53 68
40 48 61
35 43 54
44 52 66
39 47 60
38 46 58
38 46 58
40 49 62
34 42 52
32 39 50
38 45 56
30 37 47
29 35 45
41 49 61
35 42 53
41 50 62
38 46 57
32 38 48
33 40 51
32 39 48
36 43 53
34 41 52
29 35 43
35 41 52
41 49 61
32 38 47
30 35 44
34 41 50
28 33 42
37 44 55
28 33 42
28 34 42
32 38 47
27 32 40
32 38 47
27 32 40
23 28 34
26 31 38
28 33 41
21 25 30
27 32 39
31 37 45
18 22 27
20 24 30
25 30 37
20 24 30
13 15 19
20 24 30
22 27 33
21 25 31
21 25 32
22 27 34
24 29 36
19 23 29
19 23 29
20 24 30
21 25 32
21 26 32
27 33 41
22 27 35
22 26 33
23 28 35
22 27 34
21 25 32
19 23 30
28 34 42
19 22 28
21 25 32
24 29 36
23 28 35
24 29 36
27 32 40
23 28 36
28 34 43
26 32 40
25 30 38
24 29 36
30 37 46
21 26 33
27 32 41
28 33 42
21 26 33
29 34 43
26 32 41
25 31 39
27 32 40
26 32 40
26 32 40
27 33 42
24 29 36
23 28 36
32 38 49
28 33 42
25 30 38
27 32 41
28 34 43
30 36 45
32 39 49
27 32 41
29 35 44
28 34 44
26 32 40
25 30 38
29 35 44
32 38 49
28 34 43
25 31 39
27 33 42
27 33 42
31 37 47
30 37 47
30 37 47
31 37 47
34 41 52
30 37 47
27 33 43
29 35 45
31 38 48
26 32 42
39 48 60
34 42 54
36 43 55
28 35 44
30 37 46
36 44 55
32 39 49
33 40 50
30 37 46
33 41 52
31 38 48
32 39 49
30 37 47
30 37 47
27 33 42
27 34 43
33 40 51
32 39 50
32 39 49
30 37 47
28 34 43
29 35 44
30 36 46
34 41 52
31 38 48
28 34 44
33 41 52
32 39 49
33 40 52
28 34 44
29 35 44
34 42 53
35 42 53
31 37 47
35 43 54
35 42 53
33 41 52
33 40 49
30 37 47
34 41 52
31 38 49
31 37 48
29 35 44
30 37 46
30 37 46
37 45 56
28 35 45
29 35 44
34 41 53
34 41 52
33 41 52
26 32 41
33 40 51
36 44 56
31 37 47
30 36 46
32 39 49
32 39 50
31 38 48
33 40 50
30 36 46
35 43 54
30 36 46
31 37 48
29 35 44
28 34 43
37 44 56
25 31 39
34 42 52
28 35 45
32 38 48
29 35 44
33 40 50
30 37 46
34 41 52
37 45 57
29 35 45
35 41 52
33 40 50
29 35 45
28 34 42
32 38 48
30 36 46
25 30 38
23 28 36
27 32 41
33 39 49
29 35 44
31 38 48
26 31 38
31 37 47
26 32 40
25 31 39
27 33 42
30 36 45
27 33 41
27 33 42
28 34 43
23 28 36
24 29 36
28 34 43
27 33 42
30 37 46
23 28 36
29 35 44
27 32 41
21 25 32
26 31 39
25 30 38
28 34 43
27 33 42
28 34 43
26 32 41
28 34 42
26 32 40
24 30 38
22 27 34
25 30 38
24 29 36
26 31 39
27 33 41
26 32 41
22 26 33
22 27 34
26 31 39
24 29 36
24 28 35
23 28 35
23 27 35
24 29 36
23 28 35
19 22 28
21 25 32
18 22 28
21 25 31
20 23 29
20 24 30
26 31 38
21 25 32
24 29 36
20 23 29
21 25 31
19 23 28
14 17 22
23 27 33
24 29 35
26 30 37
25 30 37
30 36 44
26 31 38
31 37 46
31 36 44
26 31 38
24 28 35
25 30 38
30 35 44
40 48 59
33 40 49
39 46 56
34 40 50
31 37 46
27 32 40
33 39 49
34 41 50
36 43 53
28 34 42
34 40 50
34 40 49
32 38 47
30 37 47
35 42 52
34 41 52
38 45 56
36 43 54
33 39 49
39 46 58
28 34 44
34 41 52
39 47 58
35 42 52
40 48 60
36 44 55
36 44 54
36 44 55
27 33 42
38 45 57
37 44 54
39 47 59
35 42 53
35 42 53
36 44 56
35 43 54
30 36 45
37 44 54
30 36 45
32 39 49
28 34 43
33 40 51
28 33 42
35 42 52
25 30 38
29 35 44
26 32 40
32 39 50
31 38 49
32 39 50
33 41 52
33 40 50
35 42 54
30 37 48
33 40 51
29 35 44
34 41 52
28 34 43
36 44 55
32 39 49
28 35 44
34 41 53
34 42 54
36 43 54
33 41 52
34 42 54
33 40 50
33 40 50
37 46 60
37 44 56
37 44 55
34 42 53
38 46 58
29 35 44
35 42 53
39 47 60
38 46 58
31 38 48
34 41 52
26 31 40
35 42 53
41 50 63
30 37 46
38 46 58
31 38 48
31 38 48
29 36 46
33 40 51
38 45 57
32 39 50
35 42 53
34 40 50
34 42 53
35 42 53
33 39 49
34 41 52
34 41 52
31 37 47
33 40 50
36 43 55
35 43 55
31 37 46
35 42 52
35 43 54
36 44 56
32 39 50
33 40 50
35 43 53
29 35 43
33 40 51
28 34 43
29 34 43
30 37 46
29 35 45
29 36 45
32 39 49
32 38 47
29 34 42
34 41 52
36 43 55
39 47 59
42 51 63
38 46 59
36 44 55
37 44 55
38 46 58
38 46 59
32 39 50
45 54 69
37 44 54
34 40 50
40 47 59
33 40 50
34 42 53
27 33 42
44 53 67
38 46 58
41 49 61
33 40 50
41 50 63
35 43 54
27 33 42
30 37 46
31 37 46
35 42 52
37 45 57
40 49 61
31 37 47
37 45 55
34 40 49
36 43 54
31 37 47
32 39 49
32 37 46
27 32 40
36 42 52
27 32 39
29 35 43
32 37 45
28 33 42
28 34 42
25 30 36
33 39 48
34 40 48
30 36 44
25 30 36
29 34 42
26 30 37
22 26 31
22 25 31
19 22 28
20 24 29
19 23 28
17 20 25
18 22 28
22 26 33
22 26 33
22 27 33
18 22 27
22 26 33
26 31 39
23 27 34
21 25 32
22 27 33
16 20 25
22 27 34
29 35 44
19 24 30
23 28 36
24 29 36
22 27 34
23 28 35
23 28 35
18 23 29
22 27 33
26 31 39
24 29 36
27 33 41
25 30 37
19 23 29
25 31 39
21 26 33
23 28 35
27 32 40
29 34 43
29 35 44
27 33 42
23 28 35
26 32 40
23 28 36
27 33 41
29 34 43
26 32 40
29 35 44
30 36 45
26 30 38
34 41 51
24 29 37
26 32 40
29 35 44
29 35 44
25 30 37
25 30 38
28 34 44
28 33 42
31 38 47
32 39 49
27 33 42
28 34 44
29 36 45
25 31 39
26 32 40
25 31 39
33 39 49
34 41 52
30 36 46
29 35 44
27 33 41
28 34 43
31 38 48
29 35 45
35 42 53
28 34 43
35 43 54
28 34 43
30 36 46
31 38 48
29 36 45
33 40 51
30 37 46
33 40 51
33 40 51
30 36 46
33 41 51
33 40 51
35 42 53
31 37 46
33 40 50
34 42 53
34 42 53
29 35 44
30 37 48
30 37 47
32 39 49
34 42 53
33 41 52
38 47 59
32 39 50
31 38 48
29 35 44
36 44 56
28 34 42
32 39 50
32 39 49
31 38 49
32 39 50
35 43 54
36 44 55
35 42 54
31 38 48
34 42 53
33 40 51
34 41 52
37 45 58
33 40 50
30 37 47
34 42 53
36 43 54
34 40 50
30 37 47
31 37 47
32 39 50
31 38 49
29 36 46
35 42 54
30 36 46
29 36 45
32 40 51
25 31 40
36 44 55
31 37 47
39 46 58
30 36 46
32 38 49
31 38 48
29 36 46
34 41 52
29 35 45
34 40 51
32 39 50
35 43 53
32 39 49
37 44 56
29 35 44
32 38 47
31 38 48
36 44 56
32 39 50
29 35 45
31 38 49
27 33 42
32 39 49
32 38 49
26 31 40
29 35 44
27 33 42
27 32 41
33 40 50
27 32 41
30 37 47
28 34 43
33 40 50
32 39 50
27 32 41
29 35 45
27 33 42
27 33 42
27 33 41
27 33 41
28 34 43
22 26 33
27 33 41
27 32 41
28 33 42
31 38 50
23 28 35
26 32 40
27 33 42
27 33 42
26 31 39
25 31 39
31 38 48
27 33 42
26 31 39
26 31 39
26 31 39
23 28 36
28 33 42
22 27 34
25 30 38
22 27 34
26 32 40
21 25 32
23 28 35
26 32 40
22 26 33
21 26 32
22 26 33
26 31 39
20 24 30
26 31 39
22 26 33
22 26 33
17 21 27
22 26 33
19 23 29
19 23 29
21 25 31
24 29 36
15 18 22
15 18 23
17 21 26
17 20 25
16 20 24
14 17 21
15 18 23
19 23 28
26 31 37
23 27 33
27 32 39
25 30 37
22 26 32
27 32 40
23 27 34
32 37 46
29 34 42
26 31 39
28 34 41
30 36 45
32 39 49
31 37 46
33 39 48
32 39 48
33 39 48
30 35 43
36 43 54
35 41 51
36 43 53
33 40 50
29 35 44
30 36 46
31 37 46
37 44 54
34 41 50
32 39 49
31 38 47
38 45 57
40 48 60
37 45 57
35 42 53
41 49 61
36 44 56
33 40 50
39 47 60
40 48 60
39 47 59
34 41 51
32 38 49
38 46 57
36 44 55
35 42 53
35 42 53
39 47 59
35 42 53
39 47 58
39 47 58
33 40 50
32 38 48
30 35 44
34 41 52
36 44 54
30 36 45
30 36 45
30 36 46
29 35 44
25 31 39
29 35 45
35 43 54
30 38 49
29 36 45
31 38 48
31 38 48
29 35 45
27 33 42
31 38 48
31 38 48
34 42 53
28 34 44
33 40 51
32 39 49
31 38 49
38 45 57
35 43 54
36 43 55
36 43 55
27 34 43
33 39 49
31 38 47
28 35 44
35 42 54
29 36 45
31 37 47
36 43 55
34 41 53
30 37 46
33 40 50
31 38 47
35 42 53
36 43 55
37 44 56
28 34 44
32 39 50
34 41 52
35 42 53
33 40 50
35 42 53
31 37 47
35 43 55
31 38 47
33 40 51
31 38 48
32 39 50
36 44 57
31 38 49
27 33 43
33 40 51
39 47 58
28 34 44
22 27 35
28 34 43
32 39 49
35 42 53
33 40 50
32 39 50
29 35 45
27 32 41
34 42 53
28 34 43
25 30 38
31 37 47
32 38 48
30 36 46
29 35 44
34 42 53
32 39 50
30 36 45
31 37 47
31 38 47
31 36 45
35 42 53
32 38 47
38 46 58
30 36 46
38 46 58
33 40 50
29 36 45
36 43 54
43 52 66
35 42 53
40 48 61
34 40 51
29 35 45
34 42 54
37 46 58
34 41 51
39 47 59
41 49 62
41 49 61
34 41 51
31 36 45
29 36 45
36 44 55
29 35 44
40 48 60
33 39 49
34 41 51
34 40 50
31 37 46
35 41 51
35 42 53
32 39 50
37 44 56
32 39 48
25 30 38
27 32 41
32 38 48
39 47 58
24 28 35
23 28 34
30 35 43
31 37 45
28 33 41
24 29 36
26 31 39
28 33 41
17 20 24
26 30 37
24 29 36
34 39 47
24 28 34
18 22 27
27 32 38
14 17 21
15 18 22
17 21 26
20 24 30
20 24 30
18 22 28
22 26 33
18 21 26
25 30 37
21 25 31
25 30 38
23 28 35
21 25 31
21 25 31
22 26 33
27 33 42
21 25 32
22 27 34
21 25 32
25 30 38
25 30 37
19 24 30
16 19 24
26 31 38
26 32 40
23 27 35
22 26 32
25 30 38
28 34 42
24 29 36
22 27 33
23 29 37
24 29 36
25 30 39
25 30 38
30 36 45
23 28 35
23 28 36
27 33 41
24 28 36
29 35 45
25 30 38
29 35 44
21 26 33
35 41 52
26 32 41
24 29 37
25 31 39
28 34 44
34 41 52
31 38 48
24 29 36
29 35 45
29 35 44
27 33 43
31 37 47
28 34 43
29 35 44
28 35 44
31 38 48
26 32 41
26 32 40
31 37 47
34 41 52
31 38 47
27 32 41
35 42 53
27 33 42
29 36 45
33 40 50
27 33 42
29 35 44
34 41 52
35 42 53
30 37 46
33 41 52
28 34 43
29 36 45
32 39 50
28 35 44
31 38 48
33 41 52
30 36 45
25 31 39
29 36 45
31 38 48
31 37 47
33 40 50
35 42 53
37 45 56
37 45 57
25 31 39
31 37 45
37 45 56
34 42 53
30 37 47
29 36 46
32 39 49
31 38 47
32 39 49
31 38 48
33 40 50
35 41 52
32 39 49
31 38 48
31 38 48
33 40 51
36 44 56
36 43 54
38 46 58
33 40 51
32 38 48
34 41 51
33 40 51
32 38 48
34 41 52
35 42 53
31 37 47
28 34 43
35 42 52
37 45 57
33 40 50
33 40 50
34 41 51
28 34 43
32 39 49
31 38 47
32 40 50
34 41 51
33 40 51
31 38 48
28 34 43
33 40 50
32 39 50
33 40 50
32 39 49
26 32 40
29 35 44
31 37 48
29 35 44
29 35 44
28 34 43
34 41 51
38 46 58
37 45 57
29 35 44
30 36 46
28 35 44
28 35 45
27 33 41
32 38 48
31 37 47
28 34 42
33 40 51
30 36 45
32 38 48
30 36 45
29 35 44
33 40 50
29 35 44
33 40 51
32 38 48
28 34 43
29 35 44
30 37 46
25 30 38
29 35 44
32 38 48
33 39 49
27 32 40
26 32 41
29 35 45
30 36 45
29 36 46
20 25 31
27 33 41
28 33 42
31 38 47
26 32 42
27 32 41
20 24 31
23 27 33
24 29 36
30 37 46
23 28 36
28 34 43
22 27 34
22 26 33
23 28 35
26 31 38
20 25 31
27 32 40
26 32 40
19 24 30
21 26 33
26 31 39
21 25 32
22 26 33
19 23 29
25 29 36
21 25 31
22 26 33
19 23 28
25 30 38
20 23 29
17 20 25
19 22 28
18 22 27
17 20 25
14 16 21
17 21 25
14 16 20
20 24 29
22 26 32
28 33 40
19 22 26
25 29 35
25 29 36
22 26 31
21 25 30
25 29 35
28 33 40
29 34 42
29 34 42
25 30 36
31 36 44
28 33 41
28 33 41
29 34 42
32 39 48
34 40 51
28 34 42
32 38 47
33 40 50
37 45 56
34 40 51
41 49 61
30 36 44
37 45 56
31 38 47
34 41 52
30 36 45
37 45 57
35 43 54
33 39 49
38 46 58
40 48 60
39 47 59
38 46 57
34 41 52
33 40 50
36 43 54
40 48 60
38 46 58
39 47 59
35 43 55
34 41 51
35 42 53
37 44 55
34 41 51
38 46 58
39 48 61
32 38 48
28 34 43
41 48 60
32 38 48
39 47 58
34 41 51
33 39 48
33 40 50
30 36 45
25 30 38
30 36 45
30 36 46
28 34 43
31 38 48
33 40 50
30 37 46
31 37 47
32 39 49
29 35 45
31 37 47
25 31 39
27 32 41
35 42 53
32 39 50
29 35 44
31 38 48
39 48 61
30 36 46
30 37 47
32 40 50
35 42 53
33 40 51
35 42 54
33 39 50
32 38 48
33 40 50
31 37 47
34 42 52
38 46 57
38 46 59
33 41 51
30 37 46
31 38 48
33 40 50
36 43 55
36 43 54
36 44 55
34 41 53
33 40 50
34 42 53
35 43 54
37 45 57
35 43 54
35 42 53
34 41 52
33 39 49
34 41 51
40 48 60
37 45 57
32 38 48
37 45 56
34 41 52
34 41 52
33 39 49
33 40 50
33 40 51
27 33 41
33 40 50
27 33 41
32 38 48
31 37 47
28 34 43
30 36 46
29 35 44
30 37 48
28 34 43
29 35 45
26 31 39
25 30 38
28 34 43
30 36 45
39 47 59
37 43 53
30 36 46
35 42 53
36 44 55
33 39 48
31 37 46
31 38 48
32 38 48
38 46 58
33 40 51
37 43 54
37 44 56
36 43 54
42 51 63
33 40 51
42 50 63
41 50 62
33 40 51
36 43 54
37 44 56
28 34 42
38 45 57
35 43 53
38 45 57
34 41 52
42 51 63
40 49 61
34 41 51
32 38 48
35 43 54
27 33 41
33 40 50
37 43 54
36 43 54
36 44 55
37 44 55
34 41 51
33 40 50
29 34 42
36 42 52
28 34 41
28 33 40
33 39 47
30 35 44
29 34 43
22 26 32
25 30 37
27 32 40
27 31 38
31 36 44
25 29 36
22 26 32
30 35 43
26 31 38
23 26 32
25 29 35
22 26 32
25 29 36
21 25 31
18 21 26
21 25 31
20 24 30
16 19 24
20 24 30
23 27 34
19 23 29
19 23 28
22 27 33
18 22 27
21 25 31
20 24 31
22 26 33
20 24 30
26 31 39
25 30 38
22 26 33
26 32 40
21 25 31
21 25 32
25 29 37
22 27 34
27 32 39
24 29 36
21 26 33
23 28 35
25 31 38
20 24 30
20 24 31
26 32 40
23 28 36
29 35 43
27 33 42
23 28 35
27 33 41
28 34 43
26 31 39
21 26 33
24 30 37
22 27 34
29 35 45
25 30 38
30 36 45
27 33 42
25 30 38
22 28 36
31 37 47
28 34 42
30 37 46
27 32 41
29 35 43
31 37 47
29 35 44
28 34 43
29 35 45
31 38 48
32 39 48
32 39 49
28 34 43
27 33 42
22 27 34
33 40 50
28 34 42
30 36 45
26 31 40
35 42 53
31 38 48
33 40 51
29 34 43
29 36 45
29 35 44
30 37 47
34 41 52
33 40 50
25 31 40
33 40 51
27 33 41
30 36 45
31 38 48
35 43 54
25 31 39
32 38 48
27 33 42
30 37 46
34 41 51
31 38 48
31 37 47
37 45 57
30 36 45
32 39 49
32 39 50
33 39 50
31 37 47
31 37 47
30 37 47
33 40 50
31 38 48
28 34 43
37 46 58
29 36 46
33 40 51
30 37 46
35 42 53
28 34 44
33 40 49
35 42 53
35 42 52
30 37 47
34 41 52
33 40 50
33 40 50
29 36 45
32 39 49
28 34 42
29 36 45
29 35 44
41 48 60
34 41 52
28 34 44
32 39 50
29 35 45
29 35 45
28 34 42
32 40 51
33 39 49
26 31 39
27 34 43
30 36 46
30 37 46
33 40 51
29 35 44
30 36 46
30 36 46
28 33 42
29 35 44
31 38 48
34 41 51
35 42 54
29 35 44
35 42 53
29 35 45
28 34 42
31 37 46
28 34 43
28 33 42
33 40 50
29 35 43
32 39 49
30 36 45
28 34 42
29 35 44
30 37 47
29 35 44
32 39 49
34 40 51
31 37 46
26 32 41
34 40 50
29 34 43
21 26 34
25 31 39
26 32 40
26 32 41
29 35 43
28 33 42
29 35 45
23 28 35
23 28 35
22 27 34
23 28 35
25 31 39
27 33 41
25 30 37
26 32 40
23 28 35
23 28 35
27 33 41
28 34 42
22 27 34
25 30 37
30 35 44
25 30 37
29 35 44
22 27 34
20 24 31
24 29 37
24 28 35
19 23 29
22 26 32
25 30 38
25 30 37
18 21 27
25 30 38
22 27 34
20 25 32
17 21 26
15 18 22
25 30 37
15 18 23
17 21 26
21 25 32
20 23 29
20 25 31
19 22 27
15 18 22
27 31 38
17 20 25
17 20 24
22 26 32
21 24 29
21 25 30
25 29 35
30 35 42
27 32 39
17 20 24
27 32 39
29 34 42
25 29 35
31 37 46
25 29 36
25 30 37
35 42 52
30 36 44
26 31 38
25 30 37
36 43 54
28 33 41
30 35 44
28 34 42
31 37 47
29 35 44
29 35 43
37 45 57
41 50 63
29 36 45
48 58 72
38 45 56
39 47 59
36 43 53
30 36 45
35 42 53
39 47 59
40 48 61
28 34 43
39 47 59
34 41 52
38 45 56
36 44 55
40 48 60
36 44 55
39 47 59
39 47 59
38 46 58
31 38 47
36 43 54
28 34 42
30 36 45
32 38 48
38 46 58
39 47 59
37 44 55
34 41 50
33 39 49
30 36 46
36 43 53
37 45 56
31 37 46
38 46 57
28 33 41
32 39 48
29 35 44
33 40 50
33 39 49
28 35 44
27 32 41
27 33 42
25 30 38
26 31 40
29 35 43
28 34 43
34 42 54
34 42 53
29 35 44
27 33 42
31 37 47
31 37 47
33 40 51
36 43 54
32 39 50
36 43 55
34 41 52
29 34 43
29 35 44
29 35 44
31 37 47
34 41 52
33 40 51
33 40 51
36 43 54
30 37 46
34 40 50
36 44 56
35 42 52
30 36 45
39 47 59
33 40 51
32 40 50
33 40 50
31 37 48
30 36 45
35 43 54
36 43 54
35 42 53
33 40 50
37 45 56
39 47 59
32 39 49
36 44 55
37 44 56
33 41 51
30 36 46
35 42 53
30 37 47
32 39 50
37 45 57
33 40 51
31 37 47
33 40 51
32 39 49
30 36 46
28 34 43
28 35 44
31 38 48
30 37 46
29 35 44
26 31 39
27 33 41
24 29 37
37 45 56
30 35 44
31 36 45
41 50 62
41 50 62
37 45 56
33 40 50
34 41 51
31 37 47
30 36 45
36 43 54
37 45 56
35 42 53
32 38 48
38 46 57
29 35 44
30 36 45
42 50 63
37 45 56
35 42 52
34 41 52
37 45 58
32 39 49
31 38 48
33 40 50
33 39 49
33 40 50
35 43 54
31 38 48
43 51 63
34 41 52
32 38 48
40 49 61
32 39 48
35 43 53
37 44 56
34 40 50
37 44 55
36 44 55
28 34 42
33 40 49
31 37 46
36 43 53
30 36 44
36 43 54
33 39 49
26 31 38
29 35 44
34 41 50
26 30 38
31 37 46
32 37 46
29 35 43
28 33 40
24 28 34
26 30 37
22 26 32
17 20 25
20 23 29
20 24 29
20 24 29
21 24 29
18 21 25
13 15 19
14 17 21
20 24 30
13 16 20
15 18 23
17 20 25
20 24 30
19 23 28
19 22 28
23 27 34
17 21 26
20 24 30
16 19 24
16 20 25
28 33 40
21 25 32
23 27 33
17 21 26
24 29 37
24 29 36
22 27 33
20 24 30
22 26 33
25 30 38
26 32 40
23 27 34
22 27 34
24 29 37
23 28 36
28 34 43
22 26 32
20 25 32
22 27 34
25 30 38
25 31 39
28 33 42
25 31 39
27 33 42
25 30 38
28 34 43
28 34 42
29 35 45
26 31 39
27 32 41
23 27 34
27 33 41
32 38 48
25 31 39
30 36 46
28 34 43
23 27 35
30 36 45
37 44 55
27 33 40
29 35 45
22 27 33
22 26 33
30 36 46
29 35 44
30 37 47
31 38 48
34 41 51
30 37 47
30 36 45
27 32 41
30 37 46
30 36 45
30 36 46
26 32 40
30 36 46
24 29 38
28 34 44
29 35 44
32 38 47
27 33 41
26 33 42
32 39 49
24 30 38
32 39 49
30 36 46
35 42 54
31 38 48
35 42 53
30 36 45
36 44 55
26 31 39
33 40 51
32 40 51
31 37 47
35 43 54
32 38 48
30 36 46
32 38 48
26 32 40
30 36 45
32 39 49
33 41 52
30 37 47
33 40 51
31 38 49
38 46 57
31 38 48
34 41 51
40 49 63
32 39 50
38 46 58
31 38 48
31 38 48
37 45 57
34 41 52
34 40 50
25 31 40
36 44 55
31 38 48
27 32 41
35 42 53
29 34 43
33 41 52
34 41 51
31 38 48
30 36 45
34 40 51
27 32 41
31 37 46
34 41 51
33 40 51
29 35 43
32 38 48
29 35 44
33 40 50
35 42 53
32 38 48
31 38 48
29 35 44
26 32 40
28 34 42
24 29 37
31 38 47
31 38 47
32 39 50
31 38 49
29 36 45
28 34 43
30 36 45
35 42 53
31 38 48
27 33 42
31 37 47
32 39 49
26 32 40
29 35 44
31 37 47
24 29 37
28 34 42
25 31 38
28 34 43
28 34 42
27 32 40
29 35 43
26 32 40
30 36 46
31 37 47
29 36 45
32 39 49
27 34 43
24 29 37
26 31 40
22 27 34
27 33 42
25 30 37
27 32 40
22 27 35
23 28 35
26 31 39
20 25 31
25 30 38
24 28 35
27 33 41
25 31 38
23 28 35
24 28 36
24 29 36
20 25 31
24 30 37
22 26 32
21 25 32
23 28 35
25 30 38
25 30 37
21 25 31
23 28 34
22 26 33
19 23 28
17 20 26
22 27 33
19 22 28
20 24 30
14 17 22
19 23 28
15 18 22
17 20 25
16 19 24
24 28 34
14 17 21
15 18 22
23 27 32
21 24 29
22 26 31
21 24 29
22 26 32
20 24 30
22 26 32
28 33 41
27 32 39
29 34 42
27 31 38
25 30 38
27 33 40
25 29 36
29 35 43
32 39 48
28 33 41
30 36 44
29 34 42
27 32 39
26 31 39
33 39 49
30 35 44
39 47 59
36 42 53
32 39 48
39 47 58
35 42 52
41 50 62
27 33 41
26 31 39
40 48 60
39 47 59
37 44 56
35 43 54
41 49 61
36 43 54
39 47 59
37 45 56
36 43 54
33 39 49
43 52 65
38 46 57
36 44 55
35 42 52
34 41 53
34 41 51
44 53 67
39 47 59
44 53 66
36 44 55
43 51 65
37 45 58
35 42 52
41 49 61
33 40 50
31 37 46
41 50 63
37 45 56
34 41 51
35 42 52
33 39 48
37 45 55
27 33 41
28 33 41
28 34 42
28 34 43
28 34 43
29 35 45
31 37 46
31 37 47
32 39 49
30 36 46
25 31 39
33 39 49
32 39 48
30 37 47
28 34 43
29 35 44
28 34 43
35 42 53
34 42 53
31 38 48
29 35 45
35 42 53
35 42 53
33 40 49
31 37 47
36 43 54
36 43 55
35 42 53
31 38 48
30 37 47
31 38 49
34 41 51
28 35 44
31 38 48
31 38 48
36 43 54
33 40 51
33 39 49
38 46 59
30 37 47
32 39 49
32 38 47
32 39 49
32 39 50
34 41 52
30 36 45
36 43 55
34 41 52
38 45 57
34 41 52
31 37 46
32 39 49
32 39 50
26 32 41
33 40 51
28 35 45
36 44 55
33 41 51
24 28 36
28 34 44
33 39 49
29 35 43
32 39 49
32 38 48
27 33 41
32 39 49
27 33 42
32 39 49
22 27 34
30 35 42
35 42 53
28 33 41
28 34 42
37 45 56
40 47 59
33 40 51
38 46 57
36 43 53
33 39 49
29 35 44
37 45 56
32 39 49
27 33 42
33 40 50
33 40 50
37 44 56
36 43 54
36 43 55
39 47 59
37 45 56
31 37 46
39 47 58
37 45 56
43 51 64
39 47 60
35 43 53
39 48 60
36 44 55
33 39 49
32 38 47
35 43 53
42 50 63
34 41 51
38 46 57
41 49 62
35 43 54
39 46 58
36 44 54
30 36 45
35 41 52
35 42 52
32 37 46
31 37 46
34 41 51
35 41 50
24 29 37
29 35 43
29 34 42
33 39 48
29 34 42
25 30 37
28 34 42
37 44 54
27 32 40
24 28 34
31 36 44
34 40 49
22 26 31
20 24 30
27 31 38
20 23 28
21 24 30
29 33 40
20 23 28
16 18 23
18 21 26
20 23 29
19 22 28
18 21 26
21 25 31
16 20 25
17 21 26
19 23 28
18 22 28
18 22 28
23 28 35
17 20 25
20 24 29
24 29 36
23 28 36
26 31 39
22 26 33
23 28 36
24 29 36
27 32 40
23 27 34
24 28 35
23 28 36
25 30 37
28 34 42
22 26 34
30 36 45
24 29 37
27 33 41
29 35 44
22 26 33
26 32 41
28 34 42
29 35 43
21 26 33
31 37 46
24 29 36
25 31 39
22 26 33
30 36 45
24 29 37
28 34 43
34 40 51
26 31 39
30 36 45
26 31 39
32 38 47
25 30 38
26 32 40
27 33 42
29 35 43
32 39 49
28 34 43
25 30 38
32 39 49
26 32 40
30 36 45
29 36 45
27 32 41
31 37 47
30 37 48
28 34 43
27 33 43
29 35 43
31 38 48
25 30 37
31 38 48
28 34 43
26 32 40
28 34 44
28 34 43
28 34 43
27 33 41
31 38 47
31 37 47
32 38 49
34 41 52
29 35 44
25 30 38
28 34 42
32 39 49
29 35 44
33 39 49
26 31 39
30 37 46
33 40 50
28 34 43
27 34 43
36 43 54
26 31 40
37 44 55
32 39 49
38 46 59
31 38 48
33 39 49
30 36 46
30 36 44
30 37 47
34 41 51
33 41 52
62 79 103
52 65 84
49 60 76
40 49 62
32 38 48
29 35 44
28 34 43
29 36 45
33 40 50
36 43 54
31 37 47
33 40 50
28 34 43
34 41 52
31 37 47
37 45 58
31 38 48
36 43 54
31 37 46
33 40 50
32 39 49
36 44 55
28 34 44
29 35 43
28 34 42
32 39 49
29 35 44
26 31 39
29 35 44
34 42 53
32 38 48
30 36 46
27 33 41
31 38 47
32 39 50
31 37 47
27 32 40
36 43 55
32 39 50
31 38 47
31 38 48
24 29 37
35 42 53
28 34 43
27 33 42
29 36 46
32 39 49
31 37 47
29 36 45
37 44 54
31 37 46
27 33 41
26 32 40
26 31 40
26 32 40
26 32 41
26 31 39
30 36 44
23 28 36
27 33 42
26 31 39
23 28 35
26 32 40
22 27 34
24 29 37
28 33 42
26 32 41
22 27 34
28 33 41
24 29 36
27 32 40
26 31 38
24 29 36
21 26 33
26 31 39
22 27 33
21 26 33
20 24 30
25 29 36
27 32 40
21 25 32
24 29 36
23 28 35
20 25 31
18 22 27
26 31 39
24 29 36
22 26 33
26 31 39
25 29 36
19 23 28
19 23 28
20 24 30
20 24 30
16 19 24
18 22 27
19 23 28
16 19 23
16 18 22
17 20 24
21 24 29
16 19 23
22 26 31
20 24 29
26 30 37
20 23 28
21 24 30
26 31 38
26 31 38
27 32 39
26 30 37
27 32 39
32 38 47
26 31 38
36 42 52
30 36 45
28 34 42
30 35 43
34 40 49
31 37 46
37 44 55
38 45 56
29 34 43
34 41 51
29 35 44
32 39 49
39 46 58
32 38 48
38 46 59
37 45 56
40 48 60
34 42 52
41 50 63
32 39 48
29 35 44
33 40 50
34 41 52
40 49 61
36 44 56
41 49 62
41 49 61
39 48 60
30 37 46
37 45 57
37 44 56
30 36 45
40 48 60
35 42 53
33 40 49
39 47 59
36 43 54
32 38 48
32 38 47
39 47 58
33 39 49
37 44 54
36 43 54
39 47 59
36 43 54
30 36 45
30 37 46
31 37 47
29 35 44
32 38 48
27 32 40
27 32 40
24 28 35
32 38 47
26 31 39
30 35 44
31 37 47
26 31 40
28 34 43
31 37 47
26 31 40
33 40 50
32 38 48
32 39 49
27 33 41
31 38 48
30 36 46
29 35 43
25 30 39
36 43 55
30 36 45
27 33 42
30 37 47
32 38 48
35 42 53
34 41 52
34 41 50
28 35 44
40 49 61
31 38 48
33 40 50
33 40 51
24 30 38
28 34 43
32 39 49
30 37 46
35 42 53
28 35 44
32 38 48
31 37 46
34 42 53
41 49 62
38 45 57
31 37 48
32 39 49
35 42 53
27 33 42
33 40 51
33 40 49
27 33 41
29 35 45
29 36 45
33 40 51
31 37 47
27 33 42
37 45 56
29 36 45
32 39 49
28 34 43
28 34 43
29 35 45
27 33 42
28 34 43
23 28 36
27 32 40
33 39 49
26 31 39
28 33 42
27 33 40
31 37 46
33 39 49
31 36 45
30 36 45
35 42 52
36 44 55
30 36 45
26 32 40
35 42 53
34 41 51
32 39 48
36 42 53
39 47 58
35 43 54
31 37 46
30 36 45
39 47 59
42 51 63
28 34 43
41 49 61
41 49 61
40 48 60
33 39 49
38 46 59
35 42 52
40 49 62
39 48 60
34 41 52
34 41 52
34 42 53
38 46 58
39 47 59
33 40 50
31 38 48
41 49 61
31 37 47
35 42 53
37 44 55
38 46 58
40 48 59
35 42 52
32 39 49
32 39 48
33 39 48
27 32 40
35 41 51
31 37 46
39 46 58
36 43 53
24 29 35
32 38 47
34 40 50
34 40 49
33 39 48
28 33 40
26 31 38
25 29 36
20 23 28
27 32 39
25 29 36
25 30 37
27 32 39
25 29 35
21 24 29
19 22 27
20 23 28
24 28 34
21 25 30
23 27 33
20 23 28
15 18 23
17 20 25
15 19 23
26 31 38
15 18 23
21 25 32
21 25 32
21 26 32
19 23 29
21 25 31
17 21 26
21 25 31
23 28 34
22 27 34
22 26 33
17 21 27
21 25 31
29 34 43
23 27 34
23 28 35
20 24 31
25 30 38
22 26 32
22 27 34
26 32 40
21 26 32
27 33 41
20 24 30
29 35 44
26 31 39
24 30 37
24 29 36
26 32 40
28 34 43
26 31 40
32 38 48
28 33 42
28 34 42
33 40 50
29 35 44
30 36 44
29 35 45
26 31 39
25 31 39
25 30 38
31 38 47
26 32 40
25 30 37
29 35 43
29 35 45
32 38 48
32 38 48
27 33 41
33 40 50
33 39 49
27 33 41
25 30 39
29 35 44
28 34 43
31 37 47
26 32 40
27 33 42
36 43 54
25 30 38
29 35 43
36 44 56
32 39 50
27 33 41
30 37 47
32 38 49
27 33 41
32 38 47
31 38 48
26 32 41
32 39 49
27 33 42
32 38 48
28 34 43
30 36 46
34 41 52
32 38 48
29 34 43
28 34 43
24 29 37
28 34 43
30 36 45
29 35 44
33 40 51
27 33 42
36 44 55
28 34 43
34 41 51
28 34 42
33 40 51
44 54 70
56 69 88
63 78 101
59 73 94
65 81 104
62 77 98
64 80 103
53 66 85
45 56 72
30 36 46
26 32 41
27 32 41
30 36 45
28 33 42
31 37 46
35 42 52
36 43 54
33 39 49
30 36 45
30 37 47
31 37 46
29 35 44
31 38 48
30 36 45
35 42 54
32 39 49
31 38 48
35 42 53
29 35 45
32 39 49
31 38 48
27 33 41
31 38 48
34 41 52
33 39 49
35 42 53
29 35 43
33 40 51
33 39 49
27 32 41
29 35 45
30 37 46
32 39 50
31 37 47
24 30 38
31 37 47
30 36 45
29 34 43
26 32 40
26 32 41
28 34 44
29 35 44
25 31 39
22 26 33
27 32 41
31 37 47
29 35 45
27 33 41
30 37 46
25 31 39
32 39 48
23 28 36
31 38 47
32 39 49
24 28 36
24 29 36
26 32 40
24 29 37
25 30 38
27 33 42
26 32 39
19 24 30
26 32 41
25 30 39
20 25 31
22 26 33
22 26 33
23 27 35
25 30 38
18 22 27
21 25 31
22 26 32
21 26 32
22 27 33
24 29 36
18 22 28
23 27 34
24 28 35
21 25 31
22 26 33
23 27 33
23 27 34
24 28 35
14 17 21
20 24 30
22 26 32
17 20 25
18 21 26
19 22 27
17 20 24
18 21 25
17 20 25
16 19 23
21 24 30
28 33 40
19 22 26
19 22 27
24 28 34
23 28 34
28 34 41
24 28 34
26 31 38
33 39 49
26 31 38
30 35 43
31 36 45
27 32 40
29 34 42
26 31 39
31 36 45
32 38 48
31 37 46
36 43 53
33 39 49
36 43 53
33 39 49
33 40 51
32 38 47
34 41 50
39 47 59
36 44 55
41 49 62
37 44 54
35 41 51
48 57 71
33 40 50
39 47 59
31 37 47
41 50 63
32 39 49
39 47 58
33 40 50
37 45 57
40 48 61
38 47 59
34 41 51
43 51 64
37 45 57
33 40 50
35 43 54
32 38 48
36 43 54
33 40 51
32 39 49
37 44 55
34 40 50
36 43 53
33 40 50
35 42 52
41 49 62
36 43 54
38 45 57
33 39 49
36 44 55
29 35 43
36 43 53
32 38 47
31 37 46
25 30 37
33 40 50
22 26 32
35 41 51
33 39 47
23 28 35
29 34 42
25 30 38
26 31 40
32 39 49
25 30 38
25 30 38
26 31 38
32 39 49
31 37 47
31 37 47
28 34 43
29 35 43
29 35 45
30 37 46
37 45 56
32 39 49
37 45 57
33 40 50
33 39 50
30 36 45
31 38 48
33 40 51
31 37 47
39 47 59
34 41 51
27 33 41
34 40 51
33 40 50
33 40 50
34 42 52
35 42 52
33 40 51
30 37 46
34 42 53
27 33 41
30 36 46
27 33 41
29 36 45
31 38 48
32 38 48
29 35 44
36 43 54
37 44 56
26 31 39
31 37 46
30 36 45
28 34 43
28 34 43
32 39 48
35 43 53
27 33 41
33 40 50
29 35 44
27 32 41
27 32 41
28 34 43
29 34 42
26 32 40
29 36 45
31 36 45
27 32 40
30 35 44
28 33 41
28 34 42
34 40 50
29 35 43
33 39 48
39 47 58
35 41 51
43 52 65
31 38 47
35 42 52
34 41 50
40 48 60
36 43 54
34 41 52
32 39 49
39 47 58
36 44 55
34 42 53
42 50 62
34 41 52
33 40 51
36 43 54
35 43 55
41 49 61
34 42 53
32 39 49
27 33 40
39 47 59
34 41 52
32 39 49
31 38 48
35 42 53
36 43 54
33 40 51
28 34 42
34 41 51
36 43 54
31 37 47
29 35 43
32 38 48
35 41 51
32 39 49
43 51 63
38 44 55
44 52 65
32 38 48
33 39 49
38 46 57
32 38 48
26 31 39
34 40 49
28 34 42
32 38 47
26 30 37
31 36 44
27 32 40
26 31 38
23 28 34
24 28 35
34 40 49
30 34 42
23 26 32
27 32 39
19 23 28
25 29 35
22 25 31
26 31 37
24 27 33
23 26 32
25 30 36
21 24 29
16 19 23
21 25 31
15 18 22
19 23 28
18 21 26
20 24 30
18 21 26
22 26 32
26 31 38
23 28 35
21 25 30
22 27 33
26 30 38
20 24 30
19 23 29
19 23 29
24 29 36
25 30 38
23 28 35
21 25 32
22 27 33
25 29 37
24 29 37
22 27 34
28 34 43
20 24 30
22 26 32
23 28 35
21 25 32
24 29 37
28 33 41
21 26 32
30 37 47
25 30 38
29 35 44
24 29 36
27 32 40
21 26 33
33 39 48
30 37 46
27 32 40
24 29 38
25 30 38
29 35 44
29 35 44
31 37 46
32 38 48
26 31 39
28 35 44
29 34 43
30 36 44
27 33 41
32 39 49
29 35 43
27 32 41
29 35 44
29 35 44
25 31 39
33 40 50
28 35 44
29 35 45
29 35 44
28 34 44
31 37 46
27 32 40
36 44 55
32 39 49
35 42 52
28 34 43
32 38 48
36 43 55
24 30 38
28 33 42
27 32 41
31 38 47
27 33 42
34 41 51
36 44 55
36 44 54
29 35 44
28 34 42
28 34 43
34 41 52
32 38 48
35 42 53
31 37 47
32 38 48
28 34 43
28 34 44
34 41 52
44 54 69
58 72 93
64 79 102
64 80 103
62 77 98
65 80 104
60 74 96
62 77 100
68 83 107
66 81 103
65 81 104
57 72 94
60 75 96
50 62 81
51 63 80
35 43 55
33 40 50
29 36 45
27 32 41
28 34 43
29 35 43
25 30 38
29 35 44
32 39 49
30 35 44
29 35 44
32 40 51
26 32 40
33 40 50
30 36 46
33 40 50
33 40 50
28 34 43
26 32 40
34 41 52
25 30 38
30 36 46
27 33 41
31 37 47
26 32 40
26 31 40
34 40 50
26 32 40
31 37 47
33 39 49
27 33 41
30 37 47
31 37 45
27 32 41
26 32 41
24 29 37
27 32 41
30 36 45
29 35 44
31 37 46
31 38 47
27 33 41
24 29 37
30 36 45
27 32 41
31 37 46
27 33 41
28 33 41
22 26 33
32 38 48
26 32 40
26 31 39
26 32 40
24 29 36
28 34 43
24 29 36
19 23 29
27 33 41
29 36 45
23 27 34
20 24 30
22 26 33
24 29 36
25 30 38
24 28 35
26 32 40
22 27 33
27 32 40
24 29 36
26 31 39
24 29 36
22 27 33
24 29 36
23 28 34
21 25 31
20 24 30
21 25 32
19 22 28
18 21 27
20 24 30
19 23 29
16 18 23
20 24 29
16 18 22
15 17 21
18 21 25
25 29 35
25 29 35
22 26 32
18 21 26
23 28 34
25 30 36
28 32 39
25 30 37
27 31 38
23 28 34
24 28 34
30 35 44
29 34 42
30 35 43
26 31 38
27 32 39
28 34 42
27 32 39
34 40 50
30 35 44
33 39 48
31 38 47
37 44 54
29 35 44
38 45 55
32 38 48
28 34 42
40 48 59
32 39 48
30 36 45
32 38 48
38 45 55
42 51 65
36 43 54
31 37 46
40 49 62
30 36 45
40 47 58
30 36 46
36 43 54
43 52 65
33 40 50
41 50 63
29 35 44
32 39 49
35 42 53
37 44 56
36 43 54
33 41 51
38 45 57
36 43 54
39 46 57
33 40 51
38 46 59
36 43 54
33 40 50
38 46 58
37 45 55
39 47 58
33 40 50
33 40 50
34 41 51
35 42 53
35 42 53
31 37 46
36 44 55
38 45 56
35 42 53
31 37 47
37 44 55
35 42 52
30 37 46
29 34 42
34 40 50
26 31 39
25 30 37
33 39 48
21 25 32
27 32 40
23 27 34
24 30 37
25 31 39
28 34 43
28 33 42
26 32 41
29 35 44
30 36 45
28 33 42
30 37 47
30 36 45
30 36 45
34 41 51
30 37 46
34 40 51
28 34 43
30 37 46
27 32 40
32 39 49
32 38 48
31 38 48
32 39 49
32 39 48
30 36 46
31 38 47
35 42 53
30 36 45
31 38 49
34 41 51
33 40 50
28 33 42
28 34 43
31 37 47
35 42 53
28 34 43
36 44 55
28 34 43
31 37 47
32 39 50
33 39 50
31 38 47
29 34 43
28 33 42
29 35 43
24 29 37
26 31 39
29 35 44
28 34 44
29 35 43
31 37 47
31 37 46
33 39 49
30 35 44
30 35 43
33 39 48
21 25 31
34 41 51
30 36 44
30 36 44
29 35 43
34 41 50
37 44 54
35 41 51
36 42 52
36 43 54
31 36 45
34 40 51
36 43 55
35 42 52
29 35 44
31 37 47
32 38 48
36 43 53
34 41 51
32 40 50
28 34 42
39 47 58
32 38 48
38 46 58
36 43 55
37 44 55
28 33 42
37 45 56
38 46 58
32 39 50
39 47 59
38 47 59
48 58 72
31 38 48
40 48 60
32 39 49
35 42 53
33 40 50
30 36 45
36 44 55
35 43 54
33 39 49
33 40 50
30 36 44
34 41 51
39 47 59
38 45 57
32 38 47
38 45 57
36 43 54
33 39 49
31 37 46
34 40 51
30 36 45
32 38 47
29 35 43
29 34 42
32 38 47
27 32 40
28 34 41
33 39 48
23 27 33
30 36 44
29 34 42
28 33 41
25 29 35
20 24 30
20 23 28
29 34 41
25 30 36
24 28 34
24 28 34
24 28 35
15 17 21
22 26 31
22 26 31
13 15 18
20 23 28
20 23 28
15 17 21
12 14 18
22 26 32
18 22 27
17 20 25
23 27 34
19 23 29
20 24 30
23 28 34
21 25 31
19 23 30
21 25 31
25 30 37
23 27 34
23 27 34
17 20 26
25 30 38
28 33 42
22 27 34
21 26 32
21 25 31
23 28 35
25 31 39
29 35 44
24 28 35
21 26 32
28 34 42
25 30 38
22 27 34
19 23 29
24 29 36
30 36 46
25 30 38
25 30 38
28 34 42
28 34 43
28 34 43
25 31 39
25 30 38
24 29 37
23 28 35
28 34 42
29 36 45
29 35 44
25 30 38
31 38 47
24 29 36
32 39 49
25 30 38
23 28 35
25 30 38
24 29 36
31 38 48
33 39 49
27 33 41
35 42 53
32 38 47
30 36 46
32 38 48
24 30 38
31 37 46
32 38 48
35 43 54
31 37 47
31 38 48
29 35 44
31 38 47
31 37 46
31 38 47
25 31 39
25 30 37
29 36 45
34 40 50
28 34 43
31 37 46
26 32 40
31 37 47
30 36 46
27 33 41
31 37 47
29 35 45
27 33 42
34 41 52
45 55 70
58 71 90
64 80 104
61 75 97
62 77 100
61 76 98
59 73 93
58 72 92
60 74 95
56 69 90
66 81 105
61 76 98
66 81 105
57 71 93
64 78 100
56 71 92
55 69 88
56 69 89
58 71 92
50 62 80
46 57 73
44 54 68
33 40 51
29 35 44
28 34 43
32 38 47
29 34 43
30 36 45
33 40 50
28 33 42
34 40 51
33 39 49
26 31 39
31 37 47
29 35 43
26 32 41
31 37 47
28 33 42
27 33 41
28 34 43
34 41 52
30 36 45
33 40 51
29 35 44
25 30 38
28 33 41
30 37 46
27 33 42
27 33 41
27 33 41
27 33 42
29 35 43
27 33 42
29 35 43
24 30 37
27 33 41
29 36 45
28 34 43
32 39 49
26 31 39
28 33 42
28 34 42
27 33 42
25 30 37
27 32 41
27 33 42
27 32 40
23 28 36
28 34 43
23 28 36
26 31 38
28 33 41
25 31 39
26 31 38
22 26 33
23 28 35
28 33 41
27 32 41
22 27 33
23 27 33
22 26 32
28 33 41
21 26 32
21 26 32
20 24 30
19 23 29
22 26 33
20 24 30
19 23 29
23 27 34
19 23 29
19 23 29
21 24 30
17 20 24
20 23 29
17 20 25
18 21 26
19 22 26
16 19 23
18 22 26
20 24 29
21 24 29
18 21 26
23 27 33
20 23 28
21 25 30
32 37 45
23 28 34
21 25 30
27 32 39
26 30 37
26 31 38
27 32 39
27 32 40
31 36 45
26 30 37
30 36 44
29 34 42
33 40 49
33 39 48
28 33 41
32 38 47
30 35 43
31 37 46
36 43 53
39 47 58
30 35 43
36 43 54
28 34 42
36 43 55
40 48 61
37 44 54
35 42 52
42 50 63
34 40 50
28 34 42
31 37 47
36 43 54
35 43 54
36 44 56
34 41 51
40 48 60
32 38 48
41 50 64
34 41 51
36 44 56
31 37 46
39 47 60
28 34 43
27 32 39
25 31 39
43 51 64
38 46 57
37 44 55
35 42 53
38 47 59
40 48 61
36 43 55
35 42 53
37 45 57
37 45 56
30 36 45
37 45 56
35 42 53
39 47 59
32 39 49
32 38 47
33 41 52
33 39 49
37 44 55
37 44 55
28 33 42
29 36 45
26 32 40
35 42 53
29 35 44
33 40 50
31 37 46
31 37 46
32 37 46
27 32 40
32 38 46
26 31 38
27 32 40
26 32 40
23 28 35
23 28 35
28 34 42
28 33 40
28 34 43
27 34 43
35 42 53
35 42 52
31 37 46
33 40 50
27 33 42
29 35 44
30 37 46
30 36 46
29 35 44
32 38 48
30 37 47
22 27 35
25 31 38
28 33 41
29 35 44
31 37 47
32 38 47
33 40 50
35 42 53
34 41 52
33 39 49
25 31 38
24 30 37
29 35 44
29 36 45
28 34 43
27 33 41
29 35 45
31 37 46
33 40 50
33 40 50
30 36 46
31 38 48
28 34 43
27 32 41
28 34 43
28 34 43
27 33 42
29 35 44
27 33 41
29 35 44
23 28 35
23 28 35
30 35 44
28 33 41
24 28 35
29 35 42
30 35 44
25 29 37
32 38 47
34 41 50
25 30 38
37 43 53
31 37 45
27 32 40
29 36 45
34 41 51
29 35 44
28 34 43
26 32 40
29 35 43
33 40 49
34 41 51
28 34 42
32 38 47
34 40 51
34 41 53
32 37 46
32 38 48
35 42 53
34 41 51
38 45 57
39 47 59
42 51 64
29 35 44
38 46 57
32 39 49
37 45 56
31 37 47
39 47 60
38 46 58
37 44 54
39 47 60
34 41 52
36 44 55
29 35 43
39 47 59
36 43 53
36 43 54
33 40 50
37 44 54
35 41 52
35 42 53
38 46 58
31 37 46
35 42 51
31 38 47
35 42 52
29 35 43
37 44 55
36 43 54
35 42 53
35 43 54
34 41 50
34 40 50
31 37 46
36 43 53
29 35 44
27 32 40
27 32 39
27 31 38
21 25 31
20 24 29
26 31 38
23 27 33
22 26 32
24 29 35
24 29 35
21 24 30
26 31 37
21 24 30
14 17 20
17 20 24
20 23 28
17 20 24
23 27 33
18 21 26
21 24 29
24 28 34
22 26 31
18 21 26
15 18 22
17 21 26
16 20 25
18 21 27
19 23 29
26 32 40
21 26 32
22 26 33
20 23 29
22 27 33
24 29 36
23 27 34
21 25 31
21 25 31
27 33 41
26 31 39
22 26 33
21 25 31
22 27 34
22 27 34
24 28 35
25 30 38
20 24 30
25 29 37
26 31 38
24 29 35
26 31 39
28 33 41
30 37 47
26 31 39
26 31 39
26 31 40
28 34 43
25 30 38
25 31 39
32 38 48
25 30 38
25 31 38
24 29 36
23 28 36
26 31 39
32 38 48
25 30 38
28 33 41
30 35 44
22 27 34
29 35 44
28 34 43
24 29 37
27 33 41
33 40 49
28 34 42
26 31 40
30 36 46
27 32 41
26 32 40
31 37 47
30 36 45
27 32 40
30 36 46
27 33 42
28 34 43
30 36 45
28 34 43
28 34 43
28 34 43
28 35 44
32 39 48
29 35 44
26 31 39
29 36 45
34 40 51
28 34 42
27 33 42
44 54 68
46 57 73
51 63 81
59 74 95
62 78 102
56 70 90
56 69 88
63 77 99
59 73 95
63 79 103
60 74 95
59 74 95
58 72 93
60 73 92
60 75 97
57 71 92
64 79 102
60 75 97
57 70 90
53 66 86
60 75 97
55 68 88
58 72 92
58 72 93
54 66 84
59 74 96
59 73 94
55 68 87
53 65 83
34 41 52
30 36 46
33 40 50
24 29 37
29 35 44
32 39 49
27 33 42
33 39 49
31 37 47
27 32 40
31 37 47
27 32 41
26 31 40
30 36 44
32 38 48
26 32 40
28 34 43
23 28 35
31 37 46
28 34 43
29 35 45
30 36 45
29 35 44
32 39 49
27 33 41
28 34 43
29 34 43
35 41 52
28 34 43
28 33 42
29 35 44
28 34 43
28 34 43
28 34 42
25 30 39
29 35 44
26 31 39
28 34 43
27 32 40
27 33 41
23 28 34
28 33 41
20 24 30
26 31 38
27 32 40
25 30 38
29 34 42
24 28 35
25 30 38
21 25 31
21 25 31
26 31 39
24 29 36
25 30 37
23 28 34
22 26 32
21 25 31
19 23 29
17 21 26
17 21 26
26 31 39
22 27 34
22 27 33
19 23 29
16 20 25
19 23 29
14 17 21
16 19 23
14 17 21
21 24 30
17 20 24
23 27 32
16 18 22
26 30 36
23 27 33
15 17 21
21 25 30
23 27 33
29 34 41
24 28 35
29 34 42
19 22 27
22 26 32
30 36 44
27 32 39
27 33 40
18 22 27
34 40 49
31 37 45
31 37 45
22 27 33
30 35 43
27 32 40
31 37 46
34 41 50
32 38 47
32 38 46
29 34 43
36 43 54
27 32 40
38 45 56
38 46 58
32 38 47
36 44 54
33 40 50
32 38 48
36 43 54
33 39 49
40 48 60
38 46 58
31 38 47
43 52 65
36 44 55
36 44 56
37 44 54
34 41 51
38 45 56
34 41 52
39 47 59
34 41 50
38 46 58
33 40 51
41 49 61
38 46 58
35 42 52
44 52 66
27 32 40
41 49 60
38 46 58
37 44 56
31 37 47
40 48 60
38 45 57
32 38 48
38 45 57
38 46 58
34 41 52
31 38 48
37 44 54
39 47 59
26 32 40
32 39 48
34 40 50
30 36 45
35 43 54
29 35 44
29 35 43
28 33 41
32 38 47
33 40 49
29 34 43
28 33 42
31 37 45
34 40 50
28 34 42
30 35 43
34 40 49
25 30 37
23 27 34
29 34 41
25 30 37
19 22 27
29 34 43
29 35 44
28 34 42
25 30 37
30 36 45
28 33 42
30 37 46
30 37 46
25 30 37
23 28 36
33 40 51
31 37 47
36 43 53
32 38 48
26 32 39
34 41 52
31 38 48
33 40 50
29 36 45
37 45 56
32 39 49
29 35 44
32 38 48
30 36 45
31 37 46
31 37 47
24 29 36
27 32 41
28 34 43
30 37 46
31 38 47
33 40 50
31 37 46
31 37 45
30 36 46
27 32 41
31 37 46
29 35 44
28 34 43
24 28 36
22 26 33
32 38 48
26 32 40
28 34 42
24 29 35
27 32 39
30 35 43
31 37 46
25 29 36
31 37 46
31 38 47
27 32 40
39 47 58
24 29 35
28 33 41
33 39 49
27 32 40
34 40 50
28 34 41
28 33 41
22 26 33
30 36 45
31 37 47
34 40 49
38 46 57
27 33 42
42 51 64
33 39 49
27 32 40
35 42 52
38 45 57
35 42 53
32 39 50
38 45 56
31 37 48
35 42 52
36 43 54
38 46 59
31 37 47
38 46 57
35 42 52
35 42 53
35 42 53
45 54 69
33 39 49
42 51 64
36 44 55
37 44 55
36 44 56
35 42 54
36 43 54
38 46 57
38 45 56
35 42 52
40 48 61
37 44 56
37 44 56
38 46 56
33 39 49
38 45 56
30 36 45
37 44 55
38 46 57
32 38 47
27 33 40
30 37 46
36 42 52
26 31 39
31 37 47
29 35 43
36 43 53
28 34 44
31 36 45
31 37 46
27 32 39
26 31 39
24 28 35
30 36 44
22 26 32
26 31 38
28 33 40
29 34 42
25 30 37
23 28 34
26 30 37
25 29 36
20 23 28
24 28 35
24 28 35
22 25 31
18 21 25
25 29 36
27 32 39
16 19 23
22 26 31
19 23 27
22 26 32
18 21 26
17 20 24
18 21 26
18 21 26
22 26 33
14 17 21
18 22 27
26 31 38
22 27 33
21 26 32
22 26 32
26 30 38
21 25 32
24 28 35
25 30 38
21 26 32
24 28 35
22 27 34
25 30 38
24 28 35
25 30 37
26 31 40
30 36 44
24 29 36
30 36 44
25 29 36
28 34 42
31 37 46
28 33 42
27 32 40
25 30 37
32 39 48
26 31 40
29 34 42
25 30 38
22 27 35
21 26 33
23 28 36
29 35 44
28 34 42
23 27 35
26 32 40
27 32 40
24 28 35
28 33 42
30 36 45
24 28 35
27 33 42
29 35 44
31 38 47
24 29 37
28 34 42
30 36 45
31 37 47
26 32 39
27 32 40
29 35 44
32 38 47
29 35 43
27 33 42
33 40 50
31 37 46
29 34 42
28 34 43
37 45 57
30 36 45
31 37 47
30 36 45
42 51 64
41 50 64
53 66 85
55 68 86
57 71 91
59 73 95
57 71 93
60 75 98
61 76 98
54 67 88
57 69 88
62 76 98
57 71 92
61 75 96
62 76 98
61 76 98
58 72 93
60 74 95
62 77 98
57 71 91
58 71 91
64 80 103
59 74 95
60 74 95
57 70 90
60 74 97
57 70 89
59 72 92
59 73 95
60 73 94
57 71 91
57 70 91
56 69 88
57 71 92
59 72 93
55 68 88
51 62 80
41 50 63
40 48 61
35 42 52
32 39 49
31 36 45
29 35 44
24 29 37
29 34 43
29 34 43
27 33 41
27 33 42
30 37 46
29 35 44
22 26 33
28 34 42
27 32 40
30 36 46
25 30 37
31 37 46
26 31 39
27 33 42
29 35 44
30 36 44
34 41 52
30 35 44
26 31 39
28 33 41
25 30 37
29 35 43
24 29 37
28 34 43
22 26 33
29 34 43
23 28 35
23 28 35
23 27 34
23 27 34
24 29 37
29 34 43
26 31 39
27 33 41
21 25 31
22 26 32
22 27 34
29 35 43
24 29 36
21 25 31
19 23 29
23 28 35
23 27 34
17 21 26
19 23 29
17 20 26
21 26 32
16 20 24
23 28 34
19 23 28
19 23 28
20 24 29
16 18 22
17 20 24
22 26 32
26 30 36
17 20 24
23 26 32
22 25 31
14 17 20
19 23 28
25 30 36
24 29 35
26 30 37
24 29 35
27 31 38
24 28 34
25 29 35
27 32 39
23 26 32
23 28 34
23 27 33
29 34 42
27 32 39
33 39 48
24 28 35
26 31 38
28 33 41
24 29 36
35 41 51
36 43 53
31 37 45
30 36 44
33 39 48
29 34 43
31 37 47
35 42 52
28 34 42
35 42 53
34 41 51
29 35 43
33 41 51
39 47 59
36 44 55
32 38 48
35 42 52
33 40 51
41 50 62
33 40 50
35 42 52
34 41 51
29 35 44
41 49 62
39 47 58
30 37 46
36 43 54
36 43 55
41 49 61
36 44 55
36 44 56
28 34 43
34 41 52
31 37 47
43 52 66
37 45 57
33 40 51
39 47 59
38 45 56
34 41 52
37 45 57
32 39 50
34 41 52
31 37 46
35 41 51
36 44 56
37 45 56
36 43 53
40 48 61
34 41 51
34 41 52
34 41 51
41 49 61
31 37 46
32 39 49
35 43 54
32 38 47
35 42 52
33 39 50
30 36 45
28 33 41
39 47 58
31 37 46
32 38 46
27 32 40
30 35 44
25 30 37
30 35 44
33 39 49
21 25 31
26 30 37
29 35 43
29 34 41
22 26 31
28 33 42
25 30 38
23 28 35
26 31 39
25 29 37
27 33 41
26 31 39
30 36 45
23 28 35
28 34 43
31 37 46
32 38 48
24 29 36
29 35 45
35 42 52
32 39 49
26 32 40
24 29 37
31 37 46
33 39 49
29 35 44
27 32 40
30 36 45
28 34 43
29 35 44
30 36 45
29 35 44
27 33 41
29 34 43
29 35 43
34 41 52
25 30 38
28 34 42
28 33 41
31 37 46
30 35 44
25 30 38
27 32 40
22 26 32
20 24 30
28 33 41
23 27 33
29 34 42
26 31 39
29 34 43
32 38 47
27 32 41
21 25 31
29 35 44
27 32 40
26 31 38
32 38 47
32 38 47
30 35 43
29 35 43
35 41 51
32 38 47
41 48 60
31 38 47
36 43 54
34 41 51
35 42 53
32 39 48
30 36 45
38 46 58
36 44 55
30 36 45
31 37 47
34 41 52
37 45 56
35 43 54
36 44 56
32 39 49
40 48 60
36 44 55
34 42 54
33 40 50
40 49 62
42 50 64
38 45 57
36 43 53
38 45 56
37 45 57
35 42 52
30 36 45
29 36 45
33 41 51
30 37 47
34 42 53
32 39 49
33 40 50
29 36 46
42 51 64
30 37 47
35 41 51
36 43 55
42 51 63
37 44 56
38 46 57
32 39 49
33 39 49
35 42 53
30 36 45
35 42 53
36 43 55
30 36 45
28 34 42
26 31 38
25 30 36
34 41 52
29 35 43
31 36 45
29 35 42
30 36 44
27 32 40
21 25 31
31 37 46
30 36 44
29 34 42
30 36 44
30 36 44
24 29 36
28 33 41
22 26 32
28 33 41
29 35 42
29 34 41
25 30 36
22 26 32
27 31 38
17 20 24
20 24 29
18 21 26
23 27 33
20 23 29
17 20 24
21 24 30
22 26 32
21 24 29
19 22 27
22 26 31
19 22 27
18 21 26
18 21 27
17 20 25
21 25 31
21 25 31
24 29 36
20 25 31
24 28 35
20 25 31
16 20 25
22 26 33
30 35 43
23 28 35
23 28 35
24 29 37
25 30 38
25 30 38
22 26 32
24 29 37
26 32 40
26 31 38
26 31 39
29 35 44
23 27 34
23 28 35
25 30 37
24 29 36
31 37 45
24 29 36
26 31 39
27 33 41
28 34 42
24 29 37
26 31 38
29 35 43
25 30 37
32 39 48
26 31 38
26 32 40
28 34 43
25 30 38
26 31 40
30 36 46
27 33 41
28 33 42
27 32 39
29 34 43
32 39 50
30 37 46
33 40 49
31 36 45
27 33 41
26 31 39
34 41 51
25 30 38
30 36 45
36 43 55
45 55 69
47 58 75
56 68 87
51 63 81
55 67 86
56 69 90
54 66 85
60 74 94
61 75 96
57 70 89
60 74 95
61 75 97
57 71 92
61 74 95
57 70 90
55 68 88
57 71 92
64 79 102
60 74 95
62 76 98
53 65 84
57 70 91
60 72 92
54 67 87
57 71 91
59 73 94
62 75 96
60 74 96
57 70 89
55 67 87
49 61 78
57 70 90
52 63 81
55 69 89
58 72 92
52 64 82
55 67 86
52 64 82
59 72 92
60 73 94
57 70 90
48 60 78
49 61 77
52 65 84
55 68 88
41 50 64
42 51 65
40 48 61
35 42 53
29 36 46
30 36 44
32 39 49
24 29 37
31 37 47
25 30 38
30 36 45
24 29 36
31 38 47
26 31 38
30 36 45
27 33 41
28 34 42
27 32 40
30 35 44
26 32 40
31 37 47
25 30 37
32 38 47
28 34 43
27 33 41
23 27 34
29 34 42
18 21 27
30 35 44
22 27 34
27 33 41
24 29 36
22 27 33
27 32 40
22 27 34
23 27 34
21 25 32
22 26 32
22 26 32
26 31 38
23 27 34
27 32 39
24 29 36
20 24 30
26 31 38
23 27 33
22 26 32
20 24 30
18 22 26
22 26 32
17 20 25
19 22 26
21 25 31
28 33 40
25 30 36
28 32 39
22 25 31
20 24 29
22 25 30
19 22 27
20 23 28
15 18 21
23 27 33
26 30 37
27 31 38
22 26 32
33 39 48
21 26 32
27 32 39
24 28 35
29 34 42
31 36 45
29 34 42
31 37 46
28 33 41
28 34 41
27 32 40
28 33 42
31 37 45
24 29 35
29 34 43
29 34 43
34 40 50
32 38 47
39 46 57
30 36 44
33 40 49
35 42 53
32 39 48
38 45 56
35 42 53
35 42 52
39 47 59
35 42 53
35 43 55
43 51 63
40 48 61
37 44 55
32 39 49
32 38 48
37 45 56
39 47 59
32 38 48
41 50 64
39 47 59
42 51 65
38 46 57
35 43 54
36 44 55
39 48 61
41 49 61
39 47 58
37 45 57
35 41 52
37 45 56
42 50 62
36 43 54
31 38 47
41 50 64
40 48 61
32 38 48
32 38 48
31 38 47
39 47 59
43 52 65
36 43 54
38 46 57
38 45 56
35 42 53
35 42 53
33 40 50
30 37 46
35 42 52
34 40 50
30 37 46
37 44 54
39 47 59
31 37 46
33 39 48
33 40 50
41 49 60
31 38 48
30 36 45
28 33 40
26 31 38
28 34 41
33 39 48
33 40 49
33 39 48
27 31 38
34 41 51
27 32 40
27 33 40
28 33 40
23 28 34
18 21 26
27 31 39
30 36 44
30 35 43
20 24 29
27 32 39
29 35 44
26 32 39
27 32 40
29 35 43
25 30 37
30 36 45
28 34 42
28 34 42
30 36 46
26 31 39
25 31 39
28 34 43
27 33 41
31 38 48
37 44 54
27 32 41
32 38 47
30 36 45
28 34 43
33 40 50
26 31 38
29 35 43
34 41 52
29 35 44
29 35 44
24 29 36
25 30 38
29 35 44
30 36 44
26 32 39
22 27 33
31 37 45
25 30 36
25 29 36
24 28 34
26 30 37
22 27 33
28 33 41
28 32 40
24 29 36
32 38 47
30 36 44
30 35 43
33 39 48
32 38 47
25 29 36
34 41 51
26 30 37
27 33 40
36 43 53
26 32 40
35 42 52
29 34 42
29 35 43
33 39 49
33 40 51
29 36 45
35 42 52
29 35 44
39 46 58
34 41 52
34 41 51
36 44 55
41 49 62
36 44 56
38 46 58
39 47 59
33 39 49
35 42 53
39 47 60
38 45 57
35 42 53
35 42 52
39 47 59
33 39 49
39 47 60
39 47 58
40 49 61
34 41 51
44 54 68
38 45 56
30 37 47
38 46 58
41 49 62
46 54 68
41 50 63
36 43 55
33 40 50
39 46 58
38 45 57
33 40 51
35 42 52
32 39 49
40 48 60
34 42 53
40 48 60
30 36 45
33 40 50
41 49 62
31 37 46
35 42 52
31 37 46
35 42 52
32 38 47
29 34 43
28 34 43
33 40 49
31 37 47
31 36 45
32 38 47
33 39 49
30 36 45
30 36 44
31 37 45
26 30 38
30 35 43
23 28 35
26 31 38
28 34 42
25 30 37
23 27 33
25 30 37
23 27 33
20 24 30
26 31 38
24 28 35
20 23 28
26 30 37
22 26 32
22 26 32
20 23 28
21 24 29
25 30 36
24 28 35
21 25 31
27 31 38
20 24 29
20 24 29
19 22 27
19 22 27
26 30 37
22 26 32
17 20 26
16 19 24
21 25 30
13 16 20
22 27 33
15 18 23
20 24 30
20 24 30
26 31 38
23 28 35
25 30 37
23 27 34
22 26 33
26 31 38
26 31 38
23 27 34
21 25 31
27 32 40
25 30 38
22 26 32
25 31 39
25 30 37
25 30 38
23 27 35
25 30 38
24 28 36
24 28 36
21 26 33
26 31 39
25 30 38
26 31 39
25 29 37
24 29 36
27 32 41
33 40 50
25 30 37
24 28 35
27 32 40
25 30 37
31 36 45
29 35 44
26 32 41
24 29 35
31 37 47
30 36 44
36 44 55
37 45 57
47 57 73
49 60 76
53 65 83
56 69 89
59 72 91
51 62 77
53 65 82
58 71 91
56 69 88
56 69 88
59 73 93
54 66 84
60 74 94
63 77 98
59 73 93
56 70 90
54 67 87
57 69 88
62 76 98
57 71 91
57 69 88
60 74 96
61 75 97
62 76 98
66 81 105
64 78 100
61 75 95
61 76 97
57 70 90
61 75 96
58 72 92
50 62 79
57 71 92
54 66 85
57 70 90
59 73 94
52 65 84
59 73 95
59 73 92
53 66 85
52 65 84
52 65 84
55 67 85
52 64 81
58 71 91
51 63 80
54 66 84
50 62 79
52 64 81
52 63 80
58 71 91
54 66 83
46 57 72
53 64 82
46 56 70
47 57 72
43 53 68
40 48 60
42 51 63
33 40 50
36 44 55
30 36 45
30 36 46
24 29 36
28 34 43
26 31 39
26 31 39
26 31 39
27 33 40
29 34 43
29 35 44
25 30 38
28 33 42
22 26 33
25 30 38
23 27 33
26 31 38
19 23 29
26 31 39
24 29 36
24 29 35
25 29 36
25 31 38
16 20 24
25 30 37
23 27 33
26 31 39
23 28 34
22 27 33
22 26 33
27 32 39
27 31 39
21 24 30
22 26 32
25 30 37
24 28 34
28 32 40
23 27 33
21 25 30
23 27 33
27 31 38
20 24 29
22 26 32
25 29 35
23 26 32
23 27 32
26 30 36
21 24 29
21 25 31
27 31 38
23 26 32
25 29 36
26 31 38
19 23 28
27 31 38
25 29 36
20 24 30
28 33 40
26 30 37
28 33 40
32 37 45
26 31 38
31 37 46
27 33 41
28 34 42
34 40 49
28 33 41
28 33 41
33 39 48
30 35 43
33 40 49
26 31 38
37 44 55
28 33 42
32 39 48
36 44 55
38 46 57
34 40 51
35 41 51
36 43 54
37 45 57
33 40 50
38 46 58
37 45 56
37 45 58
35 41 52
35 42 53
34 41 50
33 39 50
30 36 46
40 48 60
31 38 48
42 52 66
38 46 59
38 46 57
33 39 49
37 45 56
32 39 49
41 49 62
38 46 58
33 40 51
36 43 53
41 51 65
36 44 55
41 50 63
38 45 56
36 44 55
31 38 47
41 49 61
38 45 56
38 46 58
35 43 54
33 40 50
37 44 56
34 41 51
36 44 55
36 43 55
35 42 53
38 46 57
38 45 56
32 38 48
36 43 53
33 40 51
33 40 50
36 44 54
36 43 55
33 39 49
39 47 58
32 38 46
30 36 45
30 36 46
33 39 49
30 35 44
25 30 37
36 43 53
42 50 62
26 31 39
33 39 48
32 39 48
29 35 43
30 36 44
31 37 45
29 34 41
28 33 40
30 36 45
24 28 35
29 35 43
26 30 38
28 33 40
21 25 31
28 33 41
22 26 32
22 26 33
24 28 35
18 21 26
22 26 32
21 26 32
26 31 39
25 30 37
23 28 35
24 29 36
27 33 40
29 35 44
25 30 38
26 31 39
28 34 42
25 30 38
22 27 34
25 30 37
32 38 47
24 29 36
28 34 42
24 28 35
32 38 47
28 34 42
24 29 37
21 26 32
22 26 31
24 29 35
28 33 41
21 25 31
33 39 48
21 25 31
29 34 43
23 27 33
26 31 38
22 26 32
25 29 36
30 36 44
32 38 46
26 31 38
35 42 53
31 37 45
28 33 41
28 33 41
29 34 43
26 32 40
31 37 45
27 32 40
30 36 44
34 40 50
31 37 46
32 38 46
33 39 49
27 32 40
35 41 51
36 44 54
36 43 53
30 35 44
28 34 43
37 44 55
38 46 57
36 44 54
40 48 61
42 51 64
37 45 56
36 43 54
33 40 50
33 40 51
32 39 49
38 46 57
39 47 59
36 43 54
29 35 44
39 47 59
35 43 54
35 43 54
35 42 53
37 45 58
44 53 66
37 45 56
42 51 66
37 45 57
38 46 58
38 46 57
35 43 54
37 45 56
35 42 53
43 52 65
43 52 65
40 48 60
34 42 52
36 43 54
38 45 57
34 42 52
33 40 50
42 50 63
38 46 57
35 42 53
37 44 55
36 43 53
35 43 54
36 43 54
30 36 44
41 49 61
38 46 57
33 39 49
32 38 48
29 35 43
31 37 46
29 34 43
35 41 51
34 40 49
29 35 43
32 37 46
27 33 41
29 34 42
27 32 40
30 36 45
28 33 41
28 33 41
24 29 36
28 33 41
28 34 42
31 36 44
27 31 39
22 26 32
24 28 35
25 29 36
25 29 35
31 36 45
20 24 29
23 27 32
26 30 37
26 30 37
33 39 47
25 29 35
22 26 32
18 21 25
29 34 41
23 27 33
28 33 40
17 20 24
27 31 38
23 27 32
22 26 32
26 30 37
25 29 36
23 26 32
27 32 40
17 21 26
19 22 27
30 35 43
20 23 29
22 27 33
22 26 32
24 29 36
29 35 43
22 26 33
22 27 33
21 25 32
23 28 35
23 28 35
26 31 39
28 33 41
24 28 35
24 29 36
29 35 44
28 33 41
22 27 34
23 27 34
24 29 37
28 34 42
29 34 43
28 33 41
26 32 40
25 29 37
25 30 38
28 33 41
29 35 44
27 33 42
29 35 44
35 43 54
36 43 54
43 52 66
41 51 65
50 61 78
48 58 73
52 63 81
52 63 80
49 60 77
51 63 79
52 64 81
52 64 82
57 70 89
52 63 81
56 68 86
46 56 71
51 62 79
55 68 87
58 71 90
51 63 81
51 62 80
55 69 89
62 76 96
60 73 94
54 66 85
48 60 77
56 69 88
53 65 84
60 74 94
54 66 85
54 67 86
61 76 98
56 69 89
54 67 87
56 70 90
59 73 94
63 77 99
57 70 90
50 62 79
60 74 96
54 68 88
59 73 94
59 72 92
57 70 90
54 66 86
57 70 90
49 61 79
58 71 91
57 70 90
59 72 93
52 63 81
47 57 72
48 60 78
58 71 91
57 68 86
49 60 76
57 70 88
51 62 79
56 69 87
54 64 81
43 53 67
52 63 80
48 59 75
44 54 69
47 57 72
44 53 68
42 51 64
44 54 69
48 58 73
39 47 59
45 55 69
45 54 67
42 51 64
43 53 66
35 42 53
34 42 52
35 42 53
41 49 62
37 45 56
36 43 54
32 38 47
36 43 53
32 39 48
31 37 46
35 42 52
30 36 45
29 35 44
28 33 41
33 39 47
31 37 46
33 39 48
30 36 44
27 32 40
36 43 52
29 34 41
26 30 37
29 34 42
28 33 41
25 30 37
27 31 39
31 37 45
18 22 27
29 34 41
26 30 37
25 29 35
31 36 44
31 36 43
21 24 30
26 31 38
20 24 29
28 33 40
26 31 38
18 21 26
27 31 37
24 28 34
29 35 43
16 19 23
32 38 46
22 25 31
30 35 42
26 31 38
30 35 44
27 32 39
29 34 42
25 30 37
32 38 47
34 40 49
31 38 47
34 41 50
33 39 48
30 36 45
37 44 54
32 38 48
33 39 49
34 40 50
34 41 53
27 32 40
28 34 42
36 43 54
38 46 57
36 43 53
33 39 49
33 40 50
30 36 46
30 36 44
31 37 46
35 42 52
37 45 56
40 48 60
34 41 52
34 40 51
37 45 57
38 46 58
34 41 51
40 48 60
45 55 69
38 45 57
40 48 60
27 33 41
44 53 67
33 39 49
36 44 56
32 39 48
38 46 59
37 45 58
35 42 53
38 46 57
41 49 62
35 42 53
39 47 60
31 37 47
34 41 51
35 42 53
37 45 56
46 55 68
39 47 60
37 45 57
35 43 54
40 48 60
36 43 54
34 41 52
37 44 55
33 40 50
42 51 64
42 51 64
38 46 58
32 39 49
33 39 49
40 47 59
37 44 55
37 45 56
29 35 44
34 41 51
33 40 50
36 44 56
32 39 49
34 41 50
31 37 46
37 44 54
36 43 54
33 39 48
31 37 46
34 41 51
27 32 39
25 30 37
33 40 51
23 28 35
26 31 38
27 32 40
20 24 29
26 31 38
37 43 54
27 32 40
30 36 44
24 29 36
32 37 46
25 30 37
26 31 38
22 27 33
26 30 37
22 26 32
17 21 25
22 26 31
22 26 32
20 23 29
22 26 31
20 23 28
18 21 26
24 28 35
28 33 41
20 23 29
25 30 37
23 27 33
20 24 30
16 19 24
25 29 36
23 27 33
27 32 40
22 26 33
21 24 30
24 28 34
22 27 33
20 23 28
18 21 25
25 30 37
27 32 39
27 32 38
25 30 36
27 32 39
28 33 40
25 29 36
24 29 36
28 33 41
27 32 40
18 22 27
26 31 38
26 31 37
29 35 43
30 36 44
32 39 48
26 31 38
25 30 37
29 34 43
34 41 51
31 37 46
35 41 51
30 36 45
28 33 41
39 47 58
30 35 44
33 40 50
29 35 43
29 34 42
33 40 50
33 41 52
35 42 53
33 39 48
35 41 52
34 40 50
40 48 60
36 43 54
36 44 55
32 39 49
39 47 60
30 36 46
42 51 63
41 48 60
40 47 59
41 50 63
36 44 56
32 39 50
35 43 54
34 42 53
40 48 60
32 39 50
41 50 64
41 49 62
38 47 59
33 40 50
38 46 59
36 44 55
40 48 61
29 36 45
39 48 61
30 35 44
40 48 61
43 52 65
32 39 49
31 38 47
34 41 52
41 49 61
35 43 54
31 37 47
40 49 62
40 48 59
31 38 47
38 46 58
38 45 56
40 48 60
29 35 45
29 35 44
37 43 54
36 43 54
32 39 49
36 44 56
34 42 53
36 43 54
35 43 54
43 51 63
35 41 51
34 41 51
29 35 44
36 43 53
33 40 50
24 29 36
28 33 41
26 31 38
34 40 50
29 35 43
38 44 54
27 32 40
30 35 44
28 33 41
28 33 41
25 29 35
26 31 39
22 26 32
25 29 36
28 34 42
21 25 31
27 32 39
24 28 35
23 27 33
24 29 35
28 33 41
21 25 30
26 30 37
25 29 36
27 31 38
23 27 32
26 30 37
27 32 40
28 33 41
24 28 34
24 29 35
26 31 38
26 31 37
24 29 35
28 33 40
26 31 38
32 38 47
28 33 40
25 30 36
27 31 38
31 37 46
30 35 44
31 36 45
25 29 36
25 29 36
30 36 44
33 39 48
34 41 50
37 44 54
37 44 55
34 40 50
33 39 49
31 37 46
31 37 46
33 39 49
35 42 52
36 43 54
47 56 70
40 48 59
43 52 66
45 54 68
46 55 68
44 52 65
50 59 74
45 54 68
41 50 64
49 59 74
47 57 72
45 54 68
52 63 79
55 68 86
45 55 70
48 58 73
50 62 79
55 66 83
52 64 81
55 67 86
54 66 84
53 64 82
45 56 72
52 63 80
54 66 84
50 61 78
55 68 86
60 73 93
57 70 90
53 66 85
52 65 83
53 65 83
51 63 81
52 64 82
59 72 92
57 70 90
56 70 91
54 66 85
57 70 89
58 72 93
55 68 87
55 68 88
59 73 95
57 70 89
56 69 89
54 66 85
63 77 99
55 68 88
55 68 87
56 69 90
60 73 93
56 69 88
60 73 93
57 71 90
56 68 87
54 67 86
54 67 86
49 61 78
56 69 88
57 70 89
51 63 81
48 59 74
53 65 83
58 71 90
49 60 76
52 64 81
54 65 82
48 58 74
50 61 77
56 68 85
47 57 72
52 63 80
50 61 77
49 59 75
43 51 64
52 63 79
49 58 72
40 49 63
47 57 71
46 56 70
46 56 71
38 46 58
47 56 70
36 43 53
40 48 59
43 51 63
44 53 66
36 43 53
41 49 61
37 43 53
38 46 57
38 45 56
37 44 55
37 44 55
36 43 54
32 38 46
30 36 45
39 46 57
35 41 50
26 31 38
38 45 57
33 40 49
33 39 48
27 32 39
28 32 40
27 32 39
32 38 46
30 35 43
24 29 35
27 31 38
24 28 35
34 41 50
27 32 39
28 32 40
25 30 36
25 29 36
23 27 33
18 21 26
30 35 43
21 24 30
25 30 36
22 25 31
27 32 40
29 34 42
31 36 44
30 35 44
22 26 32
30 36 44
31 36 45
24 29 35
26 31 37
25 30 37
35 41 52
30 36 44
29 34 42
33 39 48
28 33 41
32 38 47
30 36 45
41 49 60
31 37 45
37 44 55
36 44 54
27 33 41
38 45 57
33 40 50
32 38 47
33 39 49
38 45 56
36 44 55
36 44 55
33 40 50
36 43 54
31 37 47
34 41 52
37 44 55
35 43 53
35 42 53
38 46 58
35 43 54
36 44 56
38 47 60
40 48 61
34 41 52
37 45 56
37 45 57
31 38 48
36 44 56
38 46 57
34 41 51
37 45 57
44 52 65
37 45 57
38 46 58
36 45 57
33 40 51
42 51 64
38 46 58
39 47 59
35 42 52
42 51 64
43 52 66
37 44 55
38 46 57
30 36 46
41 50 62
36 44 55
36 44 55
41 49 62
36 43 55
35 42 52
35 42 54
37 45 56
33 40 51
31 37 47
38 46 57
26 32 41
34 42 53
37 45 56
35 42 52
39 47 59
30 37 46
32 38 48
34 41 51
36 43 54
35 42 52
35 42 53
38 46 57
28 34 43
28 33 41
32 38 47
30 36 46
35 42 52
35 42 53
35 42 51
28 34 42
26 31 38
29 34 42
32 38 47
30 35 44
27 33 41
26 31 38
31 37 45
28 33 41
23 27 33
27 32 39
29 35 43
31 36 44
24 28 35
27 31 39
31 36 44
20 23 29
24 29 35
25 30 37
22 27 33
26 30 38
29 34 41
23 27 33
24 29 36
13 16 19
24 28 34
21 25 31
23 27 33
28 33 40
25 29 36
24 28 35
27 32 39
25 29 36
20 24 29
26 31 38
26 31 38
24 28 35
17 20 25
27 32 39
25 29 35
24 28 35
24 28 35
24 28 35
28 33 41
24 28 35
23 27 33
30 36 44
28 34 42
22 26 33
29 35 43
21 25 31
30 36 45
33 39 48
25 30 36
28 33 40
34 41 51
29 34 43
37 44 54
35 42 53
34 41 51
37 43 53
32 39 48
35 42 52
28 34 43
36 43 54
31 37 46
31 38 47
41 50 63
32 39 48
28 35 44
32 39 49
41 49 61
36 44 55
32 39 48
36 43 54
34 41 51
34 41 51
38 46 58
38 46 58
32 39 49
38 46 58
40 49 62
32 39 49
41 50 62
44 53 66
41 50 63
36 44 56
36 44 56
40 48 61
36 44 56
32 39 49
40 49 61
41 49 62
33 40 51
36 44 55
38 46 59
38 46 58
39 47 59
31 38 48
37 45 57
33 40 51
38 46 58
33 39 49
36 44 55
39 47 59
37 44 55
33 39 49
37 45 58
31 37 46
29 34 43
34 42 53
40 48 61
35 43 55
32 39 49
40 48 60
41 49 61
39 47 58
33 40 49
34 41 51
36 44 55
35 43 54
34 40 50
37 45 56
36 43 55
37 45 56
37 44 55
31 38 47
28 34 43
32 39 49
36 43 54
32 39 48
35 42 52
31 36 45
30 36 45
33 39 48
29 34 43
28 34 41
29 35 43
32 38 47
24 28 35
29 35 43
35 41 50
27 32 39
28 33 41
35 41 51
27 31 39
24 28 35
24 28 35
31 37 45
21 25 30
33 39 47
29 34 42
25 30 36
24 29 35
24 28 34
36 42 51
28 34 41
25 29 35
27 32 39
22 26 32
24 28 34
28 33 41
29 34 41
25 29 35
26 30 37
29 34 41
24 29 35
27 32 40
33 39 48
31 36 45
26 30 37
36 42 52
39 46 56
32 38 47
29 35 43
28 34 42
39 46 57
36 43 54
39 47 58
39 47 58
39 45 56
39 47 58
34 40 50
43 51 63
46 55 68
41 49 61
47 57 71
44 54 67
41 50 63
43 52 65
39 47 59
45 55 69
46 55 69
43 52 65
39 48 61
49 59 74
43 53 67
51 62 78
43 51 65
47 57 73
49 59 75
50 60 76
53 64 80
47 58 73
46 57 73
52 64 82
54 66 83
50 62 79
47 58 74
59 71 91
53 65 84
51 63 81
58 70 90
51 62 79
51 63 80
56 68 87
55 66 84
54 67 85
51 63 82
54 68 89
57 70 90
53 66 84
54 66 85
55 68 88
56 69 88
55 67 86
52 64 83
61 75 96
56 69 88
48 60 77
52 65 84
57 70 90
54 67 86
55 68 88
49 61 78
59 72 92
55 67 86
57 70 90
49 60 76
54 65 83
58 71 91
56 68 86
53 65 83
47 58 75
51 62 79
51 62 79
57 69 87
57 70 88
48 59 76
46 56 71
48 59 75
56 68 86
45 55 69
53 64 81
49 59 73
47 57 71
47 57 73
44 53 67
46 56 70
48 57 72
43 52 65
48 57 71
44 54 68
38 45 57
49 58 73
49 60 75
47 56 70
33 40 50
44 52 65
43 51 63
42 50 62
39 47 59
37 44 54
35 42 52
40 48 61
39 46 56
36 43 53
35 42 51
28 33 41
28 34 41
35 41 51
32 38 47
32 38 47
32 37 46
30 36 44
32 38 46
27 33 41
33 39 48
27 32 39
26 31 38
28 33 40
29 34 42
32 38 46
26 31 38
28 33 40
29 34 42
33 39 47
24 28 34
27 32 39
30 35 43
23 27 33
29 35 43
23 27 33
29 34 42
35 41 50
34 40 49
28 33 41
28 34 42
30 36 44
31 37 45
24 28 35
31 37 45
27 31 38
37 44 54
27 32 40
26 31 38
28 34 42
31 37 46
36 43 54
27 33 41
32 38 46
35 42 53
29 36 45
26 31 38
33 39 49
35 41 52
31 38 48
36 43 54
31 37 46
39 47 59
42 51 63
34 40 50
30 35 44
32 38 48
36 43 54
32 39 50
36 43 54
38 46 57
34 40 51
36 43 54
42 50 63
44 53 66
40 48 61
36 43 54
43 51 63
36 44 54
39 47 60
39 47 58
42 51 65
37 45 57
39 47 59
40 49 62
37 45 56
34 41 52
35 43 54
35 43 55
33 40 51
43 52 67
38 46 58
33 40 50
39 48 61
38 46 60
44 53 66
39 47 59
32 39 50
35 43 54
38 46 59
40 49 63
44 53 67
40 48 60
41 49 62
37 46 58
41 50 63
45 55 70
29 36 45
36 43 55
37 45 57
41 49 62
37 44 56
37 45 57
34 40 50
36 43 54
43 52 65
31 37 47
38 46 57
38 45 57
42 51 64
33 40 50
32 38 48
36 43 54
29 35 43
36 43 52
35 41 52
36 43 54
32 39 48
33 40 50
38 45 55
40 48 60
36 43 53
34 41 51
29 35 43
33 39 49
34 41 51
33 39 49
31 36 45
30 36 44
34 40 49
33 39 49
24 29 36
31 38 47
27 33 41
37 44 53
28 34 41
30 35 43
24 28 35
27 32 39
28 33 41
34 39 48
25 29 36
18 22 27
26 30 37
25 30 37
29 34 42
22 26 32
22 25 31
29 34 41
28 34 42
32 38 47
24 29 36
19 23 28
22 26 32
28 33 41
25 30 37
30 36 44
25 30 37
23 28 34
26 31 37
25 29 36
22 26 32
32 38 47
24 29 35
28 33 41
28 33 41
26 31 38
23 27 33
28 33 41
23 27 34
29 35 43
27 32 39
33 39 49
24 28 35
30 36 46
37 44 54
30 36 45
29 35 44
29 34 43
32 39 49
29 34 43
32 38 47
32 39 48
31 37 45
30 36 45
35 42 53
33 40 50
32 39 49
38 46 57
39 47 59
38 46 58
38 45 56
34 41 52
31 36 45
42 51 64
41 49 61
34 41 51
34 41 52
45 55 69
37 44 56
33 40 50
33 40 50
33 40 50
34 42 53
38 46 59
41 50 64
41 50 62
36 44 56
37 44 56
30 36 46
38 46 58
32 39 49
35 42 54
40 49 62
37 45 57
36 44 56
37 44 56
41 50 63
40 48 60
40 49 63
37 46 59
34 42 53
40 48 62
37 44 55
37 44 55
39 48 61
37 45 56
38 45 57
38 46 58
43 52 65
36 43 54
35 43 55
35 42 53
42 50 63
32 39 49
39 47 59
34 41 52
31 37 47
36 42 53
37 45 56
35 42 53
34 42 52
30 36 46
38 46 57
35 43 54
33 40 51
38 45 57
36 44 55
30 36 45
32 39 48
36 43 54
31 37 46
29 35 44
32 38 48
31 38 47
32 38 48
32 38 47
36 43 53
28 33 42
32 38 48
30 36 44
32 37 46
39 46 57
31 37 45
34 41 51
29 35 43
26 31 38
28 33 41
29 34 42
20 23 29
31 37 46
27 33 41
29 34 41
21 25 30
32 37 46
28 33 41
27 32 39
28 33 40
31 37 46
27 32 39
22 26 32
28 33 40
25 30 37
23 27 34
25 30 36
28 33 41
27 32 39
32 37 46
27 32 39
28 33 41
27 32 39
29 35 43
31 37 45
31 37 45
33 40 49
30 36 44
30 35 43
34 40 50
42 50 61
35 42 52
34 41 50
33 39 48
45 53 66
38 46 57
34 41 52
40 48 60
42 50 63
39 46 58
34 41 52
37 44 55
40 48 60
39 47 59
41 50 63
45 54 67
45 54 67
37 44 56
40 49 63
43 52 65
44 53 67
42 51 65
51 61 76
44 54 69
50 61 78
52 63 79
49 59 74
46 57 73
43 52 65
51 63 80
48 58 74
58 71 90
50 61 78
52 63 81
53 66 84
51 63 80
53 64 80
49 61 78
53 64 80
59 73 93
50 62 79
57 69 88
58 71 91
58 71 92
52 65 84
53 65 83
53 66 86
56 70 90
53 65 84
57 69 87
60 73 94
54 67 86
59 74 96
61 74 94
48 59 77
59 72 92
53 65 83
54 68 87
58 71 90
53 65 83
49 61 79
55 67 86
52 64 81
52 64 82
53 65 82
55 67 86
56 69 87
55 68 86
58 69 87
51 62 79
53 65 83
48 58 74
50 62 78
56 67 84
51 62 78
51 62 78
45 54 69
45 54 68
51 62 80
53 65 82
49 59 74
46 56 70
51 62 79
47 58 74
51 62 78
45 55 70
38 46 58
37 45 56
35 42 52
44 53 66
37 45 57
41 49 62
41 49 61
37 44 55
39 47 58
43 52 64
33 40 50
42 50 62
36 43 54
41 49 60
33 39 49
29 35 44
38 46 57
36 43 53
39 47 57
33 39 48
31 37 45
33 39 48
40 48 59
36 42 52
35 41 50
33 39 48
27 32 39
28 34 42
31 36 45
26 30 37
25 30 37
25 30 37
27 32 40
22 26 32
31 37 45
27 32 39
23 27 34
33 39 49
27 32 39
27 32 40
31 37 46
30 36 44
24 28 35
31 36 45
30 35 43
27 32 39
37 43 53
25 30 37
34 40 50
29 35 44
24 28 35
33 40 50
30 36 46
38 44 54
26 32 40
32 39 48
33 40 50
33 39 49
31 37 46
33 40 49
28 33 41
30 35 43
29 35 44
35 41 51
34 40 49
35 41 51
33 38 47
36 44 55
34 41 51
37 44 55
35 42 52
35 42 53
37 44 55
33 39 48
39 46 57
32 38 47
36 43 54
32 39 48
30 36 46
27 33 42
31 37 47
37 45 57
38 47 59
38 47 60
36 43 54
36 44 57
34 41 52
42 52 66
35 42 53
35 43 54
41 50 62
40 48 61
43 52 65
47 57 72
36 44 56
43 52 66
41 49 61
38 47 59
43 52 65
44 53 67
45 55 71
38 46 58
38 45 57
37 45 57
44 53 66
39 47 60
35 43 55
40 48 61
35 43 55
43 52 65
35 42 53
34 41 51
43 52 65
37 44 55
40 47 59
36 44 55
34 41 52
39 47 59
34 41 52
40 48 60
30 36 46
31 38 48
40 48 60
40 48 60
33 39 49
35 43 54
37 44 56
36 43 54
37 44 55
30 35 44
38 45 56
36 43 54
37 44 56
26 32 40
31 37 46
32 38 47
29 34 42
28 34 42
33 40 50
31 37 45
34 41 51
29 35 43
33 39 48
31 37 45
32 38 48
36 43 53
31 37 45
26 31 39
25 29 36
30 36 45
32 38 47
26 31 38
29 34 42
26 30 37
27 32 39
31 37 45
22 26 32
27 32 40
27 32 39
31 37 46
28 33 41
26 31 38
26 30 38
36 43 52
25 30 37
22 26 32
25 30 38
21 24 30
30 35 44
29 34 42
25 29 36
25 30 37
23 28 34
23 27 34
28 33 41
22 27 33
25 29 36
25 30 37
29 34 42
31 37 46
26 31 38
32 38 47
28 33 41
27 33 41
35 42 51
32 39 48
31 37 46
27 32 40
33 40 50
28 33 42
26 32 40
28 34 43
37 44 54
41 49 60
27 33 41
31 37 45
31 37 46
36 43 54
35 42 52
36 43 54
36 43 54
26 32 40
37 44 55
32 38 48
29 35 43
31 37 47
31 38 48
32 39 49
36 43 55
36 44 56
31 38 47
45 54 68
38 46 57
36 43 55
43 52 66
35 42 53
31 37 46
38 45 57
31 37 47
38 46 58
35 43 54
38 46 58
34 40 50
36 43 55
40 49 61
44 54 68
38 47 59
36 43 55
37 45 57
36 44 56
38 45 57
44 53 66
38 46 58
42 52 66
36 43 55
39 47 60
42 51 64
42 52 66
36 43 55
37 44 54
38 48 61
42 51 66
39 47 59
36 43 54
36 44 56
37 44 56
37 46 59
39 47 59
35 43 55
41 49 61
34 41 51
39 48 60
35 42 53
40 49 62
36 44 55
37 45 56
34 40 50
35 41 51
34 40 50
41 48 60
34 42 53
34 41 52
35 43 54
41 49 61
35 42 53
32 39 48
32 38 48
43 51 63
35 41 51
37 44 54
28 34 43
28 33 42
35 42 53
28 34 42
36 43 54
33 39 49
34 40 49
37 44 55
29 35 43
36 43 53
29 35 44
26 31 38
32 37 46
24 29 36
28 33 40
30 35 43
25 30 37
26 31 38
33 38 47
28 33 41
27 31 39
25 30 36
29 34 43
35 41 51
28 33 41
28 33 41
31 37 45
25 30 37
25 30 36
29 35 42
26 31 39
32 38 47
30 36 44
30 35 43
32 37 46
30 35 43
34 41 50
29 35 43
29 35 43
30 36 44
35 42 52
31 36 45
30 35 44
31 37 45
30 36 44
35 41 51
37 44 54
35 41 51
37 44 55
33 39 49
26 31 39
41 49 60
41 50 62
42 51 63
36 43 54
38 45 55
38 45 56
43 52 65
39 47 58
40 48 61
36 43 54
48 57 71
44 52 66
49 60 75
43 53 67
40 48 61
50 60 76
38 46 58
53 63 80
42 50 62
48 59 75
48 58 74
46 56 70
52 62 78
52 63 81
52 63 81
52 63 79
44 54 68
46 56 72
51 62 80
50 61 77
53 64 82
58 71 90
48 59 75
52 63 80
57 69 88
50 60 76
53 64 80
58 71 90
53 65 84
54 67 85
55 68 88
55 68 87
52 64 82
59 72 92
60 73 93
53 66 85
58 71 90
52 63 81
53 66 84
52 64 83
52 64 82
54 67 86
57 70 90
56 68 86
48 59 76
53 65 83
52 64 81
54 66 85
55 67 87
54 66 85
49 60 76
51 62 78
52 63 80
52 63 80
55 66 83
49 60 76
50 62 78
47 57 72
45 55 70
48 58 74
49 60 75
52 63 80
50 61 76
48 58 73
46 56 70
46 55 70
46 54 68
49 59 74
43 52 66
40 48 61
43 52 65
43 52 66
41 49 61
44 52 64
35 42 52
43 51 63
43 51 64
40 48 59
37 45 56
35 42 51
36 42 53
40 48 59
34 40 49
31 36 45
33 39 48
37 43 54
37 44 55
33 40 50
37 44 53
34 40 49
28 33 40
37 44 54
27 32 40
34 40 49
30 35 44
34 41 50
30 35 44
38 44 55
33 39 48
33 40 49
30 35 43
31 36 45
35 41 50
26 31 38
29 35 43
24 29 36
29 35 43
33 39 49
26 31 38
33 39 48
29 34 43
29 34 42
26 31 37
36 43 53
28 34 42
31 37 46
36 43 53
29 35 43
28 34 42
31 36 45
36 43 53
36 43 53
36 43 53
27 32 39
31 37 46
34 41 51
34 41 52
32 38 47
33 39 48
29 34 43
28 34 43
33 40 50
35 42 53
40 48 60
29 35 44
32 38 48
37 45 56
38 46 57
39 47 59
36 43 53
36 43 54
41 50 63
34 40 51
38 46 58
39 47 59
39 48 60
46 55 69
42 51 63
37 44 55
36 44 55
38 46 57
34 42 53
37 46 58
39 47 60
37 45 56
33 39 50
45 54 67
37 45 57
37 46 58
42 50 63
40 48 61
41 49 62
29 36 46
40 47 59
40 50 63
30 36 46
33 40 51
44 53 66
42 51 64
37 44 55
36 44 56
38 46 58
37 45 58
35 43 54
39 47 60
35 43 54
37 45 57
40 48 60
38 46 59
43 51 64
35 42 53
35 43 54
41 50 63
42 50 63
39 47 60
46 55 69
33 40 50
42 50 64
37 45 57
36 44 55
37 45 57
37 44 55
32 39 49
47 57 72
40 48 59
38 45 56
39 47 59
40 49 61
30 37 46
28 33 41
40 47 59
32 38 48
31 37 46
36 43 53
35 42 52
24 30 37
30 36 45
32 40 50
36 42 53
28 33 41
37 45 55
23 28 35
30 36 46
29 34 42
31 37 46
33 39 48
31 37 46
32 38 47
28 34 42
31 36 45
28 34 42
30 35 43
31 38 47
35 42 52
32 38 47
26 31 39
25 30 37
29 34 43
25 29 36
28 34 42
27 32 39
27 32 39
23 28 34
29 34 42
26 31 38
23 28 34
29 35 42
20 24 30
31 37 45
19 22 28
24 28 35
28 33 41
21 26 32
23 27 34
27 32 40
29 35 43
30 35 44
30 36 45
31 37 47
28 33 40
21 25 31
32 38 47
33 40 49
34 41 50
28 34 42
26 31 38
25 30 37
26 32 40
29 35 43
28 33 41
27 33 41
30 36 45
43 50 62
30 37 46
31 38 47
32 38 48
40 49 61
35 42 53
34 41 52
33 39 49
42 51 64
36 44 56
35 42 52
28 34 43
31 38 48
36 44 56
39 46 58
35 41 52
32 39 48
38 46 58
41 50 64
38 46 58
35 42 54
43 53 67
40 48 62
38 47 60
31 38 48
37 45 56
38 47 59
41 49 62
42 51 64
33 41 52
37 45 57
42 51 65
40 49 63
38 46 58
43 52 66
31 38 48
41 49 61
34 41 53
35 43 54
35 42 54
38 46 59
36 45 57
39 47 60
39 47 60
38 46 58
39 46 58
34 42 53
43 52 66
39 48 60
41 49 62
40 49 61
43 52 65
40 49 62
40 48 59
38 46 59
39 47 60
44 53 67
39 48 61
38 46 57
32 38 48
36 43 54
40 48 61
37 44 56
37 45 57
34 41 52
40 49 61
38 46 57
30 36 46
36 43 55
40 47 59
35 43 54
29 34 43
34 41 52
35 43 54
37 45 56
43 52 65
35 42 53
41 49 60
32 39 48
39 47 59
29 34 42
34 41 51
32 38 48
32 38 47
34 41 51
35 42 52
33 40 51
29 34 43
27 32 39
31 37 46
31 37 45
26 31 38
38 46 56
29 34 42
31 38 47
32 38 47
30 36 45
28 33 40
30 35 43
35 41 51
26 31 39
30 36 44
28 33 40
28 33 41
26 31 38
37 44 54
31 37 46
34 40 49
36 42 52
23 27 33
29 34 42
32 37 46
32 37 45
31 36 44
36 43 53
34 41 51
26 31 38
28 33 41
39 47 58
30 35 43
33 39 49
33 40 49
33 39 49
33 38 47
36 43 54
36 43 54
33 39 48
47 56 70
34 40 50
37 44 54
36 43 54
41 49 61
43 52 66
41 48 60
42 50 63
49 58 72
38 46 57
45 54 67
40 49 61
35 42 52
46 56 70
43 51 65
45 55 69
48 57 72
39 47 59
43 53 67
44 53 67
48 58 73
44 53 66
49 59 75
45 55 71
41 50 64
50 61 76
53 65 83
50 61 77
50 61 77
51 62 79
56 67 85
46 57 73
52 64 81
54 66 84
53 65 83
59 71 89
53 64 82
53 65 84
49 61 79
51 62 79
51 62 79
58 72 92
57 68 86
53 64 81
54 66 83
48 60 78
54 66 85
55 68 86
52 64 82
54 67 85
56 69 88
50 60 76
50 62 79
53 65 84
50 62 79
53 65 83
51 62 79
56 68 87
49 61 77
54 66 85
51 61 76
51 62 79
47 56 71
45 55 69
45 55 71
49 61 78
48 58 73
48 59 74
43 52 66
43 52 65
46 56 70
51 61 77
45 55 70
45 54 68
46 55 69
50 61 76
44 53 67
43 52 66
37 45 57
41 49 61
39 47 59
38 46 57
40 48 60
32 39 49
40 47 59
36 43 53
44 53 66
42 50 63
40 48 59
33 39 49
41 49 62
42 50 62
38 45 55
42 50 62
31 36 45
38 45 55
38 45 57
41 48 60
33 39 49
30 35 44
42 50 62
28 34 42
37 44 55
40 47 58
27 32 40
38 46 57
32 38 47
39 47 58
30 36 44
32 38 47
32 37 46
32 38 46
29 34 42
33 39 48
32 38 46
25 30 38
32 39 48
26 30 37
26 31 38
34 41 51
34 40 50
31 37 46
31 38 47
30 36 45
33 40 50
30 35 43
29 34 42
36 43 54
43 50 62
29 34 43
32 38 47
32 38 47
29 34 43
29 34 43
35 41 51
38 46 57
34 41 52
35 42 52
36 43 54
31 37 47
32 38 48
38 45 56
34 41 51
36 43 53
38 46 57
35 42 53
36 43 54
39 47 59
37 45 57
40 48 60
32 39 48
31 37 47
35 43 54
42 50 63
40 48 61
33 40 51
33 40 51
40 49 62
39 46 58
46 55 70
37 45 57
35 42 54
40 48 61
45 55 70
38 46 57
48 58 73
38 47 59
43 51 65
38 46 58
39 47 59
38 46 60
38 46 58
36 44 55
33 40 50
36 44 56
41 50 63
45 54 68
38 46 59
40 49 63
42 51 64
36 44 57
39 47 59
40 49 63
39 47 59
39 48 60
32 39 50
44 53 66
36 44 57
30 37 46
34 42 54
43 52 65
38 46 60
33 40 50
38 46 59
41 50 63
38 46 57
42 51 64
34 41 52
34 41 51
34 42 54
39 47 58
31 37 47
36 43 54
34 41 52
40 48 61
35 43 54
37 44 55
35 42 52
34 42 53
34 41 51
36 43 55
33 40 50
41 49 61
36 43 54
37 45 56
34 42 53
38 46 57
36 43 54
33 40 50
34 41 51
31 37 46
31 37 46
28 33 41
31 37 47
31 37 46
34 40 50
29 35 43
27 32 40
31 37 46
30 36 45
29 34 43
28 33 41
30 35 43
33 40 50
28 33 40
33 40 49
27 32 40
32 38 46
33 39 48
31 37 46
32 37 46
31 37 46
28 33 41
34 41 50
33 40 49
23 28 35
28 34 42
29 34 42
22 26 32
27 33 40
26 31 39
31 37 46
35 41 50
27 32 41
28 33 41
26 32 39
28 33 42
32 38 47
27 33 40
33 40 49
20 24 30
30 36 44
31 37 46
31 37 46
31 38 47
33 40 49
37 45 56
33 39 49
32 38 47
33 39 49
36 43 54
34 40 51
30 36 45
32 39 48
32 39 48
34 41 51
33 39 49
36 44 54
29 35 44
28 34 43
40 48 61
39 47 59
36 43 54
43 52 65
38 46 58
34 40 49
36 43 54
37 45 56
34 41 52
35 41 51
31 37 47
38 45 57
35 42 53
31 38 48
32 39 50
32 39 49
34 42 54
36 43 53
35 42 53
35 43 54
34 41 53
35 42 53
39 48 62
39 48 60
41 50 63
40 48 61
34 42 54
39 47 59
37 45 56
34 41 53
47 57 72
36 43 53
39 47 60
42 51 65
38 46 57
42 50 63
39 47 60
39 47 59
46 56 71
34 41 52
41 50 64
38 46 59
39 48 60
39 47 60
41 50 64
40 48 61
38 46 57
34 41 51
46 56 70
30 37 48
42 50 62
33 41 51
37 45 57
40 48 61
34 42 53
34 41 52
45 54 68
41 50 64
38 45 57
39 48 61
41 50 64
34 41 52
39 47 60
38 46 58
35 42 53
35 42 53
33 39 50
37 45 56
34 41 52
36 44 56
34 41 51
36 44 55
33 40 50
33 40 51
41 48 59
33 39 49
36 43 54
37 44 55
29 35 44
35 42 52
37 44 55
33 39 48
33 39 49
29 34 42
37 44 56
31 38 47
32 39 49
31 37 45
29 34 42
35 42 52
21 24 30
37 43 54
31 37 45
30 36 45
27 32 39
38 45 55
34 41 51
29 34 43
25 29 35
34 40 49
38 45 55
31 37 46
30 35 43
27 32 39
35 42 51
33 39 48
31 37 46
35 42 51
33 40 49
32 38 47
31 37 45
35 42 51
29 35 43
33 39 49
38 45 55
36 43 53
28 33 41
35 42 52
36 43 53
28 34 42
42 49 61
38 46 57
41 48 60
41 48 60
42 50 63
38 45 57
36 43 54
41 49 61
39 47 59
33 40 50
36 43 54
40 49 61
38 46 58
41 50 63
42 51 63
45 54 68
45 54 67
38 46 58
52 62 77
47 57 72
43 53 67
51 61 77
45 54 68
48 59 75
50 61 76
48 58 74
45 55 69
54 66 83
50 62 78
47 57 73
49 60 76
55 67 85
54 66 85
58 71 91
49 59 75
52 64 81
49 61 77
53 64 81
52 64 81
56 68 85
49 60 77
55 68 87
52 64 82
55 68 87
53 65 83
50 62 79
53 64 81
51 62 79
54 67 86
55 68 87
54 66 84
61 74 95
57 70 89
55 67 86
56 68 87
50 61 77
49 60 77
54 66 84
51 61 78
45 54 68
52 64 81
49 59 74
51 62 78
49 59 74
46 57 73
48 59 74
50 61 78
48 58 73
44 54 68
43 52 66
44 55 71
41 49 62
44 53 67
39 47 59
44 53 67
44 53 67
39 47 58
41 49 61
43 52 66
40 49 61
40 48 60
41 49 61
40 48 60
38 45 56
44 53 65
41 49 62
38 45 56
39 47 59
44 53 66
43 52 65
35 42 52
40 47 58
41 49 60
38 45 57
29 34 42
34 40 50
38 45 55
44 52 63
34 41 50
43 51 63
32 39 48
32 38 47
30 36 45
33 39 49
34 40 50
34 40 50
30 35 44
34 40 49
35 41 51
29 35 43
35 42 52
29 35 43
28 33 40
29 35 43
31 37 46
24 29 36
38 45 55
29 34 42
32 38 47
27 33 40
35 41 50
28 33 42
29 34 43
36 43 53
34 41 51
36 43 54
28 33 41
32 38 47
28 34 42
38 45 55
35 42 53
32 38 48
33 40 50
35 41 51
27 32 40
42 50 63
32 39 49
38 46 57
33 39 50
36 44 55
36 43 54
36 44 55
37 45 56
37 45 56
38 46 57
36 43 55
47 56 70
38 46 58
31 38 49
39 48 60
39 48 61
36 43 54
37 45 56
35 43 54
39 48 62
39 48 60
40 50 64
34 41 51
43 52 66
34 42 53
35 43 54
34 41 52
35 43 55
33 41 52
39 47 59
40 49 63
38 46 59
46 56 71
38 46 58
41 49 62
39 47 60
45 54 68
37 46 58
42 52 65
47 57 71
45 55 71
40 49 62
41 50 63
38 46 58
41 50 63
47 58 73
39 47 60
38 45 57
39 47 59
41 50 63
44 53 67
38 46 58
39 48 62
32 39 50
38 46 58
37 45 57
37 44 54
47 57 72
41 49 61
34 42 54
33 40 50
42 51 65
31 38 49
33 40 51
42 50 63
32 38 48
37 44 56
30 37 47
32 39 49
45 54 68
35 42 53
32 39 49
32 38 48
35 43 54
29 35 44
33 39 49
28 34 43
38 45 57
31 37 47
37 45 56
29 36 45
34 41 51
27 32 40
34 40 50
35 41 51
32 38 48
31 37 46
36 43 54
35 42 53
36 43 54
28 33 42
37 44 55
32 38 48
25 30 38
33 40 49
33 40 50
30 36 45
33 40 50
33 39 49
33 39 49
24 29 37
32 38 48
35 42 52
34 41 51
31 37 45
25 31 39
34 41 51
35 41 51
31 37 45
28 33 41
29 35 43
24 29 36
31 37 46
30 35 43
33 39 48
31 37 46
30 36 44
31 37 46
30 36 45
34 40 49
30 35 44
26 31 39
32 38 47
31 37 45
27 33 41
28 33 42
29 36 45
26 31 38
36 43 53
35 41 52
32 39 49
31 37 46
26 31 39
32 39 48
36 44 54
29 35 44
35 42 53
31 37 46
32 39 48
39 47 59
35 42 53
35 42 52
34 41 52
34 41 51
37 45 56
29 35 44
36 43 54
35 42 52
33 40 51
32 39 49
33 40 51
35 42 53
44 53 66
38 47 59
33 40 50
34 41 53
38 45 57
40 49 61
33 40 51
30 36 45
39 47 59
41 50 63
37 44 56
30 36 47
41 50 63
35 42 53
41 50 64
40 49 62
43 53 68
39 47 59
41 49 62
31 37 47
45 54 68
41 49 62
35 42 53
41 50 63
43 53 67
35 43 54
38 46 59
43 52 66
40 48 60
43 53 67
39 48 60
37 45 57
39 47 60
36 44 55
41 49 62
37 45 57
32 40 50
47 56 71
43 53 68
37 44 56
38 47 60
37 45 56
35 42 54
35 42 53
39 47 59
36 45 57
42 51 65
36 44 56
37 45 58
38 46 59
40 48 60
40 49 62
40 48 60
38 47 59
34 41 51
38 47 59
33 39 49
32 38 48
36 44 55
39 48 60
37 45 56
30 36 45
41 49 62
38 45 56
39 47 59
37 45 57
38 46 58
36 44 56
27 32 40
32 39 49
39 47 58
28 33 42
31 37 46
32 38 47
35 42 53
38 45 56
34 41 51
32 38 47
36 43 53
36 43 53
29 35 44
31 37 46
28 34 42
33 40 49
37 44 54
38 46 57
32 38 46
31 37 46
34 41 50
30 36 45
35 42 52
22 27 33
29 34 42
33 39 49
32 38 47
32 38 47
32 37 46
35 42 51
33 39 49
39 46 57
36 42 52
26 31 39
36 43 53
32 37 46
35 42 52
35 42 51
35 41 51
31 37 46
30 36 45
28 34 41
36 43 54
30 36 45
32 38 48
32 38 48
32 39 48
45 54 67
40 48 59
37 45 56
32 38 46
43 52 65
35 42 53
42 50 62
41 49 62
41 50 63
40 48 60
40 48 60
37 45 56
50 60 75
44 53 67
39 47 60
45 54 68
50 61 76
44 54 68
39 47 59
47 57 72
47 57 71
43 52 66
42 51 64
46 55 69
41 49 62
51 62 79
53 64 80
44 54 68
45 55 70
45 56 72
51 62 79
56 69 87
49 59 75
53 65 83
50 61 76
49 61 78
52 63 80
56 68 85
51 63 81
54 66 84
52 64 81
58 71 92
53 64 82
53 66 84
54 65 82
55 68 88
55 67 85
54 66 85
53 65 83
50 62 79
56 68 87
51 62 79
50 61 78
49 59 74
50 61 78
51 62 78
46 57 72
53 64 80
57 70 89
46 56 71
54 66 83
54 65 83
57 69 87
46 56 71
45 55 70
45 55 69
47 57 73
45 55 70
43 52 66
50 60 75
47 57 72
51 62 78
45 54 69
44 53 67
41 50 63
46 55 69
42 51 64
47 57 72
40 48 60
42 51 64
42 50 63
41 49 62
46 55 68
34 42 52
38 45 55
38 45 57
37 44 54
35 42 52
38 45 56
36 43 53
32 38 47
37 45 55
42 51 63
39 46 57
40 48 59
32 39 48
33 40 50
34 40 50
35 41 51
39 46 57
30 36 44
35 41 51
31 37 46
26 31 39
36 44 55
31 37 46
41 49 61
36 43 53
34 40 50
29 34 42
39 46 57
34 41 50
34 40 50
30 36 44
41 49 61
32 38 47
27 32 40
36 43 53
34 41 51
37 44 54
32 38 47
38 45 56
34 40 50
36 43 54
30 36 45
34 40 51
33 41 51
31 38 48
36 42 52
38 45 56
37 44 56
41 49 61
32 39 49
34 41 52
31 37 46
37 45 58
32 39 49
35 42 52
32 39 49
34 41 52
35 43 54
37 45 57
36 44 56
40 49 62
35 42 52
39 47 60
37 45 56
35 42 53
41 50 64
40 49 62
41 49 62
39 48 61
31 37 46
37 45 58
39 47 59
38 46 59
42 51 64
45 55 69
37 45 56
38 45 57
43 53 68
32 39 50
39 47 59
37 45 57
33 41 53
36 44 55
41 50 63
36 44 57
36 44 55
45 55 70
40 49 62
41 50 64
40 49 61
39 48 61
32 39 50
41 51 65
43 53 67
37 45 56
40 48 61
29 36 46
40 49 61
39 48 60
38 46 58
47 58 73
37 46 58
40 48 61
34 42 54
34 41 51
40 49 62
36 43 55
40 50 64
37 45 57
29 35 44
32 40 50
41 50 63
35 43 55
38 46 57
36 43 55
34 41 51
43 52 65
33 40 51
35 43 54
37 45 56
34 42 52
36 43 55
39 46 58
34 40 50
32 39 50
33 40 50
32 39 50
35 43 55
31 38 47
41 50 62
35 42 53
29 36 45
39 48 60
28 34 42
35 42 53
32 38 48
35 43 54
25 30 38
27 33 41
37 44 55
30 37 46
32 39 49
31 36 45
27 32 40
34 41 51
30 36 45
28 34 42
33 39 49
32 39 49
29 35 44
25 31 39
31 37 46
25 30 37
28 34 43
30 36 45
29 34 43
25 30 37
33 39 49
27 32 40
35 42 53
32 38 47
31 37 46
29 34 42
25 30 37
30 35 44
32 38 47
35 42 52
32 38 47
35 41 52
27 32 40
31 38 48
25 30 37
37 44 55
38 45 55
34 41 50
28 33 42
32 38 48
29 35 44
29 34 43
34 40 50
39 47 59
31 37 47
31 37 46
28 34 42
33 39 49
35 41 51
27 33 41
31 38 47
35 42 53
30 36 44
28 34 43
29 35 43
30 36 46
34 41 51
35 42 53
33 39 48
33 40 52
37 44 55
41 50 64
38 46 58
37 45 57
34 41 52
32 38 48
39 47 59
42 51 64
33 39 49
41 49 61
34 41 52
39 48 61
45 54 69
28 34 42
41 50 63
43 52 66
35 43 54
43 52 66
42 50 62
45 55 69
33 40 50
44 54 69
44 54 70
35 42 54
43 52 67
37 45 57
38 46 58
40 49 63
39 47 60
40 48 60
37 45 58
38 46 59
39 47 60
45 54 68
40 49 63
49 59 75
40 48 60
41 51 64
42 51 64
41 50 65
42 50 63
44 54 68
44 53 67
40 49 61
35 42 53
37 44 55
35 42 54
36 43 54
38 46 58
40 49 62
35 42 53
43 51 64
36 43 54
39 48 61
40 48 60
45 54 69
36 44 56
34 42 53
44 53 66
39 48 60
38 46 58
38 46 58
36 44 55
41 49 62
36 42 53
33 41 52
39 47 59
36 43 55
34 42 52
27 32 41
33 40 50
38 46 58
33 41 51
29 35 45
36 43 55
42 51 64
37 44 55
32 39 48
29 35 44
32 39 49
34 40 50
33 40 50
29 35 44
38 45 56
33 40 50
37 45 56
34 41 52
35 41 52
27 32 39
33 40 50
30 36 44
33 39 49
34 41 51
28 34 41
39 47 57
33 40 50
35 42 52
30 36 45
37 44 54
36 44 54
37 44 55
32 38 46
36 43 53
31 37 45
28 34 42
29 34 42
28 34 42
40 48 59
35 42 53
33 40 49
29 35 44
39 46 57
34 41 51
32 38 47
32 38 47
31 37 46
32 39 48
33 39 49
35 42 52
43 52 64
40 47 59
36 43 54
37 45 56
40 49 61
37 44 55
39 46 58
42 50 62
43 51 64
38 45 57
40 48 61
40 49 61
48 57 72
47 56 70
48 58 74
48 58 73
37 45 56
47 57 72
43 52 67
47 57 71
40 48 60
44 52 66
45 55 70
44 53 67
48 58 74
41 49 62
43 53 67
45 55 69
46 56 72
47 57 72
52 63 79
49 60 76
45 55 70
44 54 69
51 62 78
52 64 81
52 63 80
48 59 74
51 62 79
53 64 82
57 70 89
48 59 75
49 60 77
50 61 77
57 70 91
56 69 87
46 56 71
54 66 83
54 66 84
49 60 77
48 59 75
49 61 78
46 57 73
50 62 79
51 63 79
52 64 81
51 64 82
54 66 84
51 62 79
43 53 68
50 61 78
51 61 77
51 61 77
52 63 80
49 59 75
49 59 75
54 66 83
40 48 60
47 57 72
41 49 62
47 57 72
43 52 66
42 51 64
40 48 59
42 50 63
44 53 65
45 54 67
38 45 57
35 42 52
43 51 64
46 55 68
39 47 60
34 41 51
44 52 66
44 53 66
43 51 63
35 41 52
34 41 52
32 38 48
29 35 44
35 42 52
41 49 61
35 41 52
37 44 56
34 41 51
36 43 53
37 44 55
31 37 46
33 39 49
41 48 60
32 38 48
40 47 59
36 43 54
41 49 61
37 44 55
31 37 46
32 38 46
30 35 44
37 44 54
34 40 51
37 45 56
34 40 50
35 41 52
37 44 55
35 42 53
34 40 50
39 46 57
34 40 50
41 49 62
38 46 58
31 37 46
34 41 51
40 48 61
37 45 55
28 34 43
35 42 52
30 35 44
37 45 56
37 44 56
41 49 62
30 36 46
34 41 52
39 47 59
35 42 53
32 39 49
38 46 58
38 46 57
35 43 54
37 44 56
42 51 64
32 39 49
34 42 53
40 49 62
37 44 56
41 49 62
39 47 59
38 47 59
38 47 59
41 51 64
38 46 59
50 59 74
40 48 61
39 47 59
40 50 64
45 55 70
35 43 54
39 47 59
47 58 75
36 44 56
37 45 56
44 54 68
43 52 66
38 46 59
45 54 68
40 49 62
41 49 61
48 59 74
42 51 64
47 57 71
39 48 61
41 50 64
41 50 64
41 51 64
39 47 59
40 49 63
43 52 66
37 45 58
39 47 60
42 51 66
34 42 52
41 50 64
38 46 58
42 51 64
44 54 69
41 50 63
38 47 60
45 54 68
44 53 67
38 47 59
48 57 71
47 56 71
34 41 52
37 45 56
31 38 48
40 48 61
42 51 65
39 48 60
37 45 56
38 47 59
41 49 62
31 39 50
40 48 60
39 47 60
32 39 49
37 44 55
35 42 53
35 43 54
30 37 47
32 39 49
34 41 52
42 50 63
35 42 52
41 49 61
43 52 66
38 46 57
32 38 47
36 43 55
34 41 51
42 50 61
36 43 55
30 36 45
40 47 58
39 46 58
33 40 50
33 40 51
30 36 45
32 38 47
36 43 53
33 40 50
35 42 52
36 43 53
26 31 39
31 37 47
38 46 57
35 42 53
34 40 49
27 33 41
31 37 46
32 39 49
23 28 36
29 35 43
33 40 51
33 40 50
28 34 42
30 36 45
30 36 44
28 34 42
27 32 40
39 46 58
32 38 47
28 34 42
30 37 46
30 36 45
33 39 49
24 29 37
32 38 47
29 34 43
40 48 60
36 44 54
24 30 37
36 42 52
31 37 46
24 29 37
24 29 36
38 46 58
34 41 51
35 42 52
31 37 46
32 38 48
35 43 54
33 40 50
38 46 58
32 39 50
37 45 56
33 39 49
31 38 48
32 39 49
32 39 49
37 45 56
34 42 53
30 36 46
38 46 57
38 45 56
34 40 50
31 38 48
37 46 58
38 46 58
45 54 69
42 51 64
40 49 63
36 44 56
42 50 64
36 44 55
38 46 59
35 42 53
32 39 49
46 55 70
33 41 52
41 50 63
40 49 61
44 53 67
46 55 70
32 39 50
43 52 66
38 46 59
39 48 60
39 48 61
38 46 59
42 51 64
41 49 62
38 47 61
41 50 63
37 46 59
40 49 62
46 58 74
37 45 57
38 47 60
44 53 66
38 47 59
37 45 56
41 49 63
40 49 62
41 50 63
40 49 63
37 45 58
41 50 64
34 41 53
37 44 56
41 50 65
35 42 54
39 47 59
41 50 62
36 43 55
40 49 61
36 44 57
36 44 56
36 43 54
44 54 68
38 46 58
30 36 45
31 38 47
40 48 61
37 45 56
36 44 57
37 44 56
41 50 63
34 41 52
37 45 57
37 45 57
43 51 64
39 47 60
34 42 53
41 49 63
32 38 48
35 43 54
35 43 54
34 41 51
37 45 56
40 49 61
34 41 52
39 46 57
35 41 52
29 35 44
35 41 51
40 48 60
36 44 55
35 42 53
33 40 50
32 38 48
38 45 57
38 46 57
34 41 51
32 38 48
37 45 56
29 35 44
38 45 57
34 40 51
30 36 45
42 50 62
39 46 57
35 41 51
38 45 55
34 40 50
35 42 53
32 38 47
31 37 46
38 45 56
33 40 50
36 43 54
31 37 46
32 39 48
32 39 48
40 47 57
39 47 59
41 49 60
37 44 55
36 43 52
35 42 52
37 44 54
43 51 64
39 47 58
27 33 41
41 48 60
36 44 55
44 53 66
36 43 54
42 50 63
43 52 65
49 59 73
42 51 63
38 46 57
47 56 70
44 53 66
42 51 64
43 52 65
38 46 59
46 56 70
44 53 67
39 47 59
48 58 73
35 42 53
42 51 65
47 57 73
50 61 77
51 61 77
43 52 66
45 55 71
43 52 66
50 61 78
55 67 84
47 57 72
53 65 82
44 54 69
45 54 69
54 66 84
50 61 78
49 61 78
53 65 82
53 64 81
44 54 69
52 64 81
56 69 88
48 58 74
50 60 76
57 70 89
54 66 83
51 62 80
54 65 83
54 66 85
55 68 87
55 67 86
58 71 90
52 64 81
56 68 86
47 57 72
51 63 81
47 57 73
53 65 84
46 56 70
50 60 75
49 60 76
44 54 68
51 62 79
46 57 72
51 62 78
51 63 80
47 57 72
44 54 68
46 55 69
46 56 71
44 54 68
44 53 67
43 52 65
45 54 68
37 45 57
46 55 69
39 47 60
39 46 58
36 43 55
37 45 57
44 53 67
40 49 61
43 52 64
40 48 60
37 44 56
39 47 59
36 43 54
41 49 62
39 47 58
42 50 62
30 36 45
38 46 58
36 43 54
38 45 56
38 46 57
36 43 54
33 40 50
30 36 44
34 40 50
35 42 52
33 40 49
33 39 49
31 37 46
31 37 46
33 40 51
37 45 55
37 44 55
39 46 58
30 35 44
35 42 52
33 40 51
34 40 50
30 37 46
32 38 48
36 43 54
32 38 47
34 41 51
32 38 47
43 51 63
33 40 49
41 48 60
34 41 51
35 42 53
39 46 58
31 37 47
28 33 42
36 43 53
34 41 52
37 44 55
35 42 53
31 37 46
32 39 49
40 48 61
39 46 57
40 48 60
37 45 57
39 47 58
41 49 62
41 50 63
43 52 65
37 45 56
33 40 51
30 37 47
32 39 48
39 47 58
39 46 58
37 44 56
33 40 51
36 44 56
40 48 61
37 45 56
41 49 61
41 50 62
40 49 63
37 45 58
34 42 53
36 44 56
35 42 54
36 43 55
39 47 61
46 55 69
38 46 58
42 52 66
42 51 65
42 51 65
39 47 60
40 48 60
42 51 64
47 57 72
36 44 55
46 56 71
45 55 70
43 53 66
45 55 70
43 53 67
39 48 60
33 40 51
41 50 64
42 52 66
43 53 68
38 46 59
41 50 64
35 43 55
42 51 65
41 49 62
41 51 65
42 50 63
38 46 58
36 44 56
39 49 62
36 44 56
41 49 62
38 47 60
39 47 59
36 43 55
39 48 62
39 48 61
38 46 59
33 41 52
33 40 51
45 56 71
29 35 45
35 43 55
38 46 58
35 42 52
33 40 51
39 47 59
45 54 69
38 45 57
36 44 55
35 43 53
36 45 57
39 48 60
33 39 49
33 40 51
33 40 49
31 37 46
33 40 51
40 47 59
34 41 52
35 43 54
30 35 44
33 39 49
33 40 51
36 43 53
31 37 46
29 34 43
29 34 43
36 44 55
32 38 47
38 45 56
35 42 52
32 38 47
33 40 50
39 46 57
32 38 48
30 36 45
32 38 47
37 44 55
33 39 49
32 38 48
38 45 56
34 40 49
35 42 52
32 39 49
31 37 45
32 38 47
34 41 51
30 37 46
30 37 46
33 39 48
29 34 43
24 29 37
28 33 42
38 46 57
35 42 53
35 42 52
34 40 50
36 43 55
34 41 51
30 36 45
32 38 48
29 35 44
29 35 44
34 41 52
32 38 47
30 36 45
27 33 41
33 40 50
43 52 65
35 42 52
32 38 48
37 45 57
37 44 55
30 36 45
31 37 47
33 40 50
30 37 47
41 49 62
37 45 56
36 43 55
35 43 55
44 53 66
34 42 52
42 51 64
37 45 58
42 51 63
38 46 58
34 41 52
37 44 55
41 49 62
39 47 59
42 51 65
39 47 60
42 51 65
38 46 58
42 51 64
41 49 62
38 46 59
37 44 56
29 35 45
35 43 55
40 49 63
40 48 60
43 53 67
32 40 51
42 51 65
40 48 61
38 46 60
35 42 53
37 46 59
36 44 56
47 57 72
42 51 65
32 40 51
41 50 64
44 53 68
35 44 57
44 54 68
41 50 63
39 48 61
27 33 42
36 44 56
33 40 50
45 55 69
42 51 64
37 44 56
44 53 66
39 48 60
38 46 58
40 48 62
40 49 62
42 51 65
33 41 52
35 42 54
39 46 58
44 54 68
37 44 56
42 51 65
32 39 49
31 39 50
41 49 62
41 50 64
33 41 52
37 46 59
30 37 47
32 39 48
45 54 68
41 49 61
37 46 58
40 49 62
32 39 49
43 52 65
40 49 61
34 42 53
40 48 60
30 37 47
34 41 52
38 46 57
31 37 46
32 39 49
35 42 52
42 51 63
38 46 58
34 41 51
35 42 53
35 43 53
36 43 53
30 36 45
32 39 49
26 31 39
35 42 53
30 36 45
35 43 54
40 48 60
36 44 55
30 36 45
38 46 57
38 46 57
38 46 58
34 41 51
38 46 58
35 41 52
33 40 49
34 41 51
41 49 60
37 44 55
35 42 53
35 43 54
34 40 49
36 43 53
33 39 49
30 36 45
36 42 52
34 40 50
33 39 49
34 40 50
36 44 55
38 46 57
41 48 60
40 47 59
36 44 55
41 49 60
46 55 68
39 47 58
38 45 57
42 50 63
40 49 62
44 53 66
37 45 57
40 48 60
35 43 53
39 46 57
44 53 67
37 44 55
40 49 61
42 52 67
42 50 63
39 47 59
43 52 65
45 55 69
48 58 73
43 52 65
41 50 63
45 55 71
48 57 72
38 46 57
50 61 76
44 53 67
44 53 66
48 58 73
47 57 71
43 52 67
52 64 81
53 65 82
43 53 68
51 62 79
54 66 83
52 63 80
42 52 66
52 63 80
52 63 79
48 58 72
54 66 84
49 61 78
53 64 81
49 61 78
46 56 71
55 68 87
48 59 75
51 62 78
52 64 81
48 59 75
50 60 76
44 54 69
55 66 84
48 58 73
46 57 73
42 51 65
51 62 78
47 57 71
50 60 76
52 63 79
47 57 73
49 59 75
48 58 73
47 56 71
52 62 77
42 52 65
46 55 69
41 50 63
43 52 66
43 52 66
44 53 67
35 41 52
45 54 68
44 53 66
37 45 57
40 48 60
44 52 65
40 49 62
39 47 59
41 50 62
42 50 63
40 49 62
34 41 52
34 41 51
34 40 50
36 44 55
33 39 49
31 37 47
36 43 54
36 44 55
39 47 58
34 40 50
38 45 56
38 45 56
29 34 43
36 43 54
30 35 44
34 41 51
32 38 47
35 43 53
39 47 60
43 52 64
30 36 46
37 44 54
30 36 45
29 36 45
29 35 43
36 43 53
36 43 54
35 42 52
33 40 51
33 40 51
36 43 53
44 53 66
38 46 58
34 41 52
38 46 58
31 37 46
36 43 55
37 44 55
42 50 63
40 48 61
36 44 55
38 46 59
31 37 46
37 45 57
36 44 55
43 53 67
37 44 55
37 44 55
40 48 60
35 43 55
39 48 60
33 40 50
34 41 52
40 49 61
37 44 55
38 46 58
38 47 60
33 40 50
35 42 54
34 41 52
41 50 64
43 52 66
43 53 67
34 41 53
37 45 58
40 49 62
37 46 58
42 50 63
41 50 64
36 44 55
42 51 65
41 49 61
38 46 58
41 49 62
36 43 55
44 53 67
37 44 56
42 51 64
33 41 52
41 50 64
48 59 74
38 46 59
36 44 57
41 51 65
44 53 67
42 51 64
40 48 61
33 40 50
41 51 66
34 41 53
39 48 61
40 49 63
37 46 58
40 48 62
46 56 70
41 51 65
47 57 73
38 46 58
40 49 62
41 49 61
38 47 61
37 45 58
39 47 60
35 42 53
44 53 67
35 43 56
35 42 53
39 47 59
40 48 60
39 47 60
40 49 62
35 42 53
38 45 57
37 45 56
42 51 66
46 56 72
37 45 58
39 46 58
40 49 61
37 44 56
36 43 54
41 50 63
41 50 63
34 41 51
36 44 56
34 42 53
40 49 62
48 58 73
37 44 56
42 51 65
45 54 68
29 35 44
34 42 52
33 40 51
34 40 50
36 43 55
36 42 53
33 40 50
38 46 58
36 44 56
32 39 48
28 34 42
33 40 51
32 39 49
35 43 54
31 37 47
35 42 52
31 37 47
29 35 43
31 37 46
29 34 43
29 35 44
30 36 45
31 37 46
30 36 46
33 39 49
26 31 39
33 40 51
28 34 42
29 36 45
31 38 48
34 41 51
38 46 58
37 45 56
31 38 47
27 33 41
31 37 46
32 39 49
30 36 46
36 43 54
32 38 48
31 38 48
35 42 52
30 36 46
37 44 55
35 42 53
35 42 53
32 38 48
39 47 59
34 41 52
34 41 51
35 43 53
38 45 57
36 44 55
41 49 62
35 42 53
31 37 47
37 44 55
36 43 55
33 40 50
31 38 48
35 43 53
40 48 60
35 42 53
35 42 53
40 48 61
36 43 54
41 49 61
37 44 54
33 40 50
40 48 60
34 41 52
43 52 66
31 38 48
35 43 54
37 44 55
36 44 55
44 53 66
38 46 58
34 42 53
35 43 54
43 52 66
37 45 57
38 46 58
39 47 59
46 56 72
42 50 63
44 53 67
37 46 58
47 57 72
40 48 60
38 47 60
37 45 57
41 50 63
43 54 69
31 38 48
37 45 58
42 52 66
40 49 62
40 49 61
39 48 61
44 55 70
37 45 58
41 50 64
41 51 65
39 48 62
39 47 59
40 49 62
52 62 77
35 42 53
42 51 65
41 51 65
43 53 67
44 54 68
36 44 56
36 44 55
46 57 73
42 51 64
40 49 62
40 49 62
36 44 57
31 38 48
33 40 51
42 51 64
44 54 68
33 40 51
36 44 56
40 48 61
34 42 54
35 43 54
44 53 67
40 49 63
34 41 51
38 46 58
39 47 60
40 49 62
38 46 58
30 36 46
35 43 55
40 49 62
43 52 66
38 46 59
33 39 49
37 45 57
35 42 52
48 58 73
38 46 58
38 46 58
31 37 47
37 46 58
40 48 62
41 49 61
34 41 51
35 43 54
38 45 56
40 48 60
35 42 53
42 50 62
39 47 59
39 47 58
38 46 58
37 44 55
31 37 47
39 47 58
37 44 55
36 43 54
35 41 51
36 43 53
33 40 50
36 44 55
31 37 46
37 45 56
34 41 52
33 39 49
37 44 55
34 41 51
38 46 57
35 42 52
33 40 49
36 44 54
36 43 54
40 48 59
36 43 54
30 36 45
36 43 54
43 52 65
40 47 59
40 48 60
33 39 48
39 47 59
37 44 55
38 46 58
43 51 64
47 56 69
46 55 69
42 51 64
39 47 59
42 50 62
39 47 60
42 51 64
39 47 60
40 49 61
46 56 70
40 49 62
44 53 65
48 58 72
38 46 57
49 60 75
39 47 59
41 49 62
42 51 65
38 46 58
50 60 75
38 46 58
45 55 70
51 61 77
49 59 75
44 53 67
45 55 70
50 59 74
50 62 79
46 56 71
47 57 73
52 64 81
48 60 77
48 59 75
53 65 83
47 59 75
49 61 78
56 68 87
54 66 83
50 62 79
48 59 75
51 62 79
56 67 85
52 64 81
48 58 74
59 71 89
47 57 72
49 60 75
51 62 79
46 56 70
54 66 84
47 56 71
44 54 67
45 55 69
48 58 74
48 59 74
47 58 73
46 56 71
42 51 65
44 53 66
43 52 66
47 57 71
47 56 70
41 50 62
41 49 62
42 51 64
45 55 70
38 46 59
44 53 67
39 47 58
41 49 62
42 50 63
38 46 57
37 44 56
42 51 63
39 47 58
45 54 68
46 55 69
39 47 59
37 45 56
35 42 53
40 48 60
42 51 64
39 47 59
36 44 56
39 47 59
32 39 49
36 43 54
38 45 56
39 47 60
40 48 60
38 46 57
40 47 59
34 41 52
38 46 58
37 45 55
39 47 58
33 40 51
36 44 55
40 48 60
28 34 43
38 46 58
39 47 59
41 49 61
33 40 50
26 32 40
40 47 59
35 43 54
36 43 54
38 46 57
37 44 55
31 37 46
41 50 62
33 40 50
28 34 43
36 43 54
40 48 59
37 45 57
41 49 62
34 40 51
39 47 59
32 39 49
34 41 52
36 43 54
39 47 60
41 50 63
42 51 65
42 51 64
39 47 60
39 47 60
39 47 60
31 37 47
38 46 59
31 38 48
36 45 58
36 45 57
44 53 66
38 46 58
34 42 53
37 45 57
44 54 68
40 48 61
38 46 58
47 57 72
42 51 65
43 52 66
38 47 60
38 46 58
43 52 66
39 47 60
36 45 57
41 50 63
42 52 66
36 43 55
34 42 54
46 55 70
39 48 61
43 52 66
30 37 48
42 52 66
39 46 58
46 56 71
40 49 63
41 50 64
33 40 52
45 55 69
40 49 63
45 56 72
36 43 55
44 54 68
41 50 63
43 52 66
39 47 61
38 47 61
46 56 71
39 48 60
44 54 69
39 47 60
47 57 73
36 44 56
39 47 59
37 46 59
43 51 64
43 52 66
43 53 67
39 47 60
39 48 61
42 51 65
37 45 58
39 48 62
36 44 56
41 50 63
37 45 58
40 49 61
33 40 51
34 42 53
43 52 66
43 52 67
31 37 47
41 50 62
39 47 59
41 50 63
35 42 53
39 47 59
46 56 70
40 48 60
39 47 59
37 45 57
34 42 53
34 42 54
31 38 47
32 38 48
37 45 57
38 46 58
39 47 60
36 43 54
35 41 51
37 45 57
37 45 56
39 47 59
35 43 54
35 42 53
32 38 48
35 42 53
30 37 46
46 55 69
38 46 57
31 38 48
32 39 48
33 39 49
32 38 48
31 37 47
34 41 52
29 35 44
26 32 40
36 43 54
35 42 53
34 41 51
33 39 50
31 38 47
38 46 58
32 38 48
34 41 51
35 42 53
25 29 36
34 41 52
33 39 49
40 48 60
33 39 50
33 40 50
39 46 57
37 45 56
36 44 55
30 36 46
39 48 60
36 43 54
35 41 51
36 43 54
31 37 47
37 44 55
36 43 53
31 38 48
36 43 54
36 43 54
32 39 48
33 39 49
36 44 55
38 46 58
31 37 47
31 37 47
33 40 50
35 43 54
36 44 56
33 40 50
35 43 55
35 43 54
39 47 59
37 45 58
32 39 49
46 55 70
45 54 69
33 40 50
34 41 52
36 44 55
33 41 51
39 48 61
44 54 68
36 44 56
38 46 58
44 53 67
41 50 63
44 53 67
40 48 61
47 58 73
43 52 65
42 51 65
35 42 54
39 47 60
36 45 57
46 55 70
38 46 59
46 56 72
44 53 67
47 57 72
42 51 65
41 50 63
35 43 55
40 49 62
42 50 63
40 49 62
42 51 63
40 50 64
43 52 66
41 50 64
39 48 61
41 50 64
40 49 63
36 45 58
41 50 64
38 46 58
39 48 61
38 46 58
40 49 62
43 53 68
46 55 70
41 50 64
41 50 62
43 52 66
43 52 66
39 48 61
40 49 62
41 50 64
40 49 62
39 48 61
38 47 61
42 51 65
36 44 55
43 52 66
45 54 68
36 43 54
43 52 65
43 53 67
40 48 61
35 42 54
34 41 52
34 42 54
41 50 63
37 46 58
34 41 51
33 40 50
40 49 62
37 45 56
36 44 55
38 46 58
37 45 57
30 36 45
40 48 61
42 51 64
38 46 57
39 47 59
42 51 64
36 44 55
40 48 61
36 44 55
41 50 63
35 43 54
41 49 61
41 50 62
34 40 50
34 41 51
37 45 56
34 40 51
36 43 54
29 35 43
40 49 61
38 46 58
43 51 63
39 47 58
35 42 53
32 39 48
33 40 50
42 51 64
33 40 50
35 43 54
36 43 54
36 43 54
39 46 58
37 44 55
38 45 57
37 44 54
38 46 57
35 42 53
45 54 67
41 49 60
38 45 56
43 52 64
33 40 49
41 49 60
43 52 65
41 49 61
38 46 58
36 43 53
38 46 58
41 49 62
47 56 69
38 46 58
43 52 65
43 52 65
38 46 58
38 45 57
41 49 62
40 48 61
40 49 61
41 49 60
41 49 61
45 54 69
45 55 69
47 56 71
45 55 69
45 53 66
51 61 76
47 57 71
48 58 73
46 56 70
50 61 77
46 56 72
48 59 75
42 52 66
46 56 72
45 54 68
49 60 76
45 54 69
53 65 83
54 65 83
51 63 79
50 61 77
54 67 87
48 58 74
48 58 74
42 51 65
45 55 70
51 62 79
53 64 80
53 64 82
46 55 69
51 61 77
49 60 76
49 60 76
47 58 73
47 57 72
50 60 76
52 63 80
52 64 81
44 54 68
54 66 83
46 57 72
50 60 76
43 52 66
44 53 67
44 53 67
42 51 65
44 53 66
43 51 64
44 53 67
40 48 60
50 60 76
42 50 62
50 61 77
35 42 53
37 44 56
46 55 69
40 48 59
41 49 62
41 49 61
46 55 70
42 51 65
35 42 53
33 40 50
41 50 63
43 52 65
37 45 56
39 47 59
34 41 52
45 54 68
39 46 57
39 46 58
40 48 61
37 45 56
36 43 54
39 46 57
33 40 51
39 47 59
34 41 52
38 46 58
43 51 63
26 31 39
40 48 59
39 47 59
36 43 54
38 45 56
37 45 56
32 39 49
34 41 51
35 42 53
32 38 48
34 40 51
35 42 53
34 41 52
39 47 58
40 49 61
40 48 60
37 45 57
38 46 57
38 46 59
32 38 49
42 51 64
36 43 54
28 34 43
37 45 57
37 45 57
27 33 41
38 46 58
41 50 63
35 43 54
37 45 58
32 40 51
43 51 64
38 46 58
34 41 53
41 50 63
48 58 73
42 52 66
41 51 64
40 49 61
41 51 64
44 53 67
46 56 71
40 48 61
33 41 51
41 50 62
44 53 67
40 49 63
36 44 57
37 45 57
42 52 67
39 48 61
43 53 68
35 43 55
42 51 64
38 46 58
38 46 59
38 46 59
43 53 68
42 50 64
41 51 65
41 50 64
47 56 71
45 56 71
43 53 67
38 47 60
34 42 53
46 56 70
42 51 65
50 61 78
39 48 60
41 50 64
40 49 61
42 52 67
34 41 52
37 47 60
38 47 60
40 49 63
42 51 65
42 51 64
40 48 62
43 52 66
40 48 61
44 55 70
40 49 62
47 57 72
41 51 65
35 43 55
43 52 66
42 51 66
38 47 59
40 49 63
39 47 60
38 46 57
42 51 65
31 38 49
35 42 53
41 50 64
37 44 56
37 45 58
38 46 57
37 46 58
37 45 57
34 43 55
39 47 60
38 45 56
43 52 66
42 51 65
39 48 61
29 35 44
38 46 59
35 43 54
36 44 56
37 45 56
30 36 46
42 52 65
37 45 57
36 44 57
39 47 58
35 43 55
38 47 60
35 42 52
38 45 57
38 46 57
35 42 52
37 45 57
40 49 62
38 46 58
37 44 55
35 42 52
34 41 51
38 46 57
29 35 44
34 40 50
32 39 50
35 41 51
28 34 43
32 38 49
36 43 54
34 40 51
31 38 47
31 38 48
30 37 47
40 48 60
33 40 50
36 44 55
30 37 46
31 37 48
37 45 57
43 52 64
37 44 55
37 44 55
32 39 49
32 39 49
43 51 64
37 44 55
30 36 45
37 44 55
36 44 55
38 46 58
41 50 62
32 38 48
40 48 61
35 42 52
35 42 52
36 44 55
40 48 61
43 51 64
40 48 60
35 42 52
33 40 51
34 40 50
37 44 55
40 49 63
41 50 63
40 48 61
37 45 57
45 54 67
31 38 47
37 45 57
31 38 48
33 40 50
42 51 65
40 48 61
41 50 62
34 41 52
45 55 69
35 43 55
44 54 69
39 47 59
39 48 61
39 48 61
42 51 64
43 52 65
37 45 58
30 36 46
39 48 61
39 47 59
39 47 60
42 52 68
43 53 68
42 51 65
41 50 63
39 48 61
39 48 60
36 44 55
41 50 64
40 49 62
41 50 62
47 57 73
35 42 53
41 51 65
46 56 70
41 50 63
41 50 64
41 50 63
41 50 64
40 48 60
43 52 66
41 50 62
37 45 57
39 49 62
46 57 73
43 53 67
43 53 69
43 51 65
39 47 59
44 54 68
42 50 64
38 46 59
41 50 64
38 46 58
42 51 64
38 47 60
43 52 67
45 54 69
36 44 56
31 39 50
43 53 68
40 48 61
42 50 63
43 52 66
37 45 56
39 47 59
37 46 58
40 49 63
39 47 60
43 54 69
42 51 64
39 47 60
43 52 65
40 48 61
37 45 56
38 46 58
47 57 71
36 44 56
43 52 65
39 48 60
32 39 50
39 46 58
41 50 62
44 53 67
31 38 48
36 44 56
46 55 68
41 50 64
37 44 55
37 44 56
39 47 59
43 52 64
42 50 63
37 44 55
38 46 58
45 55 69
34 41 52
32 39 49
43 52 65
36 43 55
32 39 49
37 45 56
41 50 63
40 48 60
36 43 54
27 33 41
34 41 52
43 51 64
39 46 57
27 33 41
32 38 48
31 37 47
39 47 59
34 41 51
31 37 47
40 48 61
36 44 56
38 46 57
44 53 66
41 49 61
40 48 60
31 38 47
40 48 60
38 46 58
45 55 69
42 50 63
41 48 59
39 47 59
38 46 58
39 46 58
47 57 71
38 46 57
43 52 66
42 50 63
36 43 55
39 47 59
45 54 68
48 58 73
42 50 63
39 47 60
43 52 65
46 55 68
39 47 59
39 47 60
43 52 65
47 57 71
39 48 61
44 54 68
46 55 70
42 51 64
44 54 68
43 52 66
43 53 67
54 65 82
39 47 60
47 58 74
42 51 65
45 54 69
56 68 86
50 62 79
46 57 73
52 64 82
48 58 74
47 58 75
53 65 83
48 59 75
55 67 85
52 63 79
50 62 78
50 61 78
48 59 74
54 66 83
49 59 76
44 53 67
48 58 73
46 56 70
54 66 84
51 61 77
45 55 69
43 52 66
44 54 68
42 51 64
46 55 69
50 61 76
43 52 66
44 53 68
41 49 63
49 59 73
37 45 57
44 53 67
44 53 67
44 54 68
40 49 62
41 49 62
45 55 69
43 52 65
37 45 57
45 54 68
40 48 59
36 44 55
30 35 43
38 46 58
38 46 58
41 50 62
40 48 59
45 54 67
42 50 62
45 54 67
40 48 60
39 47 59
37 45 56
41 50 63
40 48 60
36 43 53
39 48 60
35 42 53
39 47 60
35 43 54
37 44 55
35 42 52
44 53 66
37 44 55
33 40 50
39 47 58
35 43 54
40 48 61
36 44 56
33 39 49
35 42 52
36 44 55
35 42 53
37 44 55
35 42 52
37 45 56
37 45 57
40 48 60
38 45 57
36 43 54
40 49 62
33 41 52
37 44 55
35 42 52
33 40 51
40 48 60
36 44 56
40 49 61
38 46 58
38 46 58
39 48 60
40 49 61
33 42 54
44 53 67
42 52 66
38 45 57
45 54 68
42 52 66
33 40 50
42 51 64
41 50 64
40 49 62
37 45 58
41 49 61
41 50 63
41 50 64
48 57 72
33 40 49
42 52 65
35 44 56
38 47 60
41 50 64
47 57 72
40 48 62
43 53 68
40 50 64
39 48 60
42 51 64
42 52 67
33 41 53
43 52 66
38 47 60
35 42 54
41 50 64
40 49 63
41 50 64
39 48 60
41 49 62
41 49 63
40 49 62
40 49 63
40 50 63
44 54 68
41 50 63
41 51 65
45 55 70
37 45 58
45 54 69
36 43 54
37 45 57
42 51 64
38 46 59
46 56 72
39 48 62
41 51 64
48 59 75
41 51 65
39 47 60
40 48 61
40 48 61
44 53 67
36 44 56
45 55 69
41 51 65
36 44 55
36 45 57
37 45 57
37 46 60
36 44 57
36 44 57
35 43 54
45 55 70
36 44 57
37 44 55
40 49 62
36 44 56
47 58 74
38 46 58
38 46 59
34 42 53
39 47 59
35 42 54
32 39 49
36 44 55
40 49 63
37 44 56
33 40 51
41 50 63
35 43 53
35 42 52
39 48 61
33 40 52
36 44 55
38 45 57
35 42 53
40 49 62
37 46 58
38 46 58
38 45 57
30 36 45
31 38 48
36 43 54
34 41 53
40 48 60
31 37 46
34 41 51
31 38 47
35 42 53
35 43 53
33 40 50
37 44 56
37 45 56
34 41 52
29 35 43
32 38 48
31 38 48
34 41 52
34 41 52
36 43 54
36 44 56
30 36 46
33 41 51
34 41 52
38 46 58
37 44 55
33 40 50
35 42 52
37 45 57
39 47 59
43 52 66
37 44 55
40 48 60
39 47 59
33 39 49
32 38 48
38 47 59
33 40 51
27 33 42
33 39 48
27 33 42
41 49 62
37 46 58
36 43 55
36 44 55
37 45 58
38 46 58
34 41 52
34 41 52
40 48 61
36 44 55
44 52 66
39 48 61
35 42 54
44 53 66
41 50 63
39 47 58
40 49 61
36 44 55
41 49 61
36 44 56
38 47 59
37 44 56
36 44 56
41 50 63
37 44 56
35 43 54
38 47 59
40 49 63
45 54 68
40 48 60
38 46 58
37 45 58
41 50 64
38 46 58
40 49 61
45 54 69
39 48 61
41 50 63
38 47 60
43 53 68
43 52 67
37 45 57
41 50 63
37 46 59
42 52 66
39 48 61
44 53 68
41 51 65
42 51 64
40 48 61
40 49 62
35 43 55
40 49 62
38 46 60
44 54 69
41 50 64
40 48 61
39 48 62
40 49 63
39 48 61
39 48 62
39 48 62
42 53 68
41 50 63
52 64 81
39 48 61
40 49 62
37 47 61
40 48 62
41 50 64
41 50 63
35 42 54
41 50 64
39 48 61
35 43 54
38 47 59
38 48 61
41 50 64
49 59 73
35 43 55
40 48 61
36 45 57
37 44 56
37 45 57
46 56 71
35 43 55
37 45 57
42 51 65
34 41 52
44 54 69
30 37 47
40 49 61
40 49 62
38 46 57
37 44 55
38 46 58
36 43 55
35 42 53
42 50 63
40 48 60
37 45 57
39 47 59
30 36 45
42 51 64
36 44 56
34 42 54
45 54 68
39 48 61
38 46 58
44 53 67
41 49 62
39 48 60
37 45 57
39 47 59
36 43 54
44 53 66
37 45 56
40 48 60
38 46 58
40 48 61
38 46 58
38 46 57
39 47 58
39 47 60
39 47 59
40 48 60
46 54 68
32 39 50
37 45 56
35 42 52
34 41 51
36 44 55
40 49 62
37 45 56
41 49 61
36 43 54
41 50 62
41 49 62
40 48 61
42 51 64
44 53 67
37 44 55
39 47 59
45 54 68
41 50 63
38 46 58
37 45 56
37 45 56
46 56 70
45 54 67
43 52 66
43 52 65
45 54 67
41 49 62
45 54 69
47 56 69
49 59 73
48 58 74
47 56 71
44 53 67
43 52 67
44 53 67
57 69 88
46 56 70
46 57 72
45 55 70
46 55 69
45 55 71
52 63 79
49 59 74
49 60 77
48 58 75
47 58 73
49 60 76
51 62 79
49 60 77
51 62 79
58 71 91
55 68 86
50 61 77
49 60 76
52 63 80
45 56 71
50 61 76
50 61 78
46 55 70
48 59 74
44 54 68
50 61 77
50 61 78
41 50 64
48 58 73
46 57 72
45 54 67
46 56 70
47 57 72
41 49 62
40 49 62
45 55 68
43 53 67
43 53 67
46 55 69
43 52 66
35 42 53
43 52 65
46 55 69
38 46 58
47 56 70
45 54 68
46 56 70
45 55 69
41 49 62
37 46 58
45 55 69
46 55 70
43 51 64
42 50 64
36 44 55
37 44 56
38 46 58
37 44 56
36 43 54
34 41 51
36 44 55
38 46 58
37 44 56
32 38 48
38 46 58
38 46 58
36 43 55
37 44 56
39 48 60
41 49 62
41 49 62
41 49 61
44 53 67
37 45 56
34 42 53
40 49 62
39 46 58
37 45 57
41 49 61
35 42 53
44 53 67
39 48 62
34 41 53
33 39 50
37 45 57
38 46 58
39 47 59
29 35 44
41 50 62
35 43 54
41 49 62
43 51 64
41 50 63
46 56 71
36 43 54
47 57 71
42 50 63
42 52 65
43 52 65
37 45 58
35 42 53
36 44 56
44 53 67
40 49 62
41 50 63
37 45 58
41 50 64
42 52 67
43 53 67
36 45 57
38 46 59
36 44 57
36 45 57
38 46 59
47 57 72
45 55 70
39 48 61
51 62 79
43 53 68
46 56 71
40 49 63
43 53 67
38 46 58
36 44 55
38 46 59
41 50 63
44 53 67
35 43 55
38 47 61
42 51 65
37 46 58
45 54 69
44 54 70
41 50 63
44 54 68
33 40 51
46 56 72
44 53 68
42 52 67
32 40 52
41 51 65
41 50 64
38 48 62
43 53 67
39 49 63
41 50 63
32 40 51
42 52 66
44 54 68
41 49 62
41 50 64
37 45 58
47 59 76
42 51 66
37 45 57
35 44 57
38 46 58
44 54 69
40 49 61
37 45 57
47 57 72
33 40 50
37 45 58
42 51 65
35 43 56
39 47 60
38 46 58
36 45 57
35 43 54
35 43 55
36 45 57
40 49 61
45 54 68
41 50 63
42 52 67
40 49 61
36 44 55
35 42 52
32 39 50
39 47 60
40 49 62
39 47 59
43 52 65
41 50 62
33 41 52
29 35 45
36 44 55
33 40 51
34 41 52
35 42 53
34 41 53
38 46 58
37 44 55
37 44 55
32 39 49
34 41 51
30 36 46
40 48 60
37 45 57
38 45 56
37 44 55
32 38 48
35 42 52
34 41 51
32 40 50
38 45 57
40 49 61
39 47 59
29 35 45
36 43 54
35 42 54
36 43 55
32 38 48
32 38 47
38 46 58
32 39 49
40 48 61
40 48 60
39 47 59
30 36 46
35 42 53
39 47 59
34 42 53
39 47 59
38 46 58
30 36 46
30 36 45
38 46 58
39 47 59
31 37 47
33 40 52
37 45 57
34 41 51
36 44 56
35 43 54
39 48 61
34 41 52
36 44 56
39 47 59
43 52 67
34 41 52
34 41 51
38 46 58
37 45 57
38 46 57
29 35 43
34 41 52
38 46 59
35 43 54
37 44 55
31 38 47
36 43 55
41 50 64
36 44 55
33 40 51
34 42 53
40 49 61
39 48 62
43 52 66
40 49 61
38 46 57
45 54 69
46 56 71
36 44 56
41 50 63
43 53 67
44 54 68
36 44 56
36 45 57
39 48 62
37 45 57
49 61 79
42 52 66
38 47 60
38 46 59
40 48 62
40 50 64
41 50 64
44 54 68
40 50 64
36 44 56
47 57 73
39 47 59
45 56 71
42 52 67
42 50 63
43 53 68
38 46 59
42 51 65
47 57 73
39 47 60
39 48 61
39 48 62
40 49 63
40 49 63
40 50 64
45 55 69
45 54 68
39 47 60
41 50 64
39 48 61
37 44 56
39 47 59
45 54 68
40 49 63
41 51 65
41 51 65
43 53 68
34 42 53
41 50 63
42 52 67
44 53 67
42 51 65
40 49 62
37 45 57
38 47 60
46 56 71
42 52 66
43 52 66
40 48 61
43 52 66
40 49 62
39 48 61
38 46 59
46 56 70
38 46 58
36 44 56
42 51 66
42 51 64
42 51 65
41 49 63
43 52 65
39 47 60
36 44 55
38 47 59
37 45 57
35 43 54
40 49 62
39 47 60
45 54 67
44 53 67
41 50 64
32 39 50
40 48 61
40 48 61
46 56 70
43 51 63
39 47 60
32 39 51
43 52 66
33 40 50
38 46 57
38 46 58
36 43 54
45 54 69
38 46 58
31 37 46
39 47 59
49 59 73
39 47 59
40 49 63
36 43 54
39 47 59
39 47 60
30 36 45
36 43 53
39 47 58
37 44 55
41 49 61
40 47 59
33 39 49
39 47 59
36 43 55
35 42 53
37 44 55
37 45 56
43 52 65
42 51 65
42 51 65
39 48 60
38 46 58
43 51 63
46 55 70
40 48 60
37 45 56
44 53 68
48 58 73
45 54 67
43 52 65
44 53 67
42 50 63
44 53 66
47 57 72
43 52 66
47 57 71
43 52 65
45 55 69
44 54 68
46 55 69
49 59 75
50 60 75
42 51 65
46 56 71
38 47 60
49 60 76
49 59 75
44 53 68
41 50 64
48 58 73
54 66 84
45 55 71
49 59 75
48 58 74
49 60 77
53 65 83
52 63 79
52 64 81
48 58 74
46 57 72
49 61 77
42 51 64
49 60 77
47 58 74
50 61 77
50 61 77
46 56 72
46 56 71
48 58 73
40 50 64
43 52 66
50 60 75
49 59 74
46 55 70
49 58 72
40 48 61
49 59 74
50 60 76
40 48 61
47 56 71
43 53 66
36 43 55
45 54 68
41 50 62
41 49 62
48 57 72
36 44 56
47 56 70
39 47 60
46 55 68
45 54 68
38 46 57
39 47 59
37 45 56
34 41 51
34 41 51
36 44 56
40 48 61
32 39 50
35 42 53
42 50 62
37 44 56
40 48 61
42 52 66
39 47 60
36 43 54
43 52 65
33 40 51
41 50 63
49 59 74
46 55 70
38 46 58
37 45 56
34 41 52
39 48 61
40 49 61
35 43 54
40 49 61
37 44 56
38 46 58
37 46 58
37 45 57
42 51 64
32 38 48
38 46 57
35 42 53
41 50 63
33 40 51
33 39 50
36 44 55
40 48 61
48 58 73
40 50 64
48 57 72
46 56 71
36 44 56
46 54 68
43 52 66
34 41 52
40 50 64
40 49 62
42 51 65
35 43 55
45 55 70
39 47 60
38 47 60
39 48 62
44 53 67
38 46 58
45 54 67
41 49 62
42 51 64
41 50 64
45 55 70
43 53 67
46 55 70
45 56 72
42 51 65
42 51 64
45 55 72
39 48 61
42 52 67
37 45 57
43 53 68
36 45 58
37 45 57
51 62 79
46 56 72
39 48 61
40 49 62
45 54 69
40 50 63
47 57 72
44 54 69
39 47 60
37 45 56
44 54 69
43 52 66
38 48 62
42 51 65
38 47 60
44 53 67
43 53 68
42 52 67
41 50 64
41 50 64
40 49 62
44 54 69
38 46 59
46 56 71
43 53 68
43 53 67
42 52 67
44 53 68
42 52 67
43 52 66
43 52 66
33 40 52
47 57 73
44 54 68
43 53 69
40 49 63
45 55 70
37 45 57
38 46 59
38 46 58
34 41 51
41 50 64
40 48 61
31 38 49
37 46 59
41 51 65
42 52 66
39 47 61
36 44 55
35 43 55
36 44 56
45 54 67
44 53 67
37 46 58
37 44 55
41 49 63
36 44 55
40 48 60
37 45 57
40 49 63
39 47 60
40 49 63
40 48 61
33 41 51
37 45 56
41 49 61
40 49 61
36 44 56
37 46 58
33 40 51
34 41 51
36 44 55
34 42 53
35 43 54
31 38 48
32 38 48
33 39 49
35 42 53
34 41 52
36 44 56
37 45 58
32 40 51
36 43 54
33 41 52
42 51 65
39 47 59
37 44 55
42 51 64
33 40 51
34 41 52
38 47 61
38 46 58
37 44 56
33 40 51
34 41 51
40 48 60
36 44 56
31 38 48
41 49 62
38 46 59
38 47 60
41 50 63
39 47 58
39 47 60
37 45 58
36 44 56
37 45 57
42 51 64
37 45 56
38 46 58
39 47 59
36 43 54
36 44 55
33 40 51
41 49 62
39 47 59
37 45 57
38 47 60
33 40 51
37 44 56
37 45 57
44 53 66
34 42 54
35 43 54
41 50 63
40 49 62
38 46 59
38 46 59
39 47 59
40 48 61
37 45 57
39 48 62
40 49 61
39 47 59
44 53 68
43 53 67
44 53 67
41 50 63
45 54 68
42 51 64
36 45 58
36 43 55
40 49 63
41 49 62
42 51 65
39 48 61
38 47 60
44 54 69
46 57 72
40 49 62
32 39 49
39 47 59
49 60 76
38 48 62
42 52 67
46 57 73
41 51 65
38 46 59
35 43 56
40 50 63
40 49 64
42 51 64
44 54 70
43 54 70
39 48 62
48 59 74
41 51 66
40 49 62
38 47 60
41 51 65
37 46 58
43 53 68
41 49 62
41 51 65
39 47 60
46 56 72
39 47 60
34 42 55
42 52 67
46 56 72
37 44 56
44 54 69
49 59 75
40 49 62
39 47 60
36 45 57
44 54 68
38 46 58
41 49 62
44 54 68
37 46 58
45 55 70
42 51 65
37 44 56
37 45 57
39 47 61
35 42 53
39 46 58
34 41 52
42 51 64
48 59 75
44 54 68
40 49 62
44 54 70
43 53 68
40 49 62
44 53 67
40 49 62
34 42 54
36 44 56
38 47 60
33 40 51
37 45 58
39 47 60
44 53 68
40 49 62
35 43 54
43 52 66
39 47 59
42 51 64
43 52 65
43 52 65
39 48 60
36 44 56
35 43 54
43 52 65
42 51 64
40 48 61
42 51 64
43 52 65
38 46 57
33 39 49
41 50 64
36 44 56
39 47 60
34 41 52
43 52 65
39 48 60
45 54 69
42 50 63
37 45 56
40 49 61
38 45 55
50 60 75
39 47 59
42 50 63
43 52 65
38 46 59
41 50 63
39 47 58
35 42 53
41 49 61
34 41 52
41 49 61
42 51 65
43 52 65
42 50 63
40 48 61
40 48 60
40 49 63
42 50 63
39 47 60
40 48 59
41 49 61
42 51 64
42 51 65
44 53 66
43 52 66
46 55 69
48 58 72
47 57 72
41 50 64
45 55 70
39 47 59
47 56 71
41 50 63
47 57 71
44 53 67
45 55 70
46 56 72
45 55 70
49 59 75
44 53 68
47 57 73
43 53 67
50 61 78
45 54 69
47 56 71
50 62 79
52 62 79
47 58 75
51 63 81
50 61 78
42 51 65
52 63 80
53 64 80
50 61 77
44 53 68
41 50 64
47 57 73
46 57 72
47 57 72
43 53 67
42 52 66
41 50 63
47 57 72
45 55 69
44 54 68
40 49 62
46 56 71
41 50 63
39 47 59
41 49 62
44 52 66
46 55 69
43 52 66
41 50 64
42 52 66
44 53 67
43 52 67
38 45 57
39 48 61
41 49 62
46 55 69
43 52 65
40 49 62
44 52 66
32 38 48
43 52 65
40 48 60
41 50 63
44 53 67
46 55 69
44 53 67
41 50 62
38 46 58
40 48 61
43 51 64
39 47 60
39 47 59
39 47 60
35 42 53
39 47 59
40 48 61
45 54 68
40 48 61
40 48 60
41 51 65
40 49 62
35 42 53
45 55 69
41 50 63
44 54 68
40 48 61
38 46 57
43 52 65
40 48 60
34 41 52
38 46 57
45 54 67
31 38 48
44 53 68
36 43 54
38 47 59
39 47 59
37 44 56
39 47 59
42 51 64
46 56 71
39 47 59
40 49 62
44 54 68
40 49 63
41 49 62
39 48 60
35 42 53
39 48 60
40 49 61
41 50 64
42 51 65
38 47 59
42 52 66
40 49 63
44 54 68
44 54 68
43 52 66
35 42 54
42 52 66
44 54 68
41 51 65
39 48 61
40 48 61
35 42 53
37 45 57
41 51 66
45 55 71
40 49 62
36 44 56
41 51 66
44 55 71
39 48 61
38 46 60
44 54 69
37 45 56
45 55 70
38 46 59
45 55 71
38 48 62
38 47 60
41 50 64
45 55 70
33 40 52
41 50 63
45 56 73
48 58 74
47 57 73
46 56 71
35 44 57
44 54 69
39 48 61
38 46 59
38 47 60
39 48 61
44 54 68
39 48 62
39 47 59
38 47 59
42 51 65
43 52 66
43 52 66
44 53 67
48 58 73
39 48 61
40 49 61
40 49 61
38 46 58
37 45 57
36 44 56
36 44 55
46 57 73
36 43 55
39 48 61
39 47 61
43 52 67
38 46 58
33 40 51
39 48 61
42 51 64
39 47 60
40 48 61
40 49 62
41 50 64
35 42 53
45 55 70
36 44 56
42 51 65
39 48 60
34 42 53
43 52 65
41 50 63
30 37 48
40 48 60
37 46 59
36 44 57
39 48 60
41 51 65
39 48 60
35 42 53
37 45 56
35 42 53
39 47 60
40 49 63
40 49 63
33 39 49
44 53 67
38 46 58
45 55 69
40 48 61
33 40 50
33 40 50
38 46 58
40 49 62
35 43 55
36 44 55
36 44 55
39 48 61
33 40 51
38 46 57
36 44 56
38 46 57
38 46 57
33 41 51
32 38 48
39 47 60
36 43 54
41 50 63
32 39 50
29 36 45
34 41 51
39 47 60
36 44 57
35 43 55
40 48 61
40 49 61
42 50 62
37 45 57
40 49 61
36 43 55
36 44 56
38 46 59
45 55 69
35 43 54
37 45 57
41 49 62
35 42 53
40 49 62
35 42 53
35 43 54
36 44 57
38 47 59
37 45 58
39 47 59
38 47 59
42 51 64
45 55 70
29 36 45
38 46 58
40 48 60
34 42 54
40 48 60
34 42 53
41 49 61
35 44 56
40 50 64
40 48 62
40 48 61
42 51 64
39 48 60
44 53 68
38 46 58
35 43 55
44 54 68
38 47 59
39 48 61
44 55 71
41 49 62
38 47 60
44 54 69
41 50 64
46 57 72
47 57 72
43 52 66
42 53 68
38 47 60
38 47 60
41 50 65
42 51 66
42 51 64
40 49 62
46 56 71
47 58 73
35 44 56
41 50 63
43 52 65
42 51 66
42 52 66
43 52 67
42 52 66
45 54 69
40 49 63
43 52 66
44 52 65
41 49 61
48 58 74
37 45 56
42 51 66
34 42 53
42 52 66
40 48 61
42 52 66
44 53 68
44 54 69
43 54 70
46 56 70
41 50 64
40 49 62
42 52 67
43 52 66
38 46 58
47 57 72
41 50 65
38 46 59
42 50 64
38 46 58
42 51 64
41 50 64
41 50 64
43 52 66
44 54 69
43 52 66
41 50 62
42 52 66
43 53 68
37 45 57
46 57 72
48 59 75
38 47 59
43 53 67
34 42 53
37 46 59
37 46 59
31 38 48
37 45 57
40 48 60
42 50 63
37 44 55
44 54 68
34 41 53
42 51 65
40 49 61
36 44 55
41 51 65
39 48 61
32 40 50
38 45 56
43 53 66
41 50 63
39 46 58
38 46 58
39 47 58
44 53 68
38 46 59
38 46 59
41 50 64
43 52 66
39 48 61
40 47 59
35 42 53
42 51 64
41 50 62
34 42 52
42 50 64
36 43 54
42 50 63
41 49 62
41 49 62
45 54 67
42 51 63
42 51 66
41 50 62
38 46 58
42 51 65
50 61 76
36 43 53
42 52 66
43 52 65
48 58 73
43 52 65
39 48 60
46 56 70
37 44 56
42 51 64
41 50 62
46 55 69
42 50 63
46 55 69
42 50 62
43 51 64
40 48 59
47 56 71
49 60 75
41 50 63
36 43 54
45 55 69
45 55 68
39 48 62
50 62 79
45 55 70
45 54 68
47 57 72
48 59 74
46 56 70
52 63 80
50 61 78
49 60 75
47 58 74
51 62 79
49 59 74
47 56 71
45 54 69
50 60 76
53 64 82
49 59 75
44 53 68
43 52 66
53 64 81
50 60 76
50 60 77
48 58 74
47 57 72
45 55 69
49 59 74
51 62 79
48 59 75
48 58 74
37 46 58
36 44 57
46 57 72
44 54 68
47 58 73
42 50 64
44 53 67
41 49 61
42 50 63
44 53 67
45 54 68
40 48 61
43 52 66
39 47 59
38 47 59
44 54 68
41 50 63
33 40 51
41 49 62
44 53 67
39 47 59
42 51 65
40 48 60
44 53 67
38 45 57
36 43 54
42 50 63
41 50 62
42 51 65
46 56 71
39 48 62
46 56 71
39 47 59
40 48 60
37 45 56
48 58 74
46 56 71
47 56 70
36 44 56
42 51 64
42 51 65
38 46 57
41 50 63
41 50 63
33 40 50
41 49 62
42 51 64
41 49 62
46 56 70
32 39 50
44 53 67
38 47 59
38 46 58
42 51 64
39 48 60
37 45 56
43 53 68
37 45 57
42 51 64
45 55 71
46 56 71
38 45 57
41 49 63
39 48 61
39 47 60
38 47 59
40 48 61
48 58 74
35 42 53
45 55 69
38 46 58
40 49 63
36 44 56
43 53 69
41 50 65
43 53 68
44 54 69
34 42 53
43 52 66
39 47 60
40 49 62
44 54 69
35 44 56
43 53 68
39 48 61
44 53 67
41 51 65
42 51 65
46 57 72
41 50 63
34 41 51
44 54 68
43 52 66
43 53 68
45 55 70
40 49 63
40 48 60
39 47 61
37 46 60
40 49 62
38 47 60
41 50 64
44 54 68
38 46 59
41 50 64
37 45 58
39 47 60
46 56 71
34 42 53
39 48 61
46 56 71
47 58 74
42 51 66
42 50 63
45 55 70
40 49 63
40 50 64
41 50 64
35 43 55
43 53 67
44 54 69
47 57 72
43 52 66
40 49 62
43 52 66
35 44 57
45 55 70
40 48 60
39 48 62
36 44 56
46 55 69
44 54 68
49 59 74
40 49 62
43 53 67
32 40 51
39 47 60
44 53 68
45 55 69
44 55 70
40 49 63
40 49 63
37 45 58
47 59 76
34 42 53
42 52 67
39 47 60
47 58 74
35 43 54
38 46 58
39 47 59
38 47 59
40 48 61
37 46 59
37 45 58
41 50 64
34 42 54
41 50 63
34 41 52
37 45 58
38 45 57
33 40 50
37 45 57
38 47 60
37 45 57
36 44 56
41 50 64
46 55 69
37 44 56
44 53 68
42 50 63
42 51 64
38 46 59
38 46 58
38 46 58
43 52 66
33 40 51
34 41 51
39 48 61
36 44 55
34 41 52
40 49 61
37 45 56
36 43 55
34 42 54
35 43 54
38 46 57
37 45 58
38 46 57
34 41 52
35 42 53
34 41 52
46 56 69
33 41 51
41 49 62
39 48 61
43 52 66
37 45 57
34 41 52
40 48 60
32 39 49
38 47 59
46 56 72
37 45 57
30 36 46
40 48 61
38 46 58
39 47 59
36 44 55
37 45 57
38 46 58
37 45 57
32 40 50
43 52 66
36 44 57
37 45 56
35 43 53
41 50 64
40 48 61
38 46 58
41 50 63
37 44 56
39 47 60
45 56 71
43 52 66
32 39 50
41 50 65
43 51 64
40 49 62
43 53 68
40 49 63
41 50 64
38 47 60
36 44 55
42 52 66
42 50 64
31 38 48
41 50 64
39 47 60
38 46 59
36 43 55
44 54 69
40 49 63
39 48 60
43 53 68
42 52 66
36 45 58
46 56 72
39 47 59
44 54 70
36 45 58
36 44 55
41 50 64
42 51 66
49 59 75
43 52 66
38 47 61
44 53 68
43 54 70
39 48 62
45 55 69
46 56 72
44 53 67
46 56 72
44 54 69
41 50 64
43 54 69
43 53 67
43 53 67
44 54 68
37 46 59
40 50 63
45 55 70
43 53 67
40 49 63
43 52 65
44 54 68
43 52 66
44 54 69
45 55 69
40 49 63
42 53 68
39 48 61
40 49 63
36 44 56
42 50 63
36 44 55
45 56 71
44 54 68
38 46 59
44 54 69
37 46 59
44 53 66
44 54 69
40 48 61
40 48 61
40 49 62
41 51 66
44 54 69
49 59 74
40 48 61
41 49 62
39 48 62
39 48 61
44 53 67
41 50 63
44 54 69
39 47 60
40 48 60
41 50 64
42 51 65
41 51 65
40 49 62
47 57 72
43 52 67
38 47 60
39 48 61
43 53 67
37 45 57
38 46 59
41 49 62
38 46 58
44 54 68
37 45 56
39 47 59
46 55 69
39 47 59
38 47 60
41 50 63
43 53 67
38 46 58
39 47 58
39 47 58
40 49 62
41 50 63
45 54 69
41 51 65
35 42 53
38 46 57
35 42 52
46 56 70
37 45 56
41 50 63
35 43 54
41 50 63
41 49 63
40 48 61
41 49 63
39 47 60
37 45 57
43 53 66
38 45 57
39 47 59
42 51 64
48 58 72
47 56 70
38 46 57
45 55 70
42 51 64
40 48 61
41 50 64
46 56 70
42 52 66
45 55 70
42 51 65
42 50 63
43 52 66
39 47 59
44 53 66
43 53 67
44 53 67
43 53 68
51 63 81
48 59 74
48 58 73
45 54 69
48 58 74
50 60 76
43 52 66
49 60 77
50 61 78
47 57 71
53 64 82
54 65 82
45 55 71
44 54 68
44 54 68
45 55 69
46 56 70
46 57 72
48 59 74
46 56 71
40 49 63
50 60 76
48 58 74
45 55 70
41 50 62
44 53 67
42 52 66
42 51 64
46 56 70
46 56 70
43 53 67
47 57 71
39 47 59
45 54 69
47 57 72
48 59 74
45 54 68
46 55 70
46 56 70
45 54 69
48 58 73
46 56 71
41 50 64
47 57 71
41 50 63
47 57 73
42 51 64
47 57 72
38 46 57
43 53 67
48 58 73
41 50 62
50 60 75
41 50 63
44 54 68
37 45 56
41 50 63
35 42 53
42 51 64
42 51 64
36 44 56
48 59 75
44 53 68
40 48 60
42 51 65
39 47 60
39 47 59
42 50 63
41 49 62
43 53 67
43 52 66
44 53 67
39 47 59
38 46 58
37 45 57
35 42 53
42 50 62
37 45 57
40 49 62
40 48 62
44 54 69
37 44 56
42 52 67
42 51 65
47 57 73
42 51 65
39 47 60
47 57 72
48 58 74
47 57 71
40 49 63
41 50 63
42 52 67
37 45 58
39 47 59
42 51 65
41 50 63
45 55 70
43 53 68
41 51 65
41 50 65
42 52 66
47 57 73
43 53 67
49 60 77
36 45 57
40 49 62
42 51 65
37 45 58
42 52 67
45 54 69
47 57 72
38 48 62
40 50 64
38 47 61
45 54 69
47 57 73
36 44 56
44 54 69
42 52 67
46 56 72
37 46 59
43 52 66
43 53 68
44 56 72
41 50 63
46 56 70
35 43 54
35 43 54
41 50 64
41 51 65
39 48 61
35 43 56
44 53 68
44 54 68
46 56 71
45 55 70
46 56 72
41 51 65
37 45 57
44 54 68
45 54 69
42 51 64
43 53 68
49 60 76
41 50 64
39 48 61
43 53 66
40 49 62
42 52 66
47 58 74
40 50 64
41 51 65
35 43 55
37 46 59
42 52 66
40 49 62
40 49 62
42 51 65
45 54 69
40 49 62
40 48 61
44 53 68
44 54 69
39 49 62
46 56 71
37 45 58
45 54 69
39 47 60
33 41 54
37 45 58
43 52 67
37 45 57
44 54 69
36 44 56
40 49 63
41 50 63
42 51 65
37 45 57
45 55 70
37 45 57
36 44 56
46 56 71
36 43 55
37 45 57
36 44 57
46 56 71
31 39 51
36 43 55
41 50 63
39 47 59
38 46 59
45 55 69
42 51 65
39 47 60
39 47 60
38 46 58
33 40 51
36 44 56
34 40 50
35 42 53
30 36 46
38 46 59
39 47 60
34 41 51
37 44 55
38 46 58
40 49 63
42 51 65
34 42 53
38 46 58
36 44 57
36 44 55
31 37 47
35 42 54
35 43 54
32 39 49
39 47 59
36 44 56
46 55 69
44 54 68
41 50 63
36 44 55
34 42 53
34 41 51
41 50 63
43 52 66
35 42 53
44 53 67
37 45 57
41 49 62
39 47 59
39 48 61
41 50 63
39 48 61
34 41 53
35 43 55
40 48 61
39 47 60
36 44 56
37 45 57
37 45 57
37 46 59
43 53 68
39 48 61
40 48 61
35 43 55
48 58 73
43 53 68
36 45 58
34 42 53
41 51 66
36 44 55
41 49 61
39 47 59
36 44 56
37 45 57
39 47 60
38 46 59
34 42 54
41 51 65
40 49 62
45 56 71
44 53 67
44 54 70
30 37 46
37 45 57
44 53 67
44 54 69
38 46 58
43 53 68
39 48 61
46 56 71
38 46 58
41 50 65
42 52 65
38 47 60
42 52 67
47 57 73
39 48 61
43 53 68
43 53 67
41 51 67
43 52 67
39 47 60
45 56 72
42 52 66
42 52 67
42 52 67
38 46 59
39 48 62
39 48 61
49 60 77
38 47 61
41 50 64
42 51 64
43 53 69
39 48 61
43 53 69
38 48 62
38 46 58
44 53 67
49 60 76
43 53 68
40 49 62
46 56 71
47 57 72
40 49 62
42 52 65
37 44 55
37 46 58
45 55 70
40 49 62
50 61 77
48 59 75
37 45 57
44 53 67
44 54 70
46 56 71
39 49 62
50 61 77
40 49 62
44 53 67
43 52 66
42 51 66
47 58 75
43 52 66
40 49 64
49 59 74
46 55 70
41 49 62
40 50 63
51 62 79
40 49 62
38 47 60
46 56 71
49 59 76
42 51 65
38 47 59
36 43 55
43 52 66
43 52 66
36 43 55
43 53 67
40 49 62
39 48 61
41 50 63
42 51 64
42 51 65
38 46 59
43 51 64
40 49 61
44 54 68
35 42 53
41 49 61
41 50 63
41 50 64
38 46 58
41 50 62
41 50 62
41 49 62
45 55 69
44 53 66
42 51 64
47 57 71
31 38 47
39 48 60
36 43 54
38 47 60
41 49 63
37 45 57
36 44 56
39 48 60
42 50 63
42 51 64
39 47 59
49 59 75
39 47 59
40 49 61
42 50 64
49 58 73
38 45 57
37 45 58
44 53 66
39 48 60
41 50 63
47 56 70
43 53 66
43 52 66
44 54 67
44 54 69
41 50 64
39 47 59
44 54 68
43 53 67
45 55 70
47 57 73
41 49 62
44 54 68
45 55 69
48 59 75
47 58 73
50 60 76
46 56 71
46 56 72
51 61 77
45 54 68
42 51 64
47 56 70
47 57 72
42 50 63
50 61 77
52 64 82
50 60 76
40 49 62
51 62 79
47 56 71
49 61 77
55 67 84
48 59 74
45 54 68
45 54 69
46 56 72
48 59 74
45 55 69
45 54 69
45 55 70
43 53 66
44 54 68
45 56 71
43 52 65
46 56 72
43 52 65
45 55 69
43 51 65
44 53 66
48 59 74
41 49 62
54 67 85
39 48 61
51 61 76
41 49 62
37 46 58
44 54 68
43 52 65
39 47 60
42 50 63
39 48 61
42 52 65
42 51 65
40 48 60
39 48 60
43 52 64
43 52 66
44 53 67
42 50 63
39 48 61
48 58 73
40 48 60
38 46 58
39 47 60
41 49 62
43 52 65
44 53 67
43 52 65
44 53 67
42 52 66
40 50 63
41 49 62
40 49 61
34 42 53
40 49 62
44 52 66
37 45 56
43 52 66
46 55 69
43 53 67
44 55 71
43 52 66
44 53 67
42 52 66
38 47 61
43 53 67
45 55 70
41 50 64
37 46 58
44 54 68
40 49 61
43 52 65
42 50 63
37 45 58
40 48 61
41 50 63
40 50 63
38 47 60
40 49 62
44 54 68
44 54 68
43 52 66
37 46 58
42 51 65
39 48 61
41 50 64
38 47 60
42 51 64
49 61 78
40 49 62
45 56 72
44 54 69
45 55 71
37 46 59
37 45 58
41 50 64
42 50 63
46 57 72
41 51 65
48 58 75
45 54 69
48 59 76
47 58 73
47 57 72
46 56 72
48 59 75
39 48 62
45 55 70
39 47 60
42 52 66
42 51 64
46 58 75
40 49 63
46 57 73
42 51 65
39 49 63
43 54 70
38 46 57
39 48 61
37 45 58
41 51 66
38 47 60
47 58 74
42 51 66
44 55 70
46 56 71
42 52 68
46 56 72
44 55 70
41 50 64
43 53 68
39 47 60
42 52 66
46 56 72
44 55 70
42 53 69
41 51 65
34 43 55
45 55 70
43 52 65
42 51 65
43 53 69
40 49 62
38 48 61
38 47 60
43 52 66
41 51 65
43 53 67
38 46 59
44 53 67
39 49 63
43 53 68
38 46 59
42 52 67
40 50 63
41 50 63
39 48 62
41 50 63
45 55 70
37 45 56
40 48 61
44 54 69
37 46 58
46 56 71
39 48 60
43 52 67
41 49 61
38 46 59
43 52 66
38 46 58
43 53 67
45 54 67
35 42 53
40 49 62
37 45 58
34 41 52
43 53 66
40 49 62
39 47 59
40 49 62
38 45 57
37 45 57
40 49 61
40 49 63
36 44 57
38 46 59
35 42 53
42 52 67
40 49 62
41 49 62
40 49 61
40 48 61
35 43 55
40 48 60
34 41 53
35 43 53
34 41 52
33 41 52
32 38 48
37 45 57
38 46 57
38 48 61
38 46 58
40 48 61
35 43 54
44 53 67
35 43 54
39 47 59
35 43 54
37 44 56
35 42 53
30 36 46
37 45 56
41 50 63
36 45 57
37 45 58
42 51 65
38 46 59
40 48 60
33 41 52
33 40 50
36 44 56
35 43 55
35 42 52
37 45 57
39 48 62
34 42 53
42 51 64
37 44 56
38 46 59
46 56 71
44 54 69
35 43 54
42 50 63
39 47 59
38 46 58
37 45 57
38 47 59
41 50 64
42 51 65
44 53 67
39 48 60
45 56 72
41 51 65
39 47 59
41 50 64
39 48 62
37 46 58
39 47 59
40 49 63
41 51 65
39 47 60
43 52 66
40 49 62
43 52 66
37 45 58
40 50 64
44 53 68
43 52 66
41 50 64
33 40 51
39 48 62
40 49 62
39 48 61
42 52 67
46 56 71
44 54 68
44 54 70
40 50 64
43 52 67
46 56 72
43 53 68
53 64 81
41 51 65
45 56 73
44 54 69
37 46 60
48 59 75
39 48 62
40 50 65
38 47 60
41 50 63
45 55 71
44 54 69
46 56 71
37 45 57
45 53 67
40 49 62
38 47 60
50 61 79
36 45 57
44 53 68
43 53 68
46 56 71
43 53 69
41 49 62
47 57 73
41 51 65
42 52 65
47 57 71
41 50 64
47 58 75
42 52 67
44 54 67
43 53 68
45 54 68
42 52 67
42 52 67
44 54 70
42 51 66
45 55 69
44 53 67
35 43 55
46 56 71
43 52 65
43 52 66
43 52 67
48 59 75
45 56 71
41 50 63
41 51 65
41 50 63
41 50 64
40 48 61
38 47 59
45 55 70
40 49 62
44 54 68
41 50 64
44 53 67
44 52 66
44 54 67
39 48 61
40 48 61
48 59 75
37 44 56
37 45 57
38 47 60
46 56 72
36 44 55
40 49 62
41 49 61
41 51 64
45 55 69
39 47 60
41 50 63
42 51 65
35 42 54
37 45 56
41 49 62
45 54 69
37 45 56
41 49 61
45 54 68
46 55 70
43 53 67
45 54 69
47 56 70
46 56 71
33 40 50
43 52 65
46 56 70
48 57 72
46 56 70
41 50 63
40 49 62
42 50 63
39 48 60
35 43 54
43 51 64
43 51 64
40 49 62
46 56 70
40 49 63
50 61 77
45 55 69
53 64 80
36 44 55
41 49 62
41 50 64
40 49 61
49 59 74
43 52 66
51 62 78
47 58 74
48 58 73
46 56 71
47 57 73
44 53 67
45 55 70
49 60 76
48 59 75
45 55 70
41 50 63
53 65 82
53 64 81
47 57 73
45 55 71
41 49 61
50 60 76
42 51 65
51 62 79
48 59 76
50 62 79
43 53 66
50 61 77
41 50 63
44 53 68
43 52 66
35 42 53
48 59 74
46 56 71
44 53 68
48 58 73
44 54 68
40 49 62
47 58 73
45 55 69
48 57 71
42 52 66
41 51 65
47 58 73
44 53 67
46 56 71
42 51 65
44 53 66
44 53 66
42 51 64
46 55 70
40 48 61
44 53 66
44 54 68
42 51 65
44 53 67
37 44 55
42 51 64
41 50 63
45 54 68
40 48 61
46 56 71
41 50 63
44 53 68
40 48 61
43 52 66
39 47 59
39 47 59
40 48 61
43 52 65
44 53 68
43 53 66
45 55 70
46 56 71
43 51 64
41 50 63
41 50 63
40 48 61
36 44 57
42 51 65
38 46 58
40 49 63
45 54 69
42 52 67
49 59 74
45 54 68
38 47 59
38 46 58
45 55 71
41 49 62
39 47 60
42 51 64
43 52 66
47 56 70
43 52 67
39 47 59
42 52 67
41 50 64
45 54 68
44 54 69
40 48 61
40 49 62
46 57 73
43 53 67
50 60 76
39 48 61
43 53 67
40 50 64
46 57 73
41 50 64
45 54 69
43 53 67
40 49 62
40 50 65
40 48 61
41 50 65
46 56 72
36 44 57
44 55 72
44 53 67
48 59 74
32 39 50
47 59 76
44 53 67
45 55 71
44 54 68
45 55 69
39 48 61
40 49 62
47 59 76
43 53 68
44 55 71
43 52 65
51 62 79
46 56 71
43 52 66
43 53 68
42 52 67
43 52 66
46 56 71
43 52 65
40 49 63
50 62 79
41 50 62
38 46 59
48 58 74
49 60 76
45 56 71
38 47 61
45 56 72
38 46 59
41 51 65
37 46 59
41 50 63
38 46 58
41 51 65
51 62 79
45 55 71
41 51 65
48 57 72
45 54 68
45 55 69
37 46 59
36 45 59
46 57 72
43 52 66
39 49 63
41 50 63
41 49 62
46 56 71
40 49 62
42 51 65
44 53 67
40 49 62
44 54 69
43 53 68
42 51 66
40 49 62
40 49 62
42 51 65
42 51 65
36 44 57
41 51 65
40 49 63
45 54 69
46 55 70
37 46 58
48 58 74
46 55 69
36 44 55
42 51 65
44 54 70
33 41 52
32 39 50
41 50 64
37 45 57
35 43 55
42 51 64
42 51 65
36 44 56
43 53 67
35 43 54
38 46 57
39 47 60
39 48 60
35 43 56
34 41 53
32 40 51
35 42 53
38 47 60
33 40 51
34 42 54
42 52 66
35 42 52
40 48 61
41 50 63
34 41 53
39 48 60
43 53 67
36 44 55
40 49 63
39 47 60
39 48 62
36 44 56
36 44 56
39 48 61
32 39 50
42 52 65
37 45 58
36 43 54
40 49 62
42 51 66
35 43 54
37 45 57
37 45 58
42 50 63
39 48 61
41 50 63
35 44 56
44 53 67
39 47 60
35 43 55
36 44 56
39 47 61
43 52 66
42 52 66
40 49 61
35 43 55
40 49 62
46 57 73
42 51 64
34 42 53
43 52 65
38 47 60
45 54 67
39 47 60
43 52 66
36 45 58
39 47 60
43 52 66
44 54 70
41 50 64
43 53 67
40 48 62
40 50 63
44 53 68
45 55 70
45 56 73
41 51 64
44 54 67
47 57 73
33 41 53
36 44 57
41 51 65
40 49 63
46 56 71
37 45 58
36 43 55
42 51 66
42 52 66
41 51 65
36 45 57
43 52 65
45 55 69
47 58 74
47 58 74
47 57 73
48 59 75
46 55 70
38 47 59
44 54 68
40 49 63
44 55 70
40 49 63
45 54 69
48 59 76
43 53 67
45 55 70
44 53 68
44 54 69
47 57 73
46 57 72
46 57 73
43 52 65
44 53 67
47 58 74
41 50 64
49 60 78
42 51 65
42 52 67
39 48 62
49 59 75
43 52 67
41 51 66
45 56 71
36 44 57
40 50 64
34 42 53
43 52 67
47 58 73
40 50 64
41 51 65
45 56 71
46 56 73
42 51 66
42 52 67
40 49 63
47 58 74
42 51 65
44 55 70
36 44 56
40 50 64
48 59 75
44 54 69
45 56 71
46 55 70
34 42 53
34 42 53
42 52 66
39 48 62
39 48 61
42 51 64
45 55 69
47 57 72
45 55 70
45 55 70
38 47 60
42 51 65
46 56 70
37 45 56
46 56 71
46 55 70
43 52 67
41 50 64
40 48 61
37 45 57
37 46 58
44 53 67
35 43 54
37 46 59
42 51 63
47 58 74
44 54 69
46 55 69
42 51 64
41 50 63
42 51 65
45 55 71
43 53 68
43 52 65
49 61 78
36 44 56
38 45 57
39 47 60
44 53 67
45 55 70
43 52 65
44 54 68
45 54 68
41 48 60
40 49 63
40 48 61
39 48 61
50 61 76
43 52 66
48 58 74
53 64 80
41 50 63
45 55 69
45 55 69
42 51 65
45 55 70
42 51 66
51 62 78
45 55 70
52 63 79
41 50 63
47 57 72
48 58 72
44 54 69
40 49 63
48 58 73
48 59 75
47 57 71
42 51 65
47 57 72
45 54 68
47 57 71
44 54 68
52 62 79
47 58 73
44 54 69
48 59 76
50 61 77
52 63 81
45 56 73
49 59 74
49 59 75
49 59 75
49 60 77
50 61 77
41 51 65
54 66 83
49 59 74
42 51 65
45 55 69
52 63 80
45 54 69
46 56 71
43 52 66
47 57 73
48 59 75
43 53 67
41 49 62
48 58 73
43 52 65
49 59 73
46 55 69
43 53 67
45 56 71
46 56 70
40 49 62
50 60 76
47 57 72
45 55 70
51 62 78
45 54 68
41 50 63
43 52 66
43 52 67
39 48 61
39 48 62
49 60 76
39 47 60
38 47 60
43 53 67
42 51 66
42 51 65
42 52 65
39 48 61
49 60 75
40 48 61
41 50 63
42 52 66
44 53 66
45 55 70
43 51 65
44 54 68
40 49 62
43 53 67
41 50 63
48 58 73
43 53 67
36 44 57
45 54 68
33 40 51
41 51 66
43 53 66
37 45 56
44 54 69
45 55 70
44 54 69
50 60 76
41 50 64
40 48 61
40 48 62
40 49 62
42 52 66
42 51 65
40 49 61
38 46 59
38 47 60
42 51 64
44 54 68
45 54 68
46 56 71
42 51 66
45 55 69
38 46 58
39 49 63
39 48 61
39 48 62
41 50 64
34 41 52
47 58 74
44 53 67
45 54 69
45 54 69
40 49 63
45 54 69
45 55 71
45 55 69
49 60 77
39 48 62
43 52 66
46 58 75
36 44 57
46 56 72
49 59 75
45 54 68
40 49 62
46 56 72
45 55 69
44 53 67
40 49 63
44 55 72
49 61 78
40 49 63
48 59 75
42 52 67
43 52 66
43 54 69
41 50 64
49 59 75
43 52 67
41 50 65
44 53 67
45 54 68
46 56 70
45 55 70
45 55 71
45 55 70
48 59 76
42 52 66
41 50 63
48 59 75
40 50 63
50 62 80
47 57 72
45 56 72
46 56 72
37 45 58
37 46 59
39 48 62
42 52 67
41 50 64
42 52 66
42 52 66
46 57 72
39 48 62
47 58 74
44 54 70
48 58 73
45 55 70
44 54 69
40 49 62
40 49 62
34 42 54
37 46 58
43 53 67
49 59 75
37 46 59
35 44 56
46 57 72
45 54 68
41 50 64
36 45 57
39 48 61
45 56 72
41 49 62
44 54 69
37 45 58
38 47 60
41 50 63
36 44 56
36 44 56
37 45 57
39 48 61
39 48 61
39 48 62
39 47 59
41 51 66
47 58 74
42 51 66
43 52 67
41 50 63
43 53 66
34 42 54
45 55 70
45 54 69
40 48 61
43 52 66
44 54 69
37 45 58
41 50 63
45 55 71
41 50 63
37 46 58
41 50 64
42 52 66
36 44 56
36 44 56
37 45 57
36 43 55
34 41 53
34 42 53
37 46 59
41 50 64
47 58 73
38 46 59
36 44 55
40 49 61
35 43 55
39 47 58
43 52 65
38 46 58
35 43 55
35 44 56
42 51 65
36 44 57
38 46 59
35 42 54
36 44 56
44 54 68
34 42 55
44 52 66
36 43 55
39 48 61
39 48 60
44 54 68
41 52 67
34 42 53
37 45 57
43 52 67
35 43 55
45 55 70
35 42 54
41 50 63
44 53 67
42 52 66
41 51 65
41 50 63
39 47 59
49 60 76
43 52 65
42 51 65
39 47 59
38 46 57
43 53 68
47 58 74
33 41 52
36 43 55
36 44 55
35 43 54
40 48 60
45 56 74
44 54 69
41 50 64
36 44 56
45 55 70
38 47 60
49 59 74
43 52 66
44 54 69
43 53 69
37 46 58
40 49 63
42 52 67
43 53 69
44 54 69
38 47 61
42 52 68
47 58 75
47 58 74
41 50 63
45 55 70
44 53 68
35 43 55
40 49 63
46 56 72
43 54 69
46 56 72
45 55 71
43 53 68
39 48 60
41 50 64
42 51 66
45 55 69
45 55 70
46 57 73
45 56 73
42 51 64
43 53 68
43 53 68
42 52 66
47 58 74
41 50 64
38 47 61
45 55 71
42 52 66
48 59 74
42 51 65
49 61 78
46 57 73
42 51 64
42 52 67
44 55 71
37 46 60
44 53 68
53 64 82
37 46 58
47 57 72
42 52 67
46 57 73
47 58 75
39 47 60
45 54 68
46 56 71
47 58 74
40 49 63
37 45 58
41 50 64
41 50 63
47 57 72
37 45 58
38 47 60
43 53 67
41 50 64
49 61 78
48 59 75
48 59 75
44 55 70
42 52 67
52 63 80
46 56 71
40 49 62
48 58 72
37 45 57
36 44 56
36 44 57
41 50 64
46 56 70
42 51 64
41 49 62
42 51 64
44 53 66
40 49 62
45 55 69
45 55 69
29 36 46
40 48 61
43 52 65
45 56 71
39 48 60
44 53 67
46 56 71
49 59 75
41 50 64
41 50 63
41 49 62
42 51 65
39 47 60
38 47 59
41 50 63
40 49 62
44 52 66
42 51 63
44 53 67
39 48 62
47 57 73
37 46 59
39 47 60
41 50 63
46 56 71
35 43 54
47 57 72
45 54 69
40 49 62
38 46 59
39 47 59
45 55 69
44 54 68
40 49 61
43 52 66
45 55 69
43 53 67
44 53 68
40 48 61
48 57 72
50 60 75
40 49 61
46 56 71
46 56 71
43 52 66
41 50 63
41 50 63
46 55 70
46 55 69
47 57 73
46 55 69
51 61 77
44 54 68
49 58 73
46 57 73
49 60 76
47 58 74
48 59 74
44 54 69
49 60 77
50 61 77
47 57 73
48 58 74
48 59 75
40 49 62
48 59 75
37 44 55
46 56 71
42 52 66
49 60 77
43 52 66
43 53 67
45 54 69
48 58 74
46 56 70
45 54 68
43 53 67
50 61 77
45 54 68
48 58 73
49 59 75
39 48 61
40 48 62
37 45 58
49 60 75
40 49 62
48 59 74
45 55 70
45 54 69
46 56 70
46 56 71
41 51 65
44 54 68
44 53 67
47 57 73
42 51 65
39 47 60
42 51 65
39 48 62
43 52 66
45 55 69
38 47 60
41 50 63
41 50 63
49 59 75
44 54 68
40 49 63
44 53 66
35 43 55
40 48 61
47 57 72
32 39 48
44 53 67
45 55 69
39 47 60
43 53 68
41 50 63
40 49 62
40 49 62
42 50 64
40 49 62
43 52 65
44 54 69
51 62 79
39 48 62
48 59 75
50 62 79
43 52 67
39 48 62
43 53 66
46 55 70
42 52 65
36 45 57
38 47 59
44 54 70
39 48 61
48 59 75
44 53 68
46 56 71
43 52 67
36 44 57
46 56 72
46 56 72
43 52 67
39 48 62
39 49 63
47 57 72
39 48 62
44 55 70
46 56 71
39 48 62
48 60 77
44 53 68
44 55 70
44 54 70
42 52 66
52 65 84
42 51 65
44 54 70
46 57 73
37 46 60
42 53 68
41 50 65
43 54 70
42 51 65
44 55 70
41 51 67
41 50 63
42 51 65
43 52 66
37 45 58
47 58 73
44 54 69
42 52 68
43 54 70
42 51 65
50 62 80
40 50 64
48 60 77
42 52 68
44 54 69
36 45 58
44 53 67
43 53 67
41 51 65
40 50 64
40 49 62
46 56 71
40 48 61
42 51 65
52 63 80
49 60 77
44 55 71
40 49 63
45 55 70
40 49 62
44 54 69
45 56 72
41 50 63
40 49 63
46 56 71
40 49 63
44 54 68
43 53 67
40 49 63
47 58 75
46 57 73
43 52 67
45 54 69
44 55 70
47 58 75
40 49 63
38 46 59
43 52 65
44 54 68
42 51 65
33 41 53
41 51 66
42 51 66
40 49 62
41 51 65
45 55 70
42 52 66
40 49 64
37 45 57
40 48 61
41 50 65
47 57 72
43 53 68
40 49 63
39 48 60
39 48 62
38 47 60
46 56 71
36 45 57
42 51 65
40 49 61
46 56 71
44 54 68
39 47 59
36 44 56
48 58 73
42 50 63
38 46 59
40 48 61
32 39 49
37 45 58
42 52 66
39 47 60
35 43 55
37 45 58
38 46 58
40 49 62
38 46 59
45 54 67
43 52 67
42 51 65
39 47 60
38 47 60
35 43 54
39 48 61
38 47 60
41 49 62
39 47 59
36 43 54
42 51 65
44 54 70
37 45 57
40 48 60
36 44 57
45 55 70
38 46 59
34 41 52
40 49 63
35 43 54
39 47 59
42 50 63
43 52 65
45 54 68
45 54 68
44 54 69
35 43 54
40 49 62
42 51 64
43 52 66
38 46 58
41 50 64
41 50 65
41 50 63
37 45 57
43 53 68
43 53 67
44 53 67
45 55 70
41 51 65
47 57 73
41 51 65
43 52 64
42 51 65
39 48 61
40 49 63
39 48 62
43 52 65
43 52 66
42 51 66
42 51 65
37 45 56
44 54 68
44 55 71
46 56 71
42 51 65
44 54 68
40 49 63
43 53 68
45 55 70
39 49 63
45 56 71
41 50 63
43 53 67
41 51 65
43 53 68
39 48 61
44 53 67
41 50 64
40 49 64
42 51 64
42 52 67
46 56 71
42 52 66
46 56 72
42 52 68
41 51 65
45 55 70
46 56 72
40 49 63
47 57 73
42 51 64
47 58 74
45 55 71
41 51 64
44 53 68
43 53 69
37 46 59
47 58 74
43 52 67
46 57 73
42 52 68
42 52 68
37 46 59
51 61 78
46 57 73
43 52 67
41 51 64
46 56 71
40 48 61
40 48 62
39 49 62
41 50 64
38 46 59
50 61 78
42 51 65
44 54 69
41 50 64
41 51 65
45 55 70
48 58 73
47 57 72
44 53 68
37 46 60
44 54 69
45 55 70
47 58 73
48 59 75
45 55 70
43 53 68
47 57 73
39 47 60
43 53 68
47 59 76
39 48 62
44 54 68
47 57 73
41 51 65
41 49 62
43 53 67
40 48 60
38 47 59
44 54 69
48 58 74
42 52 66
39 47 60
38 47 61
51 63 80
49 59 75
45 54 69
48 59 76
47 57 73
41 50 63
43 53 67
41 50 63
44 54 68
39 47 59
41 50 63
43 52 64
45 55 70
43 52 66
43 52 65
39 47 60
38 46 58
36 43 55
42 52 66
42 50 63
41 50 64
41 50 64
48 58 73
38 46 59
45 55 70
36 43 54
43 52 66
40 49 61
40 48 62
46 56 71
43 53 67
40 48 61
47 57 72
46 56 71
45 54 68
43 53 67
43 52 66
47 57 71
41 50 64
41 50 63
51 61 77
54 66 83
41 49 61
40 49 61
43 52 66
47 58 74
42 51 64
47 57 73
42 51 66
50 60 76
45 55 70
52 62 79
41 50 63
45 55 69
41 50 64
48 59 74
44 54 69
49 60 75
48 58 75
49 60 75
50 61 78
47 57 72
53 64 81
44 53 68
45 54 69
50 61 78
51 62 78
48 58 74
46 55 70
46 56 71
42 51 63
46 56 71
43 53 68
48 59 75
45 55 70
47 58 75
50 61 78
40 49 61
48 59 75
40 49 63
43 51 65
40 49 63
42 51 64
46 56 71
48 59 75
42 51 65
43 52 66
40 49 62
47 57 73
45 55 69
45 55 69
45 54 68
39 47 58
48 58 74
45 54 68
47 57 71
40 48 60
39 47 59
44 54 69
43 52 66
46 55 70
52 62 79
46 56 71
44 53 67
52 64 81
43 52 66
44 54 69
41 50 64
49 59 75
41 50 62
39 47 61
41 50 62
43 52 65
49 59 76
42 51 65
38 46 58
40 49 63
36 44 56
42 52 66
46 56 71
47 56 71
41 49 62
44 54 69
47 57 72
47 57 73
40 48 61
41 50 63
44 54 69
46 56 70
46 56 71
44 53 68
42 51 65
45 55 71
39 48 60
41 51 67
44 54 70
40 50 64
42 51 65
43 52 66
48 58 73
43 53 67
39 48 61
42 51 65
39 47 60
47 58 73
42 52 66
41 50 65
44 54 68
42 51 65
42 52 66
46 57 73
40 49 62
47 57 73
40 49 63
47 58 73
43 53 68
47 57 72
41 50 64
43 53 67
37 47 61
46 56 72
40 49 64
40 48 62
49 61 78
43 54 69
43 53 68
43 54 70
48 59 75
49 60 77
40 49 62
39 48 61
49 59 75
42 51 64
46 57 72
50 61 78
39 49 62
43 53 68
45 55 71
47 58 75
43 53 68
46 57 73
46 56 71
41 51 66
45 56 72
45 57 74
45 55 70
47 57 73
51 63 80
39 48 62
45 55 71
48 58 74
42 51 66
42 52 67
44 53 68
41 50 65
43 53 69
41 50 63
41 51 65
46 56 72
45 55 70
42 52 66
43 54 69
37 45 58
41 51 65
41 50 63
40 50 64
34 42 53
50 60 76
47 57 72
42 52 66
46 56 71
39 48 61
39 48 62
40 48 61
36 45 57
42 52 66
42 51 65
39 48 62
38 47 60
46 56 72
38 46 57
37 45 58
39 47 60
42 51 66
39 48 61
45 55 70
40 49 63
39 48 61
45 56 72
41 49 62
38 46 59
38 47 60
47 58 74
41 50 63
45 55 70
37 45 57
40 48 61
40 50 64
44 54 69
40 49 62
38 46 59
44 54 68
32 40 51
38 46 57
38 46 57
44 53 66
41 50 63
49 59 75
35 43 54
36 44 55
45 55 70
38 46 58
38 46 58
34 41 53
40 50 63
35 42 54
39 47 60
37 45 57
39 48 62
42 51 65
38 46 59
41 50 63
36 44 56
41 50 62
46 57 72
45 55 70
42 50 64
37 45 56
44 53 67
41 49 62
35 43 55
36 45 57
44 54 69
38 46 58
38 46 58
45 55 70
38 46 59
37 46 58
38 47 60
43 52 67
37 45 57
41 51 66
45 56 71
39 47 60
42 51 65
35 43 54
39 48 61
42 51 66
43 54 69
41 50 64
39 48 62
39 48 62
46 56 72
35 43 55
36 44 56
32 40 51
46 56 70
46 56 72
39 47 60
45 54 68
39 48 61
40 49 62
40 48 61
38 47 60
44 54 68
49 60 78
45 55 69
44 54 69
41 50 64
42 51 65
39 48 61
42 52 67
41 51 66
46 57 73
46 56 70
39 49 63
46 56 73
40 49 63
42 51 65
43 53 67
40 49 62
40 50 65
39 49 62
37 45 57
44 54 68
44 53 68
43 53 68
36 44 56
42 53 68
43 53 68
44 54 68
40 49 63
40 49 63
44 54 68
40 48 61
37 45 57
43 52 66
42 52 66
43 53 67
43 52 67
45 56 73
46 57 73
46 56 71
46 57 74
43 52 67
43 52 66
38 47 60
46 56 72
48 58 74
44 54 69
49 60 76
51 62 80
39 48 62
42 52 67
46 57 74
37 45 59
43 53 68
41 51 65
47 58 74
42 51 64
45 55 71
48 59 76
39 48 61
48 60 77
43 53 68
41 51 65
38 47 60
46 56 71
43 53 68
49 60 77
42 51 66
43 52 67
37 45 58
40 49 62
43 53 67
45 56 71
45 55 70
48 59 75
44 54 70
47 57 73
43 53 67
49 59 75
47 57 73
48 59 75
43 52 67
44 55 70
47 57 73
40 49 61
46 56 71
37 46 59
39 48 61
39 48 62
37 45 57
43 52 67
44 53 67
44 53 67
40 49 62
45 55 69
38 47 60
51 61 78
42 51 65
42 51 65
42 51 65
45 55 69
42 51 66
38 46 59
45 55 70
40 49 63
39 48 60
44 54 69
49 60 76
40 49 62
46 56 72
43 53 67
38 46 59
43 52 66
48 59 74
42 51 65
45 54 68
41 50 63
47 57 72
44 53 68
42 51 65
49 60 77
44 54 68
41 50 64
44 53 67
46 56 71
47 57 73
46 55 70
44 54 68
44 54 69
48 58 74
42 51 65
40 48 61
40 48 60
43 52 66
43 53 67
44 54 68
48 59 74
40 49 62
48 58 74
46 55 69
43 53 67
45 54 69
46 56 70
40 48 61
46 55 70
47 58 73
39 48 61
48 58 73
49 59 74
42 51 64
42 52 67
45 55 70
43 52 67
44 53 67
42 51 65
44 53 68
48 58 74
40 48 61
46 56 72
47 57 71
49 61 79
50 61 78
49 60 77
53 64 81
47 57 72
51 63 81
51 62 79
51 62 79
50 61 79
41 51 65
48 58 73
42 52 66
42 51 65
52 63 79
52 64 81
46 57 72
50 61 78
45 54 68
42 51 66
46 56 71
43 52 66
43 52 66
51 63 80
46 56 71
45 54 68
45 55 71
40 49 62
41 49 62
41 49 61
53 64 82
42 51 65
46 56 71
45 55 70
42 52 66
43 52 67
45 54 69
41 49 62
43 52 65
45 56 72
41 50 63
37 45 57
39 47 60
46 55 70
40 49 62
48 58 73
47 57 73
43 52 65
46 56 71
43 53 69
44 53 67
41 50 63
41 50 64
46 56 71
39 48 61
46 56 70
40 48 61
43 52 66
38 46 59
42 52 66
45 55 69
47 58 75
44 54 68
41 50 64
39 48 62
47 57 72
42 51 65
43 53 69
48 58 74
42 52 66
40 48 60
44 54 69
41 50 64
47 57 72
38 46 59
47 57 72
40 49 63
45 55 69
44 54 69
41 50 64
47 57 72
39 48 61
42 52 66
46 56 71
45 55 69
48 59 76
45 55 70
41 51 66
41 50 64
42 51 66
40 49 63
46 57 72
46 56 71
43 53 68
48 60 77
47 58 75
42 52 67
44 54 69
48 59 75
41 51 66
36 44 56
47 57 73
49 60 76
41 52 67
41 50 63
43 52 66
39 48 61
39 48 61
47 57 72
46 56 71
43 54 69
39 48 61
52 64 82
48 58 75
41 50 64
48 59 76
44 54 68
42 52 67
41 49 62
48 58 74
45 55 72
45 55 71
41 51 66
40 49 63
38 47 59
45 55 71
41 50 65
46 56 71
45 54 69
47 59 76
47 58 74
40 49 63
46 57 73
44 55 71
42 52 67
50 62 80
45 55 69
45 56 71
51 63 81
50 61 78
47 58 75
49 60 77
47 58 73
42 52 67
45 56 73
46 56 71
41 50 64
48 58 74
38 47 60
33 41 53
45 55 70
47 57 73
37 46 59
40 49 62
38 47 59
48 59 75
49 61 78
44 54 70
38 46 60
47 58 74
40 50 64
39 48 61
39 47 60
41 49 62
38 46 59
44 54 69
46 57 73
38 46 59
48 59 74
34 42 54
48 58 74
40 49 62
44 55 70
43 53 68
40 48 61
48 59 75
40 48 61
42 50 64
35 43 55
39 47 58
36 44 56
38 47 59
42 50 62
46 56 71
38 47 60
46 56 71
38 47 60
47 56 71
35 43 54
44 54 68
41 50 64
36 45 57
36 44 56
38 47 61
40 49 62
44 54 68
45 55 71
38 47 60
40 49 61
41 49 62
45 54 69
42 52 66
40 49 62
38 46 59
44 53 68
45 55 70
42 51 65
39 48 61
44 54 69
40 49 62
49 60 76
39 47 59
42 51 65
40 49 62
35 43 54
40 49 63
41 49 62
43 52 65
34 42 53
41 50 63
41 50 64
37 45 59
45 55 69
41 50 64
39 48 61
38 48 61
38 47 61
35 43 55
42 51 65
40 49 63
43 53 68
42 51 65
41 50 63
38 47 59
37 45 57
38 46 58
42 51 66
39 47 60
43 52 67
50 61 77
42 52 66
42 52 66
43 53 67
49 60 78
42 51 66
40 50 64
39 47 60
44 54 69
41 51 65
42 51 65
42 51 65
45 56 72
42 51 65
41 51 65
43 52 67
39 47 60
44 53 68
40 49 63
38 47 59
39 49 63
41 51 65
42 52 65
43 53 67
48 60 77
41 50 64
41 50 64
46 56 72
43 53 68
46 56 71
42 52 66
39 48 62
42 51 64
47 57 72
43 53 68
42 52 67
45 55 71
41 50 64
48 59 77
45 55 70
42 52 66
47 58 74
46 57 74
43 53 68
43 53 68
41 51 65
47 59 75
44 54 70
47 58 75
45 55 70
44 55 71
44 53 68
44 54 69
44 55 70
42 52 66
46 56 71
42 52 67
40 49 63
50 61 78
45 55 70
42 52 66
47 59 76
39 48 61
46 56 72
44 54 69
43 53 68
48 59 76
44 55 70
44 54 70
48 58 74
41 51 66
39 48 61
42 52 66
43 53 68
42 51 66
40 49 64
48 59 76
43 53 67
42 51 66
41 51 66
42 52 66
45 55 70
44 54 69
44 54 70
42 52 67
46 56 72
46 57 73
45 55 70
44 55 70
41 51 65
47 57 73
45 55 70
43 52 66
42 52 67
42 51 65
39 48 61
40 50 65
44 53 68
44 54 68
46 55 69
39 47 60
45 54 68
40 49 62
44 54 70
48 59 75
47 57 72
41 50 64
40 49 63
43 53 67
45 55 69
43 52 66
45 55 71
40 48 61
41 51 65
43 53 67
49 60 76
43 53 67
40 49 63
41 51 65
50 60 76
48 59 75
39 48 61
48 58 75
44 54 69
38 46 58
42 52 66
41 50 63
43 53 68
44 55 71
43 53 67
45 54 67
39 47 59
38 45 57
49 60 76
44 54 68
42 52 66
39 47 60
49 60 75
43 53 68
40 49 62
41 50 64
42 52 66
47 58 73
44 53 67
50 61 76
41 49 62
45 55 69
44 54 69
47 57 72
43 52 65
47 56 71
49 61 77
45 55 69
45 55 70
43 53 67
49 60 77
43 52 67
41 49 63
42 52 65
40 49 63
48 58 73
47 57 72
46 56 71
39 48 62
41 51 66
46 55 70
51 63 79
47 57 73
48 59 76
47 58 74
46 56 71
49 59 76
47 58 74
48 59 74
49 58 73
46 56 71
50 62 80
43 53 67
48 58 73
51 62 79
46 56 72
41 50 63
47 58 74
48 58 74
40 48 61
45 54 69
45 55 70
48 58 73
41 50 63
46 56 70
47 57 73
40 48 61
44 54 69
46 56 71
43 52 66
47 57 72
38 47 59
40 49 61
44 53 67
39 48 61
41 49 63
42 51 65
42 51 65
39 48 61
47 57 73
48 59 75
44 54 69
41 50 63
43 53 68
42 52 67
43 52 66
38 47 60
42 50 63
38 46 59
42 51 66
35 43 55
44 53 67
44 53 68
39 47 60
39 48 61
40 49 62
38 46 58
41 51 65
51 61 77
47 57 73
38 47 59
43 52 66
38 47 59
44 54 69
47 57 73
42 52 66
38 46 58
48 58 74
44 53 67
45 56 71
42 50 63
47 57 73
38 47 61
43 53 68
50 61 77
43 53 67
45 55 70
44 54 69
40 49 63
42 52 67
43 53 68
43 53 68
41 51 67
45 56 73
46 56 71
38 46 59
47 58 76
47 57 73
40 49 63
48 60 77
47 58 74
45 55 70
40 49 63
46 56 71
47 57 73
43 53 67
43 53 67
38 47 60
42 52 67
46 57 73
37 46 59
45 55 71
42 53 69
46 56 70
46 57 74
42 51 65
42 52 68
49 60 77
49 60 76
45 56 72
44 55 70
50 62 80
41 50 64
51 63 79
42 53 69
42 51 65
43 54 70
50 62 80
50 61 78
47 58 75
44 55 70
36 44 56
48 59 74
44 55 70
43 53 67
45 56 72
47 57 73
47 58 75
37 46 60
45 55 71
43 53 68
43 53 69
40 49 62
41 51 65
45 56 73
50 60 77
49 61 77
38 47 59
45 56 71
41 51 66
45 55 71
47 57 73
43 53 67
36 44 57
48 58 75
49 60 76
50 61 78
42 52 66
45 56 73
43 53 67
42 51 64
44 55 70
45 55 70
48 58 73
37 46 59
39 48 62
38 46 59
43 52 66
45 56 71
41 50 64
42 51 65
44 54 69
41 51 64
41 50 63
43 53 67
46 56 71
37 45 57
46 57 73
40 49 62
45 55 70
44 53 67
44 54 70
42 52 66
40 49 63
35 43 56
45 55 70
37 45 57
40 48 61
35 44 56
38 47 60
40 50 64
43 53 67
41 51 66
39 47 59
37 45 56
41 50 64
39 47 59
42 51 65
44 53 68
38 47 60
45 56 71
33 41 53
41 50 63
42 51 66
42 51 65
40 48 61
42 50 64
37 46 60
42 51 65
34 42 54
39 48 61
40 48 60
43 52 65
44 54 69
39 48 61
39 48 61
38 47 61
40 48 61
36 44 56
38 46 59
41 51 65
41 50 64
45 55 70
39 47 60
40 49 63
35 42 53
39 48 61
44 53 67
39 48 60
50 61 78
35 43 55
36 43 55
46 56 71
36 44 56
42 52 66
45 55 70
48 58 74
37 46 58
41 50 63
37 45 58
46 56 71
43 53 68
41 50 64
42 52 67
39 48 62
39 48 62
45 54 69
44 53 68
41 50 63
40 49 63
42 52 66
52 64 82
46 56 71
39 48 61
39 47 60
43 53 68
39 48 62
45 55 71
46 55 69
44 54 69
37 46 59
42 52 67
45 54 68
47 59 75
40 50 64
38 47 60
45 54 69
42 52 66
46 56 72
47 58 75
39 48 61
42 52 67
43 53 69
43 53 67
50 62 80
35 42 53
44 54 68
52 63 80
46 57 73
40 50 65
40 49 63
46 57 73
45 55 70
43 53 66
36 44 57
44 55 70
38 47 60
46 57 72
49 60 76
45 56 72
41 51 65
40 50 63
44 53 67
42 53 69
42 52 67
50 62 78
42 52 69
40 49 63
45 55 71
46 58 75
43 52 66
45 56 73
40 50 64
41 51 64
43 53 67
49 59 75
40 49 62
46 56 72
44 54 70
43 53 68
41 51 65
43 52 66
43 53 69
37 47 61
46 56 71
50 62 79
44 54 69
51 62 80
49 61 78
48 58 74
42 51 65
45 56 72
48 60 76
47 58 73
43 53 68
45 55 70
46 56 72
50 61 78
46 57 72
39 48 62
43 51 64
46 56 71
43 53 67
43 53 68
46 56 72
52 64 82
41 51 65
37 47 60
46 56 71
43 53 68
45 54 69
44 54 69
42 52 66
42 51 65
41 50 63
48 59 75
50 61 78
40 49 62
44 54 69
46 55 69
44 53 67
46 56 72
46 56 72
45 55 70
44 55 70
40 48 62
45 55 71
45 55 71
48 58 74
41 50 64
46 57 72
45 56 71
49 60 77
46 56 71
41 50 64
44 53 68
41 51 65
43 53 68
42 51 64
49 59 75
46 57 73
37 45 57
41 50 63
46 55 70
42 51 65
46 56 72
44 53 67
40 49 62
39 47 60
45 56 71
46 55 70
40 49 62
48 59 75
42 52 67
46 55 69
46 56 70
46 55 70
43 52 66
50 62 79
49 61 77
41 50 64
44 54 69
44 54 69
47 58 74
45 54 69
42 52 65
46 56 71
42 51 65
49 59 75
42 52 66
47 58 73
46 57 74
44 54 68
44 53 68
44 54 68
45 54 69
53 65 82
42 52 66
46 56 72
43 53 67
48 59 76
50 61 78
43 53 68
51 62 79
50 61 76
51 62 79
48 59 74
44 53 67
46 56 71
56 68 86
46 56 70
48 59 75
47 57 72
40 49 63
50 62 79
41 50 63
44 53 68
44 54 69
45 55 69
47 57 73
43 51 64
48 59 76
47 58 75
48 59 75
49 59 75
43 52 65
46 55 70
39 48 61
47 57 72
46 56 72
47 56 71
54 66 83
44 55 70
41 51 65
44 54 68
42 51 65
43 52 66
41 50 65
49 59 75
38 46 57
45 55 71
46 56 71
49 60 75
41 50 63
40 49 62
38 47 60
48 58 73
43 53 68
40 49 62
45 55 70
44 54 69
32 40 52
40 49 62
41 50 64
44 54 68
40 49 62
47 58 75
52 63 79
51 62 79
41 50 64
44 54 68
41 50 63
48 58 74
47 58 75
38 47 60
49 60 75
47 57 72
41 50 65
37 46 58
44 54 70
46 56 70
49 60 77
43 53 68
39 49 63
43 54 69
42 51 65
42 51 65
44 54 69
45 54 68
41 51 66
43 53 67
47 58 75
47 57 71
46 56 71
39 48 62
40 50 64
40 49 63
48 59 75
42 52 67
47 57 73
43 53 68
41 51 65
42 51 65
47 57 73
51 64 82
43 54 70
46 57 73
43 53 67
44 54 69
41 51 66
47 58 75
43 53 69
43 53 69
46 57 73
46 57 73
46 56 71
42 52 67
46 58 74
44 55 70
43 53 69
48 60 77
42 52 66
44 54 70
40 50 65
49 60 76
38 46 60
46 57 74
44 55 71
41 50 63
41 51 66
42 51 65
45 56 72
41 51 66
42 52 67
49 60 76
41 50 64
47 58 74
48 58 73
39 49 63
39 49 63
44 54 69
41 50 65
43 54 69
45 55 69
41 51 66
40 50 64
46 56 72
44 54 69
37 46 59
45 55 71
44 53 68
43 54 69
45 56 72
50 62 80
38 47 61
35 43 55
54 65 83
39 48 62
42 51 64
45 56 71
42 51 66
43 53 68
43 53 68
51 63 80
42 51 65
44 54 69
43 52 67
43 53 69
42 52 66
47 57 73
42 51 65
40 49 62
40 49 63
43 53 68
42 52 66
42 52 66
42 52 66
41 50 64
38 46 58
42 51 64
40 49 62
43 52 66
47 57 73
41 49 63
44 53 67
42 52 65
39 48 62
42 50 64
43 53 68
44 54 69
43 53 67
41 50 63
38 48 62
38 46 59
37 44 56
34 42 54
41 49 63
44 54 69
36 43 55
38 46 59
39 48 61
42 51 63
36 44 55
39 48 61
53 64 81
41 51 65
42 52 65
41 50 64
41 50 63
45 55 70
39 47 60
44 54 70
43 53 67
37 45 58
37 45 57
51 61 77
33 41 52
40 48 61
47 56 71
45 55 69
45 54 69
44 54 69
42 51 65
36 44 56
50 62 79
43 53 68
36 44 57
41 50 64
45 55 70
43 53 67
42 52 67
37 46 59
46 57 73
43 53 68
45 55 71
41 51 64
39 48 62
45 56 72
47 58 74
41 50 63
43 53 67
42 51 65
38 47 60
46 57 74
41 49 63
45 55 69
47 58 73
37 46 58
42 52 67
37 45 57
47 58 74
44 54 70
51 62 79
40 49 63
39 48 62
39 49 63
50 61 78
40 49 62
36 45 59
47 58 74
35 44 56
42 51 66
45 55 71
41 51 66
42 52 66
44 54 69
38 47 60
45 56 71
40 48 61
41 51 66
42 52 67
44 54 70
46 57 74
41 50 64
43 53 68
41 51 65
42 51 66
42 52 67
42 52 67
42 52 66
42 51 65
47 57 72
40 49 63
42 50 64
41 50 63
38 47 61
43 53 66
44 55 70
44 55 71
42 52 66
41 50 65
52 65 84
41 50 64
43 53 68
45 56 72
42 52 66
52 65 84
44 55 70
46 57 74
41 51 66
45 56 72
44 55 70
46 57 72
42 52 68
49 61 77
40 49 62
51 63 80
48 59 75
53 66 84
47 57 73
42 52 67
48 59 75
49 60 77
43 53 68
44 54 69
49 60 78
48 58 73
51 62 79
43 54 69
49 60 75
46 57 73
42 52 66
43 53 67
46 57 72
43 53 68
46 56 71
44 55 70
42 52 68
42 51 66
42 51 65
45 55 70
44 55 71
44 55 72
42 52 66
50 61 78
44 54 69
42 51 66
43 53 68
46 58 75
46 56 72
46 58 75
42 52 66
44 54 69
48 59 76
45 55 71
41 50 64
41 51 65
41 50 63
44 54 70
50 61 78
40 49 62
45 54 68
43 52 66
43 53 67
43 52 67
48 58 73
44 54 69
43 52 67
41 49 63
47 57 71
47 58 74
46 56 72
49 59 75
41 50 64
46 55 70
39 48 62
48 58 74
40 50 64
47 58 74
40 48 61
43 53 67
45 54 69
46 56 71
46 57 73
44 54 69
43 53 67
50 61 78
45 54 69
43 52 67
39 48 61
42 51 65
50 61 77
48 59 76
45 55 70
52 64 82
45 55 70
44 53 67
47 58 73
45 54 69
47 58 73
47 56 71
49 59 74
46 55 69
47 57 73
42 52 65
47 57 73
47 57 73
50 61 78
39 47 60
44 54 69
45 55 69
49 60 76
45 55 69
48 58 73
48 60 77
47 59 75
48 60 76
52 64 82
47 57 71
53 65 82
43 53 67
48 58 72
47 57 72
47 57 73
42 51 65
43 54 70
48 59 76
51 62 79
42 51 65
43 54 69
36 45 57
44 53 67
46 56 70
44 54 69
49 60 76
46 56 71
52 63 80
48 58 74
43 53 67
55 68 86
49 60 76
40 49 63
43 52 66
52 63 81
42 51 65
45 54 69
41 51 66
42 51 64
36 44 56
47 58 74
46 56 70
49 60 77
36 44 56
41 51 64
44 55 70
43 53 67
48 59 75
41 50 64
41 50 63
45 55 70
47 58 74
44 54 68
45 55 70
41 50 63
46 56 71
47 57 72
40 49 63
45 55 69
45 56 72
43 52 66
44 54 69
47 58 74
43 53 69
41 49 62
39 47 60
41 51 64
47 57 73
48 59 75
48 58 74
41 49 62
37 46 59
50 61 77
41 51 64
45 55 69
41 50 64
42 52 67
43 53 67
43 53 69
50 60 75
40 48 61
42 52 66
46 56 71
45 55 70
45 56 72
47 58 74
44 54 70
42 52 65
43 52 66
42 51 65
42 51 66
39 48 61
46 57 72
44 54 69
42 52 67
48 59 75
49 61 79
46 58 74
45 56 73
46 57 72
48 58 74
44 54 68
53 64 82
50 61 77
47 57 72
45 56 72
44 54 69
45 55 72
46 57 72
41 51 65
46 57 72
50 62 79
42 52 66
44 54 68
44 53 67
45 56 71
43 53 68
45 55 71
44 55 70
45 55 71
47 58 74
47 57 73
49 60 77
44 54 69
41 51 66
44 54 70
41 51 66
44 53 68
47 58 74
43 54 70
43 53 70
41 50 65
46 56 72
45 56 71
49 61 78
45 56 72
51 63 80
41 50 64
50 61 78
51 62 79
41 51 65
40 50 64
44 53 67
46 58 75
43 53 69
44 55 70
41 50 64
47 58 75
48 59 76
41 51 65
48 59 76
40 49 63
43 53 67
42 52 67
46 57 72
47 58 74
40 48 62
39 48 62
49 60 76
36 44 56
45 56 71
46 56 71
41 49 63
44 53 68
40 50 64
45 55 70
41 51 66
44 53 68
45 55 71
42 51 64
44 54 70
40 50 64
44 54 69
42 52 66
41 50 63
41 49 63
41 49 63
36 44 55
39 48 62
42 51 66
35 43 55
49 60 77
44 54 69
46 56 72
45 56 72
41 51 65
40 49 63
39 47 59
38 46 59
43 53 68
39 47 60
41 51 65
40 49 62
48 58 73
39 47 61
35 44 57
47 58 74
41 50 64
44 53 67
44 54 68
45 54 68
42 51 66
41 51 65
47 57 72
37 46 60
37 46 58
38 47 59
41 51 64
42 51 64
40 49 62
42 52 67
41 51 66
43 52 65
44 54 69
38 47 59
48 58 73
41 50 65
43 53 67
44 53 68
31 38 49
43 52 66
39 48 60
43 53 68
48 59 75
40 49 62
42 51 65
44 53 67
41 49 62
45 55 69
39 48 61
39 48 61
42 51 65
45 56 72
33 40 52
39 49 63
40 48 62
38 46 58
46 57 74
38 47 60
43 53 67
39 48 62
45 55 70
38 47 60
51 62 79
40 49 62
42 51 64
40 49 63
37 45 58
43 53 67
40 49 62
40 49 63
40 48 61
38 48 62
40 50 63
45 56 72
35 44 56
45 55 71
44 54 69
42 51 64
43 53 67
46 57 73
38 46 58
40 50 64
48 59 75
43 53 67
45 56 72
49 60 76
45 55 70
39 48 62
36 44 57
46 57 73
46 56 71
50 61 79
45 55 71
42 51 65
37 45 58
44 54 70
37 45 58
45 56 72
43 53 69
43 53 67
42 52 67
46 57 74
50 62 79
41 50 64
46 57 73
42 51 66
44 55 71
51 63 80
46 57 73
47 57 72
48 59 75
37 45 58
47 57 73
40 50 64
39 48 62
46 56 72
47 58 73
42 52 67
43 53 68
48 59 76
38 47 60
40 49 63
48 58 74
40 50 65
48 59 75
47 57 72
42 52 68
49 61 79
49 61 78
47 58 75
41 51 66
41 50 64
45 55 70
45 55 70
50 62 80
48 59 77
48 59 76
42 51 66
49 60 77
48 60 77
51 63 80
41 50 64
41 50 63
41 51 66
46 57 73
45 56 72
42 52 66
45 56 72
45 56 71
45 56 71
44 54 69
38 47 60
41 51 65
39 48 61
48 59 75
46 56 70
49 60 78
44 54 68
44 54 68
42 52 67
40 49 63
47 57 73
43 53 67
48 59 75
43 54 69
46 56 70
47 57 72
45 55 71
50 61 77
40 49 62
44 54 69
47 57 73
41 50 65
44 54 70
44 54 69
45 55 71
49 59 75
45 56 72
52 64 82
43 53 67
43 53 68
43 53 68
40 49 64
47 56 71
41 50 64
42 52 66
40 49 62
40 49 63
50 61 77
48 60 76
42 52 66
42 51 65
45 53 66
44 54 70
46 57 72
42 52 65
39 47 60
48 58 74
55 67 86
39 47 60
52 64 80
41 50 64
48 58 73
38 45 56
48 59 75
46 57 72
43 53 67
47 57 72
44 54 68
44 54 68
45 56 71
47 57 73
43 53 67
49 59 75
40 49 63
52 64 81
48 58 74
45 55 69
44 54 69
44 55 70
47 57 72
46 56 71
50 61 78
44 54 69
45 56 71
50 61 77
48 58 74
44 54 69
50 60 76
44 54 69
54 65 83
51 62 78
48 59 76
51 62 79
47 58 74
50 61 77
46 56 70
50 60 76
43 52 66
50 61 77
49 60 76
47 57 72
46 56 71
45 55 70
49 60 76
43 52 65
49 60 77
43 52 65
47 57 72
51 62 80
45 56 71
49 59 75
44 53 67
49 59 75
50 61 77
46 56 71
44 54 69
39 48 61
45 54 69
44 54 68
46 56 71
47 57 72
42 51 66
43 52 66
49 60 78
44 54 69
42 52 66
46 57 72
51 62 78
45 55 70
44 54 69
46 56 71
49 60 76
47 57 73
44 54 68
44 54 68
44 54 69
50 61 78
50 61 79
48 58 74
43 53 67
46 58 75
52 63 80
44 55 70
43 53 68
43 53 67
50 62 79
45 55 71
45 55 70
40 49 62
43 52 66
45 55 71
43 53 67
52 62 78
40 49 62
41 50 63
52 64 81
42 52 67
47 59 77
46 57 73
47 58 76
49 59 75
37 47 60
47 58 74
46 56 72
45 55 72
49 60 76
48 58 74
40 50 65
45 55 70
45 55 70
49 60 76
40 49 63
47 58 74
49 61 80
46 56 71
41 50 65
44 54 70
50 62 81
45 55 71
42 52 66
52 62 78
46 56 72
48 60 77
45 54 69
48 59 76
37 46 59
42 52 67
46 57 73
43 52 66
43 54 70
44 55 70
48 59 76
46 56 72
41 51 65
41 50 64
48 60 78
41 51 65
46 57 73
55 68 88
50 62 79
44 54 69
44 55 71
45 55 69
46 57 74
39 48 61
44 54 70
48 58 74
39 48 60
43 54 69
48 58 75
43 53 68
43 53 68
44 54 69
45 55 70
46 55 70
44 54 70
45 56 71
41 50 64
46 57 74
48 59 75
39 49 62
47 57 73
45 55 71
46 56 72
44 54 69
48 58 73
43 53 68
51 63 81
41 51 65
44 55 71
41 52 67
50 60 77
46 56 70
38 48 63
46 56 71
45 56 72
46 57 73
44 54 70
44 54 68
45 55 70
43 53 68
44 54 70
45 55 71
45 55 70
45 56 72
43 53 68
45 56 72
39 48 62
38 46 58
38 47 60
42 51 63
41 49 63
45 55 71
41 50 64
43 52 66
42 51 65
46 57 72
44 54 68
45 56 72
41 51 64
45 55 71
46 57 72
46 57 72
41 51 65
44 54 69
41 50 64
40 49 62
44 54 70
43 54 69
40 49 64
45 54 68
46 57 74
35 43 54
41 50 64
39 48 61
41 51 66
36 45 58
40 49 64
48 59 75
40 49 62
43 52 65
43 52 67
42 52 67
39 48 62
35 43 55
40 49 63
45 54 67
48 59 75
38 46 58
40 49 61
45 54 68
33 40 52
45 54 69
37 45 57
33 41 53
36 44 56
40 48 60
47 58 74
41 50 63
39 48 61
41 51 66
37 45 57
38 47 61
39 48 61
39 48 62
44 53 68
38 47 60
39 47 59
39 48 62
38 46 58
40 50 64
44 54 68
40 48 61
42 52 67
42 52 66
42 52 66
47 56 71
40 49 63
43 53 68
42 51 66
43 53 68
42 51 65
45 55 70
40 50 63
42 51 66
39 47 60
37 45 58
41 51 65
44 54 68
41 51 66
42 50 63
42 52 66
49 60 77
42 53 68
40 49 62
46 56 72
41 51 66
44 54 69
45 55 70
42 51 64
43 53 68
43 53 67
48 59 76
38 46 59
44 55 70
44 54 70
46 57 74
42 51 65
40 50 64
46 56 72
39 49 64
40 49 63
39 48 61
43 53 68
41 51 64
42 51 66
37 46 60
39 49 63
46 57 74
41 50 64
44 56 73
49 60 78
46 56 72
48 59 75
48 58 73
43 53 68
46 58 75
48 59 76
47 58 74
43 53 69
47 58 76
43 53 68
46 56 72
43 54 71
41 51 65
38 47 61
50 62 81
45 56 71
44 54 70
46 57 73
43 52 67
46 56 72
44 54 69
46 56 72
42 52 67
43 53 69
41 51 66
50 62 80
44 55 70
45 56 71
43 53 67
44 54 69
41 51 65
40 49 63
48 58 74
45 56 72
34 42 55
42 53 69
45 56 72
41 50 64
45 55 70
46 56 71
44 54 69
44 55 71
40 49 63
54 66 85
49 60 77
42 52 67
45 56 72
46 57 73
41 51 65
44 55 71
50 62 78
46 56 72
45 55 70
51 61 77
47 58 73
46 56 72
45 56 73
48 59 75
43 53 68
44 54 69
45 55 70
42 51 65
48 58 73
47 57 73
42 51 66
44 54 68
43 52 66
45 55 70
41 50 64
44 54 69
44 54 68
46 55 69
43 52 66
36 43 55
41 51 65
51 62 79
39 48 61
43 54 69
51 63 80
46 57 72
40 48 61
46 56 72
43 53 68
44 54 69
46 57 72
48 59 76
45 55 69
42 51 66
48 59 74
48 59 75
43 52 66
44 54 68
44 53 67
46 56 72
47 56 71
45 55 70
40 49 63
44 55 70
52 63 80
44 53 67
42 52 67
41 50 64
45 55 70
39 48 62
42 52 66
46 57 74
46 56 72
47 57 73
51 61 78
40 49 63
38 47 59
47 58 73
43 52 66
41 51 65
46 56 71
51 61 77
47 57 72
46 56 71
43 53 68
47 57 73
49 60 75
46 56 72
44 54 69
51 61 78
50 61 78
46 56 70
46 55 70
51 62 79
51 62 79
46 57 72
47 57 72
45 55 69
51 63 80
43 52 66
47 58 74
48 60 77
48 59 75
53 64 81
48 57 72
54 66 84
42 51 65
50 61 78
48 59 74
46 57 73
45 55 70
44 53 68
48 58 73
41 50 63
48 58 74
43 52 66
45 55 70
43 53 69
47 57 73
39 47 60
42 51 66
41 50 64
44 54 69
39 48 61
43 52 66
41 50 65
41 52 68
44 54 68
43 52 66
50 62 79
49 60 76
40 50 65
42 51 65
41 50 63
48 58 73
46 56 70
45 55 70
41 50 63
48 58 74
44 53 67
43 53 67
49 59 75
44 54 70
47 58 75
42 51 65
46 56 72
47 57 73
54 66 85
38 48 61
41 50 64
42 52 66
50 61 78
48 58 74
46 56 71
46 56 71
42 53 69
49 60 76
46 57 72
42 52 66
43 53 67
44 54 68
39 49 62
48 59 76
50 61 78
39 48 62
45 55 70
45 56 72
53 65 83
52 65 84
46 56 71
46 57 74
48 58 74
46 57 74
49 60 77
39 49 63
49 60 76
47 58 74
43 54 69
41 51 65
44 55 71
48 59 76
55 67 86
44 53 68
49 61 78
40 49 62
41 51 65
46 56 72
46 57 73
43 53 67
49 60 77
40 49 63
49 60 76
42 52 67
50 61 78
49 61 79
52 64 82
45 56 72
46 57 73
44 54 70
51 62 80
48 59 76
35 44 57
50 61 78
43 53 68
44 54 70
44 54 69
45 55 70
44 54 69
40 50 64
47 58 74
49 60 76
38 46 59
44 53 68
49 59 76
52 64 81
44 54 70
43 54 69
45 55 70
49 59 75
41 51 66
52 65 83
46 57 73
46 56 72
40 49 62
44 54 69
43 53 67
46 56 70
44 54 69
45 55 71
48 59 75
40 49 63
46 56 72
48 59 75
42 52 66
46 57 73
42 51 66
42 52 67
40 49 63
39 47 60
44 54 68
41 51 66
44 54 69
47 58 73
36 45 58
47 57 74
44 54 69
40 49 63
44 55 70
45 55 71
37 46 59
44 54 70
43 53 67
43 53 69
41 50 63
44 54 69
37 46 60
43 52 67
41 50 63
35 43 55
43 53 67
44 53 68
42 52 67
46 57 73
41 51 65
39 47 61
39 48 61
39 48 61
38 46 59
40 49 63
38 47 61
35 43 55
40 48 61
40 49 63
41 50 64
47 57 74
44 53 66
43 53 68
40 49 61
41 50 64
47 57 73
39 47 61
40 50 64
43 53 67
39 47 59
46 56 72
45 55 71
39 48 63
41 50 64
41 51 65
42 51 65
45 54 69
39 47 60
43 52 66
40 49 62
42 51 65
47 57 73
38 48 62
48 58 74
44 55 70
41 51 65
42 51 66
37 45 58
46 56 71
43 53 68
40 49 62
37 46 59
41 51 65
41 50 65
44 54 70
39 48 61
50 61 78
42 51 64
43 52 66
43 53 67
42 51 65
41 49 63
46 57 73
46 57 73
39 48 61
45 55 71
42 51 66
46 57 73
45 55 69
44 54 69
42 51 66
41 50 63
46 56 71
43 52 66
39 48 61
44 54 68
51 61 77
38 47 61
40 50 64
39 48 61
38 47 61
40 49 63
46 56 70
45 55 70
42 52 67
39 47 61
51 62 79
48 59 75
44 54 68
38 47 61
46 56 71
51 62 78
49 59 75
43 53 69
39 48 61
47 58 76
47 57 72
41 50 65
44 54 69
43 52 67
49 60 76
46 56 70
39 48 62
41 51 65
47 58 75
40 49 63
47 57 72
45 56 71
45 55 71
45 56 73
39 49 64
44 55 70
39 49 63
48 59 75
47 57 72
42 51 64
46 57 72
37 46 60
50 61 79
44 55 71
47 57 72
45 57 74
47 58 74
49 59 75
50 61 79
42 51 65
46 57 74
41 51 65
44 54 69
44 53 68
46 57 72
47 57 73
34 43 55
43 53 69
49 60 77
40 49 64
51 63 82
37 46 59
48 59 76
45 56 72
39 48 61
45 56 72
43 52 67
42 53 68
45 56 73
47 57 73
49 59 75
46 56 72
38 48 62
48 60 77
45 55 70
50 61 78
47 58 74
44 54 69
39 48 61
39 48 61
48 59 77
44 54 71
47 58 75
44 55 70
43 53 68
41 51 65
46 56 72
44 54 70
44 55 70
45 56 72
46 56 72
43 53 67
46 57 73
40 50 63
48 59 75
41 52 67
47 58 74
42 51 65
39 49 63
43 52 67
45 55 69
40 49 63
43 54 70
43 53 68
45 55 70
44 54 69
35 44 57
53 65 82
39 48 61
49 60 76
40 49 62
45 55 69
45 55 69
44 54 69
37 45 58
45 54 69
43 52 66
43 53 68
45 56 73
49 60 77
46 57 73
51 63 80
49 61 79
46 56 70
48 59 75
44 54 69
40 50 64
37 46 60
49 59 74
44 54 69
44 54 68
43 53 68
42 51 64
45 54 69
42 51 65
42 51 65
47 57 72
41 50 64
51 62 80
43 53 67
44 54 69
44 55 70
44 54 69
51 62 78
45 55 70
46 57 73
45 55 70
43 53 67
52 64 81
47 57 72
46 57 73
45 56 71
44 54 69
44 53 67
45 55 70
43 52 67
39 47 61
45 55 70
51 63 80
47 57 73
49 61 78
42 52 67
49 60 76
47 57 74
47 58 74
44 54 70
46 55 70
46 56 70
48 59 76
51 63 80
49 60 77
47 57 72
47 57 72
48 59 75
46 56 72
47 57 73
46 56 70
47 58 74
48 60 77
47 57 72
46 57 72
46 57 72
46 56 71
42 52 66
48 59 75
43 52 66
39 48 61
46 57 72
53 65 82
43 53 68
50 61 77
46 57 72
43 53 68
48 58 74
42 52 66
42 52 68
45 56 71
48 58 73
43 53 67
42 52 66
47 57 72
52 63 80
43 53 67
47 57 72
46 55 70
40 49 62
48 58 73
39 48 62
46 56 70
46 57 72
44 54 69
42 52 67
46 56 71
49 59 75
48 59 76
41 50 63
49 60 77
45 56 71
42 52 67
45 56 73
39 48 61
39 48 62
43 53 68
40 48 61
52 63 81
46 56 72
46 55 70
52 64 82
43 52 66
47 58 76
51 62 79
44 54 68
41 50 64
45 55 71
50 60 75
43 53 67
43 54 70
46 57 72
46 57 73
48 59 76
39 49 62
47 58 74
44 54 71
41 51 65
38 47 61
42 53 69
42 51 65
45 55 71
44 54 70
51 63 80
44 54 68
46 57 73
43 53 68
44 55 70
47 57 73
47 58 74
46 56 71
52 64 82
48 60 77
44 54 70
49 61 78
38 47 61
45 55 71
47 58 75
46 57 72
51 63 81
39 49 62
51 63 80
52 64 81
46 57 73
46 57 73
48 58 74
47 58 75
45 55 70
48 59 75
47 57 73
54 66 84
40 50 65
49 60 77
44 54 69
53 66 85
42 52 68
46 57 73
44 53 68
46 56 72
41 50 64
44 55 71
47 57 74
41 51 65
46 58 75
48 60 77
51 63 81
50 61 78
44 55 72
48 59 76
44 55 70
47 57 73
41 51 65
42 52 66
43 53 68
43 54 69
38 47 61
46 57 73
50 61 78
39 47 60
39 48 62
41 50 63
41 52 67
42 51 64
42 52 67
39 48 61
43 52 65
40 49 62
49 60 76
44 55 70
41 50 65
40 49 63
48 59 76
47 57 72
50 61 79
41 50 63
47 58 74
46 56 73
39 48 61
44 54 70
42 51 65
47 58 74
37 46 58
45 55 71
38 46 59
44 54 69
49 59 75
50 62 78
43 52 65
37 45 58
45 56 71
37 45 57
44 53 68
39 48 62
45 55 71
40 49 63
40 49 63
42 52 66
45 55 70
37 45 58
41 50 64
40 49 63
39 49 62
44 54 70
44 53 68
39 48 62
42 52 67
38 47 61
41 51 65
48 58 74
37 45 57
37 45 57
41 51 65
51 63 81
42 52 66
38 47 59
36 45 57
43 54 69
38 46 59
39 48 61
39 48 62
34 42 53
42 51 64
43 52 66
33 40 51
46 57 73
42 52 68
40 48 60
41 50 64
45 55 70
37 46 59
44 55 70
41 50 63
45 55 70
42 51 65
43 54 69
45 55 70
42 52 67
45 55 70
49 60 76
37 46 58
39 48 61
43 52 66
42 53 69
41 50 65
38 47 60
40 49 62
45 55 70
47 57 73
46 57 74
36 44 56
42 52 66
42 52 67
46 57 73
41 51 66
44 55 71
49 60 76
37 46 59
44 55 70
48 59 76
45 55 70
40 49 62
42 53 68
43 53 69
42 52 66
47 58 74
37 45 58
51 64 82
42 51 64
43 53 69
49 60 77
44 53 68
43 52 67
43 54 69
41 50 64
41 51 66
42 52 67
38 47 59
44 55 71
42 52 67
39 49 64
39 48 61
44 55 72
46 56 71
48 60 78
47 57 73
42 52 66
40 49 63
55 68 88
45 55 71
42 52 68
40 50 63
40 49 63
45 56 72
42 52 67
39 49 63
46 57 73
49 61 78
43 53 67
49 60 78
46 57 73
38 47 60
45 55 71
41 51 65
47 58 74
45 57 75
43 54 70
43 52 66
42 52 67
44 54 69
46 57 74
48 58 74
41 50 65
46 57 74
46 57 73
46 56 73
51 63 81
50 60 77
39 48 62
53 65 84
49 60 76
41 50 64
45 57 74
47 57 73
44 56 73
45 56 73
48 59 75
44 54 70
42 52 67
49 61 79
44 55 71
45 56 71
44 54 69
45 57 74
44 54 69
47 57 72
45 55 70
48 59 76
46 57 73
42 52 66
53 65 82
48 58 73
48 59 77
36 45 58
45 55 71
45 55 70
45 55 69
43 53 68
45 55 69
45 55 70
45 55 70
40 49 63
42 52 67
43 53 69
44 54 69
52 62 79
44 54 69
41 50 63
51 63 80
42 52 67
45 55 70
47 58 74
42 50 64
44 54 70
43 52 66
44 53 68
44 54 70
46 58 75
47 57 74
43 53 67
36 45 58
43 52 67
36 44 57
44 54 68
40 49 62
38 46 59
45 55 71
45 55 70
45 55 70
46 56 72
45 55 70
46 56 72
41 50 63
44 54 70
46 57 72
39 48 61
46 57 73
53 65 82
46 56 71
46 56 71
51 63 80
50 61 78
39 48 61
42 51 65
43 53 67
49 60 77
51 61 77
52 63 80
39 48 61
43 52 66
50 62 78
49 60 76
50 62 79
45 54 69
43 52 66
52 63 81
46 57 72
46 55 70
46 56 72
44 54 69
51 62 78
43 53 67
45 54 69
52 63 79
44 53 68
51 62 79
48 59 75
49 59 74
47 58 75
46 57 72
50 61 78
48 58 74
49 59 76
46 57 72
48 58 75
45 55 69
50 61 79
50 62 78
45 55 70
46 57 73
50 61 77
47 57 72
46 56 71
50 61 77
47 58 73
47 58 74
51 62 79
52 64 81
51 62 79
49 59 75
48 60 77
46 56 72
42 51 66
45 54 68
44 54 69
40 49 62
50 61 78
42 51 64
51 62 78
44 54 68
46 56 71
48 59 75
40 49 63
43 53 68
43 54 69
41 50 64
51 62 79
46 57 74
43 53 68
44 54 69
44 54 69
47 57 73
40 49 63
41 50 64
47 57 73
49 61 78
46 57 72
41 51 66
49 61 78
41 51 66
47 57 72
40 49 63
49 62 80
44 54 69
47 58 75
50 62 80
45 55 71
40 50 64
44 53 68
46 56 72
46 56 72
44 54 70
45 56 72
47 57 74
41 51 66
48 59 75
48 59 76
45 54 69
47 57 73
48 59 76
47 58 75
43 53 68
47 58 74
46 57 72
46 56 72
44 55 71
38 46 59
40 49 63
43 52 67
47 58 76
46 57 74
44 54 68
45 55 70
48 60 77
42 52 66
46 56 71
52 64 84
43 53 68
47 57 73
45 56 72
42 52 66
49 61 78
37 45 57
47 56 71
50 61 79
46 57 73
42 53 68
40 50 64
50 61 78
47 58 75
46 56 72
38 46 59
43 52 67
43 53 69
46 57 73
44 54 69
42 52 67
45 57 74
54 67 87
46 56 72
46 57 73
45 56 71
45 55 71
42 52 68
49 61 78
48 60 77
46 57 74
46 56 71
49 61 79
45 56 73
47 57 73
51 63 81
47 57 73
44 55 71
44 55 71
43 53 69
47 57 72
48 59 75
40 49 64
48 60 78
49 60 77
40 50 65
44 53 68
47 58 74
44 55 72
44 54 69
44 55 71
43 53 68
42 52 67
44 55 71
45 56 71
43 53 68
42 52 67
38 47 60
37 45 57
50 63 81
44 54 70
43 53 68
50 62 80
44 54 70
47 58 74
41 50 63
35 43 55
50 61 78
45 55 71
44 54 70
48 59 76
46 56 71
45 55 72
42 52 66
42 51 64
47 58 75
44 54 68
44 54 69
44 54 70
40 49 63
39 48 60
42 52 68
49 60 77
41 51 66
41 51 67
45 56 71
44 54 68
42 51 64
42 51 66
46 56 72
42 52 68
42 52 66
47 57 72
44 54 69
38 47 60
41 51 66
37 46 59
44 54 69
36 44 57
45 55 70
44 54 69
47 57 73
41 50 65
43 54 69
36 44 57
44 54 70
39 47 59
42 52 66
42 51 66
41 50 64
43 52 66
44 55 70
43 52 66
46 57 74
38 47 60
38 47 60
39 48 61
42 51 66
36 45 57
42 52 67
47 57 72
48 59 76
43 53 68
41 50 65
47 57 73
44 54 68
40 48 61
45 55 70
46 56 71
43 53 69
39 49 62
37 46 59
43 52 66
32 39 50
35 43 55
39 49 63
47 57 72
38 47 60
35 43 54
33 41 53
41 51 66
47 58 75
39 48 62
44 53 67
34 42 54
47 57 73
39 48 61
41 50 63
39 48 61
44 54 69
43 52 66
41 50 64
46 57 72
47 57 72
50 61 78
43 52 66
47 58 76
48 59 76
44 53 68
50 62 80
43 53 68
41 51 65
43 53 68
45 57 73
46 57 72
47 58 74
46 55 70
46 58 74
43 52 66
49 60 77
46 57 74
45 55 69
47 58 74
42 51 66
50 61 77
46 56 72
43 53 68
45 56 71
46 57 73
42 52 66
44 54 69
46 57 74
46 56 71
44 55 71
45 56 73
42 53 69
46 58 76
49 60 76
48 59 76
40 50 64
49 61 79
42 52 68
40 49 63
47 57 73
44 54 69
49 61 78
46 56 72
46 58 76
43 54 69
44 55 71
50 62 80
42 51 64
53 66 84
49 59 76
41 51 65
48 58 74
52 64 83
41 51 66
52 64 82
46 56 70
45 55 70
43 54 71
48 60 77
46 58 75
50 61 77
40 50 64
44 55 71
46 58 75
46 58 75
38 47 60
44 53 68
50 60 76
46 56 72
50 61 78
42 52 67
45 55 70
46 57 72
46 57 73
46 56 72
41 51 66
47 58 74
46 57 73
50 62 80
43 53 68
40 49 64
47 59 76
48 59 76
42 53 68
44 55 70
45 55 71
43 53 68
48 59 76
42 52 66
51 63 81
52 63 81
46 57 73
37 46 59
45 56 71
46 57 73
43 53 68
50 61 77
47 58 74
43 53 68
45 55 70
50 62 79
48 59 75
48 59 75
55 66 84
47 57 73
46 56 71
41 50 64
43 52 67
42 52 67
47 59 76
48 59 74
46 56 73
51 63 81
48 59 75
50 62 79
49 60 77
52 63 80
49 60 76
44 53 68
47 57 73
45 55 70
43 52 66
49 60 77
49 59 76
53 65 83
49 59 75
43 53 67
45 54 69
45 55 70
49 60 77
42 51 64
42 52 66
48 58 73
47 57 73
50 60 77
50 61 78
45 55 70
46 57 73
42 52 66
39 48 61
48 58 75
47 58 74
43 52 66
46 56 71
45 55 71
51 63 80
52 62 79
46 56 71
48 59 76
46 56 70
48 58 74
48 58 74
47 58 74
46 57 73
45 55 71
47 57 73
51 62 79
44 55 70
42 51 65
47 58 74
52 64 82
43 53 69
47 58 75
46 56 72
46 57 73
44 54 69
49 59 76
47 57 73
42 51 65
47 58 74
41 50 63
46 56 71
46 56 71
47 58 74
42 52 66
48 59 74
49 60 76
52 63 80
44 54 70
44 54 69
45 56 72
44 55 72
48 59 75
45 54 69
44 53 68
48 59 75
47 58 75
46 56 71
54 66 84
45 55 69
45 55 70
45 55 71
40 49 63
42 52 66
44 54 70
38 47 60
38 48 62
42 51 65
46 56 71
44 55 71
46 56 72
47 58 74
42 52 67
48 59 76
43 52 67
40 49 62
44 54 68
43 53 68
49 59 76
50 60 76
51 62 79
40 49 63
47 57 72
42 51 66
44 54 69
48 59 75
40 50 64
46 56 71
50 62 80
41 50 64
49 60 77
44 54 70
47 58 75
45 55 70
48 59 75
45 56 71
41 52 68
46 56 72
43 53 68
49 59 75
43 54 71
39 49 62
45 56 72
46 57 73
46 56 72
45 56 72
49 60 76
44 55 71
43 53 68
46 56 72
47 58 75
46 56 71
50 61 78
48 59 75
45 56 72
47 58 73
49 61 79
45 56 72
45 56 72
47 57 74
47 57 73
46 57 73
50 61 79
41 50 64
44 55 70
46 57 73
44 55 70
51 64 82
51 63 81
45 56 72
43 54 70
38 47 61
45 55 71
44 55 71
45 55 70
42 51 66
43 54 69
40 50 65
49 60 76
49 60 77
47 59 76
51 62 79
51 63 81
44 55 71
43 52 66
45 57 73
50 61 78
48 59 76
40 51 66
39 49 65
46 56 72
51 63 80
47 58 74
42 52 68
48 59 75
44 54 69
50 62 80
47 58 74
42 52 67
48 59 76
45 55 71
40 50 64
42 52 66
47 58 75
42 52 67
39 48 60
40 49 63
50 62 80
47 57 72
38 47 59
50 61 78
37 46 59
45 55 71
44 54 68
37 46 59
46 56 72
50 62 80
46 57 74
42 51 66
52 63 80
43 54 69
49 60 77
42 51 65
42 52 67
39 48 61
43 53 67
39 48 61
41 51 65
44 54 68
43 53 69
44 54 69
39 48 62
46 56 72
47 58 74
36 44 57
45 55 70
42 52 65
48 60 78
41 50 64
48 59 76
45 56 71
45 55 70
40 50 64
42 52 67
50 62 80
41 52 67
44 54 69
40 49 63
43 53 68
40 49 63
44 54 69
33 41 52
48 59 75
48 57 72
44 55 70
39 48 60
45 55 70
49 61 78
46 57 73
48 59 76
44 54 70
41 50 63
40 49 62
45 56 72
35 43 54
39 48 61
39 48 62
42 52 66
41 51 66
43 53 68
46 56 72
44 54 69
43 53 67
40 49 62
42 52 67
38 47 61
40 49 62
41 50 64
41 50 64
45 55 71
42 52 66
40 50 64
34 43 55
48 59 76
46 56 71
45 56 72
40 49 63
39 49 63
36 45 58
40 49 64
37 45 58
40 50 64
44 54 70
44 55 70
39 47 59
42 52 66
48 59 76
39 49 63
39 48 62
47 58 74
44 55 70
40 48 61
40 50 65
41 51 65
37 45 58
47 58 74
40 49 63
45 55 70
46 57 73
46 56 72
41 50 64
48 59 76
46 57 73
42 52 66
45 56 72
44 54 68
38 46 59
39 47 59
42 52 66
42 51 66
45 56 72
46 56 72
46 56 72
48 59 75
41 51 66
37 46 59
45 55 70
43 52 67
39 49 64
43 53 69
46 57 73
42 52 68
40 49 64
44 54 70
49 60 78
42 52 67
46 57 73
50 61 77
43 53 67
44 55 70
42 52 66
43 53 68
43 52 67
49 60 77
50 63 81
50 61 79
45 55 71
42 51 65
49 59 75
45 55 71
48 59 75
45 55 71
42 53 69
46 58 76
47 58 73
44 55 70
51 63 81
44 54 69
48 59 75
42 52 66
46 58 75
51 62 78
46 58 74
46 57 73
43 53 69
47 58 74
46 57 74
44 55 70
41 51 65
45 56 72
41 51 66
43 53 68
45 56 73
45 57 74
41 51 66
49 60 77
50 62 79
46 58 75
52 63 81
35 44 56
49 60 77
42 52 66
43 53 68
49 59 76
43 53 67
50 61 78
49 60 78
45 56 72
48 58 74
39 47 61
48 59 75
48 59 75
53 65 82
47 58 75
48 58 75
43 53 67
45 55 70
42 52 67
42 52 67
45 56 72
50 62 81
42 52 66
39 48 62
41 50 64
46 57 73
42 52 67
46 56 72
48 58 73
44 54 68
48 59 76
43 53 68
48 58 73
40 50 65
47 57 73
40 49 62
44 55 70
43 53 69
49 60 76
43 53 68
47 57 73
46 56 71
53 66 85
47 58 74
43 53 67
48 59 75
49 60 77
46 57 73
50 61 77
47 58 74
50 61 79
40 49 62
44 54 68
46 57 74
45 55 71
51 63 80
45 56 71
48 58 73
45 56 72
41 50 62
45 55 70
44 54 69
45 56 72
48 59 75
47 58 74
49 60 76
46 56 72
45 55 69
46 57 73
48 59 75
51 62 78
47 58 73
42 53 68
49 59 75
42 51 66
48 59 76
48 58 74
45 55 70
47 58 74
47 57 72
51 62 78
50 61 77
48 58 73
46 56 71
42 51 65
44 55 70
45 55 70
46 56 72
49 60 76
48 59 76
48 58 74
48 59 75
45 55 69
52 63 80
47 58 74
50 62 79
46 57 72
42 51 65
53 65 83
47 58 75
48 59 75
46 56 72
54 65 83
47 57 72
45 55 71
47 57 73
47 58 74
53 65 83
48 60 77
52 63 79
45 55 70
52 64 81
45 55 69
51 63 80
42 52 66
45 55 70
46 57 72
43 53 68
46 58 74
48 60 77
51 63 81
44 54 70
43 53 69
47 57 73
49 61 78
49 60 77
49 60 76
42 51 65
49 60 76
46 56 72
45 56 71
39 49 63
46 56 71
49 59 74
41 51 66
45 55 71
47 57 74
46 56 72
45 55 69
47 57 72
48 60 77
52 65 83
42 52 66
45 56 71
45 56 71
47 58 75
52 64 82
43 52 66
51 63 81
44 54 69
47 57 73
47 58 74
46 56 71
41 50 64
45 55 71
46 56 72
47 58 74
48 59 76
38 47 60
45 56 71
47 57 73
43 53 69
45 56 72
52 64 83
41 50 65
37 46 59
49 61 79
45 56 71
42 52 66
41 51 65
42 54 71
46 57 73
51 63 82
44 55 71
46 57 73
45 56 72
51 63 81
46 57 72
46 56 71
47 58 75
49 61 78
49 60 77
44 55 70
36 45 59
45 55 72
39 49 64
49 61 79
41 50 64
42 52 67
44 55 71
47 58 75
40 50 64
46 56 71
44 54 70
50 61 79
45 54 69
49 60 78
45 55 70
40 49 63
55 68 88
46 56 71
48 58 74
45 55 71
44 54 69
49 61 77
41 52 68
46 56 72
45 55 70
46 56 73
41 51 65
44 54 69
44 55 71
48 59 75
46 56 72
48 59 76
40 51 66
42 52 68
49 60 78
46 57 74
48 59 75
50 61 78
44 55 71
45 55 70
49 60 76
48 59 76
47 58 75
41 51 65
55 67 85
42 52 66
51 64 83
45 56 72
44 54 70
47 58 74
52 64 81
47 59 77
40 49 62
46 57 73
44 54 71
43 52 67
40 49 62
47 57 72
44 54 69
42 52 66
39 48 61
44 55 71
43 53 67
46 58 75
43 53 68
42 52 66
41 51 65
40 50 64
41 50 64
41 50 64
49 61 77
41 50 65
44 54 70
41 51 65
40 49 63
40 49 64
51 62 79
45 55 70
39 48 61
43 53 68
44 54 68
40 49 63
43 53 68
44 55 70
47 59 76
40 49 63
45 55 71
36 44 57
40 48 61
45 54 68
40 49 63
38 46 60
40 49 63
44 54 69
44 54 68
43 53 67
45 55 71
43 53 69
43 53 67
39 49 62
45 55 70
41 50 64
41 50 65
43 53 68
39 48 63
41 50 64
38 47 61
47 57 72
38 47 61
37 46 60
40 49 63
43 53 68
41 51 65
46 56 72
44 54 70
45 55 70
42 51 65
43 52 65
47 58 74
42 51 65
42 52 66
42 51 64
39 48 61
49 59 75
43 53 68
40 49 62
45 56 72
43 53 69
46 57 73
44 54 70
47 58 75
40 49 62
47 57 74
41 50 64
41 50 62
42 52 65
40 49 63
45 56 72
44 54 69
45 55 70
41 50 65
40 48 61
47 58 74
42 51 65
47 58 75
45 56 71
48 59 76
44 55 70
41 51 65
41 51 66
40 49 62
47 58 74
49 59 75
42 52 66
44 55 70
42 52 66
47 58 74
42 52 66
50 61 78
43 52 67
41 51 67
44 54 69
42 52 66
48 59 76
45 55 71
44 54 70
48 59 77
45 55 72
48 60 77
52 65 83
44 55 72
45 56 72
44 54 70
44 54 68
43 52 66
49 61 78
44 54 70
43 53 67
42 52 67
45 55 71
48 58 74
45 57 75
46 57 73
44 55 71
45 54 69
51 62 77
40 49 62
47 58 73
44 54 70
52 63 80
45 55 70
50 62 81
45 55 71
46 57 73
39 48 63
46 57 73
47 57 73
51 63 80
41 50 65
44 54 70
42 52 68
38 48 61
48 60 77
48 60 77
50 62 79
44 55 71
41 51 66
45 56 72
43 54 70
46 58 75
46 57 74
45 55 71
43 53 67
40 50 64
46 57 73
47 58 74
44 54 69
46 57 73
46 56 71
46 57 72
46 58 75
42 52 67
47 58 75
46 56 72
49 59 74
40 50 65
42 52 67
43 53 69
49 60 77
43 52 66
47 57 72
44 54 70
44 54 69
45 55 71
46 56 71
44 54 69
41 50 64
43 53 68
41 50 65
37 46 59
46 57 73
49 60 76
42 52 65
47 57 73
42 51 65
47 58 75
45 56 71
46 56 71
45 55 71
46 56 72
43 53 67
38 47 59
40 49 62
44 54 69
42 52 66
46 58 75
39 48 61
50 61 78
45 55 71
45 56 72
46 57 74
46 57 73
51 63 80
42 52 67
47 58 74
50 61 78
48 59 76
48 58 73
46 57 72
43 53 68
46 56 72
47 59 75
50 62 79
47 57 73
47 58 73
50 61 78
50 61 78
54 66 84
45 55 70
51 62 80
41 51 67
49 60 78
49 59 75
43 53 68
45 54 69
43 53 67
44 53 68
42 51 65
42 52 67
49 59 76
44 55 70
50 60 76
49 60 77
46 57 73
43 52 66
47 57 72
51 63 80
43 53 67
41 50 64
48 59 75
48 59 76
48 58 74
49 60 77
48 58 73
41 50 65
44 54 69
46 57 72
46 56 71
46 57 73
42 52 66
46 56 72
48 59 75
51 62 79
45 55 71
45 56 73
52 64 82
43 52 66
47 57 72
49 60 77
47 57 73
48 59 75
48 58 73
45 56 72
41 50 65
49 60 77
48 59 75
45 54 69
44 54 69
48 59 74
53 65 83
49 60 77
51 64 82
53 65 82
43 53 67
49 59 75
57 70 89
46 57 72
46 57 74
43 52 67
46 57 74
47 57 73
47 57 74
42 52 67
49 59 74
48 59 76
48 59 75
48 59 76
45 56 72
46 57 74
42 52 66
43 53 68
41 51 67
50 62 80
43 53 68
48 58 74
45 55 71
44 54 68
42 51 65
42 51 65
49 60 77
48 59 76
40 50 65
47 57 73
40 49 63
47 57 73
44 54 69
47 58 73
46 57 73
47 57 72
49 60 78
48 59 75
52 64 82
51 63 80
45 56 73
42 51 66
45 55 70
43 54 69
43 53 68
48 59 77
46 56 72
45 56 72
43 53 68
46 58 76
48 59 75
43 53 68
45 55 70
41 50 64
46 56 73
52 65 84
47 57 72
46 57 73
45 55 70
46 57 73
45 55 70
47 59 76
46 57 73
45 56 73
39 48 61
46 57 73
49 61 79
50 62 80
51 63 80
36 45 58
44 54 69
43 54 70
48 59 77
46 56 71
45 55 71
44 54 70
40 50 64
49 61 79
46 57 73
47 58 74
46 57 74
40 49 62
44 54 70
46 56 72
46 57 73
44 55 72
48 59 75
41 50 64
46 58 77
42 52 66
45 56 72
44 54 68
44 55 70
46 57 73
47 58 73
44 55 71
44 54 69
52 64 82
46 56 71
43 53 69
46 57 73
43 53 68
48 59 75
50 61 77
47 57 73
45 55 69
51 63 81
52 64 82
46 57 73
43 52 66
48 60 77
46 57 72
44 55 70
47 59 77
42 51 66
46 57 73
40 49 62
44 54 69
44 54 70
43 53 68
41 50 64
46 56 71
42 51 65
43 53 67
36 44 56
43 53 68
41 50 64
36 44 58
40 49 63
50 62 79
43 53 68
36 44 57
46 56 71
42 51 66
43 53 69
42 51 65
42 51 65
42 52 67
47 58 75
49 60 77
47 57 73
46 56 71
37 46 60
46 56 72
43 53 68
42 52 66
48 59 75
44 55 71
42 52 67
38 47 61
45 56 73
45 55 71
39 48 61
41 51 66
47 57 73
38 47 60
41 51 64
43 53 68
46 56 72
43 53 69
40 49 64
40 49 62
38 47 60
46 57 73
42 51 66
48 60 77
44 55 70
41 50 64
41 51 65
44 54 69
41 50 63
44 54 69
37 46 59
42 52 66
44 53 68
44 54 70
42 52 67
43 52 66
42 52 66
42 52 67
45 56 72
44 54 69
43 53 68
41 50 64
40 48 61
43 53 67
44 54 70
46 56 71
41 50 64
39 48 62
40 50 65
40 49 63
43 53 68
46 56 72
40 49 63
49 60 76
43 53 68
42 51 64
48 59 76
47 58 74
45 56 72
40 50 65
41 51 66
45 55 70
47 59 76
44 54 69
43 54 69
41 51 64
52 63 80
42 51 66
44 54 70
41 51 65
40 49 62
36 45 57
45 55 71
47 58 74
48 58 74
44 54 70
36 44 57
34 42 54
46 57 74
47 58 74
43 53 67
43 53 68
42 52 67
41 51 65
47 58 74
50 62 79
49 61 78
40 49 62
44 54 68
47 58 75
45 55 71
44 54 69
37 46 59
49 61 79
45 55 71
50 61 79
43 53 68
43 54 69
45 55 71
47 58 75
45 55 70
45 55 71
45 56 71
43 53 68
45 56 72
43 53 68
41 50 64
49 60 77
43 53 68
43 53 68
50 62 79
39 48 62
46 56 71
41 50 64
46 56 72
46 57 74
51 64 83
44 55 72
42 52 67
43 52 66
44 54 70
44 55 71
47 58 74
47 58 74
46 57 74
47 57 74
42 52 66
50 62 80
47 58 75
43 53 67
47 58 74
48 60 77
46 57 74
42 52 66
43 52 66
42 52 67
51 63 80
47 59 76
49 60 77
42 52 66
49 60 77
48 59 76
41 51 66
41 50 64
45 56 71
40 49 64
44 54 69
45 56 73
43 53 67
48 60 77
47 58 74
45 57 74
40 48 61
47 58 75
43 54 69
44 55 71
45 55 70
44 54 69
46 57 73
40 50 65
49 60 77
48 60 77
42 52 67
48 60 77
48 59 76
40 49 63
44 53 67
42 52 68
53 65 83
44 55 71
40 49 63
45 57 74
39 48 62
42 51 66
47 57 73
51 63 81
52 64 82
43 52 66
42 52 67
46 56 73
45 56 72
50 62 81
38 48 62
44 54 70
49 60 77
47 58 75
45 54 69
47 57 73
42 52 67
47 58 74
44 54 69
45 55 71
48 58 74
39 48 61
43 53 67
45 55 71
49 60 76
45 56 72
42 52 66
41 51 65
42 52 67
47 57 72
42 53 68
45 55 69
47 58 74
45 54 68
47 57 73
37 46 58
52 64 83
47 57 73
46 56 71
51 62 79
43 53 67
44 54 69
45 56 71
48 58 74
39 47 60
50 62 79
45 55 70
43 52 65
48 59 75
43 53 67
47 58 73
40 50 63
49 59 75
47 57 73
48 60 77
43 53 67
46 56 71
50 61 79
46 56 70
48 59 76
50 61 77
46 56 71
55 67 85
50 60 76
49 60 76
51 62 79
49 60 77
50 61 79
47 58 74
43 53 67
53 64 81
47 58 73
47 58 73
46 56 72
45 55 69
49 60 76
46 57 73
48 59 76
49 59 75
45 55 70
49 59 75
43 53 67
47 59 76
46 56 71
43 53 68
42 51 65
46 56 70
47 58 74
46 57 73
43 52 66
45 55 71
49 60 76
41 50 63
43 53 68
42 53 68
43 53 68
47 58 75
37 45 57
43 54 70
50 62 78
46 57 73
39 49 63
47 57 71
39 47 60
49 60 77
39 48 61
48 60 77
49 61 78
44 53 68
50 61 78
42 52 66
45 56 71
43 53 68
49 60 77
46 57 74
44 53 68
39 47 60
49 60 76
47 58 76
50 62 79
47 58 75
48 59 75
44 54 70
48 60 77
39 48 61
45 55 70
43 53 69
46 56 72
42 52 68
44 55 71
42 52 66
48 59 76
44 54 69
41 51 66
45 56 72
43 54 70
54 66 84
39 48 62
43 53 67
49 60 76
39 48 61
44 55 70
46 57 74
41 50 65
48 60 78
51 63 82
48 60 78
46 57 74
47 58 76
54 65 83
53 65 83
46 56 71
43 53 69
44 53 68
52 64 81
45 55 70
46 58 75
49 60 77
51 63 82
52 64 82
47 59 76
52 64 81
51 63 82
42 52 67
46 57 73
49 61 79
40 50 64
43 53 69
45 56 72
40 50 64
46 57 74
47 58 74
44 54 69
42 52 67
49 60 78
45 56 72
49 60 77
41 51 67
44 54 68
49 61 79
47 58 75
50 61 78
39 49 63
45 55 70
45 55 71
45 55 71
45 56 72
48 58 74
48 59 75
49 60 76
48 58 74
43 53 69
47 58 74
48 59 77
51 62 80
48 59 75
40 50 64
46 56 72
42 51 65
47 58 75
46 57 74
49 60 77
53 64 81
44 55 72
39 48 61
48 59 77
45 55 69
43 54 70
44 54 69
42 53 68
42 53 68
44 53 67
39 48 62
47 58 75
42 52 67
43 53 69
41 51 67
48 59 76
46 56 72
45 54 68
50 62 80
43 53 68
44 55 70
43 54 69
48 58 74
39 49 63
40 50 65
44 54 70
46 56 72
45 55 71
45 55 71
42 52 68
45 54 69
44 54 69
43 52 67
49 60 78
41 51 65
41 51 66
42 52 67
38 47 61
46 56 72
43 53 66
48 59 75
46 56 71
38 47 60
46 56 73
36 45 58
37 46 60
45 56 71
39 48 62
40 49 63
43 54 69
48 58 74
44 54 68
43 54 71
46 56 71
44 54 69
42 51 65
50 61 78
47 58 75
43 53 67
42 53 68
46 57 73
42 52 68
44 54 68
41 50 65
48 59 76
42 52 66
44 54 70
40 50 65
40 49 64
39 48 62
44 54 69
41 52 67
42 52 67
39 48 61
47 58 74
38 47 61
46 57 74
46 56 72
45 55 70
47 57 71
45 56 72
44 54 70
45 56 72
40 49 63
37 46 58
46 57 73
38 47 60
41 50 64
44 54 70
38 48 63
44 55 70
44 55 71
45 56 72
48 58 75
39 48 62
41 51 65
46 57 74
37 46 59
47 58 74
45 56 73
46 57 74
43 53 67
51 62 79
43 53 69
46 57 73
44 54 69
39 49 64
51 62 79
50 61 78
43 52 66
49 60 76
50 62 80
46 56 72
50 62 79
47 59 75
43 54 70
50 62 80
45 56 71
45 56 73
44 55 71
47 58 75
48 60 77
47 57 73
45 55 70
46 56 72
45 55 71
49 60 77
42 52 68
50 61 78
45 55 71
47 58 74
45 56 73
49 59 75
49 60 77
45 55 71
50 61 78
46 56 72
41 52 67
39 48 62
46 57 72
50 62 79
49 61 78
45 56 73
47 59 76
50 62 79
46 56 71
50 61 78
48 60 77
43 53 67
49 61 78
49 61 78
48 60 76
40 49 62
45 56 72
44 54 70
42 51 66
50 62 79
46 57 75
47 57 73
48 59 75
47 58 73
41 51 66
48 60 77
43 54 70
50 61 79
48 60 77
50 62 80
46 56 72
48 59 75
42 52 66
49 61 78
50 61 77
52 64 81
44 55 72
49 60 77
45 55 70
47 58 74
45 55 70
49 60 77
41 51 67
42 51 66
50 61 77
49 60 76
52 63 79
45 56 72
43 53 68
50 61 77
47 57 73
46 57 74
43 53 67
55 68 87
51 63 81
43 54 69
47 58 74
44 55 72
50 61 78
47 58 74
46 57 74
50 62 80
42 51 66
46 56 71
55 68 87
42 51 65
41 51 65
46 58 74
41 50 65
51 62 79
49 60 77
41 50 64
46 56 71
45 55 71
45 55 71
48 60 77
43 53 69
48 58 74
45 55 71
43 53 69
43 54 69
45 56 72
51 62 78
40 49 62
46 56 73
45 55 70
40 49 63
45 55 71
45 55 71
45 55 70
50 63 81
45 54 68
48 59 75
46 56 72
44 54 68
45 56 73
49 60 76
46 56 72
48 59 75
48 58 74
48 58 73
44 54 68
54 67 86
49 61 78
45 56 72
44 54 70
47 57 73
43 53 69
45 55 71
54 65 83
46 56 72
46 56 71
48 59 76
48 59 76
46 55 70
51 62 78
46 56 71
49 60 75
48 60 77
45 55 70
45 56 72
50 62 80
51 62 79
44 54 70
45 55 71
47 58 74
46 57 72
53 65 83
42 52 67
48 59 75
43 52 66
48 58 74
47 59 75
43 53 68
42 51 65
49 60 77
49 60 77
48 58 74
48 58 75
42 53 69
47 57 72
52 63 80
51 62 79
45 55 71
48 58 75
42 52 67
45 55 70
44 55 70
47 59 76
50 61 77
47 58 75
46 57 73
43 52 67
47 58 74
47 58 74
49 60 76
48 59 76
46 57 73
49 60 77
39 48 62
45 55 70
43 53 68
48 60 77
47 58 75
46 57 74
44 53 68
50 62 79
52 64 82
48 60 76
43 52 67
45 56 72
41 50 63
49 61 78
42 52 68
44 53 68
49 60 77
52 64 81
54 66 84
52 64 81
56 69 88
48 59 77
48 59 75
51 62 80
49 61 78
48 59 75
47 58 74
43 54 71
44 54 70
48 59 75
47 58 74
41 50 64
51 62 80
40 50 63
46 56 71
44 54 69
40 49 63
44 55 71
43 54 70
48 60 78
49 60 77
49 61 79
49 60 78
49 60 78
39 48 62
41 50 65
49 61 80
44 54 69
46 56 72
48 59 76
44 53 68
52 64 82
48 59 76
55 68 87
47 57 72
47 58 76
39 48 62
43 54 69
52 64 83
44 54 70
42 52 66
44 55 71
45 55 70
46 57 73
52 65 84
51 62 79
49 60 78
41 51 66
49 61 78
44 55 70
44 55 71
47 58 75
49 61 78
48 59 76
41 50 65
44 54 69
49 61 77
47 59 76
49 60 77
48 60 77
56 69 88
46 57 74
47 57 73
46 56 72
49 61 79
48 59 76
43 54 70
45 56 72
40 49 63
45 54 69
45 56 71
44 55 71
47 58 75
45 55 70
53 65 84
48 59 77
44 53 66
41 50 64
42 52 67
45 56 71
42 53 68
42 52 67
44 54 69
42 52 67
44 56 73
36 45 58
51 63 82
44 54 70
43 53 67
47 58 75
41 50 65
48 59 75
42 52 66
43 53 68
45 55 71
49 61 80
46 57 73
40 49 63
38 48 61
46 57 74
47 59 76
40 49 64
40 50 63
47 58 74
42 51 66
48 59 75
47 57 72
40 49 64
44 53 67
40 49 63
50 61 79
40 50 65
43 54 69
47 59 77
49 60 77
47 57 73
41 49 62
37 46 60
41 50 64
36 44 57
39 48 62
38 47 60
41 51 66
40 49 62
42 52 66
43 53 68
43 54 69
47 58 75
44 54 68
47 57 73
46 56 72
41 49 62
48 59 75
50 61 77
41 51 65
42 52 67
45 56 72
43 53 69
47 58 75
41 50 63
51 62 80
44 53 66
44 55 70
47 57 71
45 55 68
44 55 71
41 51 66
38 47 61
43 53 68
43 53 68
44 54 69
40 49 64
45 55 70
39 48 62
42 51 66
43 53 67
42 52 67
42 51 65
39 48 62
41 51 65
47 57 73
46 57 73
48 60 77
41 50 64
33 41 53
45 56 72
44 53 68
43 54 70
40 49 63
41 51 66
43 53 68
42 51 65
42 51 65
44 56 72
44 55 70
47 58 75
44 54 69
42 51 65
37 45 58
47 58 75
41 50 64
45 56 72
45 55 70
43 52 67
41 50 64
48 58 74
43 53 68
47 58 74
47 58 74
44 54 69
44 54 70
41 51 66
44 54 68
47 59 75
42 52 67
49 60 78
50 61 77
51 63 81
40 49 63
45 56 72
43 54 70
44 55 70
44 55 70
47 57 73
45 56 72
51 63 82
45 56 73
41 51 65
45 56 72
45 55 71
49 60 77
51 62 79
45 55 70
45 55 71
40 49 64
46 57 72
45 56 72
42 52 66
51 63 82
45 55 70
46 57 73
48 59 76
40 49 63
44 55 71
44 54 70
47 58 74
48 58 75
47 57 72
43 54 70
46 56 71
52 64 83
51 63 81
54 66 85
45 56 72
49 59 75
43 53 68
40 49 63
41 51 66
48 60 78
40 49 62
41 50 64
45 57 74
45 55 72
45 56 72
49 60 77
44 55 71
48 59 75
48 60 79
46 56 72
44 54 69
46 57 74
51 63 81
44 54 69
46 57 74
41 52 67
48 61 79
46 57 73
45 56 73
52 65 84
48 59 75
45 55 71
49 60 77
45 56 72
42 51 66
47 57 73
52 63 81
45 55 71
49 61 78
48 60 77
50 62 79
46 57 73
43 52 66
50 62 80
48 59 76
43 53 68
48 59 76
44 54 70
41 51 66
51 62 79
51 63 82
45 57 74
45 56 72
44 54 69
40 50 65
48 60 77
40 50 65
49 60 76
43 52 66
46 56 71
46 57 73
41 50 63
42 52 67
51 63 80
48 58 74
42 52 67
46 56 73
43 53 68
47 58 73
43 53 67
41 51 65
42 52 67
46 56 72
47 58 74
45 56 72
45 56 72
55 67 85
36 45 57
49 60 77
43 53 68
46 57 73
37 46 58
46 57 72
51 63 80
47 57 73
49 61 78
46 56 70
48 59 74
45 55 70
53 64 82
46 56 72
47 57 72
53 64 82
43 52 66
46 57 73
52 63 80
50 62 79
48 60 77
54 66 84
54 66 83
42 51 64
46 57 73
43 53 69
47 58 75
52 64 81
46 57 73
52 64 81
48 58 73
46 56 72
47 58 75
52 64 82
51 63 80
47 58 74
47 57 74
47 58 74
45 55 70
46 57 73
43 53 68
44 53 68
48 58 75
52 63 80
44 55 71
47 57 73
49 59 75
53 64 82
45 56 71
50 61 78
50 61 78
51 63 80
51 62 80
45 54 68
50 61 78
49 60 77
43 52 66
44 54 69
54 66 85
46 58 74
47 58 75
46 57 73
46 56 71
51 62 79
47 58 74
42 52 66
49 60 76
41 52 68
45 56 72
47 59 76
48 59 75
47 57 73
41 51 66
50 62 79
50 61 79
47 57 73
51 62 79
45 55 70
45 55 70
41 51 66
46 57 72
41 50 65
51 63 81
48 59 77
50 62 79
45 55 70
50 61 78
39 48 62
47 58 73
43 53 68
48 59 75
43 53 67
48 59 76
46 58 76
41 50 65
49 60 76
44 54 70
49 60 78
46 56 72
51 63 80
50 62 79
43 53 68
42 52 67
43 53 68
43 53 67
44 54 69
40 51 66
44 54 70
49 61 78
51 62 79
46 57 72
45 55 70
44 54 69
45 56 73
47 58 75
50 61 78
43 53 67
48 59 76
47 58 73
50 61 77
43 53 67
49 61 79
44 54 68
52 64 82
50 63 81
45 55 72
43 54 71
49 61 79
46 58 75
50 62 79
44 55 72
51 62 79
47 58 75
45 55 72
46 57 73
51 64 83
48 59 76
46 56 71
42 52 67
47 59 76
51 63 80
45 56 73
46 58 75
47 58 75
48 60 79
50 62 79
47 57 73
42 52 67
50 62 80
48 58 74
40 49 63
47 58 74
46 57 73
50 61 78
44 54 69
48 60 77
46 58 75
49 61 79
52 64 82
51 62 79
48 59 76
48 59 75
46 56 71
42 52 67
44 55 71
49 62 80
43 53 68
47 57 72
40 49 63
42 53 68
46 57 73
43 54 69
48 59 76
41 51 65
44 54 70
42 52 66
52 64 81
48 60 78
45 56 72
55 68 87
48 60 77
48 59 76
46 57 74
48 59 75
41 51 66
47 58 74
47 58 73
41 50 64
38 48 62
47 58 75
46 56 72
49 60 77
43 53 68
49 60 77
43 52 66
49 61 79
39 48 61
43 54 70
48 58 75
45 54 69
40 49 62
40 49 64
46 57 73
41 50 64
44 55 70
48 60 78
37 46 59
39 48 62
39 49 63
45 55 70
39 48 62
51 62 80
46 57 74
44 54 70
41 50 65
46 57 73
45 55 71
46 56 71
46 57 73
43 53 68
39 48 63
41 52 67
44 54 70
43 53 68
35 44 57
50 61 79
39 48 61
44 55 72
45 55 70
42 51 65
44 54 69
46 56 73
46 56 73
39 47 60
42 51 65
41 51 65
43 53 68
45 56 71
55 68 87
45 55 71
44 54 70
37 45 58
41 50 63
40 49 63
45 55 70
41 49 63
44 54 69
44 54 70
45 56 72
39 48 61
42 52 67
45 56 72
49 60 76
45 55 69
45 55 70
46 57 72
42 52 66
47 58 74
37 45 57
47 57 73
42 51 66
42 51 64
43 53 68
43 52 67
40 49 62
48 59 75
41 51 65
44 54 70
43 53 68
41 51 65
44 54 70
43 53 69
43 52 66
47 57 73
47 58 74
45 54 69
55 68 87
38 47 60
42 52 66
42 51 66
36 45 57
48 59 76
46 58 75
43 53 68
44 54 70
45 55 71
41 50 64
46 57 73
42 51 66
43 52 66
39 48 61
44 55 71
45 56 72
47 58 74
43 53 68
45 56 72
47 58 74
43 53 67
45 55 71
46 57 73
47 58 75
38 48 61
45 55 71
45 55 71
44 55 70
39 49 62
51 63 80
49 60 77
42 52 67
40 49 64
44 55 71
48 59 75
46 58 75
51 63 81
49 60 78
45 55 70
42 52 66
56 69 88
45 55 71
42 52 67
48 60 77
53 65 84
48 59 75
46 57 72
48 59 76
47 59 77
46 57 73
46 57 75
42 53 68
45 55 71
41 50 65
46 56 71
43 53 68
52 64 82
50 62 80
49 61 79
39 49 63
51 64 82
45 56 72
45 56 72
43 53 69
45 55 71
46 57 72
48 59 75
46 56 72
49 61 78
50 62 79
47 58 74
44 55 72
46 57 72
48 59 76
44 55 71
51 63 81
45 56 72
47 58 74
46 57 73
44 54 70
40 49 64
52 64 81
49 60 77
47 58 75
45 55 70
46 56 71
49 59 75
47 58 74
53 65 82
46 57 74
48 59 77
49 60 77
48 60 77
56 68 86
54 66 86
49 61 78
53 66 84
44 55 71
47 58 74
41 51 65
50 61 78
45 56 71
51 63 80
40 49 63
52 65 83
49 61 78
41 50 64
42 51 64
48 59 76
46 56 72
48 60 77
49 61 79
42 52 66
46 57 73
48 59 76
41 49 62
39 48 61
43 53 68
49 60 76
45 55 69
46 56 72
49 60 76
45 55 70
42 52 66
45 54 69
47 58 75
47 58 74
46 57 72
54 66 84
45 56 71
46 57 73
52 64 81
47 57 71
46 56 72
48 59 75
45 56 71
45 55 71
51 61 76
47 58 74
47 58 73
43 53 68
44 54 70
44 54 70
45 56 71
46 56 71
52 64 82
44 55 71
47 58 75
42 52 66
44 54 69
50 62 78
49 61 79
46 57 73
49 61 78
47 59 75
51 64 82
49 61 78
45 56 73
47 58 74
44 54 70
47 58 74
55 66 83
51 63 81
42 52 67
50 62 79
49 60 76
53 65 82
53 65 84
45 55 72
46 56 72
44 54 69
47 59 76
45 55 70
44 54 70
49 60 76
51 62 79
51 62 80
44 55 72
48 60 77
47 57 73
50 61 78
48 59 76
45 55 71
42 51 66
48 59 75
40 49 63
48 58 74
48 58 74
52 62 78
51 62 78
44 54 69
52 64 81
47 59 76
49 60 77
53 65 82
47 57 73
45 55 71
46 56 72
45 54 69
49 61 79
41 51 67
48 59 75
49 59 76
51 63 82
47 57 74
41 51 65
41 50 64
47 58 75
48 59 76
51 63 81
53 64 82
47 58 74
48 58 74
44 54 69
49 60 77
42 52 66
48 59 77
52 63 81
50 61 79
48 59 76
47 59 77
45 55 71
45 56 73
48 60 77
51 64 83
49 60 77
55 68 87
53 65 83
46 57 74
45 54 69
44 54 69
49 61 78
45 55 71
40 49 64
46 57 73
50 61 78
47 59 76
49 61 79
49 60 77
43 53 68
49 61 78
47 58 75
52 64 82
42 52 67
52 64 83
47 59 75
49 60 77
51 63 81
45 56 73
47 58 75
49 61 78
47 58 75
47 58 75
47 58 74
47 58 75
49 60 78
44 54 69
43 53 69
47 57 73
50 62 80
46 57 73
51 63 81
47 59 76
44 54 70
51 63 82
45 56 72
45 56 73
44 55 71
49 61 78
49 60 76
42 52 67
42 52 68
45 56 73
55 68 86
48 60 77
48 59 77
48 60 79
47 58 74
51 63 82
46 57 74
50 61 78
46 56 72
41 51 66
48 59 76
43 54 70
44 54 70
44 54 70
42 51 66
51 63 81
45 55 70
46 56 71
48 59 76
45 56 71
45 56 71
44 54 69
48 58 75
44 55 72
49 60 77
49 60 77
50 61 76
42 53 68
47 58 74
42 52 68
49 61 78
47 58 75
44 54 70
50 61 78
47 57 73
43 53 68
45 56 71
42 52 67
44 54 69
52 63 81
46 56 71
48 60 77
38 47 60
43 53 68
47 59 76
41 51 66
44 53 68
50 61 77
40 50 65
41 50 64
49 61 77
46 57 74
44 55 72
45 55 70
47 58 73
40 49 62
42 52 66
45 56 72
44 56 72
38 47 60
43 52 67
40 50 65
48 59 76
40 49 64
38 48 62
49 60 76
40 50 65
39 47 60
41 50 62
45 55 70
39 49 63
42 51 65
49 60 77
43 53 68
41 50 64
40 50 64
50 61 79
46 56 71
47 59 76
44 54 69
43 53 67
41 51 64
42 51 66
46 56 73
37 45 58
45 56 71
38 46 60
49 59 76
45 55 70
44 54 70
43 53 68
38 46 59
44 54 70
45 56 72
43 52 67
41 51 66
40 48 62
43 52 67
42 51 66
43 53 68
40 50 64
46 57 73
42 53 69
48 58 74
38 47 60
47 57 73
47 57 73
44 54 70
45 55 70
51 63 80
45 55 71
44 55 70
43 54 69
43 53 69
41 51 65
45 55 71
44 54 69
40 49 63
51 62 77
49 60 77
45 56 72
45 56 72
48 60 77
53 65 83
43 53 68
43 53 69
43 53 68
44 55 72
46 56 72
49 60 78
45 56 73
57 70 90
48 59 75
48 59 75
41 51 66
44 54 69
47 58 75
42 52 67
48 59 75
45 56 73
43 53 69
44 55 70
40 49 63
47 58 76
45 55 71
45 56 71
43 53 67
50 62 81
46 58 75
43 54 70
40 49 63
52 64 82
40 50 64
42 52 68
48 59 75
45 55 71
41 51 66
41 52 68
45 55 71
41 50 65
43 52 67
41 51 65
42 53 68
48 60 78
51 63 80
48 59 76
45 55 71
43 53 68
39 48 62
48 58 75
50 62 80
47 58 75
47 57 73
44 55 70
49 61 80
46 57 73
45 55 70
48 59 77
46 57 74
51 63 81
47 59 77
50 62 81
45 55 71
39 48 61
46 58 75
53 66 84
49 61 80
50 61 78
41 51 66
47 58 74
43 53 68
44 55 71
50 63 82
54 66 85
44 55 70
55 68 87
48 59 76
51 63 81
45 55 70
52 64 82
47 58 76
45 56 72
38 47 61
54 66 85
42 53 68
48 59 76
45 55 70
46 57 73
45 56 71
48 59 75
43 53 68
41 51 66
37 46 59
50 62 80
51 63 81
39 48 61
46 56 71
50 61 79
53 65 84
51 63 81
49 60 77
46 56 72
49 60 78
49 60 77
49 61 78
46 57 74
47 58 74
43 53 68
44 55 71
46 56 71
49 60 76
47 58 74
50 62 79
48 60 77
50 60 77
45 54 69
49 60 77
39 48 61
44 54 70
50 62 79
45 55 70
44 55 71
45 55 71
44 54 69
47 57 73
49 60 77
49 60 77
49 59 75
47 57 72
46 57 74
50 61 78
48 60 78
48 58 74
48 58 74
41 51 66
43 54 70
48 59 74
44 54 70
46 57 74
45 55 70
50 61 78
49 61 78
42 52 66
46 58 75
51 63 80
51 64 83
51 62 80
45 56 71
47 58 75
47 57 74
50 61 77
43 53 68
47 58 75
48 58 74
49 62 80
43 53 68
52 64 81
44 53 68
49 60 76
47 58 74
50 61 77
49 61 78
45 56 71
47 58 74
50 61 77
43 53 68
42 51 66
48 58 74
47 58 75
48 59 75
46 57 73
48 59 75
52 64 81
53 65 84
48 59 75
52 64 81
45 55 70
43 53 69
50 61 78
52 64 81
47 58 74
46 57 74
46 57 73
45 55 71
43 53 67
45 56 72
43 52 67
52 64 82
49 59 76
48 60 77
45 56 73
47 57 72
44 55 70
44 54 69
48 58 75
51 62 80
47 58 75
51 63 81
46 56 71
47 58 75
46 57 73
48 60 77
46 56 72
49 61 79
47 58 75
48 58 74
51 62 78
47 59 77
42 52 67
46 57 73
53 65 82
47 57 73
51 63 80
49 61 78
43 53 68
46 56 71
49 60 76
48 60 78
52 64 83
44 54 68
46 55 70
50 62 79
48 59 75
52 63 81
47 58 75
44 54 69
44 54 71
42 51 66
42 52 67
48 59 75
48 59 76
48 58 74
50 62 81
48 59 76
49 60 76
46 57 73
46 57 74
49 60 76
48 59 76
45 56 72
54 67 85
50 62 79
50 61 78
50 60 75
51 63 81
47 58 75
46 57 73
48 59 75
46 57 74
51 63 80
44 54 70
47 60 78
49 61 78
50 62 80
49 60 78
44 54 69
46 57 73
40 49 63
42 53 69
45 55 70
47 57 73
48 60 79
43 53 69
47 58 75
46 57 73
48 59 76
46 57 73
47 58 76
44 55 72
51 63 81
50 60 76
49 60 77
49 60 77
49 60 77
42 52 67
51 62 80
39 49 63
49 60 77
51 63 81
49 61 80
50 62 80
45 55 72
46 57 73
45 56 72
45 56 73
42 53 68
43 53 67
50 61 78
44 54 69
43 55 72
42 53 68
52 64 82
47 58 74
49 61 79
42 52 66
36 44 57
44 55 70
45 56 73
43 52 67
44 54 70
46 57 74
43 54 70
51 62 80
42 52 67
44 54 70
50 62 79
42 52 67
44 54 69
43 53 69
50 62 80
43 54 70
43 52 67
50 62 79
47 58 74
40 50 66
46 57 73
42 52 67
44 54 68
41 50 64
49 60 77
45 55 71
46 56 72
44 54 69
49 60 77
43 54 69
41 51 66
38 47 61
47 57 74
40 49 63
44 53 68
45 55 70
46 57 73
41 51 66
43 52 67
45 55 70
49 61 79
43 53 68
42 52 67
41 50 63
41 51 66
43 54 70
41 51 66
42 52 66
45 57 74
44 54 70
44 53 68
48 58 74
41 51 66
42 52 66
44 55 70
48 59 75
47 57 72
42 51 66
41 50 64
42 52 68
42 52 67
47 57 73
46 57 73
48 59 76
49 60 77
47 58 75
40 50 65
43 54 69
48 60 77
43 52 66
45 56 72
41 51 65
40 49 64
40 50 66
42 52 67
38 47 60
40 50 64
48 60 76
36 45 57
43 52 67
39 47 60
47 58 75
42 52 67
40 49 64
49 60 75
44 53 67
35 44 57
42 51 66
44 55 70
50 61 79
44 54 69
46 56 72
53 64 82
41 51 65
47 57 72
43 53 68
43 53 68
46 57 73
43 53 68
37 46 60
47 58 74
47 57 72
44 54 69
44 55 72
45 56 71
45 56 71
51 63 81
44 53 67
48 60 78
43 54 70
47 57 74
43 53 68
44 54 69
44 54 69
51 63 80
48 59 75
52 63 80
50 62 79
45 56 72
45 56 72
45 55 70
44 55 72
46 56 71
45 56 72
42 53 68
46 56 71
42 51 66
50 62 79
45 55 71
47 59 76
44 55 71
50 61 78
42 51 65
48 60 78
46 56 72
41 50 65
45 56 72
48 59 76
41 51 66
45 56 73
46 57 74
45 56 72
48 59 76
37 46 59
44 54 69
44 54 69
43 54 70
48 59 76
50 62 81
44 54 70
49 60 77
49 60 75
47 58 75
43 53 67
47 58 74
49 61 78
48 59 76
44 54 70
51 62 79
41 50 64
48 59 76
53 65 84
45 56 71
44 55 71
43 53 68
43 53 68
45 56 72
43 53 69
48 59 76
46 58 76
50 61 79
47 58 75
50 61 78
40 49 64
45 55 70
48 59 76
49 59 76
50 61 78
46 56 71
42 51 64
41 51 65
49 61 78
52 63 81
51 62 78
45 55 71
47 58 75
47 59 77
41 52 68
44 54 70
51 63 81
49 60 76
46 57 74
47 58 74
48 60 77
50 62 80
51 62 79
45 55 70
50 62 79
40 49 63
47 58 74
43 52 66
39 48 62
40 49 63
48 59 75
45 55 70
49 60 77
48 59 76
48 59 76
45 55 70
49 60 76
52 64 82
46 56 72
48 59 76
48 59 77
49 61 78
53 65 85
44 54 69
48 59 75
46 55 70
48 58 75
45 55 71
52 64 82
51 63 80
46 55 69
45 56 71
51 63 79
48 59 77
44 54 68
46 57 73
43 53 69
48 59 75
43 53 69
42 53 69
43 53 68
49 59 74
46 56 73
47 58 75
52 64 82
42 52 66
48 60 77
42 52 67
48 58 75
48 60 77
51 63 81
52 63 81
47 58 75
47 58 74
46 56 71
44 54 69
43 54 70
46 57 74
39 48 62
49 60 78
49 60 77
53 65 83
47 57 72
50 62 79
48 59 76
46 56 72
50 62 78
52 64 82
47 57 74
48 59 76
49 60 76
45 55 71
43 53 68
45 56 73
53 66 85
52 63 80
46 57 74
50 62 80
44 55 70
47 57 73
51 62 79
50 62 80
44 55 71
47 58 73
49 60 77
47 59 76
50 62 79
50 61 77
43 52 67
55 67 85
46 57 72
43 53 68
47 58 75
49 61 78
54 67 86
52 64 82
45 55 70
48 59 75
50 61 77
45 55 70
50 62 80
51 62 79
45 57 73
46 57 73
42 52 67
44 55 71
47 58 76
46 57 73
51 63 80
48 59 75
49 60 78
48 58 74
50 61 78
49 61 79
50 62 80
46 57 73
46 57 72
46 56 73
49 60 78
47 58 74
45 55 70
47 58 75
51 62 79
55 68 87
49 60 77
50 62 80
50 62 80
48 60 76
43 54 70
50 61 79
50 62 80
45 56 72
44 54 69
42 52 65
51 62 79
39 49 65
44 54 69
51 63 81
47 59 76
48 59 76
48 59 77
43 53 68
44 54 69
45 55 70
41 51 65
44 55 70
51 62 79
43 52 67
43 53 69
40 49 62
50 63 82
42 52 68
51 61 78
46 57 72
50 62 79
59 72 91
46 58 75
48 60 77
51 62 79
45 56 71
47 57 73
46 57 74
42 53 68
46 57 73
44 54 70
47 58 74
42 53 70
47 58 75
47 58 76
47 58 74
41 51 66
50 61 78
42 52 67
44 54 69
43 54 69
45 55 71
48 60 79
53 65 84
53 65 83
46 58 75
41 50 64
49 60 78
50 62 79
47 58 75
50 62 80
47 56 71
50 62 80
49 61 78
45 56 73
47 59 76
47 59 76
53 65 82
47 58 74
49 60 75
47 58 75
43 54 70
41 51 66
53 66 85
35 42 54
43 54 69
47 58 75
43 53 69
47 59 77
47 59 76
46 57 74
45 55 71
43 54 71
43 53 69
48 60 77
51 63 81
42 52 67
45 56 73
47 58 74
48 59 75
47 58 75
49 60 77
42 52 67
45 55 69
48 59 77
50 61 78
40 50 65
46 58 75
54 66 85
48 60 78
45 55 72
51 63 81
50 61 79
46 56 72
52 64 81
44 54 69
42 52 67
44 54 69
41 51 65
41 51 67
39 48 62
41 51 66
42 52 67
49 60 78
42 52 67
47 58 73
42 52 66
49 60 77
53 66 84
41 51 66
45 56 72
47 57 73
45 55 70
53 65 82
40 50 64
42 51 66
50 62 80
40 49 63
48 59 75
44 55 72
42 53 68
42 52 68
44 54 70
45 55 70
44 54 69
47 58 74
44 54 69
42 53 69
33 41 53
44 55 72
46 57 74
46 56 72
45 56 73
47 57 72
46 57 74
46 56 72
44 54 69
41 50 64
41 51 65
41 51 66
42 52 67
40 49 62
51 62 79
45 54 69
43 53 67
47 58 74
45 56 72
47 57 74
42 52 68
41 51 65
41 50 64
45 55 72
41 51 66
43 53 69
44 54 68
45 55 70
45 56 72
47 58 75
47 57 73
47 57 73
46 56 72
39 48 63
43 54 69
43 54 70
42 52 68
47 58 74
47 58 74
42 51 65
45 56 73
42 52 68
46 57 73
50 62 79
45 55 71
51 63 82
43 53 69
45 57 74
47 59 75
44 55 71
42 52 67
44 54 70
46 57 72
46 57 74
40 49 64
52 63 79
46 56 71
44 55 70
44 54 69
45 55 70
46 57 73
40 49 63
47 57 72
37 46 59
49 60 77
47 57 74
49 61 78
50 63 81
43 54 69
46 56 72
46 57 73
46 56 72
43 53 68
40 50 64
49 61 78
46 58 75
46 57 73
41 51 65
51 63 81
44 55 71
48 60 77
44 54 69
42 52 66
44 54 69
47 59 75
49 61 79
42 52 68
46 57 73
48 59 75
49 60 77
47 58 76
44 56 72
46 56 72
49 61 80
44 54 70
49 61 79
49 60 78
41 51 65
46 57 73
52 63 81
48 60 79
52 63 81
49 61 79
45 56 72
45 55 71
47 58 74
47 58 74
53 63 80
41 51 65
50 61 78
45 56 73
49 61 79
41 50 64
47 58 74
43 53 68
52 65 84
49 60 78
50 61 78
50 61 79
46 57 74
45 55 70
47 58 74
53 65 84
49 60 76
54 67 87
49 61 79
45 56 73
49 60 77
44 54 69
47 58 74
49 61 79
49 61 79
43 54 69
48 59 74
48 59 76
50 61 78
48 59 77
53 65 83
51 63 81
40 49 64
41 52 68
46 57 75
43 53 68
49 60 78
46 56 72
52 64 84
51 64 82
44 54 67
51 63 81
43 54 69
42 52 67
49 60 77
46 56 72
48 59 75
48 60 77
51 62 79
46 57 74
51 63 81
44 54 69
40 50 65
51 63 81
51 63 82
44 55 71
51 63 80
48 60 78
47 58 74
46 56 72
47 58 74
51 63 80
47 58 75
53 66 85
47 58 76
41 51 67
44 54 68
45 55 71
43 53 68
52 64 82
47 59 76
45 56 72
49 60 76
46 57 74
48 58 74
45 55 70
46 57 72
59 72 92
47 58 74
50 62 81
49 60 76
48 58 75
46 56 71
45 55 70
51 62 79
44 55 70
45 55 70
47 57 73
51 63 80
50 61 78
46 57 73
43 54 71
47 57 72
45 55 70
50 61 78
47 58 75
47 57 73
49 60 76
50 63 82
44 54 70
44 53 68
48 59 77
49 60 76
44 54 69
45 55 69
49 60 76
49 59 75
45 55 70
49 61 79
50 62 81
50 61 78
42 52 67
48 59 76
53 65 82
42 53 68
46 56 71
48 58 74
46 57 73
48 59 76
44 55 70
45 56 73
42 51 65
53 66 85
52 64 82
44 54 69
52 63 80
54 66 85
47 58 74
50 61 78
55 68 88
47 58 74
49 60 78
51 63 81
46 56 71
55 67 84
51 63 81
41 51 67
50 61 78
50 61 78
48 59 75
47 59 76
43 54 69
45 55 71
44 54 70
44 55 70
48 59 76
47 58 74
53 67 88
43 52 65
52 64 81
47 58 74
46 56 72
45 56 71
57 70 90
48 59 74
48 58 75
46 56 72
45 54 68
46 56 71
43 53 69
44 53 68
50 61 78
42 52 66
50 62 79
47 59 77
48 59 76
52 63 80
43 53 67
48 58 74
46 56 72
46 56 71
45 56 71
41 51 66
48 59 76
55 68 88
54 67 87
55 68 88
50 61 79
44 55 70
46 57 74
51 64 82
45 55 71
46 57 74
49 62 81
48 59 76
51 62 80
50 62 81
51 64 83
49 60 77
54 66 85
41 51 66
48 59 77
47 58 76
49 61 78
52 64 82
51 63 81
50 62 80
52 63 81
46 58 76
46 57 74
46 58 76
48 60 78
48 59 76
47 58 73
44 54 70
45 57 74
47 58 75
53 65 84
53 66 85
51 63 81
48 60 78
49 60 77
48 60 78
47 58 74
49 60 77
47 58 75
48 59 75
46 57 73
47 59 77
46 57 73
48 59 76
45 55 71
46 57 73
47 59 76
42 52 67
53 65 84
43 53 69
43 53 68
50 62 79
48 59 75
45 57 74
47 58 75
49 60 77
45 55 71
45 55 71
45 56 72
53 66 85
53 66 85
46 57 72
44 54 70
46 57 73
51 64 82
43 53 68
41 51 66
49 60 76
47 58 75
39 50 66
45 56 73
41 51 65
48 59 77
48 60 77
50 62 81
44 55 70
41 51 65
41 52 67
47 59 75
46 57 73
45 55 70
46 57 73
43 54 69
43 53 67
42 52 66
46 57 74
48 58 75
48 59 75
45 55 70
47 58 74
54 68 87
49 60 77
39 49 63
48 58 74
43 54 70
52 63 80
41 51 66
42 52 66
50 62 79
40 50 64
50 62 80
45 55 70
52 65 83
39 48 62
45 56 71
45 56 71
42 51 65
42 52 67
49 60 77
45 55 71
44 54 69
44 54 69
46 56 72
47 57 73
47 58 74
40 49 64
46 57 73
42 51 64
44 54 70
47 58 74
40 49 62
47 59 75
42 52 67
46 56 70
41 50 64
38 47 61
38 47 59
44 54 69
42 51 66
42 53 70
44 55 70
44 55 70
42 51 66
46 56 72
43 53 67
49 59 75
44 54 70
40 49 64
41 49 63
41 52 67
42 52 67
45 55 69
45 56 73
47 59 76
47 58 73
44 54 68
44 55 70
52 64 82
42 52 66
43 53 68
42 51 66
39 48 63
53 64 82
45 55 71
51 63 81
44 54 69
45 56 73
39 49 63
43 54 69
41 51 66
43 52 66
44 54 69
47 58 74
42 51 66
42 53 69
48 60 77
37 46 60
44 54 69
49 61 79
45 56 71
41 51 66
44 54 69
45 55 71
43 53 69
40 49 62
45 55 71
40 51 66
48 59 75
50 62 80
39 50 65
41 50 65
48 59 77
46 56 72
46 57 73
52 65 83
51 62 80
41 51 66
44 55 72
49 60 77
50 62 79
40 50 63
46 57 72
45 56 72
48 60 78
46 57 74
44 54 70
48 60 78
46 56 72
41 51 65
40 50 65
52 64 82
38 48 61
42 53 69
52 64 82
44 55 72
44 54 69
45 56 72
50 61 78
43 53 69
50 62 80
49 60 78
50 61 79
49 61 79
49 61 79
41 51 66
45 56 72
50 62 80
48 60 76
46 57 74
47 58 76
52 64 82
48 58 75
44 54 69
40 49 63
47 58 75
47 58 75
49 60 76
50 63 81
44 53 67
43 53 69
47 59 76
47 59 77
48 60 77
47 58 74
49 60 77
50 62 80
47 58 76
51 63 80
50 61 78
49 62 82
51 63 81
52 65 83
51 64 83
53 65 84
45 56 73
49 60 77
45 55 71
44 55 71
44 54 70
43 52 67
51 63 82
49 61 78
50 62 81
47 58 74
47 58 74
47 58 75
46 57 74
48 59 75
49 62 80
46 57 74
50 61 78
54 67 86
44 55 72
44 55 71
41 51 66
50 61 78
49 61 77
44 54 70
52 64 81
50 62 79
44 55 71
52 64 81
48 60 78
47 58 74
54 67 86
47 58 75
45 56 73
47 57 73
45 56 71
43 53 68
41 51 66
49 60 77
46 57 73
51 63 81
42 52 67
51 63 81
48 58 75
43 54 70
46 56 72
47 58 75
45 57 73
51 63 80
41 50 65
48 58 75
47 58 74
49 61 77
45 55 72
51 63 80
53 64 82
48 59 75
41 51 65
49 60 75
46 56 71
45 55 71
50 62 78
49 60 76
46 57 72
55 67 85
47 57 73
46 57 72
50 62 79
52 64 82
44 55 71
44 54 69
48 59 75
43 52 66
45 55 70
49 60 77
49 61 78
49 60 77
50 62 80
53 64 81
53 66 84
46 57 73
45 55 71
47 58 74
46 55 70
47 58 74
51 62 79
48 59 75
50 63 81
46 56 72
42 51 65
49 61 78
46 57 73
54 67 85
50 61 78
39 49 62
51 63 80
50 61 77
52 64 80
48 59 75
51 64 82
51 62 79
48 59 76
47 58 74
50 62 80
47 57 72
53 65 82
48 58 74
49 60 77
49 61 78
46 57 74
46 57 74
47 58 74
44 55 70
48 60 77
48 60 77
48 59 75
45 55 70
51 62 79
46 57 72
51 62 80
42 52 66
49 61 78
48 59 76
53 65 82
54 66 85
50 60 77
46 56 72
49 60 78
55 67 85
48 59 76
42 51 66
49 60 77
44 54 69
48 59 75
45 56 73
52 65 83
46 57 74
46 57 73
47 58 75
48 59 75
45 55 69
43 54 70
49 61 78
45 56 72
47 57 73
46 56 70
44 54 69
45 55 71
45 56 71
50 62 79
45 56 72
49 61 79
42 52 66
46 57 74
51 63 82
45 56 72
53 65 83
51 62 80
53 65 84
52 65 83
50 62 79
55 68 89
44 56 73
46 57 74
47 58 75
47 57 72
53 65 84
49 60 76
54 66 84
49 61 79
45 56 73
46 57 74
45 56 73
50 62 80
42 51 66
44 55 71
48 60 77
54 66 85
45 57 74
49 60 76
50 61 78
52 63 79
47 58 74
51 64 82
56 69 90
46 58 75
51 63 81
45 56 71
48 60 78
50 61 77
48 60 77
45 56 71
40 49 63
47 59 77
47 60 78
52 64 82
44 56 73
42 51 65
50 63 82
49 60 76
41 50 65
40 49 64
43 53 69
45 57 74
38 48 63
45 56 73
43 54 70
44 54 69
51 62 80
44 54 68
48 59 75
40 50 65
47 58 75
50 63 82
53 66 86
53 65 83
54 67 86
46 58 75
48 59 75
43 54 70
46 57 73
46 57 73
49 60 76
46 57 73
41 52 67
44 54 69
49 60 76
48 59 75
44 55 71
49 61 79
48 59 77
55 68 87
48 59 76
42 52 67
45 56 72
44 54 69
46 57 73
47 58 76
46 57 73
46 57 73
51 63 81
47 58 75
44 54 69
39 49 63
41 50 64
41 51 66
52 63 81
47 59 76
54 67 86
41 52 68
44 55 72
47 58 75
51 63 81
43 54 70
49 61 78
44 55 70
49 60 76
45 56 71
43 53 68
43 53 68
39 49 63
42 52 66
43 53 67
46 56 72
46 57 72
41 50 64
47 58 75
48 59 77
47 58 74
42 52 67
37 45 58
47 58 75
45 56 72
43 53 69
47 58 74
43 53 69
42 52 67
45 54 68
49 60 76
47 59 76
46 56 72
48 59 77
44 54 69
40 49 63
43 54 71
43 53 68
46 56 72
46 58 75
37 46 59
49 60 77
40 48 61
49 61 78
47 58 75
42 52 67
48 59 76
42 52 66
41 51 66
43 53 69
38 48 63
47 59 75
47 58 75
50 63 82
39 47 61
48 59 76
42 53 68
42 51 66
44 54 69
43 55 73
38 48 63
48 59 75
49 60 76
47 58 74
48 59 75
50 62 80
42 52 68
48 59 75
43 53 68
42 52 67
47 57 73
44 55 70
45 56 73
40 50 64
43 52 67
53 65 84
37 46 58
47 59 76
52 64 82
48 60 76
48 59 75
46 56 71
45 56 74
45 55 70
46 56 71
50 61 79
51 62 80
48 59 77
43 54 70
43 54 70
46 57 74
47 58 74
43 53 68
49 61 79
46 56 72
43 53 68
44 54 70
49 61 78
45 56 72
39 48 63
49 61 79
45 55 70
41 51 67
43 54 69
39 49 64
46 57 73
46 57 72
49 61 77
43 54 70
51 63 81
47 57 73
47 59 76
41 51 65
36 45 59
46 58 75
48 59 77
44 54 69
43 54 70
51 62 79
49 61 77
41 51 66
48 60 77
42 53 68
48 59 76
45 56 72
46 58 75
44 55 70
45 55 70
46 57 74
50 62 80
43 53 69
48 59 75
47 58 74
51 64 83
47 58 76
49 60 77
42 53 69
45 56 72
42 53 68
52 64 82
45 56 71
44 55 70
42 52 67
43 52 67
46 57 72
49 61 78
48 59 77
52 64 83
48 58 74
45 57 74
39 47 61
45 55 71
47 58 75
42 52 68
47 58 75
47 58 75
49 61 78
52 64 83
49 60 76
51 63 80
52 65 84
42 53 69
45 56 72
46 57 73
48 60 77
46 57 74
46 58 76
45 56 73
50 61 78
49 60 77
47 59 75
47 58 74
39 49 63
49 60 77
44 54 70
43 53 68
46 56 73
43 54 69
50 62 80
49 60 77
50 62 80
46 56 72
48 58 75
47 57 72
52 64 81
50 61 77
51 62 79
46 57 73
48 60 77
48 59 74
49 60 78
51 62 78
46 56 72
44 54 69
49 61 78
49 59 76
52 64 81
51 63 81
48 59 75
43 53 67
49 60 77
41 51 64
49 59 75
47 58 75
47 58 74
50 62 81
50 62 80
42 52 67
45 54 68
43 54 70
46 56 73
46 56 72
43 53 69
45 55 71
45 55 71
47 57 73
42 52 66
48 58 74
48 59 76
46 57 73
50 61 78
47 57 73
44 54 69
45 56 73
51 63 81
46 57 73
46 57 72
48 59 76
49 60 76
56 68 87
51 62 80
43 53 69
44 54 69
57 70 89
42 52 67
46 56 72
50 61 78
54 67 87
45 55 71
47 57 73
47 58 73
48 59 75
50 62 80
45 56 71
45 56 72
55 68 87
53 65 82
52 63 80
47 58 75
48 60 78
53 65 83
45 56 73
49 60 77
44 54 70
47 58 76
50 62 80
48 59 76
49 61 78
48 59 75
47 58 74
55 67 87
52 63 81
43 53 68
46 57 72
48 60 77
47 57 73
44 56 72
46 57 72
48 59 76
50 61 77
46 56 71
47 58 75
49 60 77
50 62 79
45 55 70
51 63 81
47 59 76
47 59 75
50 61 77
48 59 76
47 59 76
47 58 75
47 57 73
45 55 71
49 61 78
45 55 70
46 56 71
52 64 83
42 52 67
42 52 66
49 61 79
39 49 63
55 67 86
49 61 80
46 57 74
46 57 74
44 55 71
52 63 80
48 59 75
50 61 79
43 53 68
50 62 80
49 60 78
53 64 82
54 67 86
51 63 82
51 63 80
53 64 82
50 62 80
45 57 74
46 57 73
47 57 73
46 57 75
46 57 72
47 59 76
49 60 76
42 52 67
54 66 85
52 64 83
46 56 72
51 63 81
49 61 79
51 64 82
51 62 80
48 60 76
51 63 81
52 65 84
48 60 78
48 60 77
45 55 71
42 51 66
54 66 85
42 52 67
49 61 78
50 61 78
44 55 71
44 56 74
50 62 80
46 56 73
47 57 73
48 60 77
48 60 78
43 53 68
49 60 78
45 56 72
38 47 62
43 53 68
52 64 81
48 59 77
46 56 72
56 69 89
45 57 74
47 58 75
49 60 77
48 59 76
45 57 75
51 63 82
47 58 75
46 57 75
42 53 69
42 53 69
46 58 74
46 57 74
50 61 78
46 57 74
53 65 85
50 62 79
48 59 76
49 61 79
45 55 70
49 60 76
48 59 76
43 54 69
46 58 75
47 58 74
51 63 80
51 62 79
46 56 72
44 54 70
49 59 75
45 56 73
44 55 73
46 57 73
44 55 71
41 51 65
46 58 75
48 60 77
47 58 76
44 54 69
40 49 64
53 66 85
47 57 73
42 53 68
46 56 72
42 52 68
49 61 78
48 60 78
43 53 69
44 55 70
42 52 68
49 60 78
39 48 62
45 56 72
40 50 63
46 56 71
45 55 71
38 48 62
43 53 68
46 56 71
51 62 79
46 57 73
45 55 71
43 54 69
47 57 73
47 58 73
49 60 76
49 60 76
41 51 66
47 58 75
41 51 66
46 56 72
41 52 67
48 59 76
46 56 71
46 57 72
42 51 65
43 53 68
48 60 78
43 53 67
44 54 69
48 59 76
47 57 73
40 50 64
46 57 73
49 60 77
44 54 69
47 57 73
47 57 73
47 59 77
46 56 72
48 59 75
45 56 71
49 60 78
51 62 79
39 48 62
45 55 69
45 55 70
42 52 68
42 52 67
45 55 69
42 52 67
36 45 59
45 55 71
43 53 68
42 52 67
42 52 66
49 61 78
45 56 72
42 52 66
49 61 78
43 53 68
47 58 75
44 54 70
46 57 75
41 51 66
49 62 80
46 57 74
44 55 72
50 61 77
43 52 66
45 55 70
45 56 71
43 53 68
40 50 65
46 57 74
49 61 78
50 60 75
48 59 75
38 48 62
40 50 65
45 55 71
48 59 77
50 61 79
38 47 61
40 49 64
48 59 76
51 63 81
45 57 74
41 51 66
48 59 75
38 47 60
46 56 72
43 54 69
42 52 67
41 51 66
48 59 76
42 52 67
52 63 81
46 57 74
45 55 70
51 64 84
51 62 79
44 54 70
48 59 75
42 53 69
44 55 71
48 61 80
54 67 87
53 66 85
46 57 73
50 62 80
47 59 76
44 54 70
44 54 69
53 64 82
48 59 75
47 58 73
49 60 76
37 45 58
47 58 75
47 58 74
49 60 77
52 65 84
48 59 76
49 60 76
46 58 75
53 65 83
44 54 68
50 62 79
48 59 76
47 58 73
43 55 72
48 60 78
53 65 84
47 58 76
44 55 71
48 60 78
44 55 70
49 62 81
49 60 77
46 57 74
50 61 78
46 58 75
51 62 78
51 63 80
50 61 78
44 55 71
51 63 81
40 49 63
51 63 81
44 54 70
45 56 72
49 60 77
48 60 78
50 62 80
49 61 80
50 61 79
44 55 71
46 56 72
49 61 79
42 51 65
45 55 71
46 57 73
47 58 74
45 56 73
46 57 73
50 62 79
48 60 77
43 54 70
44 55 71
49 60 77
52 65 84
41 51 66
43 53 68
48 60 77
44 54 70
46 57 75
45 55 70
50 62 79
47 58 75
45 56 71
53 65 84
44 55 72
44 55 71
47 58 75
53 65 82
46 57 73
51 63 81
46 56 72
46 57 73
43 52 67
44 53 67
51 63 80
44 54 70
50 62 81
43 54 70
41 51 65
46 57 74
42 52 67
46 58 75
45 55 70
45 57 74
46 58 74
45 55 71
46 56 72
43 53 68
50 62 80
48 60 77
49 61 78
48 59 75
53 65 84
50 61 78
45 57 73
48 59 75
52 63 81
46 58 75
51 62 80
49 61 79
52 64 82
45 56 73
49 60 76
47 58 75
49 61 78
53 66 84
49 60 77
53 66 85
48 59 75
53 64 82
48 58 74
49 60 76
53 66 84
48 60 77
48 58 74
49 60 77
48 59 75
47 57 72
51 62 80
45 56 71
50 61 78
51 62 79
49 60 76
50 62 79
54 67 86
44 54 69
49 60 78
48 58 73
53 65 83
51 63 81
47 57 72
46 57 73
49 60 76
53 64 81
49 59 75
44 55 71
42 53 68
49 60 78
47 57 73
49 61 78
52 63 81
49 61 77
47 57 74
39 49 63
44 53 68
54 67 86
50 61 79
54 66 85
47 58 74
46 57 73
50 62 79
48 60 77
43 53 68
49 60 78
49 61 78
48 59 76
50 62 79
54 67 86
53 65 82
42 52 68
55 67 85
51 64 82
46 57 73
56 69 88
49 60 78
48 59 75
49 60 77
48 59 76
52 65 83
51 64 84
51 63 81
45 55 71
52 65 83
52 64 83
49 61 79
54 67 87
51 63 80
52 64 83
47 58 75
50 62 79
46 57 73
52 64 82
50 61 79
43 54 69
47 60 78
51 63 82
46 57 73
48 60 78
51 63 82
51 64 83
47 59 76
48 59 76
51 63 81
42 52 67
48 59 76
45 57 74
47 58 75
50 61 79
45 56 71
45 55 70
46 57 74
47 58 74
44 55 71
48 60 76
52 65 83
48 59 75
46 58 75
48 59 76
44 55 72
57 70 89
48 59 76
46 57 73
45 55 70
48 60 77
46 58 75
46 56 72
44 55 71
49 60 78
46 58 74
47 57 73
47 57 73
44 55 71
44 54 69
51 63 80
50 62 80
48 59 75
41 50 64
46 56 72
54 67 86
46 56 72
49 60 78
51 63 80
53 66 85
49 61 78
49 60 78
50 62 80
48 60 78
48 60 77
47 57 73
50 62 80
51 63 81
48 60 77
52 65 84
52 64 82
51 63 80
49 61 78
41 50 64
45 56 73
38 47 61
47 58 75
43 53 69
52 64 82
45 56 71
43 53 67
40 49 63
50 61 79
53 66 85
48 60 78
45 56 72
45 55 72
48 59 75
49 60 78
47 57 72
47 58 74
46 57 72
41 51 65
45 56 72
50 61 78
43 55 72
47 59 76
46 57 73
49 61 79
45 57 73
47 58 74
44 54 71
49 60 77
48 60 77
50 61 78
42 52 67
45 55 71
44 55 71
45 55 71
50 61 77
44 54 69
43 53 68
41 50 65
42 52 67
49 60 77
39 48 61
47 58 74
39 49 63
46 57 73
46 57 73
48 59 75
58 71 91
45 56 73
47 58 75
45 56 73
49 60 77
51 62 79
44 54 70
43 52 67
52 64 82
46 56 71
46 56 71
48 59 75
43 54 69
52 63 79
46 57 74
49 60 76
52 64 82
39 48 62
40 49 63
45 56 72
46 58 75
47 58 73
44 55 71
41 51 66
34 42 53
41 50 64
43 53 68
47 58 75
45 55 71
40 49 62
42 52 68
44 53 68
38 47 61
48 60 77
43 54 70
40 50 64
52 64 81
49 60 77
50 62 80
44 54 70
43 53 67
43 53 67
46 57 74
49 59 75
52 64 82
42 52 67
38 47 60
43 53 68
53 65 84
45 54 69
44 55 70
52 64 82
41 50 64
43 54 69
49 60 77
38 47 60
49 62 80
46 57 73
46 57 74
42 51 66
45 56 72
41 51 65
47 58 74
47 59 76
44 55 70
46 57 73
48 59 75
47 58 75
43 53 68
49 59 76
43 53 67
44 55 71
46 57 73
45 56 73
44 55 71
43 53 68
48 58 74
45 56 71
44 54 68
45 56 73
44 55 71
43 54 69
49 60 77
39 48 61
44 54 70
48 59 76
45 56 71
45 55 71
46 57 75
49 61 78
41 52 67
49 60 78
54 67 87
46 56 71
50 62 79
50 62 80
47 59 76
47 58 74
48 59 76
52 65 84
39 49 64
46 57 73
47 58 75
49 61 79
38 47 61
43 53 68
42 53 69
47 58 75
49 60 76
43 54 70
47 58 75
46 57 73
56 69 89
43 54 70
46 57 75
49 62 80
44 55 71
48 60 79
50 62 80
45 55 71
49 62 80
47 58 75
46 57 73
51 63 82
45 55 70
46 58 76
46 57 73
50 62 79
46 56 72
49 60 78
49 60 76
44 55 71
49 61 79
48 59 75
47 58 75
48 60 77
45 55 71
48 59 77
52 64 83
49 61 80
48 60 77
50 62 80
42 52 67
52 64 82
52 64 83
50 61 78
45 55 70
48 60 78
53 65 83
48 60 77
45 54 69
53 65 82
51 62 79
46 57 74
48 60 77
45 56 71
49 59 75
48 59 75
46 56 72
46 57 73
48 59 75
52 64 82
53 65 84
43 53 69
45 56 72
50 61 78
47 58 75
54 66 85
45 55 69
47 59 76
55 67 85
50 61 78
44 55 71
48 60 77
52 64 82
48 60 78
47 58 73
49 60 77
52 63 80
45 55 71
48 59 76
47 59 77
49 60 77
47 58 74
50 61 78
41 51 66
49 60 77
54 66 83
48 60 77
54 67 86
48 60 77
53 66 85
41 50 65
51 63 81
48 59 75
52 65 85
50 62 80
50 62 80
50 61 78
54 67 85
48 58 75
52 65 83
46 56 70
45 56 73
58 71 91
42 52 67
50 61 78
51 63 80
47 58 74
50 62 78
44 54 69
47 57 73
55 68 87
49 61 78
47 58 74
52 64 81
45 55 70
46 56 71
46 57 73
43 53 69
45 56 71
51 63 81
55 68 86
50 61 78
54 67 86
47 58 73
50 62 80
48 59 76
49 61 79
48 59 76
45 56 72
52 64 82
49 59 76
50 61 78
52 65 83
49 61 79
48 59 75
49 60 77
44 54 70
49 61 78
52 65 84
48 60 78
47 58 73
47 58 75
42 52 66
51 62 79
49 60 76
48 59 76
55 68 87
43 54 70
43 53 69
49 61 78
46 56 72
48 59 75
41 51 66
60 73 92
43 54 69
47 57 73
48 59 77
54 67 85
49 61 78
55 67 85
51 63 81
51 63 81
47 58 75
49 62 81
47 58 75
48 58 74
47 58 75
45 56 72
50 62 80
51 63 80
48 60 77
48 58 74
46 58 75
42 52 67
51 62 79
48 59 75
46 57 73
50 62 81
44 55 71
41 51 65
43 53 68
51 63 81
50 62 80
46 58 75
46 56 72
45 55 71
47 58 75
42 52 67
49 61 78
48 59 77
45 56 72
47 59 77
47 58 75
56 68 86
45 56 72
49 60 77
49 61 79
44 54 70
50 63 81
47 59 77
48 59 77
44 55 71
49 60 76
49 61 78
43 53 69
53 65 83
48 59 77
50 63 81
49 61 79
43 52 67
51 63 81
40 50 64
44 54 69
43 53 69
49 61 78
47 59 77
51 63 81
52 64 81
51 63 82
51 62 80
48 60 78
47 58 74
50 62 79
42 52 68
50 61 77
52 65 85
50 62 80
48 59 77
42 52 66
47 59 76
43 53 67
49 61 79
46 57 74
55 69 88
53 65 83
49 61 80
49 60 77
48 59 76
43 54 70
48 60 77
53 66 85
48 58 75
42 51 65
46 57 74
45 55 71
51 63 82
54 67 86
46 57 73
53 65 85
47 58 74
52 65 84
48 59 75
47 57 73
48 60 77
47 58 74
48 60 77
41 51 65
51 64 82
45 55 71
43 53 68
46 57 73
47 58 74
45 55 71
47 58 73
46 57 73
45 55 71
44 54 68
44 54 70
50 62 79
49 60 77
46 58 75
50 63 81
46 56 71
44 55 70
39 49 63
43 54 70
49 61 78
48 60 78
42 53 69
50 63 82
46 57 74
51 63 81
52 64 82
44 54 69
46 57 73
46 57 74
42 52 65
47 58 74
48 59 76
49 61 79
45 56 72
44 54 70
46 58 76
38 47 59
40 50 64
47 58 74
47 57 73
50 62 79
45 56 72
45 54 69
43 54 70
48 59 75
46 57 74
36 45 58
49 61 78
45 54 69
44 55 71
47 58 74
45 55 70
48 59 75
45 55 71
41 51 66
50 61 79
41 51 66
48 59 77
45 55 71
42 52 67
47 57 73
48 60 78
43 53 68
45 56 72
44 54 70
42 51 66
49 61 79
42 52 68
40 50 65
39 49 64
44 55 72
47 58 75
49 61 79
46 56 72
40 49 63
40 49 63
42 51 65
47 58 74
46 57 72
40 50 64
48 59 75
40 49 63
51 63 81
42 52 68
38 48 62
50 62 79
43 54 70
38 47 60
50 61 79
44 54 70
47 57 74
44 54 69
50 61 79
50 61 78
48 59 76
46 56 71
42 53 69
45 55 71
46 57 73
41 51 66
49 59 75
48 58 73
44 54 70
48 58 74
43 53 68
51 63 80
44 55 71
41 51 65
41 51 66
45 56 72
47 58 74
47 58 75
47 58 74
44 55 70
47 59 76
47 58 75
39 49 63
47 58 75
46 57 74
44 54 69
45 55 71
49 61 78
48 58 73
40 49 64
51 63 81
47 58 74
49 60 77
42 52 68
47 59 76
46 57 74
46 57 74
46 58 75
49 61 79
41 50 63
50 62 80
40 49 63
46 58 75
43 53 68
44 55 70
53 65 83
52 64 82
53 65 84
42 51 66
46 57 72
44 54 70
47 59 75
48 60 79
48 59 76
39 49 64
48 61 80
46 57 74
44 54 69
45 55 71
49 61 78
41 50 64
47 58 76
45 55 70
46 57 73
41 52 68
45 55 72
47 57 73
49 60 76
48 59 76
50 62 80
49 61 78
46 57 74
51 64 83
53 65 84
47 59 77
47 58 76
47 58 76
46 58 75
51 64 83
51 63 82
46 58 75
48 60 78
46 58 75
42 51 66
52 65 83
47 58 75
52 64 83
46 57 73
45 55 71
48 60 78
50 61 78
48 59 76
49 61 79
49 61 78
45 57 74
47 59 77
50 61 79
47 59 76
52 63 81
53 65 83
52 64 83
41 52 67
52 64 83
46 58 74
49 60 76
48 60 77
47 58 73
47 57 72
43 53 68
50 61 79
50 62 81
47 59 77
48 59 77
51 62 79
46 56 72
52 65 83
53 66 85
50 62 80
40 50 65
41 52 67
48 60 77
44 55 72
40 50 64
54 66 85
48 59 75
47 58 75
49 61 77
50 61 78
45 55 71
49 61 79
51 63 80
48 59 75
50 62 79
48 60 78
43 53 67
51 63 81
51 62 79
42 52 68
52 64 83
48 59 75
50 61 77
50 61 79
45 55 72
46 57 73
46 56 72
51 63 81
49 61 78
46 56 73
48 60 77
47 59 76
51 62 79
51 64 83
45 55 70
46 57 73
49 61 80
49 61 78
45 56 72
48 59 75
47 58 73
48 60 77
46 55 70
49 61 79
51 64 82
51 63 81
51 62 79
54 67 86
46 57 74
52 64 81
48 60 76
44 54 69
44 55 70
49 61 79
45 55 70
46 57 74
50 61 78
43 53 69
49 60 78
48 59 76
51 63 81
51 64 82
42 51 66
49 60 77
46 56 71
49 60 78
54 66 84
48 59 76
44 55 72
41 51 65
51 63 80
50 62 80
50 61 78
43 53 67
52 64 81
49 61 78
50 61 79
46 57 73
47 59 77
48 59 76
49 60 77
45 57 74
46 57 72
51 63 82
51 62 79
52 64 82
49 61 78
45 55 71
49 61 78
51 63 81
50 62 80
51 64 82
46 57 73
47 59 77
40 49 63
53 66 85
48 59 75
51 63 81
45 56 71
46 56 72
57 70 90
43 52 67
44 54 70
46 57 74
45 55 71
46 58 74
46 57 74
47 57 72
44 55 71
47 59 76
47 58 76
45 55 69
57 71 91
49 60 77
49 60 78
40 50 65
45 56 72
46 57 74
51 62 79
51 62 80
47 58 74
51 64 83
50 61 78
51 62 80
45 56 71
49 61 78
50 61 78
44 56 73
47 59 76
42 52 67
49 59 75
53 66 86
45 56 73
42 53 69
52 66 86
45 55 71
48 60 77
52 64 82
55 68 86
50 62 78
44 55 71
47 57 73
43 54 70
40 51 67
51 63 82
46 57 74
47 57 74
44 54 69
43 53 68
43 53 68
48 59 76
53 65 83
51 63 81
47 58 74
43 54 69
44 55 72
47 59 76
47 58 75
50 62 81
48 59 75
50 61 79
50 62 79
48 60 77
41 51 65
44 54 69
51 63 80
50 62 80
50 62 80
45 55 71
46 58 75
50 62 80
45 55 71
45 56 72
48 59 76
41 50 65
45 57 74
46 57 75
48 59 76
44 54 70
50 62 79
49 60 78
42 52 68
53 66 85
53 65 83
49 60 77
52 64 82
46 57 73
46 57 72
45 56 73
47 58 74
46 57 72
45 55 71
47 58 74
43 54 69
46 58 75
43 52 66
46 56 72
49 60 77
47 58 75
47 58 74
52 64 81
43 53 69
48 61 79
45 55 70
43 54 70
53 65 83
42 51 66
49 60 78
44 55 71
52 64 81
51 63 81
52 63 81
46 58 76
48 60 77
45 55 71
55 66 83
51 63 82
44 54 70
48 59 76
48 60 78
44 55 72
45 56 73
47 58 75
50 61 77
46 57 74
47 58 74
49 62 80
45 57 73
42 51 65
45 56 73
44 55 72
44 54 70
44 53 68
43 53 69
48 60 77
46 56 72
45 56 73
47 59 77
42 52 67
42 52 68
45 56 72
47 58 75
42 52 68
48 59 76
43 53 68
45 56 73
51 63 81
43 52 67
48 60 77
44 55 70
41 51 66
49 59 75
50 61 78
45 55 71
47 58 74
43 53 68
48 60 77
47 58 76
48 59 77
45 57 74
46 57 73
45 55 70
46 56 72
42 52 66
49 60 77
42 52 66
43 52 66
39 48 63
47 58 75
48 60 77
42 51 66
49 60 77
48 61 80
44 55 71
39 48 62
49 61 78
45 56 72
43 53 68
49 60 77
51 64 83
49 61 78
42 53 69
41 51 66
47 59 76
46 57 74
50 62 80
46 57 72
48 59 76
43 53 67
39 48 62
50 61 79
43 52 67
43 53 69
42 52 67
50 62 79
49 60 76
46 56 71
47 59 76
50 62 79
43 54 69
41 51 65
50 62 81
45 54 69
45 56 73
52 64 81
47 57 73
53 65 83
39 48 63
49 61 79
45 56 73
45 55 71
50 63 81
50 62 79
51 64 83
43 54 70
49 60 76
50 61 79
46 58 74
42 52 67
43 54 70
43 53 70
51 64 82
47 58 75
51 62 78
47 59 76
46 58 75
49 60 78
46 57 74
44 54 69
43 53 69
48 60 77
42 51 66
46 58 75
46 57 74
52 64 82
48 59 75
50 61 77
48 60 78
47 58 74
45 57 75
50 62 80
42 52 67
42 52 67
52 65 84
42 53 68
47 58 75
39 48 61
51 64 82
43 53 69
43 54 69
53 66 86
47 59 77
52 65 84
44 55 70
50 62 80
51 63 81
49 60 77
49 61 79
49 60 78
54 67 86
49 60 77
47 58 74
50 62 80
50 61 79
47 59 76
47 58 76
52 63 81
50 61 76
51 63 81
48 59 76
52 64 83
52 64 82
51 63 82
52 64 82
45 56 73
49 61 80
45 56 72
51 64 83
45 55 71
48 59 76
48 59 75
51 62 79
51 63 82
47 57 72
51 63 81
41 51 66
48 60 77
52 65 83
53 65 84
48 61 80
53 65 83
43 54 70
48 59 76
53 66 86
47 58 76
46 57 73
48 59 76
51 63 82
47 58 75
44 55 72
48 59 77
51 63 81
42 52 67
45 56 72
45 56 72
52 64 81
52 64 83
55 68 88
42 52 67
42 52 68
50 61 78
50 61 79
50 62 80
52 65 83
45 56 73
38 47 61
43 53 69
47 58 75
51 64 82
47 57 73
53 66 85
46 56 72
42 51 66
52 65 83
49 60 77
51 62 79
47 58 75
50 62 80
41 52 68
48 59 76
43 53 69
44 55 71
48 59 76
55 67 86
47 58 74
51 63 81
44 55 71
52 64 82
47 59 76
49 60 78
43 53 68
44 55 70
47 58 75
52 64 81
50 61 79
46 57 74
47 58 74
51 64 82
50 63 81
51 61 78
50 61 79
50 61 77
46 57 73
50 62 80
48 58 73
43 53 68
49 60 76
50 61 78
48 59 76
47 59 75
48 59 76
49 60 77
49 61 79
42 52 67
52 64 83
54 67 85
45 56 72
50 63 81
50 62 80
49 60 78
48 59 76
46 57 73
53 65 84
46 57 73
46 57 73
47 59 76
54 67 85
50 61 78
44 56 72
43 53 68
51 63 81
56 69 88
54 67 87
51 62 80
50 62 80
46 57 73
54 67 87
42 52 67
48 59 76
45 55 71
43 53 69
45 56 71
46 57 73
46 57 75
50 62 80
53 66 86
50 62 79
47 59 76
50 62 80
48 60 77
44 55 71
45 56 72
52 64 82
47 57 72
44 54 68
46 57 74
53 65 83
46 56 72
53 66 85
41 50 65
46 57 73
51 63 80
47 58 75
45 55 69
47 58 76
48 59 75
45 57 74
48 60 77
45 56 72
42 53 69
54 67 86
52 65 83
49 61 80
50 62 80
47 58 75
55 68 88
47 58 76
46 57 73
48 59 76
48 60 77
47 59 76
47 58 75
54 66 84
50 61 79
49 61 79
55 68 86
45 55 71
48 60 78
51 64 84
47 59 77
47 58 74
42 53 69
49 61 79
56 70 91
47 58 75
48 59 76
51 63 81
48 60 78
50 61 79
49 61 78
52 64 82
49 61 80
46 56 73
50 61 79
46 57 73
50 62 79
51 63 81
49 60 78
51 63 82
38 47 60
51 63 82
47 58 74
50 62 80
50 62 79
49 61 79
48 58 74
52 64 82
46 57 74
45 55 71
48 59 76
49 61 80
53 66 85
42 52 67
51 62 79
46 56 72
42 53 68
48 59 75
49 61 79
45 55 70
50 61 79
48 60 76
47 58 75
51 62 78
47 58 75
47 57 74
45 55 71
47 59 76
48 60 78
52 65 84
54 67 86
50 61 78
46 57 74
44 54 70
43 52 67
43 53 69
48 59 76
48 60 77
39 49 63
47 58 75
50 61 79
47 59 76
51 63 80
48 60 78
51 61 77
45 56 72
50 62 80
52 64 81
47 58 74
50 62 79
49 61 79
47 58 74
53 65 82
48 61 79
46 57 73
50 61 77
46 58 75
48 60 77
44 55 71
45 55 71
48 59 76
40 50 65
50 63 83
45 55 71
50 62 79
44 53 67
46 56 72
41 51 65
41 51 65
50 61 77
46 57 73
49 61 77
51 63 80
40 50 64
49 60 78
52 64 82
43 53 67
44 54 70
45 55 70
51 62 79
51 64 82
45 55 70
51 63 81
44 54 70
38 47 61
42 52 67
46 56 73
46 57 74
39 49 64
48 59 75
46 57 74
46 57 74
44 55 71
43 52 67
56 68 86
46 56 72
43 54 70
53 65 83
46 57 73
41 51 66
44 54 69
45 54 69
43 53 68
44 55 70
40 50 65
40 49 64
54 66 85
40 50 64
48 59 76
50 62 80
51 63 81
43 53 68
50 61 79
45 55 70
43 54 70
45 55 71
40 49 62
50 62 79
42 53 68
41 51 66
51 62 78
42 53 69
49 61 78
47 58 74
46 57 74
47 58 74
49 60 77
46 56 71
51 63 81
47 59 76
46 58 75
43 53 68
47 58 74
44 55 70
55 68 87
50 61 79
50 61 78
47 59 76
48 60 78
47 58 74
43 53 67
49 60 78
47 58 74
46 56 73
49 61 78
44 54 69
45 56 71
48 59 76
47 59 77
40 49 63
44 55 70
47 59 78
47 58 73
48 59 76
49 61 79
45 57 74
44 54 70
44 54 69
46 56 72
43 53 67
47 57 73
43 53 68
50 62 80
58 72 93
45 56 72
46 55 70
47 59 77
43 53 67
43 53 69
48 60 79
49 60 76
50 62 80
46 57 73
45 56 72
47 58 75
53 65 84
46 57 75
43 54 70
45 55 70
44 54 69
51 64 84
47 59 76
46 59 77
49 62 80
51 62 80
43 54 70
46 57 73
48 61 79
47 59 76
46 56 72
47 58 75
49 60 78
44 55 70
45 56 73
43 52 67
45 55 71
45 57 74
51 63 81
52 64 83
43 53 69
45 56 72
49 61 80
48 60 78
48 59 75
51 64 84
50 60 76
53 65 84
54 67 87
52 65 85
50 63 82
49 61 80
49 61 78
47 58 74
41 50 64
49 61 80
43 54 71
48 60 77
48 59 76
47 58 75
53 65 85
51 63 82
42 52 66
47 59 76
52 64 82
49 61 79
52 64 83
46 58 76
49 61 79
50 61 78
46 58 75
47 57 73
49 61 79
41 51 67
49 60 76
57 69 88
51 64 83
48 59 75
51 63 79
49 61 78
50 62 80
53 65 84
51 63 81
51 63 81
50 62 79
47 59 76
49 61 78
49 61 78
46 57 74
50 62 80
48 61 79
43 54 69
46 58 75
40 49 64
44 54 69
49 61 80
47 57 73
45 55 71
48 59 77
50 62 79
53 65 84
48 59 77
45 57 75
53 66 84
50 62 81
41 52 67
48 59 76
48 58 74
44 54 69
45 56 74
46 57 73
51 63 81
45 56 73
44 54 69
49 61 79
47 57 73
50 63 81
50 61 79
52 64 81
54 67 88
48 60 77
53 65 84
47 57 73
47 58 75
50 62 80
46 57 73
48 60 77
50 61 79
51 62 79
51 63 81
50 61 79
45 56 73
55 68 87
50 61 77
44 54 69
47 58 76
46 57 74
47 57 73
53 65 84
51 64 83
48 60 77
