P3
400 225
255
204 226 255
204 226 255
204 226 255
204 226 255
204 226 255
204 226 255
204 226 255
204 226 255
204 226 255
204 226 255
204 226 255
204 226 255
204 226 255
204 226 255
204 226 255
203 226 255
203 226 255
203 226 255
203 226 255
203 226 255
203 226 255
203 226 255
203 226 255
203 225 255
203 225 255
203 225 255
203 225 255
203 225 255
203 225 255
203 225 255
203 225 255
203 225 255
202 225 255
202 225 255
202 225 255
202 225 255
202 225 255
202 225 255
202 225 255
202 225 255
202 225 255
202 225 255
202 225 255
202 225 255
202 225 255
202 225 255
202 225 255
202 225 255
201 225 255
201 225 255
201 225 255
201 225 255
201 224 255
201 224 255
201 224 255
201 224 255
201 224 255
201 224 255
201 224 255
201 224 255
201 224 255
201 224 255
201 224 255
200 224 255
200 224 255
200 224 255
200 224 255
200 224 255
200 224 255
200 224 255
200 224 255
200 224 255
200 224 255
200 224 255
200 224 255
200 224 255
200 224 255
200 224 255
199 224 255
199 224 255
199 223 255
199 223 255
199 223 255
199 223 255
199 223 255
199 223 255
199 223 255
199 223 255
199 223 255
199 223 255
199 223 255
199 223 255
198 223 255
198 223 255
198 223 255
198 223 255
198 223 255
198 223 255
198 223 255
198 223 255
198 223 255
198 223 255
198 223 255
198 223 255
198 223 255
198 223 255
197 222 255
197 222 255
197 222 255
197 222 255
197 222 255
197 222 255
197 222 255
197 222 255
197 222 255
197 222 255
197 222 255
197 222 255
197 222 255
197 222 255
197 222 255
196 222 255
196 222 255
196 222 255
196 222 255
196 222 255
196 222 255
196 222 255
196 222 255
196 222 255
196 222 255
196 222 255
196 222 255
196 222 255
196 222 255
196 221 255
196 221 255
195 221 255
195 221 255
195 221 255
195 221 255
195 221 255
195 221 255
195 221 255
195 221 255
195 221 255
195 221 255
195 221 255
195 221 255
195 221 255
195 221 255
195 221 255
195 221 255
195 221 255
195 221 255
194 221 255
194 221 255
194 221 255
194 221 255
194 221 255
194 221 255
194 221 255
194 221 255
194 221 255
194 221 255
194 221 255
194 221 255
194 221 255
194 221 255
194 221 255
194 221 255
194 221 255
194 221 255
194 221 255
194 221 255
194 221 255
194 221 255
194 220 255
194 220 255
194 220 255
194 220 255
194 220 255
194 220 255
194 220 255
194 220 255
194 220 255
193 220 255
193 220 255
193 220 255
193 220 255
193 220 255
193 220 255
193 220 255
193 220 255
193 220 255
193 220 255
193 220 255
193 220 255
193 220 255
193 220 255
193 220 255
193 220 255
193 220 255
193 220 255
193 220 255
193 220 255
193 220 255
193 220 255
193 220 255
193 220 255
193 220 255
193 220 255
193 220 255
193 220 255
194 220 255
194 220 255
194 220 255
194 220 255
194 220 255
194 220 255
194 220 255
194 220 255
194 220 255
194 221 255
194 221 255
194 221 255
194 221 255
194 221 255
194 221 255
194 221 255
194 221 255
194 221 255
194 221 255
194 221 255
194 221 255
194 221 255
194 221 255
194 221 255
194 221 255
194 221 255
194 221 255
194 221 255
194 221 255
194 221 255
194 221 255
195 221 255
195 221 255
195 221 255
195 221 255
195 221 255
195 221 255
195 221 255
195 221 255
195 221 255
195 221 255
195 221 255
195 221 255
195 221 255
195 221 255
195 221 255
195 221 255
195 221 255
195 221 255
196 221 255
196 221 255
196 222 255
196 222 255
196 222 255
196 222 255
196 222 255
196 222 255
196 222 255
196 222 255
196 222 255
196 222 255
196 222 255
196 222 255
196 222 255
196 222 255
197 222 255
197 222 255
197 222 255
197 222 255
197 222 255
197 222 255
197 222 255
197 222 255
197 222 255
197 222 255
197 222 255
197 222 255
197 222 255
197 222 255
197 223 255
198 223 255
198 223 255
198 223 255
198 223 255
198 223 255
198 223 255
198 223 255
198 223 255
198 223 255
198 223 255
198 223 255
198 223 255
198 223 255
198 223 255
199 223 255
199 223 255
199 223 255
199 223 255
199 223 255
199 223 255
199 223 255
199 223 255
199 223 255
199 223 255
199 223 255
199 223 255
199 224 255
199 224 255
199 224 255
200 224 255
200 224 255
200 224 255
200 224 255
200 224 255
200 224 255
200 224 255
200 224 255
200 224 255
200 224 255
200 224 255
200 224 255
200 224 255
200 224 255
201 224 255
201 224 255
201 224 255
201 224 255
201 224 255
201 224 255
201 224 255
201 224 255
201 224 255
201 224 255
201 225 255
201 225 255
201 225 255
201 225 255
201 225 255
202 225 255
202 225 255
202 225 255
202 225 255
202 225 255
202 225 255
202 225 255
202 225 255
202 225 255
202 225 255
202 225 255
202 225 255
202 225 255
202 225 255
202 225 255
202 225 255
203 225 255
203 225 255
203 225 255
203 225 255
203 225 255
203 225 255
203 225 255
203 225 255
203 225 255
203 226 255
203 226 255
203 226 255
203 226 255
203 226 255
203 226 255
203 226 255
203 226 255
204 226 255
204 226 255
204 226 255
204 226 255
204 226 255
204 226 255
204 226 255
204 226 255
204 226 255
204 226 255
204 226 255
204 226 255
204 226 255
204 226 255
204 226 255
204 226 255
204 226 255
204 226 255
204 226 255
204 226 255
204 226 255
204 226 255
204 226 255
204 226 255
204 226 255
204 226 255
204 226 255
204 226 255
204 226 255
204 226 255
204 226 255
204 226 255
204 226 255
203 226 255
203 226 255
203 226 255
203 226 255
203 226 255
203 226 255
203 226 255
203 225 255
203 225 255
203 225 255
203 225 255
203 225 255
203 225 255
203 225 255
203 225 255
203 225 255
202 225 255
202 225 255
202 225 255
202 225 255
202 225 255
202 225 255
202 225 255
202 225 255
202 225 255
202 225 255
202 225 255
202 225 255
202 225 255
202 225 255
202 225 255
202 225 255
201 225 255
201 225 255
201 225 255
201 225 255
201 224 255
201 224 255
201 224 255
201 224 255
201 224 255
201 224 255
201 224 255
201 224 255
201 224 255
201 224 255
201 224 255
200 224 255
200 224 255
200 224 255
200 224 255
200 224 255
200 224 255
200 224 255
200 224 255
200 224 255
200 224 255
200 224 255
200 224 255
200 224 255
200 224 255
200 224 255
199 224 255
199 224 255
199 223 255
199 223 255
199 223 255
199 223 255
199 223 255
199 223 255
199 223 255
199 223 255
199 223 255
199 223 255
199 223 255
199 223 255
198 223 255
198 223 255
198 223 255
198 223 255
198 223 255
198 223 255
198 223 255
198 223 255
198 223 255
198 223 255
198 223 255
198 223 255
198 223 255
198 223 255
197 223 255
197 222 255
197 222 255
197 222 255
197 222 255
197 222 255
197 222 255
197 222 255
197 222 255
197 222 255
197 222 255
197 222 255
197 222 255
197 222 255
197 222 255
196 222 255
196 222 255
196 222 255
196 222 255
196 222 255
196 222 255
196 222 255
196 222 255
196 222 255
196 222 255
196 222 255
196 222 255
196 222 255
196 222 255
196 222 255
196 221 255
195 221 255
195 221 255
195 221 255
195 221 255
195 221 255
195 221 255
195 221 255
195 221 255
195 221 255
195 221 255
195 221 255
195 221 255
195 221 255
195 221 255
195 221 255
195 221 255
195 221 255
195 221 255
195 221 255
194 221 255
194 221 255
194 221 255
194 221 255
194 221 255
194 221 255
194 221 255
194 221 255
194 221 255
194 221 255
194 221 255
194 221 255
194 221 255
194 221 255
194 221 255
194 221 255
194 221 255
194 221 255
194 221 255
194 221 255
194 221 255
194 221 255
194 221 255
194 221 255
194 221 255
194 220 255
194 220 255
194 220 255
194 220 255
194 220 255
194 220 255
194 220 255
194 220 255
194 220 255
194 220 255
194 220 255
194 220 255
194 220 255
194 220 255
194 220 255
194 220 255
194 220 255
194 220 255
194 220 255
194 220 255
194 220 255
194 220 255
194 220 255
194 220 255
194 220 255
194 220 255
194 220 255
194 220 255
194 220 255
194 220 255
194 220 255
194 220 255
194 220 255
194 220 255
194 221 255
194 221 255
194 221 255
194 221 255
194 221 255
194 221 255
194 221 255
194 221 255
194 221 255
194 221 255
194 221 255
194 221 255
194 221 255
194 221 255
194 221 255
194 221 255
194 221 255
194 221 255
194 221 255
194 221 255
194 221 255
194 221 255
194 221 255
194 221 255
194 221 255
195 221 255
195 221 255
195 221 255
195 221 255
195 221 255
195 221 255
195 221 255
195 221 255
195 221 255
195 221 255
195 221 255
195 221 255
195 221 255
195 221 255
195 221 255
195 221 255
195 221 255
195 221 255
195 221 255
196 221 255
196 222 255
196 222 255
196 222 255
196 222 255
196 222 255
196 222 255
196 222 255
196 222 255
196 222 255
196 222 255
196 222 255
196 222 255
196 222 255
196 222 255
196 222 255
197 222 255
197 222 255
197 222 255
197 222 255
197 222 255
197 222 255
197 222 255
197 222 255
197 222 255
197 222 255
197 222 255
197 222 255
197 222 255
197 222 255
197 223 255
198 223 255
198 223 255
198 223 255
198 223 255
198 223 255
198 223 255
198 223 255
198 223 255
198 223 255
198 223 255
198 223 255
198 223 255
198 223 255
198 223 255
199 223 255
199 223 255
199 223 255
199 223 255
199 223 255
199 223 255
199 223 255
199 223 255
199 223 255
199 223 255
199 223 255
199 223 255
199 224 255
199 224 255
199 224 255
200 224 255
200 224 255
200 224 255
200 224 255
200 224 255
200 224 255
200 224 255
200 224 255
200 224 255
200 224 255
200 224 255
200 224 255
200 224 255
200 224 255
201 224 255
201 224 255
201 224 255
201 224 255
201 224 255
201 224 255
201 224 255
201 224 255
201 224 255
201 224 255
201 225 255
201 225 255
201 225 255
201 225 255
201 225 255
202 225 255
202 225 255
202 225 255
202 225 255
202 225 255
202 225 255
202 225 255
202 225 255
202 225 255
202 225 255
202 225 255
202 225 255
202 225 255
202 225 255
202 225 255
202 225 255
203 225 255
203 225 255
203 225 255
203 225 255
203 225 255
203 225 255
203 225 255
203 225 255
203 225 255
203 226 255
203 226 255
203 226 255
203 226 255
203 226 255
203 226 255
203 226 255
204 226 255
204 226 255
204 226 255
204 226 255
204 226 255
204 226 255
204 226 255
204 226 255
204 226 255
204 226 255
204 226 255
204 226 255
204 226 255
204 226 255
204 226 255
204 226 255
204 226 255
204 226 255
205 226 255
205 226 255
204 226 255
204 226 255
204 226 255
204 226 255
204 226 255
204 226 255
204 226 255
204 226 255
204 226 255
204 226 255
204 226 255
204 226 255
204 226 255
204 226 255
204 226 255
204 226 255
204 226 255
204 226 255
203 226 255
203 226 255
203 226 255
203 226 255
203 226 255
203 226 255
203 226 255
203 225 255
203 225 255
203 225 255
203 225 255
203 225 255
203 225 255
203 225 255
203 225 255
203 225 255
203 225 255
202 225 255
202 225 255
202 225 255
202 225 255
202 225 255
202 225 255
202 225 255
202 225 255
202 225 255
202 225 255
202 225 255
202 225 255
202 225 255
202 225 255
202 225 255
201 225 255
201 225 255
201 225 255
201 225 255
201 225 255
201 224 255
201 224 255
201 224 255
201 224 255
201 224 255
201 224 255
201 224 255
201 224 255
201 224 255
201 224 255
200 224 255
200 224 255
200 224 255
200 224 255
200 224 255
200 224 255
200 224 255
200 224 255
200 224 255
200 224 255
200 224 255
200 224 255
200 224 255
200 224 255
200 224 255
199 224 255
199 224 255
199 223 255
199 223 255
199 223 255
199 223 255
199 223 255
199 223 255
199 223 255
199 223 255
199 223 255
199 223 255
199 223 255
199 223 255
198 223 255
198 223 255
198 223 255
198 223 255
198 223 255
198 223 255
198 223 255
198 223 255
198 223 255
198 223 255
198 223 255
198 223 255
198 223 255
198 223 255
197 223 255
197 222 255
197 222 255
197 222 255
197 222 255
197 222 255
197 222 255
197 222 255
197 222 255
197 222 255
197 222 255
197 222 255
197 222 255
197 222 255
197 222 255
196 222 255
196 222 255
196 222 255
196 222 255
196 222 255
196 222 255
196 222 255
196 222 255
196 222 255
196 222 255
196 222 255
196 222 255
196 222 255
196 222 255
196 222 255
196 221 255
195 221 255
195 221 255
195 221 255
195 221 255
195 221 255
195 221 255
195 221 255
195 221 255
195 221 255
195 221 255
195 221 255
195 221 255
195 221 255
195 221 255
195 221 255
195 221 255
195 221 255
195 221 255
195 221 255
195 221 255
195 221 255
194 221 255
194 221 255
194 221 255
194 221 255
194 221 255
194 221 255
194 221 255
194 221 255
194 221 255
194 221 255
194 221 255
194 221 255
194 221 255
194 221 255
194 221 255
194 221 255
194 221 255
194 221 255
194 221 255
194 221 255
194 221 255
194 221 255
194 221 255
194 221 255
194 221 255
194 221 255
194 221 255
194 221 255
194 221 255
194 221 255
194 221 255
194 220 255
194 220 255
194 220 255
194 220 255
194 220 255
194 220 255
194 220 255
194 220 255
194 220 255
194 220 255
194 220 255
194 220 255
194 220 255
194 220 255
194 220 255
194 221 255
194 221 255
194 221 255
194 221 255
194 221 255
194 221 255
194 221 255
194 221 255
194 221 255
194 221 255
194 221 255
194 221 255
194 221 255
194 221 255
194 221 255
194 221 255
194 221 255
194 221 255
194 221 255
194 221 255
194 221 255
194 221 255
194 221 255
194 221 255
194 221 255
194 221 255
194 221 255
194 221 255
194 221 255
194 221 255
194 221 255
195 221 255
195 221 255
195 221 255
195 221 255
195 221 255
195 221 255
195 221 255
195 221 255
195 221 255
195 221 255
195 221 255
195 221 255
195 221 255
195 221 255
195 221 255
195 221 255
195 221 255
195 221 255
195 221 255
195 221 255
196 221 255
196 222 255
196 222 255
196 222 255
196 222 255
196 222 255
196 222 255
196 222 255
196 222 255
196 222 255
196 222 255
196 222 255
196 222 255
196 222 255
196 222 255
196 222 255
197 222 255
197 222 255
197 222 255
197 222 255
197 222 255
197 222 255
197 222 255
197 222 255
197 222 255
197 222 255
197 222 255
197 222 255
197 222 255
197 222 255
197 223 255
198 223 255
198 223 255
198 223 255
198 223 255
198 223 255
198 223 255
198 223 255
198 223 255
198 223 255
198 223 255
198 223 255
198 223 255
198 223 255
198 223 255
199 223 255
199 223 255
199 223 255
199 223 255
199 223 255
199 223 255
199 223 255
199 223 255
199 223 255
199 223 255
199 223 255
199 223 255
199 224 255
199 224 255
200 224 255
200 224 255
200 224 255
200 224 255
200 224 255
200 224 255
200 224 255
200 224 255
200 224 255
200 224 255
200 224 255
200 224 255
200 224 255
200 224 255
200 224 255
201 224 255
201 224 255
201 224 255
201 224 255
201 224 255
201 224 255
201 224 255
201 224 255
201 224 255
201 224 255
201 225 255
201 225 255
201 225 255
201 225 255
201 225 255
202 225 255
202 225 255
202 225 255
202 225 255
202 225 255
202 225 255
202 225 255
202 225 255
202 225 255
202 225 255
202 225 255
202 225 255
202 225 255
202 225 255
202 225 255
203 225 255
203 225 255
203 225 255
203 225 255
203 225 255
203 225 255
203 225 255
203 225 255
203 225 255
203 225 255
203 226 255
203 226 255
203 226 255
203 226 255
203 226 255
203 226 255
203 226 255
204 226 255
204 226 255
204 226 255
204 226 255
204 226 255
204 226 255
204 226 255
204 226 255
204 226 255
204 226 255
204 226 255
204 226 255
204 226 255
204 226 255
204 226 255
204 226 255
204 226 255
204 226 255
205 226 255
205 226 255
205 226 255
205 226 255
205 226 255
205 226 255
204 226 255
204 226 255
204 226 255
204 226 255
204 226 255
204 226 255
204 226 255
204 226 255
204 226 255
204 226 255
204 226 255
204 226 255
204 226 255
204 226 255
204 226 255
204 226 255
204 226 255
204 226 255
203 226 255
203 226 255
203 226 255
203 226 255
203 226 255
203 226 255
203 226 255
203 226 255
203 225 255
203 225 255
203 225 255
203 225 255
203 225 255
203 225 255
203 225 255
203 225 255
203 225 255
202 225 255
202 225 255
202 225 255
202 225 255
202 225 255
202 225 255
202 225 255
202 225 255
202 225 255
202 225 255
202 225 255
202 225 255
202 225 255
202 225 255
202 225 255
201 225 255
201 225 255
201 225 255
201 225 255
201 225 255
201 224 255
201 224 255
201 224 255
201 224 255
201 224 255
201 224 255
201 224 255
201 224 255
201 224 255
201 224 255
200 224 255
200 224 255
200 224 255
200 224 255
200 224 255
200 224 255
200 224 255
200 224 255
200 224 255
200 224 255
200 224 255
200 224 255
200 224 255
200 224 255
200 224 255
199 224 255
199 224 255
199 223 255
199 223 255
199 223 255
199 223 255
199 223 255
199 223 255
199 223 255
199 223 255
199 223 255
199 223 255
199 223 255
199 223 255
198 223 255
198 223 255
198 223 255
198 223 255
198 223 255
198 223 255
198 223 255
198 223 255
198 223 255
198 223 255
198 223 255
198 223 255
198 223 255
198 223 255
197 223 255
197 222 255
197 222 255
197 222 255
197 222 255
197 222 255
197 222 255
197 222 255
197 222 255
197 222 255
197 222 255
197 222 255
197 222 255
197 222 255
197 222 255
196 222 255
196 222 255
196 222 255
196 222 255
196 222 255
196 222 255
196 222 255
196 222 255
196 222 255
196 222 255
196 222 255
196 222 255
196 222 255
196 222 255
196 222 255
196 221 255
196 221 255
195 221 255
195 221 255
195 221 255
195 221 255
195 221 255
195 221 255
195 221 255
195 221 255
195 221 255
195 221 255
195 221 255
195 221 255
195 221 255
195 221 255
195 221 255
195 221 255
195 221 255
195 221 255
195 221 255
195 221 255
195 221 255
194 221 255
194 221 255
194 221 255
194 221 255
194 221 255
194 221 255
194 221 255
194 221 255
194 221 255
194 221 255
194 221 255
194 221 255
194 221 255
194 221 255
194 221 255
194 221 255
194 221 255
194 221 255
194 221 255
194 221 255
194 221 255
194 221 255
194 221 255
194 221 255
194 221 255
194 221 255
194 221 255
194 221 255
194 221 255
194 221 255
194 221 255
194 221 255
194 221 255
194 221 255
194 221 255
194 221 255
194 221 255
194 221 255
194 221 255
194 221 255
194 221 255
194 221 255
194 221 255
194 221 255
194 221 255
194 221 255
194 221 255
194 221 255
194 221 255
194 221 255
194 221 255
194 221 255
194 221 255
194 221 255
194 221 255
194 221 255
194 221 255
194 221 255
194 221 255
194 221 255
194 221 255
194 221 255
194 221 255
194 221 255
194 221 255
194 221 255
194 221 255
194 221 255
194 221 255
194 221 255
195 221 255
195 221 255
195 221 255
195 221 255
195 221 255
195 221 255
195 221 255
195 221 255
195 221 255
195 221 255
195 221 255
195 221 255
195 221 255
195 221 255
195 221 255
195 221 255
195 221 255
195 221 255
195 221 255
195 221 255
195 221 255
196 221 255
196 222 255
196 222 255
196 222 255
196 222 255
196 222 255
196 222 255
196 222 255
196 222 255
196 222 255
196 222 255
196 222 255
196 222 255
196 222 255
196 222 255
196 222 255
196 222 255
197 222 255
197 222 255
197 222 255
197 222 255
197 222 255
197 222 255
197 222 255
197 222 255
197 222 255
197 222 255
197 222 255
197 222 255
197 222 255
197 222 255
197 223 255
198 223 255
198 223 255
198 223 255
198 223 255
198 223 255
198 223 255
198 223 255
198 223 255
198 223 255
198 223 255
198 223 255
198 223 255
198 223 255
198 223 255
199 223 255
199 223 255
199 223 255
199 223 255
199 223 255
199 223 255
199 223 255
199 223 255
199 223 255
199 223 255
199 223 255
199 223 255
199 224 255
199 224 255
200 224 255
200 224 255
200 224 255
200 224 255
200 224 255
200 224 255
200 224 255
200 224 255
200 224 255
200 224 255
200 224 255
200 224 255
200 224 255
200 224 255
200 224 255
201 224 255
201 224 255
201 224 255
201 224 255
201 224 255
201 224 255
201 224 255
201 224 255
201 224 255
201 224 255
201 225 255
201 225 255
201 225 255
201 225 255
201 225 255
202 225 255
202 225 255
202 225 255
202 225 255
202 225 255
202 225 255
202 225 255
202 225 255
202 225 255
202 225 255
202 225 255
202 225 255
202 225 255
202 225 255
202 225 255
203 225 255
203 225 255
203 225 255
203 225 255
203 225 255
203 225 255
203 225 255
203 225 255
203 225 255
203 226 255
203 226 255
203 226 255
203 226 255
203 226 255
203 226 255
203 226 255
203 226 255
204 226 255
204 226 255
204 226 255
204 226 255
204 226 255
204 226 255
204 226 255
204 226 255
204 226 255
204 226 255
204 226 255
204 226 255
204 226 255
204 226 255
204 226 255
204 226 255
204 226 255
204 226 255
205 226 255
205 226 255
205 226 255
205 226 255
205 226 255
205 226 255
205 226 255
205 226 255
205 226 255
205 226 255
205 226 255
204 226 255
204 226 255
204 226 255
204 226 255
204 226 255
204 226 255
204 226 255
204 226 255
204 226 255
204 226 255
204 226 255
204 226 255
204 226 255
204 226 255
204 226 255
204 226 255
204 226 255
204 226 255
203 226 255
203 226 255
203 226 255
203 226 255
203 226 255
203 226 255
203 226 255
203 225 255
203 225 255
203 225 255
203 225 255
203 225 255
203 225 255
203 225 255
203 225 255
203 225 255
202 225 255
202 225 255
202 225 255
202 225 255
202 225 255
202 225 255
202 225 255
202 225 255
202 225 255
202 225 255
202 225 255
202 225 255
202 225 255
202 225 255
202 225 255
202 225 255
201 225 255
201 225 255
201 225 255
201 225 255
201 224 255
201 224 255
201 224 255
201 224 255
201 224 255
201 224 255
201 224 255
201 224 255
201 224 255
201 224 255
200 224 255
200 224 255
200 224 255
200 224 255
200 224 255
200 224 255
200 224 255
200 224 255
200 224 255
200 224 255
200 224 255
200 224 255
200 224 255
200 224 255
200 224 255
199 224 255
199 224 255
199 223 255
199 223 255
199 223 255
199 223 255
199 223 255
199 223 255
199 223 255
199 223 255
199 223 255
199 223 255
199 223 255
199 223 255
198 223 255
198 223 255
198 223 255
198 223 255
198 223 255
198 223 255
198 223 255
198 223 255
198 223 255
198 223 255
198 223 255
198 223 255
198 223 255
198 223 255
197 223 255
197 222 255
197 222 255
197 222 255
197 222 255
197 222 255
197 222 255
197 222 255
197 222 255
197 222 255
197 222 255
197 222 255
197 222 255
197 222 255
197 222 255
197 222 255
196 222 255
196 222 255
196 222 255
196 222 255
196 222 255
196 222 255
196 222 255
196 222 255
196 222 255
196 222 255
196 222 255
196 222 255
196 222 255
196 222 255
196 222 255
196 221 255
196 221 255
195 221 255
195 221 255
195 221 255
195 221 255
195 221 255
195 221 255
195 221 255
195 221 255
195 221 255
195 221 255
195 221 255
195 221 255
195 221 255
195 221 255
195 221 255
195 221 255
195 221 255
195 221 255
195 221 255
195 221 255
195 221 255
195 221 255
194 221 255
194 221 255
194 221 255
194 221 255
194 221 255
194 221 255
194 221 255
194 221 255
194 221 255
194 221 255
194 221 255
194 221 255
194 221 255
194 221 255
194 221 255
194 221 255
194 221 255
194 221 255
194 221 255
194 221 255
194 221 255
194 221 255
194 221 255
194 221 255
194 221 255
194 221 255
194 221 255
194 221 255
194 221 255
194 221 255
194 221 255
194 221 255
194 221 255
194 221 255
194 221 255
194 221 255
194 221 255
194 221 255
194 221 255
194 221 255
194 221 255
194 221 255
194 221 255
194 221 255
194 221 255
194 221 255
194 221 255
194 221 255
194 221 255
194 221 255
194 221 255
194 221 255
194 221 255
194 221 255
194 221 255
194 221 255
194 221 255
194 221 255
194 221 255
194 221 255
194 221 255
194 221 255
195 221 255
195 221 255
195 221 255
195 221 255
195 221 255
195 221 255
195 221 255
195 221 255
195 221 255
195 221 255
195 221 255
195 221 255
195 221 255
195 221 255
195 221 255
195 221 255
195 221 255
195 221 255
195 221 255
195 221 255
195 221 255
195 221 255
196 221 255
196 221 255
196 222 255
196 222 255
196 222 255
196 222 255
196 222 255
196 222 255
196 222 255
196 222 255
196 222 255
196 222 255
196 222 255
196 222 255
196 222 255
196 222 255
196 222 255
197 222 255
197 222 255
197 222 255
197 222 255
197 222 255
197 222 255
197 222 255
197 222 255
197 222 255
197 222 255
197 222 255
197 222 255
197 222 255
197 222 255
197 222 255
197 223 255
198 223 255
198 223 255
198 223 255
198 223 255
198 223 255
198 223 255
198 223 255
198 223 255
198 223 255
198 223 255
198 223 255
198 223 255
198 223 255
198 223 255
199 223 255
199 223 255
199 223 255
199 223 255
199 223 255
199 223 255
199 223 255
199 223 255
199 223 255
199 223 255
199 223 255
199 223 255
199 224 255
199 224 255
200 224 255
200 224 255
200 224 255
200 224 255
200 224 255
200 224 255
200 224 255
200 224 255
200 224 255
200 224 255
200 224 255
200 224 255
200 224 255
200 224 255
200 224 255
201 224 255
201 224 255
201 224 255
201 224 255
201 224 255
201 224 255
201 224 255
201 224 255
201 224 255
201 224 255
201 225 255
201 225 255
201 225 255
201 225 255
202 225 255
202 225 255
202 225 255
202 225 255
202 225 255
202 225 255
202 225 255
202 225 255
202 225 255
202 225 255
202 225 255
202 225 255
202 225 255
202 225 255
202 225 255
202 225 255
203 225 255
203 225 255
203 225 255
203 225 255
203 225 255
203 225 255
203 225 255
203 225 255
203 225 255
203 226 255
203 226 255
203 226 255
203 226 255
203 226 255
203 226 255
203 226 255
203 226 255
204 226 255
204 226 255
204 226 255
204 226 255
204 226 255
204 226 255
204 226 255
204 226 255
204 226 255
204 226 255
204 226 255
204 226 255
204 226 255
204 226 255
204 226 255
204 226 255
204 226 255
205 226 255
205 226 255
205 226 255
205 226 255
205 226 255
205 226 255
205 226 255
205 227 255
205 227 255
205 226 255
205 226 255
205 226 255
205 226 255
205 226 255
205 226 255
205 226 255
204 226 255
204 226 255
204 226 255
204 226 255
204 226 255
204 226 255
204 226 255
204 226 255
204 226 255
204 226 255
204 226 255
204 226 255
204 226 255
204 226 255
204 226 255
204 226 255
204 226 255
204 226 255
203 226 255
203 226 255
203 226 255
203 226 255
203 226 255
203 226 255
203 226 255
203 225 255
203 225 255
203 225 255
203 225 255
203 225 255
203 225 255
203 225 255
203 225 255
203 225 255
202 225 255
202 225 255
202 225 255
202 225 255
202 225 255
202 225 255
202 225 255
202 225 255
202 225 255
202 225 255
202 225 255
202 225 255
202 225 255
202 225 255
202 225 255
202 225 255
201 225 255
201 225 255
201 225 255
201 225 255
201 224 255
201 224 255
201 224 255
201 224 255
201 224 255
201 224 255
201 224 255
201 224 255
201 224 255
201 224 255
200 224 255
200 224 255
200 224 255
200 224 255
200 224 255
200 224 255
200 224 255
200 224 255
200 224 255
200 224 255
200 224 255
200 224 255
200 224 255
200 224 255
200 224 255
199 224 255
199 224 255
199 223 255
199 223 255
199 223 255
199 223 255
199 223 255
199 223 255
199 223 255
199 223 255
199 223 255
199 223 255
199 223 255
199 223 255
198 223 255
198 223 255
198 223 255
198 223 255
198 223 255
198 223 255
198 223 255
198 223 255
198 223 255
198 223 255
198 223 255
198 223 255
198 223 255
198 223 255
198 223 255
197 222 255
197 222 255
197 222 255
197 222 255
197 222 255
197 222 255
197 222 255
197 222 255
197 222 255
197 222 255
197 222 255
197 222 255
197 222 255
197 222 255
197 222 255
196 222 255
196 222 255
196 222 255
196 222 255
196 222 255
196 222 255
196 222 255
196 222 255
196 222 255
196 222 255
196 222 255
196 222 255
196 222 255
196 222 255
196 222 255
196 222 255
196 221 255
195 221 255
195 221 255
195 221 255
195 221 255
195 221 255
195 221 255
195 221 255
195 221 255
195 221 255
195 221 255
195 221 255
195 221 255
195 221 255
195 221 255
195 221 255
195 221 255
195 221 255
195 221 255
195 221 255
195 221 255
195 221 255
195 221 255
195 221 255
195 221 255
194 221 255
194 221 255
194 221 255
194 221 255
194 221 255
194 221 255
194 221 255
194 221 255
194 221 255
194 221 255
194 221 255
194 221 255
194 221 255
194 221 255
194 221 255
194 221 255
194 221 255
194 221 255
194 221 255
194 221 255
194 221 255
194 221 255
194 221 255
194 221 255
194 221 255
194 221 255
194 221 255
194 221 255
194 221 255
194 221 255
194 221 255
194 221 255
194 221 255
194 221 255
194 221 255
194 221 255
194 221 255
194 221 255
194 221 255
194 221 255
194 221 255
194 221 255
194 221 255
194 221 255
194 221 255
194 221 255
194 221 255
194 221 255
194 221 255
194 221 255
194 221 255
194 221 255
194 221 255
194 221 255
195 221 255
195 221 255
195 221 255
195 221 255
195 221 255
195 221 255
195 221 255
195 221 255
195 221 255
195 221 255
195 221 255
195 221 255
195 221 255
195 221 255
195 221 255
195 221 255
195 221 255
195 221 255
195 221 255
195 221 255
195 221 255
195 221 255
195 221 255
195 221 255
196 221 255
196 222 255
196 222 255
196 222 255
196 222 255
196 222 255
196 222 255
196 222 255
196 222 255
196 222 255
196 222 255
196 222 255
196 222 255
196 222 255
196 222 255
196 222 255
196 222 255
197 222 255
197 222 255
197 222 255
197 222 255
197 222 255
197 222 255
197 222 255
197 222 255
197 222 255
197 222 255
197 222 255
197 222 255
197 222 255
197 222 255
197 222 255
198 223 255
198 223 255
198 223 255
198 223 255
198 223 255
198 223 255
198 223 255
198 223 255
198 223 255
198 223 255
198 223 255
198 223 255
198 223 255
198 223 255
198 223 255
199 223 255
199 223 255
199 223 255
199 223 255
199 223 255
199 223 255
199 223 255
199 223 255
199 223 255
199 223 255
199 223 255
199 223 255
199 224 255
199 224 255
200 224 255
200 224 255
200 224 255
200 224 255
200 224 255
200 224 255
200 224 255
200 224 255
200 224 255
200 224 255
200 224 255
200 224 255
200 224 255
200 224 255
200 224 255
201 224 255
201 224 255
201 224 255
201 224 255
201 224 255
201 224 255
201 224 255
201 224 255
201 224 255
201 224 255
201 225 255
201 225 255
201 225 255
201 225 255
202 225 255
202 225 255
202 225 255
202 225 255
202 225 255
202 225 255
202 225 255
202 225 255
202 225 255
202 225 255
202 225 255
202 225 255
202 225 255
202 225 255
202 225 255
202 225 255
203 225 255
203 225 255
203 225 255
203 225 255
203 225 255
203 225 255
203 225 255
203 225 255
203 225 255
203 226 255
203 226 255
203 226 255
203 226 255
203 226 255
203 226 255
203 226 255
204 226 255
204 226 255
204 226 255
204 226 255
204 226 255
204 226 255
204 226 255
204 226 255
204 226 255
204 226 255
204 226 255
204 226 255
204 226 255
204 226 255
204 226 255
204 226 255
204 226 255
204 226 255
205 226 255
205 226 255
205 226 255
205 226 255
205 226 255
205 226 255
205 226 255
205 227 255
205 227 255
205 227 255
205 227 255
205 227 255
205 227 255
205 226 255
205 226 255
205 226 255
205 226 255
205 226 255
205 226 255
205 226 255
205 226 255
204 226 255
204 226 255
204 226 255
204 226 255
204 226 255
204 226 255
204 226 255
204 226 255
204 226 255
204 226 255
204 226 255
204 226 255
204 226 255
204 226 255
204 226 255
204 226 255
204 226 255
203 226 255
203 226 255
203 226 255
203 226 255
203 226 255
203 226 255
203 226 255
203 225 255
203 225 255
203 225 255
203 225 255
203 225 255
203 225 255
203 225 255
203 225 255
203 225 255
202 225 255
202 225 255
202 225 255
202 225 255
202 225 255
202 225 255
202 225 255
202 225 255
202 225 255
202 225 255
202 225 255
202 225 255
202 225 255
202 225 255
202 225 255
202 225 255
201 225 255
201 225 255
201 225 255
201 225 255
201 224 255
201 224 255
201 224 255
201 224 255
201 224 255
201 224 255
201 224 255
201 224 255
201 224 255
201 224 255
200 224 255
200 224 255
200 224 255
200 224 255
200 224 255
200 224 255
200 224 255
200 224 255
200 224 255
200 224 255
200 224 255
200 224 255
200 224 255
200 224 255
200 224 255
199 224 255
199 224 255
199 223 255
199 223 255
199 223 255
199 223 255
199 223 255
199 223 255
199 223 255
199 223 255
199 223 255
199 223 255
199 223 255
199 223 255
198 223 255
198 223 255
198 223 255
198 223 255
198 223 255
198 223 255
198 223 255
198 223 255
198 223 255
198 223 255
198 223 255
198 223 255
198 223 255
198 223 255
198 223 255
197 222 255
197 222 255
197 222 255
197 222 255
197 222 255
197 222 255
197 222 255
197 222 255
197 222 255
197 222 255
197 222 255
197 222 255
197 222 255
197 222 255
197 222 255
196 222 255
196 222 255
196 222 255
196 222 255
196 222 255
196 222 255
196 222 255
196 222 255
196 222 255
196 222 255
196 222 255
196 222 255
196 222 255
196 222 255
196 222 255
196 222 255
196 222 255
196 221 255
195 221 255
195 221 255
195 221 255
195 221 255
195 221 255
195 221 255
195 221 255
195 221 255
195 221 255
195 221 255
195 221 255
195 221 255
195 221 255
195 221 255
195 221 255
195 221 255
195 221 255
195 221 255
195 221 255
195 221 255
195 221 255
195 221 255
195 221 255
195 221 255
195 221 255
195 221 255
194 221 255
194 221 255
194 221 255
194 221 255
194 221 255
194 221 255
194 221 255
194 221 255
194 221 255
194 221 255
194 221 255
194 221 255
194 221 255
194 221 255
194 221 255
194 221 255
194 221 255
194 221 255
194 221 255
194 221 255
194 221 255
194 221 255
194 221 255
194 221 255
194 221 255
194 221 255
194 221 255
194 221 255
194 221 255
194 221 255
194 221 255
194 221 255
194 221 255
194 221 255
194 221 255
194 221 255
194 221 255
194 221 255
194 221 255
194 221 255
194 221 255
194 221 255
194 221 255
194 221 255
195 221 255
195 221 255
195 221 255
195 221 255
195 221 255
195 221 255
195 221 255
195 221 255
195 221 255
195 221 255
195 221 255
195 221 255
195 221 255
195 221 255
195 221 255
195 221 255
195 221 255
195 221 255
195 221 255
195 221 255
195 221 255
195 221 255
195 221 255
195 221 255
195 221 255
195 221 255
196 221 255
196 222 255
196 222 255
196 222 255
196 222 255
196 222 255
196 222 255
196 222 255
196 222 255
196 222 255
196 222 255
196 222 255
196 222 255
196 222 255
196 222 255
196 222 255
196 222 255
196 222 255
197 222 255
197 222 255
197 222 255
197 222 255
197 222 255
197 222 255
197 222 255
197 222 255
197 222 255
197 222 255
197 222 255
197 222 255
197 222 255
197 222 255
197 222 255
198 223 255
198 223 255
198 223 255
198 223 255
198 223 255
198 223 255
198 223 255
198 223 255
198 223 255
198 223 255
198 223 255
198 223 255
198 223 255
198 223 255
198 223 255
199 223 255
199 223 255
199 223 255
199 223 255
199 223 255
199 223 255
199 223 255
199 223 255
199 223 255
199 223 255
199 223 255
199 223 255
199 224 255
199 224 255
200 224 255
200 224 255
200 224 255
200 224 255
200 224 255
200 224 255
200 224 255
200 224 255
200 224 255
200 224 255
200 224 255
200 224 255
200 224 255
200 224 255
200 224 255
201 224 255
201 224 255
201 224 255
201 224 255
201 224 255
201 224 255
201 224 255
201 224 255
201 224 255
201 224 255
201 225 255
201 225 255
201 225 255
201 225 255
202 225 255
202 225 255
202 225 255
202 225 255
202 225 255
202 225 255
202 225 255
202 225 255
202 225 255
202 225 255
202 225 255
202 225 255
202 225 255
202 225 255
202 225 255
202 225 255
203 225 255
203 225 255
203 225 255
203 225 255
203 225 255
203 225 255
203 225 255
203 225 255
203 225 255
203 226 255
203 226 255
203 226 255
203 226 255
203 226 255
203 226 255
203 226 255
204 226 255
204 226 255
204 226 255
204 226 255
204 226 255
204 226 255
204 226 255
204 226 255
204 226 255
204 226 255
204 226 255
204 226 255
204 226 255
204 226 255
204 226 255
204 226 255
204 226 255
204 226 255
205 226 255
205 226 255
205 226 255
205 226 255
205 226 255
205 226 255
205 226 255
205 227 255
205 227 255
205 227 255
205 227 255
205 227 255
205 227 255
205 227 255
205 227 255
205 227 255
205 227 255
205 227 255
205 226 255
205 226 255
205 226 255
205 226 255
205 226 255
205 226 255
205 226 255
204 226 255
204 226 255
204 226 255
204 226 255
204 226 255
204 226 255
204 226 255
204 226 255
204 226 255
204 226 255
204 226 255
204 226 255
204 226 255
204 226 255
204 226 255
204 226 255
204 226 255
203 226 255
203 226 255
203 226 255
203 226 255
203 226 255
203 226 255
203 226 255
203 226 255
203 225 255
203 225 255
203 225 255
203 225 255
203 225 255
203 225 255
203 225 255
203 225 255
202 225 255
202 225 255
202 225 255
202 225 255
202 225 255
202 225 255
202 225 255
202 225 255
202 225 255
202 225 255
202 225 255
202 225 255
202 225 255
202 225 255
202 225 255
202 225 255
201 225 255
201 225 255
201 225 255
201 225 255
201 224 255
201 224 255
201 224 255
201 224 255
201 224 255
201 224 255
201 224 255
201 224 255
201 224 255
201 224 255
201 224 255
200 224 255
200 224 255
200 224 255
200 224 255
200 224 255
200 224 255
200 224 255
200 224 255
200 224 255
200 224 255
200 224 255
200 224 255
200 224 255
200 224 255
199 224 255
199 224 255
199 223 255
199 223 255
199 223 255
199 223 255
199 223 255
199 223 255
199 223 255
199 223 255
199 223 255
199 223 255
199 223 255
199 223 255
198 223 255
198 223 255
198 223 255
198 223 255
198 223 255
198 223 255
198 223 255
198 223 255
198 223 255
198 223 255
198 223 255
198 223 255
198 223 255
198 223 255
198 223 255
197 223 255
197 222 255
197 222 255
197 222 255
197 222 255
197 222 255
197 222 255
197 222 255
197 222 255
197 222 255
197 222 255
197 222 255
197 222 255
197 222 255
197 222 255
197 222 255
196 222 255
196 222 255
196 222 255
196 222 255
196 222 255
196 222 255
196 222 255
196 222 255
196 222 255
196 222 255
196 222 255
196 222 255
196 222 255
196 222 255
196 222 255
196 222 255
196 222 255
196 221 255
195 221 255
195 221 255
195 221 255
195 221 255
195 221 255
195 221 255
195 221 255
195 221 255
195 221 255
195 221 255
195 221 255
195 221 255
195 221 255
195 221 255
195 221 255
195 221 255
195 221 255
195 221 255
195 221 255
195 221 255
195 221 255
195 221 255
195 221 255
195 221 255
195 221 255
195 221 255
195 221 255
195 221 255
195 221 255
195 221 255
194 221 255
194 221 255
194 221 255
194 221 255
194 221 255
194 221 255
194 221 255
194 221 255
194 221 255
194 221 255
194 221 255
194 221 255
194 221 255
194 221 255
194 221 255
194 221 255
194 221 255
194 221 255
194 221 255
194 221 255
194 221 255
194 221 255
194 221 255
194 221 255
194 221 255
194 221 255
194 221 255
194 221 255
194 221 255
194 221 255
195 221 255
195 221 255
195 221 255
195 221 255
195 221 255
195 221 255
195 221 255
195 221 255
195 221 255
195 221 255
195 221 255
195 221 255
195 221 255
195 221 255
195 221 255
195 221 255
195 221 255
195 221 255
195 221 255
195 221 255
195 221 255
195 221 255
195 221 255
195 221 255
195 221 255
195 221 255
195 221 255
195 221 255
195 221 255
195 221 255
196 221 255
196 222 255
196 222 255
196 222 255
196 222 255
196 222 255
196 222 255
196 222 255
196 222 255
196 222 255
196 222 255
196 222 255
196 222 255
196 222 255
196 222 255
196 222 255
196 222 255
196 222 255
197 222 255
197 222 255
197 222 255
197 222 255
197 222 255
197 222 255
197 222 255
197 222 255
197 222 255
197 222 255
197 222 255
197 222 255
197 222 255
197 222 255
197 222 255
197 223 255
198 223 255
198 223 255
198 223 255
198 223 255
198 223 255
198 223 255
198 223 255
198 223 255
198 223 255
198 223 255
198 223 255
198 223 255
198 223 255
198 223 255
198 223 255
199 223 255
199 223 255
199 223 255
199 223 255
199 223 255
199 223 255
199 223 255
199 223 255
199 223 255
199 223 255
199 223 255
199 223 255
199 224 255
199 224 255
200 224 255
200 224 255
200 224 255
200 224 255
200 224 255
200 224 255
200 224 255
200 224 255
200 224 255
200 224 255
200 224 255
200 224 255
200 224 255
200 224 255
201 224 255
201 224 255
201 224 255
201 224 255
201 224 255
201 224 255
201 224 255
201 224 255
201 224 255
201 224 255
201 224 255
201 225 255
201 225 255
201 225 255
201 225 255
202 225 255
202 225 255
202 225 255
202 225 255
202 225 255
202 225 255
202 225 255
202 225 255
202 225 255
202 225 255
202 225 255
202 225 255
202 225 255
202 225 255
202 225 255
203 225 255
203 225 255
203 225 255
203 225 255
203 225 255
203 225 255
203 225 255
203 225 255
203 225 255
203 226 255
203 226 255
203 226 255
203 226 255
203 226 255
203 226 255
203 226 255
203 226 255
204 226 255
204 226 255
204 226 255
204 226 255
204 226 255
204 226 255
204 226 255
204 226 255
204 226 255
204 226 255
204 226 255
204 226 255
204 226 255
204 226 255
204 226 255
204 226 255
204 226 255
205 226 255
205 226 255
205 226 255
205 226 255
205 226 255
205 226 255
205 226 255
205 227 255
205 227 255
205 227 255
205 227 255
205 227 255
205 227 255
205 227 255
205 227 255
205 227 255
205 227 255
205 227 255
205 227 255
205 227 255
205 227 255
205 227 255
205 227 255
205 226 255
205 226 255
205 226 255
205 226 255
205 226 255
205 226 255
205 226 255
204 226 255
204 226 255
204 226 255
204 226 255
204 226 255
204 226 255
204 226 255
204 226 255
204 226 255
204 226 255
204 226 255
204 226 255
204 226 255
204 226 255
204 226 255
204 226 255
204 226 255
204 226 255
203 226 255
203 226 255
203 226 255
203 226 255
203 226 255
203 226 255
203 226 255
203 225 255
203 225 255
203 225 255
203 225 255
203 225 255
203 225 255
203 225 255
203 225 255
203 225 255
202 225 255
202 225 255
202 225 255
202 225 255
202 225 255
202 225 255
202 225 255
202 225 255
202 225 255
202 225 255
202 225 255
202 225 255
202 225 255
202 225 255
202 225 255
201 225 255
201 225 255
201 225 255
201 225 255
201 224 255
201 224 255
201 224 255
201 224 255
201 224 255
201 224 255
201 224 255
201 224 255
201 224 255
201 224 255
201 224 255
200 224 255
200 224 255
200 224 255
200 224 255
200 224 255
200 224 255
200 224 255
200 224 255
200 224 255
200 224 255
200 224 255
200 224 255
200 224 255
200 224 255
199 224 255
199 224 255
199 223 255
199 223 255
199 223 255
199 223 255
199 223 255
199 223 255
199 223 255
199 223 255
199 223 255
199 223 255
199 223 255
199 223 255
199 223 255
198 223 255
198 223 255
198 223 255
198 223 255
198 223 255
198 223 255
198 223 255
198 223 255
198 223 255
198 223 255
198 223 255
198 223 255
198 223 255
198 223 255
197 223 255
197 222 255
197 222 255
197 222 255
197 222 255
197 222 255
197 222 255
197 222 255
197 222 255
197 222 255
197 222 255
197 222 255
197 222 255
197 222 255
197 222 255
197 222 255
197 222 255
196 222 255
196 222 255
196 222 255
196 222 255
196 222 255
196 222 255
196 222 255
196 222 255
196 222 255
196 222 255
196 222 255
196 222 255
196 222 255
196 222 255
196 222 255
196 222 255
196 222 255
196 221 255
196 221 255
195 221 255
195 221 255
195 221 255
195 221 255
195 221 255
195 221 255
195 221 255
195 221 255
195 221 255
195 221 255
195 221 255
195 221 255
195 221 255
195 221 255
195 221 255
195 221 255
195 221 255
195 221 255
195 221 255
195 221 255
195 221 255
195 221 255
195 221 255
195 221 255
195 221 255
195 221 255
195 221 255
195 221 255
195 221 255
195 221 255
195 221 255
195 221 255
195 221 255
195 221 255
195 221 255
195 221 255
195 221 255
195 221 255
195 221 255
195 221 255
195 221 255
195 221 255
195 221 255
195 221 255
195 221 255
195 221 255
195 221 255
195 221 255
195 221 255
195 221 255
195 221 255
195 221 255
195 221 255
195 221 255
195 221 255
195 221 255
195 221 255
195 221 255
195 221 255
195 221 255
195 221 255
195 221 255
195 221 255
195 221 255
195 221 255
195 221 255
195 221 255
195 221 255
195 221 255
195 221 255
195 221 255
195 221 255
195 221 255
195 221 255
195 221 255
195 221 255
195 221 255
195 221 255
195 221 255
195 221 255
195 221 255
195 221 255
196 221 255
196 221 255
196 222 255
196 222 255
196 222 255
196 222 255
196 222 255
196 222 255
196 222 255
196 222 255
196 222 255
196 222 255
196 222 255
196 222 255
196 222 255
196 222 255
196 222 255
196 222 255
196 222 255
197 222 255
197 222 255
197 222 255
197 222 255
197 222 255
197 222 255
197 222 255
197 222 255
197 222 255
197 222 255
197 222 255
197 222 255
197 222 255
197 222 255
197 222 255
197 222 255
197 223 255
198 223 255
198 223 255
198 223 255
198 223 255
198 223 255
198 223 255
198 223 255
198 223 255
198 223 255
198 223 255
198 223 255
198 223 255
198 223 255
198 223 255
199 223 255
199 223 255
199 223 255
199 223 255
199 223 255
199 223 255
199 223 255
199 223 255
199 223 255
199 223 255
199 223 255
199 223 255
199 223 255
199 224 255
199 224 255
200 224 255
200 224 255
200 224 255
200 224 255
200 224 255
200 224 255
200 224 255
200 224 255
200 224 255
200 224 255
200 224 255
200 224 255
200 224 255
200 224 255
201 224 255
201 224 255
201 224 255
201 224 255
201 224 255
201 224 255
201 224 255
201 224 255
201 224 255
201 224 255
201 225 255
201 225 255
201 225 255
201 225 255
201 225 255
202 225 255
202 225 255
202 225 255
202 225 255
202 225 255
202 225 255
202 225 255
202 225 255
202 225 255
202 225 255
202 225 255
202 225 255
202 225 255
202 225 255
202 225 255
203 225 255
203 225 255
203 225 255
203 225 255
203 225 255
203 225 255
203 225 255
203 225 255
203 225 255
203 226 255
203 226 255
203 226 255
203 226 255
203 226 255
203 226 255
203 226 255
204 226 255
204 226 255
204 226 255
204 226 255
204 226 255
204 226 255
204 226 255
204 226 255
204 226 255
204 226 255
204 226 255
204 226 255
204 226 255
204 226 255
204 226 255
204 226 255
204 226 255
204 226 255
205 226 255
205 226 255
205 226 255
205 226 255
205 226 255
205 226 255
205 226 255
205 227 255
205 227 255
205 227 255
205 227 255
205 227 255
205 227 255
205 227 255
205 227 255
205 227 255
205 227 255
205 227 255
205 227 255
205 227 255
205 227 255
205 227 255
205 227 255
205 227 255
205 227 255
205 227 255
205 227 255
205 227 255
205 226 255
205 226 255
205 226 255
205 226 255
205 226 255
205 226 255
205 226 255
204 226 255
204 226 255
204 226 255
204 226 255
204 226 255
204 226 255
204 226 255
204 226 255
204 226 255
204 226 255
204 226 255
204 226 255
204 226 255
204 226 255
204 226 255
204 226 255
204 226 255
203 226 255
203 226 255
203 226 255
203 226 255
203 226 255
203 226 255
203 226 255
203 225 255
203 225 255
203 225 255
203 225 255
203 225 255
203 225 255
203 225 255
203 225 255
203 225 255
202 225 255
202 225 255
202 225 255
202 225 255
202 225 255
202 225 255
202 225 255
202 225 255
202 225 255
202 225 255
202 225 255
202 225 255
202 225 255
202 225 255
202 225 255
201 225 255
201 225 255
201 225 255
201 225 255
201 225 255
201 224 255
201 224 255
201 224 255
201 224 255
201 224 255
201 224 255
201 224 255
201 224 255
201 224 255
201 224 255
200 224 255
200 224 255
200 224 255
200 224 255
200 224 255
200 224 255
200 224 255
200 224 255
200 224 255
200 224 255
200 224 255
200 224 255
200 224 255
200 224 255
199 224 255
199 224 255
199 224 255
199 223 255
199 223 255
199 223 255
199 223 255
199 223 255
199 223 255
199 223 255
199 223 255
199 223 255
199 223 255
199 223 255
199 223 255
198 223 255
198 223 255
198 223 255
198 223 255
198 223 255
198 223 255
198 223 255
198 223 255
198 223 255
198 223 255
198 223 255
198 223 255
198 223 255
198 223 255
198 223 255
197 222 255
197 222 255
197 222 255
197 222 255
197 222 255
197 222 255
197 222 255
197 222 255
197 222 255
197 222 255
197 222 255
197 222 255
197 222 255
197 222 255
197 222 255
197 222 255
196 222 255
196 222 255
196 222 255
196 222 255
196 222 255
196 222 255
196 222 255
196 222 255
196 222 255
196 222 255
196 222 255
196 222 255
196 222 255
196 222 255
196 222 255
196 222 255
196 222 255
196 222 255
196 221 255
196 221 255
195 221 255
195 221 255
195 221 255
195 221 255
195 221 255
195 221 255
195 221 255
195 221 255
195 221 255
195 221 255
195 221 255
195 221 255
195 221 255
195 221 255
195 221 255
195 221 255
195 221 255
195 221 255
195 221 255
195 221 255
195 221 255
195 221 255
195 221 255
195 221 255
195 221 255
195 221 255
195 221 255
195 221 255
195 221 255
195 221 255
195 221 255
195 221 255
195 221 255
195 221 255
195 221 255
195 221 255
195 221 255
195 221 255
195 221 255
195 221 255
195 221 255
195 221 255
195 221 255
195 221 255
195 221 255
195 221 255
195 221 255
195 221 255
195 221 255
195 221 255
195 221 255
195 221 255
195 221 255
195 221 255
195 221 255
195 221 255
195 221 255
195 221 255
195 221 255
195 221 255
195 221 255
195 221 255
195 221 255
195 221 255
195 221 255
195 221 255
195 221 255
195 221 255
195 221 255
195 221 255
195 221 255
195 221 255
195 221 255
195 221 255
195 221 255
195 221 255
196 221 255
196 221 255
196 222 255
196 222 255
196 222 255
196 222 255
196 222 255
196 222 255
196 222 255
196 222 255
196 222 255
196 222 255
196 222 255
196 222 255
196 222 255
196 222 255
196 222 255
196 222 255
196 222 255
196 222 255
197 222 255
197 222 255
197 222 255
197 222 255
197 222 255
197 222 255
197 222 255
197 222 255
197 222 255
197 222 255
197 222 255
197 222 255
197 222 255
197 222 255
197 222 255
197 222 255
198 223 255
198 223 255
198 223 255
198 223 255
198 223 255
198 223 255
198 223 255
198 223 255
198 223 255
198 223 255
198 223 255
198 223 255
198 223 255
198 223 255
198 223 255
199 223 255
199 223 255
199 223 255
199 223 255
199 223 255
199 223 255
199 223 255
199 223 255
199 223 255
199 223 255
199 223 255
199 223 255
199 224 255
199 224 255
199 224 255
200 224 255
200 224 255
200 224 255
200 224 255
200 224 255
200 224 255
200 224 255
200 224 255
200 224 255
200 224 255
200 224 255
200 224 255
200 224 255
200 224 255
201 224 255
201 224 255
201 224 255
201 224 255
201 224 255
201 224 255
201 224 255
201 224 255
201 224 255
201 224 255
201 225 255
201 225 255
201 225 255
201 225 255
201 225 255
202 225 255
202 225 255
202 225 255
202 225 255
202 225 255
202 225 255
202 225 255
202 225 255
202 225 255
202 225 255
202 225 255
202 225 255
202 225 255
202 225 255
202 225 255
203 225 255
203 225 255
203 225 255
203 225 255
203 225 255
203 225 255
203 225 255
203 225 255
203 225 255
203 226 255
203 226 255
203 226 255
203 226 255
203 226 255
203 226 255
203 226 255
204 226 255
204 226 255
204 226 255
204 226 255
204 226 255
204 226 255
204 226 255
204 226 255
204 226 255
204 226 255
204 226 255
204 226 255
204 226 255
204 226 255
204 226 255
204 226 255
204 226 255
205 226 255
205 226 255
205 226 255
205 226 255
205 226 255
205 226 255
205 226 255
205 227 255
205 227 255
205 227 255
205 227 255
205 227 255
205 227 255
205 227 255
205 227 255
205 227 255
205 227 255
205 227 255
205 227 255
206 227 255
206 227 255
206 227 255
205 227 255
205 227 255
205 227 255
205 227 255
205 227 255
205 227 255
205 227 255
205 227 255
205 227 255
205 227 255
205 227 255
205 226 255
205 226 255
205 226 255
205 226 255
205 226 255
205 226 255
205 226 255
204 226 255
204 226 255
204 226 255
204 226 255
204 226 255
204 226 255
204 226 255
204 226 255
204 226 255
204 226 255
204 226 255
204 226 255
204 226 255
204 226 255
204 226 255
204 226 255
204 226 255
203 226 255
203 226 255
203 226 255
203 226 255
203 226 255
203 226 255
203 226 255
203 226 255
203 225 255
203 225 255
203 225 255
203 225 255
203 225 255
203 225 255
203 225 255
203 225 255
202 225 255
202 225 255
202 225 255
202 225 255
202 225 255
202 225 255
202 225 255
202 225 255
202 225 255
202 225 255
202 225 255
202 225 255
202 225 255
202 225 255
202 225 255
202 225 255
201 225 255
201 225 255
201 225 255
201 225 255
201 224 255
201 224 255
201 224 255
201 224 255
201 224 255
201 224 255
201 224 255
201 224 255
201 224 255
201 224 255
200 224 255
200 224 255
200 224 255
200 224 255
200 224 255
200 224 255
200 224 255
200 224 255
200 224 255
200 224 255
200 224 255
200 224 255
200 224 255
200 224 255
200 224 255
199 224 255
199 224 255
199 223 255
199 223 255
199 223 255
199 223 255
199 223 255
199 223 255
199 223 255
199 223 255
199 223 255
199 223 255
199 223 255
199 223 255
198 223 255
198 223 255
198 223 255
198 223 255
198 223 255
198 223 255
198 223 255
198 223 255
198 223 255
198 223 255
198 223 255
198 223 255
198 223 255
198 223 255
198 223 255
197 223 255
197 222 255
197 222 255
197 222 255
197 222 255
197 222 255
197 222 255
197 222 255
197 222 255
197 222 255
197 222 255
197 222 255
197 222 255
197 222 255
197 222 255
197 222 255
197 222 255
196 222 255
196 222 255
196 222 255
196 222 255
196 222 255
196 222 255
196 222 255
196 222 255
196 222 255
196 222 255
196 222 255
196 222 255
196 222 255
196 222 255
196 222 255
196 222 255
196 222 255
196 222 255
196 222 255
196 221 255
196 221 255
195 221 255
195 221 255
195 221 255
195 221 255
195 221 255
195 221 255
195 221 255
195 221 255
195 221 255
195 221 255
195 221 255
195 221 255
195 221 255
195 221 255
195 221 255
195 221 255
195 221 255
195 221 255
195 221 255
195 221 255
195 221 255
195 221 255
195 221 255
195 221 255
195 221 255
195 221 255
195 221 255
195 221 255
195 221 255
195 221 255
195 221 255
195 221 255
195 221 255
195 221 255
195 221 255
195 221 255
195 221 255
195 221 255
195 221 255
195 221 255
195 221 255
195 221 255
195 221 255
195 221 255
195 221 255
195 221 255
195 221 255
195 221 255
195 221 255
195 221 255
195 221 255
195 221 255
195 221 255
195 221 255
195 221 255
195 221 255
195 221 255
195 221 255
195 221 255
195 221 255
195 221 255
195 221 255
195 221 255
195 221 255
195 221 255
195 221 255
195 221 255
195 221 255
196 221 255
196 221 255
196 222 255
196 222 255
196 222 255
196 222 255
196 222 255
196 222 255
196 222 255
196 222 255
196 222 255
196 222 255
196 222 255
196 222 255
196 222 255
196 222 255
196 222 255
196 222 255
196 222 255
196 222 255
196 222 255
197 222 255
197 222 255
197 222 255
197 222 255
197 222 255
197 222 255
197 222 255
197 222 255
197 222 255
197 222 255
197 222 255
197 222 255
197 222 255
197 222 255
197 222 255
197 222 255
197 223 255
198 223 255
198 223 255
198 223 255
198 223 255
198 223 255
198 223 255
198 223 255
198 223 255
198 223 255
198 223 255
198 223 255
198 223 255
198 223 255
198 223 255
198 223 255
199 223 255
199 223 255
199 223 255
199 223 255
199 223 255
199 223 255
199 223 255
199 223 255
199 223 255
199 223 255
199 223 255
199 223 255
199 224 255
199 224 255
200 224 255
200 224 255
200 224 255
200 224 255
200 224 255
200 224 255
200 224 255
200 224 255
200 224 255
200 224 255
200 224 255
200 224 255
200 224 255
200 224 255
200 224 255
201 224 255
201 224 255
201 224 255
201 224 255
201 224 255
201 224 255
201 224 255
201 224 255
201 224 255
201 224 255
201 225 255
201 225 255
201 225 255
201 225 255
202 225 255
202 225 255
202 225 255
202 225 255
202 225 255
202 225 255
202 225 255
202 225 255
202 225 255
202 225 255
202 225 255
202 225 255
202 225 255
202 225 255
202 225 255
202 225 255
203 225 255
203 225 255
203 225 255
203 225 255
203 225 255
203 225 255
203 225 255
203 225 255
203 226 255
203 226 255
203 226 255
203 226 255
203 226 255
203 226 255
203 226 255
203 226 255
204 226 255
204 226 255
204 226 255
204 226 255
204 226 255
204 226 255
204 226 255
204 226 255
204 226 255
204 226 255
204 226 255
204 226 255
204 226 255
204 226 255
204 226 255
204 226 255
204 226 255
205 226 255
205 226 255
205 226 255
205 226 255
205 226 255
205 226 255
205 226 255
205 227 255
205 227 255
205 227 255
205 227 255
205 227 255
205 227 255
205 227 255
205 227 255
205 227 255
205 227 255
205 227 255
206 227 255
206 227 255
206 227 255
206 227 255
206 227 255
206 227 255
206 227 255
206 227 255
205 227 255
205 227 255
205 227 255
205 227 255
205 227 255
205 227 255
205 227 255
205 227 255
205 227 255
205 227 255
205 227 255
205 226 255
205 226 255
205 226 255
205 226 255
205 226 255
205 226 255
205 226 255
205 226 255
204 226 255
204 226 255
204 226 255
204 226 255
204 226 255
204 226 255
204 226 255
204 226 255
204 226 255
204 226 255
204 226 255
204 226 255
204 226 255
204 226 255
204 226 255
204 226 255
204 226 255
203 226 255
203 226 255
203 226 255
203 226 255
203 226 255
203 226 255
203 226 255
203 225 255
203 225 255
203 225 255
203 225 255
203 225 255
203 225 255
203 225 255
203 225 255
203 225 255
202 225 255
202 225 255
202 225 255
202 225 255
202 225 255
202 225 255
202 225 255
202 225 255
202 225 255
202 225 255
202 225 255
202 225 255
202 225 255
202 225 255
202 225 255
201 225 255
201 225 255
201 225 255
201 225 255
201 224 255
201 224 255
201 224 255
201 224 255
201 224 255
201 224 255
201 224 255
201 224 255
201 224 255
201 224 255
201 224 255
200 224 255
200 224 255
200 224 255
200 224 255
200 224 255
200 224 255
200 224 255
200 224 255
200 224 255
200 224 255
200 224 255
200 224 255
200 224 255
200 224 255
199 224 255
199 224 255
199 223 255
199 223 255
199 223 255
199 223 255
199 223 255
199 223 255
199 223 255
199 223 255
199 223 255
199 223 255
199 223 255
199 223 255
198 223 255
198 223 255
198 223 255
198 223 255
198 223 255
198 223 255
198 223 255
198 223 255
198 223 255
198 223 255
198 223 255
198 223 255
198 223 255
198 223 255
198 223 255
198 223 255
197 222 255
197 222 255
197 222 255
197 222 255
197 222 255
197 222 255
197 222 255
197 222 255
197 222 255
197 222 255
197 222 255
197 222 255
197 222 255
197 222 255
197 222 255
197 222 255
197 222 255
196 222 255
196 222 255
196 222 255
196 222 255
196 222 255
196 222 255
196 222 255
196 222 255
196 222 255
196 222 255
196 222 255
196 222 255
196 222 255
196 222 255
196 222 255
196 222 255
196 222 255
196 222 255
196 222 255
196 222 255
196 221 255
196 221 255
195 221 255
195 221 255
195 221 255
195 221 255
195 221 255
195 221 255
195 221 255
195 221 255
195 221 255
195 221 255
195 221 255
195 221 255
195 221 255
195 221 255
195 221 255
195 221 255
195 221 255
195 221 255
195 221 255
195 221 255
195 221 255
195 221 255
195 221 255
195 221 255
195 221 255
195 221 255
195 221 255
195 221 255
195 221 255
195 221 255
195 221 255
195 221 255
195 221 255
195 221 255
195 221 255
195 221 255
195 221 255
195 221 255
195 221 255
195 221 255
195 221 255
195 221 255
195 221 255
195 221 255
195 221 255
195 221 255
195 221 255
195 221 255
195 221 255
195 221 255
195 221 255
195 221 255
195 221 255
195 221 255
195 221 255
195 221 255
195 221 255
195 221 255
195 221 255
195 221 255
196 221 255
196 221 255
196 222 255
196 222 255
196 222 255
196 222 255
196 222 255
196 222 255
196 222 255
196 222 255
196 222 255
196 222 255
196 222 255
196 222 255
196 222 255
196 222 255
196 222 255
196 222 255
196 222 255
196 222 255
196 222 255
196 222 255
197 222 255
197 222 255
197 222 255
197 222 255
197 222 255
197 222 255
197 222 255
197 222 255
197 222 255
197 222 255
197 222 255
197 222 255
197 222 255
197 222 255
197 222 255
197 222 255
197 222 255
198 223 255
198 223 255
198 223 255
198 223 255
198 223 255
198 223 255
198 223 255
198 223 255
198 223 255
198 223 255
198 223 255
198 223 255
198 223 255
198 223 255
198 223 255
198 223 255
199 223 255
199 223 255
199 223 255
199 223 255
199 223 255
199 223 255
199 223 255
199 223 255
199 223 255
199 223 255
199 223 255
199 223 255
199 224 255
199 224 255
200 224 255
200 224 255
200 224 255
200 224 255
200 224 255
200 224 255
200 224 255
200 224 255
200 224 255
200 224 255
200 224 255
200 224 255
200 224 255
200 224 255
200 224 255
201 224 255
201 224 255
201 224 255
201 224 255
201 224 255
201 224 255
201 224 255
201 224 255
201 224 255
201 224 255
201 225 255
201 225 255
201 225 255
201 225 255
202 225 255
202 225 255
202 225 255
202 225 255
202 225 255
202 225 255
202 225 255
202 225 255
202 225 255
202 225 255
202 225 255
202 225 255
202 225 255
202 225 255
202 225 255
203 225 255
203 225 255
203 225 255
203 225 255
203 225 255
203 225 255
203 225 255
203 225 255
203 225 255
203 226 255
203 226 255
203 226 255
203 226 255
203 226 255
203 226 255
203 226 255
204 226 255
204 226 255
204 226 255
204 226 255
204 226 255
204 226 255
204 226 255
204 226 255
204 226 255
204 226 255
204 226 255
204 226 255
204 226 255
204 226 255
204 226 255
204 226 255
204 226 255
205 226 255
205 226 255
205 226 255
205 226 255
205 226 255
205 226 255
205 226 255
205 226 255
205 227 255
205 227 255
205 227 255
205 227 255
205 227 255
205 227 255
205 227 255
205 227 255
205 227 255
205 227 255
205 227 255
206 227 255
206 227 255
206 227 255
206 227 255
206 227 255
206 227 255
206 227 255
206 227 255
206 227 255
206 227 255
206 227 255
206 227 255
206 227 255
205 227 255
205 227 255
205 227 255
205 227 255
205 227 255
205 227 255
205 227 255
205 227 255
205 227 255
205 227 255
205 227 255
205 226 255
205 226 255
205 226 255
205 226 255
205 226 255
205 226 255
205 226 255
204 226 255
204 226 255
204 226 255
204 226 255
204 226 255
204 226 255
204 226 255
204 226 255
204 226 255
204 226 255
204 226 255
204 226 255
204 226 255
204 226 255
204 226 255
204 226 255
204 226 255
203 226 255
203 226 255
203 226 255
203 226 255
203 226 255
203 226 255
203 226 255
203 225 255
203 225 255
203 225 255
203 225 255
203 225 255
203 225 255
203 225 255
203 225 255
203 225 255
202 225 255
202 225 255
202 225 255
202 225 255
202 225 255
202 225 255
202 225 255
202 225 255
202 225 255
202 225 255
202 225 255
202 225 255
202 225 255
202 225 255
202 225 255
201 225 255
201 225 255
201 225 255
201 225 255
201 224 255
201 224 255
201 224 255
201 224 255
201 224 255
201 224 255
201 224 255
201 224 255
201 224 255
201 224 255
201 224 255
200 224 255
200 224 255
200 224 255
200 224 255
200 224 255
200 224 255
200 224 255
200 224 255
200 224 255
200 224 255
200 224 255
200 224 255
200 224 255
200 224 255
199 224 255
199 224 255
199 223 255
199 223 255
199 223 255
199 223 255
199 223 255
199 223 255
199 223 255
199 223 255
199 223 255
199 223 255
199 223 255
199 223 255
199 223 255
198 223 255
198 223 255
198 223 255
198 223 255
198 223 255
198 223 255
198 223 255
198 223 255
198 223 255
198 223 255
198 223 255
198 223 255
198 223 255
198 223 255
198 223 255
197 223 255
197 222 255
197 222 255
197 222 255
197 222 255
197 222 255
197 222 255
197 222 255
197 222 255
197 222 255
197 222 255
197 222 255
197 222 255
197 222 255
197 222 255
197 222 255
197 222 255
197 222 255
196 222 255
196 222 255
196 222 255
196 222 255
196 222 255
196 222 255
196 222 255
196 222 255
196 222 255
196 222 255
196 222 255
196 222 255
196 222 255
196 222 255
196 222 255
196 222 255
196 222 255
196 222 255
196 222 255
196 222 255
196 222 255
196 221 255
196 221 255
196 221 255
195 221 255
195 221 255
195 221 255
195 221 255
195 221 255
195 221 255
195 221 255
195 221 255
195 221 255
195 221 255
195 221 255
195 221 255
195 221 255
195 221 255
195 221 255
195 221 255
195 221 255
195 221 255
195 221 255
195 221 255
195 221 255
195 221 255
195 221 255
195 221 255
195 221 255
195 221 255
195 221 255
195 221 255
195 221 255
195 221 255
195 221 255
195 221 255
195 221 255
195 221 255
195 221 255
195 221 255
195 221 255
195 221 255
195 221 255
195 221 255
195 221 255
195 221 255
195 221 255
195 221 255
195 221 255
195 221 255
195 221 255
195 221 255
195 221 255
195 221 255
196 221 255
196 221 255
196 221 255
196 222 255
196 222 255
196 222 255
196 222 255
196 222 255
196 222 255
196 222 255
196 222 255
196 222 255
196 222 255
196 222 255
196 222 255
196 222 255
196 222 255
196 222 255
196 222 255
196 222 255
196 222 255
196 222 255
196 222 255
196 222 255
197 222 255
197 222 255
197 222 255
197 222 255
197 222 255
197 222 255
197 222 255
197 222 255
197 222 255
197 222 255
197 222 255
197 222 255
197 222 255
197 222 255
197 222 255
197 222 255
197 222 255
197 223 255
198 223 255
198 223 255
198 223 255
198 223 255
198 223 255
198 223 255
198 223 255
198 223 255
198 223 255
198 223 255
198 223 255
198 223 255
198 223 255
198 223 255
198 223 255
199 223 255
199 223 255
199 223 255
199 223 255
199 223 255
199 223 255
199 223 255
199 223 255
199 223 255
199 223 255
199 223 255
199 223 255
199 223 255
199 224 255
199 224 255
200 224 255
200 224 255
200 224 255
200 224 255
200 224 255
200 224 255
200 224 255
200 224 255
200 224 255
200 224 255
200 224 255
200 224 255
200 224 255
200 224 255
201 224 255
201 224 255
201 224 255
201 224 255
201 224 255
201 224 255
201 224 255
201 224 255
201 224 255
201 224 255
201 225 255
201 225 255
201 225 255
201 225 255
201 225 255
202 225 255
202 225 255
202 225 255
202 225 255
202 225 255
202 225 255
202 225 255
202 225 255
202 225 255
202 225 255
202 225 255
202 225 255
202 225 255
202 225 255
202 225 255
203 225 255
203 225 255
203 225 255
203 225 255
203 225 255
203 225 255
203 225 255
203 225 255
203 225 255
203 226 255
203 226 255
203 226 255
203 226 255
203 226 255
203 226 255
203 226 255
204 226 255
204 226 255
204 226 255
204 226 255
204 226 255
204 226 255
204 226 255
204 226 255
204 226 255
204 226 255
204 226 255
204 226 255
204 226 255
204 226 255
204 226 255
204 226 255
204 226 255
205 226 255
205 226 255
205 226 255
205 226 255
205 226 255
205 226 255
205 226 255
205 227 255
205 227 255
205 227 255
205 227 255
205 227 255
205 227 255
205 227 255
205 227 255
205 227 255
205 227 255
205 227 255
206 227 255
206 227 255
206 227 255
206 227 255
206 227 255
206 227 255
206 227 255
206 227 255
206 227 255
206 227 255
206 227 255
206 227 255
206 227 255
206 227 255
206 227 255
206 227 255
206 227 255
206 227 255
206 227 255
205 227 255
205 227 255
205 227 255
205 227 255
205 227 255
205 227 255
205 227 255
205 227 255
205 227 255
205 227 255
205 226 255
205 226 255
205 226 255
205 226 255
205 226 255
205 226 255
205 226 255
205 226 255
204 226 255
204 226 255
204 226 255
204 226 255
204 226 255
204 226 255
204 226 255
204 226 255
204 226 255
204 226 255
204 226 255
204 226 255
204 226 255
204 226 255
204 226 255
204 226 255
203 226 255
203 226 255
203 226 255
203 226 255
203 226 255
203 226 255
203 226 255
203 226 255
203 225 255
203 225 255
203 225 255
203 225 255
203 225 255
203 225 255
203 225 255
203 225 255
202 225 255
202 225 255
202 225 255
202 225 255
202 225 255
202 225 255
202 225 255
202 225 255
202 225 255
202 225 255
202 225 255
202 225 255
202 225 255
202 225 255
202 225 255
201 225 255
201 225 255
201 225 255
201 225 255
201 225 255
201 224 255
201 224 255
201 224 255
201 224 255
201 224 255
201 224 255
201 224 255
201 224 255
201 224 255
201 224 255
200 224 255
200 224 255
200 224 255
200 224 255
200 224 255
200 224 255
200 224 255
200 224 255
200 224 255
200 224 255
200 224 255
200 224 255
200 224 255
200 224 255
199 224 255
199 224 255
199 224 255
199 223 255
199 223 255
199 223 255
199 223 255
199 223 255
199 223 255
199 223 255
199 223 255
199 223 255
199 223 255
199 223 255
199 223 255
198 223 255
198 223 255
198 223 255
198 223 255
198 223 255
198 223 255
198 223 255
198 223 255
198 223 255
198 223 255
198 223 255
198 223 255
198 223 255
198 223 255
198 223 255
198 223 255
197 222 255
197 222 255
197 222 255
197 222 255
197 222 255
197 222 255
197 222 255
197 222 255
197 222 255
197 222 255
197 222 255
197 222 255
197 222 255
197 222 255
197 222 255
197 222 255
197 222 255
197 222 255
196 222 255
196 222 255
196 222 255
196 222 255
196 222 255
196 222 255
196 222 255
196 222 255
196 222 255
196 222 255
196 222 255
196 222 255
196 222 255
196 222 255
196 222 255
196 222 255
196 222 255
196 222 255
196 222 255
196 222 255
196 222 255
196 222 255
196 222 255
196 222 255
196 221 255
196 221 255
196 221 255
195 221 255
195 221 255
195 221 255
195 221 255
195 221 255
195 221 255
195 221 255
195 221 255
195 221 255
195 221 255
195 221 255
195 221 255
195 221 255
195 221 255
195 221 255
195 221 255
195 221 255
195 221 255
195 221 255
195 221 255
195 221 255
195 221 255
195 221 255
195 221 255
195 221 255
195 221 255
195 221 255
195 221 255
195 221 255
195 221 255
195 221 255
195 221 255
195 221 255
195 221 255
195 221 255
195 221 255
195 221 255
195 221 255
196 221 255
196 221 255
196 221 255
196 221 255
196 222 255
196 222 255
196 222 255
196 222 255
196 222 255
196 222 255
196 222 255
196 222 255
196 222 255
196 222 255
196 222 255
196 222 255
196 222 255
196 222 255
196 222 255
196 222 255
196 222 255
196 222 255
196 222 255
196 222 255
196 222 255
196 222 255
196 222 255
197 222 255
197 222 255
197 222 255
197 222 255
197 222 255
197 222 255
197 222 255
197 222 255
197 222 255
197 222 255
197 222 255
197 222 255
197 222 255
197 222 255
197 222 255
197 222 255
197 222 255
197 222 255
198 223 255
198 223 255
198 223 255
198 223 255
198 223 255
198 223 255
198 223 255
198 223 255
198 223 255
198 223 255
198 223 255
198 223 255
198 223 255
198 223 255
198 223 255
198 223 255
199 223 255
199 223 255
199 223 255
199 223 255
199 223 255
199 223 255
199 223 255
199 223 255
199 223 255
199 223 255
199 223 255
199 223 255
199 224 255
199 224 255
199 224 255
200 224 255
200 224 255
200 224 255
200 224 255
200 224 255
200 224 255
200 224 255
200 224 255
200 224 255
200 224 255
200 224 255
200 224 255
200 224 255
200 224 255
201 224 255
201 224 255
201 224 255
201 224 255
201 224 255
201 224 255
201 224 255
201 224 255
201 224 255
201 224 255
201 225 255
201 225 255
201 225 255
201 225 255
201 225 255
202 225 255
202 225 255
202 225 255
202 225 255
202 225 255
202 225 255
202 225 255
202 225 255
202 225 255
202 225 255
202 225 255
202 225 255
202 225 255
202 225 255
202 225 255
203 225 255
203 225 255
203 225 255
203 225 255
203 225 255
203 225 255
203 225 255
203 225 255
203 226 255
203 226 255
203 226 255
203 226 255
203 226 255
203 226 255
203 226 255
204 226 255
204 226 255
204 226 255
204 226 255
204 226 255
204 226 255
204 226 255
204 226 255
204 226 255
204 226 255
204 226 255
204 226 255
204 226 255
204 226 255
204 226 255
204 226 255
204 226 255
205 226 255
205 226 255
205 226 255
205 226 255
205 226 255
205 226 255
205 226 255
205 227 255
205 227 255
205 227 255
205 227 255
205 227 255
205 227 255
205 227 255
205 227 255
205 227 255
205 227 255
205 227 255
206 227 255
206 227 255
206 227 255
206 227 255
206 227 255
206 227 255
206 227 255
206 227 255
206 227 255
206 227 255
206 227 255
206 227 255
206 227 255
206 227 255
206 227 255
206 227 255
206 227 255
206 227 255
206 227 255
206 227 255
206 227 255
206 227 255
206 227 255
206 227 255
205 227 255
205 227 255
205 227 255
205 227 255
205 227 255
205 227 255
205 227 255
205 227 255
205 227 255
205 227 255
205 227 255
205 226 255
205 226 255
205 226 255
205 226 255
205 226 255
205 226 255
205 226 255
204 226 255
204 226 255
204 226 255
204 226 255
204 226 255
204 226 255
204 226 255
204 226 255
204 226 255
204 226 255
204 226 255
204 226 255
204 226 255
204 226 255
204 226 255
204 226 255
204 226 255
203 226 255
203 226 255
203 226 255
203 226 255
203 226 255
203 226 255
203 226 255
203 225 255
203 225 255
203 225 255
203 225 255
203 225 255
203 225 255
203 225 255
203 225 255
203 225 255
202 225 255
202 225 255
202 225 255
202 225 255
202 225 255
202 225 255
202 225 255
202 225 255
202 225 255
202 225 255
202 225 255
202 225 255
202 225 255
202 225 255
201 225 255
201 225 255
201 225 255
201 225 255
201 225 255
201 224 255
201 224 255
201 224 255
201 224 255
201 224 255
201 224 255
201 224 255
201 224 255
201 224 255
201 224 255
200 224 255
200 224 255
200 224 255
200 224 255
200 224 255
200 224 255
200 224 255
200 224 255
200 224 255
200 224 255
200 224 255
200 224 255
200 224 255
200 224 255
200 224 255
199 224 255
199 224 255
199 223 255
199 223 255
199 223 255
199 223 255
199 223 255
199 223 255
199 223 255
199 223 255
199 223 255
199 223 255
199 223 255
199 223 255
198 223 255
198 223 255
198 223 255
198 223 255
198 223 255
198 223 255
198 223 255
198 223 255
198 223 255
198 223 255
198 223 255
198 223 255
198 223 255
198 223 255
198 223 255
198 223 255
198 223 255
197 222 255
197 222 255
197 222 255
197 222 255
197 222 255
197 222 255
197 222 255
197 222 255
197 222 255
197 222 255
197 222 255
197 222 255
197 222 255
197 222 255
197 222 255
197 222 255
197 222 255
197 222 255
196 222 255
196 222 255
196 222 255
196 222 255
196 222 255
196 222 255
196 222 255
196 222 255
196 222 255
196 222 255
196 222 255
196 222 255
196 222 255
196 222 255
196 222 255
196 222 255
196 222 255
196 222 255
196 222 255
196 222 255
196 222 255
196 222 255
196 222 255
196 222 255
196 222 255
196 222 255
196 222 255
196 222 255
196 221 255
196 221 255
196 221 255
196 221 255
196 221 255
195 221 255
195 221 255
195 221 255
195 221 255
195 221 255
195 221 255
195 221 255
195 221 255
195 221 255
195 221 255
195 221 255
195 221 255
195 221 255
195 221 255
195 221 255
195 221 255
195 221 255
195 221 255
195 221 255
195 221 255
196 221 255
196 221 255
196 221 255
196 221 255
196 221 255
196 222 255
196 222 255
196 222 255
196 222 255
196 222 255
196 222 255
196 222 255
196 222 255
196 222 255
196 222 255
196 222 255
196 222 255
196 222 255
196 222 255
196 222 255
196 222 255
196 222 255
196 222 255
196 222 255
196 222 255
196 222 255
196 222 255
196 222 255
196 222 255
196 222 255
196 222 255
196 222 255
196 222 255
197 222 255
197 222 255
197 222 255
197 222 255
197 222 255
197 222 255
197 222 255
197 222 255
197 222 255
197 222 255
197 222 255
197 222 255
197 222 255
197 222 255
197 222 255
197 222 255
197 222 255
197 222 255
197 223 255
198 223 255
198 223 255
198 223 255
198 223 255
198 223 255
198 223 255
198 223 255
198 223 255
198 223 255
198 223 255
198 223 255
198 223 255
198 223 255
198 223 255
198 223 255
199 223 255
199 223 255
199 223 255
199 223 255
199 223 255
199 223 255
199 223 255
199 223 255
199 223 255
199 223 255
199 223 255
199 223 255
199 223 255
199 224 255
199 224 255
200 224 255
200 224 255
200 224 255
200 224 255
200 224 255
200 224 255
200 224 255
200 224 255
200 224 255
200 224 255
200 224 255
200 224 255
200 224 255
200 224 255
200 224 255
201 224 255
201 224 255
201 224 255
201 224 255
201 224 255
201 224 255
201 224 255
201 224 255
201 224 255
201 224 255
201 225 255
201 225 255
201 225 255
201 225 255
202 225 255
202 225 255
202 225 255
202 225 255
202 225 255
202 225 255
202 225 255
202 225 255
202 225 255
202 225 255
202 225 255
202 225 255
202 225 255
202 225 255
202 225 255
203 225 255
203 225 255
203 225 255
203 225 255
203 225 255
203 225 255
203 225 255
203 225 255
203 225 255
203 226 255
203 226 255
203 226 255
203 226 255
203 226 255
203 226 255
203 226 255
204 226 255
204 226 255
204 226 255
204 226 255
204 226 255
204 226 255
204 226 255
204 226 255
204 226 255
204 226 255
204 226 255
204 226 255
204 226 255
204 226 255
204 226 255
204 226 255
204 226 255
205 226 255
205 226 255
205 226 255
205 226 255
205 226 255
205 226 255
205 226 255
205 227 255
205 227 255
205 227 255
205 227 255
205 227 255
205 227 255
205 227 255
205 227 255
205 227 255
205 227 255
205 227 255
206 227 255
206 227 255
206 227 255
206 227 255
206 227 255
206 227 255
206 227 255
206 227 255
206 227 255
206 227 255
206 227 255
206 227 255
206 227 255
206 227 255
206 227 255
206 227 255
206 227 255
206 227 255
206 227 255
206 227 255
206 227 255
206 227 255
206 227 255
206 227 255
206 227 255
206 227 255
206 227 255
206 227 255
206 227 255
205 227 255
205 227 255
205 227 255
205 227 255
205 227 255
205 227 255
205 227 255
205 227 255
205 227 255
205 227 255
205 227 255
205 226 255
205 226 255
205 226 255
205 226 255
205 226 255
205 226 255
205 226 255
204 226 255
204 226 255
204 226 255
204 226 255
204 226 255
204 226 255
204 226 255
204 226 255
204 226 255
204 226 255
204 226 255
204 226 255
204 226 255
204 226 255
204 226 255
204 226 255
203 226 255
203 226 255
203 226 255
203 226 255
203 226 255
203 226 255
203 226 255
203 225 255
203 225 255
203 225 255
203 225 255
203 225 255
203 225 255
203 225 255
203 225 255
203 225 255
202 225 255
202 225 255
202 225 255
202 225 255
202 225 255
202 225 255
202 225 255
202 225 255
202 225 255
202 225 255
202 225 255
202 225 255
202 225 255
202 225 255
202 225 255
201 225 255
201 225 255
201 225 255
201 225 255
201 224 255
201 224 255
201 224 255
201 224 255
201 224 255
201 224 255
201 224 255
201 224 255
201 224 255
201 224 255
201 224 255
200 224 255
200 224 255
200 224 255
200 224 255
200 224 255
200 224 255
200 224 255
200 224 255
200 224 255
200 224 255
200 224 255
200 224 255
200 224 255
200 224 255
199 224 255
199 224 255
199 223 255
199 223 255
199 223 255
199 223 255
199 223 255
199 223 255
199 223 255
199 223 255
199 223 255
199 223 255
199 223 255
199 223 255
199 223 255
198 223 255
198 223 255
198 223 255
198 223 255
198 223 255
198 223 255
198 223 255
198 223 255
198 223 255
198 223 255
198 223 255
198 223 255
198 223 255
198 223 255
198 223 255
198 223 255
197 223 255
197 222 255
197 222 255
197 222 255
197 222 255
197 222 255
197 222 255
197 222 255
197 222 255
197 222 255
197 222 255
197 222 255
197 222 255
197 222 255
197 222 255
197 222 255
197 222 255
197 222 255
197 222 255
197 222 255
196 222 255
196 222 255
196 222 255
196 222 255
196 222 255
196 222 255
196 222 255
196 222 255
196 222 255
196 222 255
196 222 255
196 222 255
196 222 255
196 222 255
196 222 255
196 222 255
196 222 255
196 222 255
196 222 255
196 222 255
196 222 255
196 222 255
196 222 255
196 222 255
196 222 255
196 222 255
196 222 255
196 222 255
196 222 255
196 222 255
196 222 255
196 222 255
196 222 255
196 222 255
196 222 255
196 222 255
196 222 255
196 222 255
196 222 255
196 222 255
196 222 255
196 222 255
196 222 255
196 222 255
196 222 255
196 222 255
196 222 255
196 222 255
196 222 255
196 222 255
196 222 255
196 222 255
196 222 255
196 222 255
196 222 255
196 222 255
196 222 255
196 222 255
196 222 255
196 222 255
196 222 255
196 222 255
196 222 255
196 222 255
196 222 255
196 222 255
196 222 255
196 222 255
196 222 255
196 222 255
196 222 255
196 222 255
196 222 255
196 222 255
196 222 255
196 222 255
196 222 255
196 222 255
197 222 255
197 222 255
197 222 255
197 222 255
197 222 255
197 222 255
197 222 255
197 222 255
197 222 255
197 222 255
197 222 255
197 222 255
197 222 255
197 222 255
197 222 255
197 222 255
197 222 255
197 222 255
197 222 255
197 223 255
198 223 255
198 223 255
198 223 255
198 223 255
198 223 255
198 223 255
198 223 255
198 223 255
198 223 255
198 223 255
198 223 255
198 223 255
198 223 255
198 223 255
198 223 255
198 223 255
199 223 255
199 223 255
199 223 255
199 223 255
199 223 255
199 223 255
199 223 255
199 223 255
199 223 255
199 223 255
199 223 255
199 223 255
199 223 255
199 224 255
199 224 255
200 224 255
200 224 255
200 224 255
200 224 255
200 224 255
200 224 255
200 224 255
200 224 255
200 224 255
200 224 255
200 224 255
200 224 255
200 224 255
200 224 255
201 224 255
201 224 255
201 224 255
201 224 255
201 224 255
201 224 255
201 224 255
201 224 255
201 224 255
201 224 255
201 224 255
201 225 255
201 225 255
201 225 255
201 225 255
202 225 255
202 225 255
202 225 255
202 225 255
202 225 255
202 225 255
202 225 255
202 225 255
202 225 255
202 225 255
202 225 255
202 225 255
202 225 255
202 225 255
202 225 255
203 225 255
203 225 255
203 225 255
203 225 255
203 225 255
203 225 255
203 225 255
203 225 255
203 225 255
203 226 255
203 226 255
203 226 255
203 226 255
203 226 255
203 226 255
203 226 255
204 226 255
204 226 255
204 226 255
204 226 255
204 226 255
204 226 255
204 226 255
204 226 255
204 226 255
204 226 255
204 226 255
204 226 255
204 226 255
204 226 255
204 226 255
204 226 255
205 226 255
205 226 255
205 226 255
205 226 255
205 226 255
205 226 255
205 226 255
205 227 255
205 227 255
205 227 255
205 227 255
205 227 255
205 227 255
205 227 255
205 227 255
205 227 255
205 227 255
205 227 255
206 227 255
206 227 255
206 227 255
206 227 255
206 227 255
206 227 255
206 227 255
206 227 255
206 227 255
206 227 255
206 227 255
206 227 255
206 227 255
206 227 255
206 227 255
206 227 255
206 227 255
206 227 255
206 227 255
206 227 255
206 227 255
206 227 255
206 227 255
206 227 255
206 227 255
206 227 255
206 227 255
206 227 255
206 227 255
206 227 255
206 227 255
206 227 255
206 227 255
206 227 255
205 227 255
205 227 255
205 227 255
205 227 255
205 227 255
205 227 255
205 227 255
205 227 255
205 227 255
205 227 255
205 227 255
205 226 255
205 226 255
205 226 255
205 226 255
205 226 255
205 226 255
205 226 255
204 226 255
204 226 255
204 226 255
204 226 255
204 226 255
204 226 255
204 226 255
204 226 255
204 226 255
204 226 255
204 226 255
204 226 255
204 226 255
204 226 255
204 226 255
204 226 255
204 226 255
203 226 255
203 226 255
203 226 255
203 226 255
203 226 255
203 226 255
203 226 255
203 225 255
203 225 255
203 225 255
203 225 255
203 225 255
203 225 255
203 225 255
203 225 255
202 225 255
202 225 255
202 225 255
202 225 255
202 225 255
202 225 255
202 225 255
202 225 255
202 225 255
202 225 255
202 225 255
202 225 255
202 225 255
202 225 255
202 225 255
201 225 255
201 225 255
201 225 255
201 225 255
201 225 255
201 224 255
201 224 255
201 224 255
201 224 255
201 224 255
201 224 255
201 224 255
201 224 255
201 224 255
201 224 255
200 224 255
200 224 255
200 224 255
200 224 255
200 224 255
200 224 255
200 224 255
200 224 255
200 224 255
200 224 255
200 224 255
200 224 255
200 224 255
200 224 255
199 224 255
199 224 255
199 224 255
199 223 255
199 223 255
199 223 255
199 223 255
199 223 255
199 223 255
199 223 255
199 223 255
199 223 255
199 223 255
199 223 255
199 223 255
199 223 255
198 223 255
198 223 255
198 223 255
198 223 255
198 223 255
198 223 255
198 223 255
198 223 255
198 223 255
198 223 255
198 223 255
198 223 255
198 223 255
198 223 255
198 223 255
198 223 255
197 223 255
197 222 255
197 222 255
197 222 255
197 222 255
197 222 255
197 222 255
197 222 255
197 222 255
197 222 255
197 222 255
197 222 255
197 222 255
197 222 255
197 222 255
197 222 255
197 222 255
197 222 255
197 222 255
197 222 255
197 222 255
196 222 255
196 222 255
196 222 255
196 222 255
196 222 255
196 222 255
196 222 255
196 222 255
196 222 255
196 222 255
196 222 255
196 222 255
196 222 255
196 222 255
196 222 255
196 222 255
196 222 255
196 222 255
196 222 255
196 222 255
196 222 255
196 222 255
196 222 255
196 222 255
196 222 255
196 222 255
196 222 255
196 222 255
196 222 255
196 222 255
196 222 255
196 222 255
196 222 255
196 222 255
196 222 255
196 222 255
196 222 255
196 222 255
196 222 255
196 222 255
196 222 255
196 222 255
196 222 255
196 222 255
196 222 255
196 222 255
196 222 255
196 222 255
196 222 255
196 222 255
196 222 255
196 222 255
196 222 255
196 222 255
196 222 255
196 222 255
196 222 255
196 222 255
196 222 255
196 222 255
196 222 255
196 222 255
196 222 255
196 222 255
196 222 255
196 222 255
196 222 255
196 222 255
196 222 255
196 222 255
197 222 255
197 222 255
197 222 255
197 222 255
197 222 255
197 222 255
197 222 255
197 222 255
197 222 255
197 222 255
197 222 255
197 222 255
197 222 255
197 222 255
197 222 255
197 222 255
197 222 255
197 222 255
197 222 255
197 222 255
197 223 255
198 223 255
198 223 255
198 223 255
198 223 255
198 223 255
198 223 255
198 223 255
198 223 255
198 223 255
198 223 255
198 223 255
198 223 255
198 223 255
198 223 255
198 223 255
198 223 255
199 223 255
199 223 255
199 223 255
199 223 255
199 223 255
199 223 255
199 223 255
199 223 255
199 223 255
199 223 255
199 223 255
199 223 255
199 223 255
199 224 255
199 224 255
199 224 255
200 224 255
200 224 255
200 224 255
200 224 255
200 224 255
200 224 255
200 224 255
200 224 255
200 224 255
200 224 255
200 224 255
200 224 255
200 224 255
200 224 255
201 224 255
201 224 255
201 224 255
201 224 255
201 224 255
201 224 255
201 224 255
201 224 255
201 224 255
201 224 255
201 225 255
201 225 255
201 225 255
201 225 255
201 225 255
202 225 255
202 225 255
202 225 255
202 225 255
202 225 255
202 225 255
202 225 255
202 225 255
202 225 255
202 225 255
202 225 255
202 225 255
202 225 255
202 225 255
202 225 255
203 225 255
203 225 255
203 225 255
203 225 255
203 225 255
203 225 255
203 225 255
203 225 255
203 226 255
203 226 255
203 226 255
203 226 255
203 226 255
203 226 255
203 226 255
204 226 255
204 226 255
204 226 255
204 226 255
204 226 255
204 226 255
204 226 255
204 226 255
204 226 255
204 226 255
204 226 255
204 226 255
204 226 255
204 226 255
204 226 255
204 226 255
204 226 255
205 226 255
205 226 255
205 226 255
205 226 255
205 226 255
205 226 255
205 226 255
205 227 255
205 227 255
205 227 255
205 227 255
205 227 255
205 227 255
205 227 255
205 227 255
205 227 255
205 227 255
205 227 255
206 227 255
206 227 255
206 227 255
206 227 255
206 227 255
206 227 255
206 227 255
206 227 255
206 227 255
206 227 255
206 227 255
206 227 255
206 227 255
206 227 255
206 227 255
206 227 255
206 227 255
206 227 255
207 227 255
207 227 255
206 227 255
206 227 255
206 227 255
206 227 255
206 227 255
206 227 255
206 227 255
206 227 255
206 227 255
206 227 255
206 227 255
206 227 255
206 227 255
206 227 255
206 227 255
206 227 255
206 227 255
206 227 255
206 227 255
205 227 255
205 227 255
205 227 255
205 227 255
205 227 255
205 227 255
205 227 255
205 227 255
205 227 255
205 227 255
205 227 255
205 226 255
205 226 255
205 226 255
205 226 255
205 226 255
205 226 255
205 226 255
204 226 255
204 226 255
204 226 255
204 226 255
204 226 255
204 226 255
204 226 255
204 226 255
204 226 255
204 226 255
204 226 255
204 226 255
204 226 255
204 226 255
204 226 255
204 226 255
203 226 255
203 226 255
203 226 255
203 226 255
203 226 255
203 226 255
203 226 255
203 225 255
203 225 255
203 225 255
203 225 255
203 225 255
203 225 255
203 225 255
203 225 255
203 225 255
202 225 255
202 225 255
202 225 255
202 225 255
202 225 255
202 225 255
202 225 255
202 225 255
202 225 255
202 225 255
202 225 255
202 225 255
202 225 255
202 225 255
202 225 255
201 225 255
201 225 255
201 225 255
201 225 255
201 224 255
201 224 255
201 224 255
201 224 255
201 224 255
201 224 255
201 224 255
201 224 255
201 224 255
201 224 255
200 224 255
200 224 255
200 224 255
200 224 255
200 224 255
200 224 255
200 224 255
200 224 255
200 224 255
200 224 255
200 224 255
200 224 255
200 224 255
200 224 255
200 224 255
199 224 255
199 224 255
199 223 255
199 223 255
199 223 255
199 223 255
199 223 255
199 223 255
199 223 255
199 223 255
199 223 255
199 223 255
199 223 255
199 223 255
199 223 255
198 223 255
198 223 255
198 223 255
198 223 255
198 223 255
198 223 255
198 223 255
198 223 255
198 223 255
198 223 255
198 223 255
198 223 255
198 223 255
198 223 255
198 223 255
198 223 255
198 223 255
197 223 255
197 222 255
197 222 255
197 222 255
197 222 255
197 222 255
197 222 255
197 222 255
197 222 255
197 222 255
197 222 255
197 222 255
197 222 255
197 222 255
197 222 255
197 222 255
197 222 255
197 222 255
197 222 255
197 222 255
197 222 255
197 222 255
196 222 255
196 222 255
196 222 255
196 222 255
196 222 255
196 222 255
196 222 255
196 222 255
196 222 255
196 222 255
196 222 255
196 222 255
196 222 255
196 222 255
196 222 255
196 222 255
196 222 255
196 222 255
196 222 255
196 222 255
196 222 255
196 222 255
196 222 255
196 222 255
196 222 255
196 222 255
196 222 255
196 222 255
196 222 255
196 222 255
196 222 255
196 222 255
196 222 255
196 222 255
196 222 255
196 222 255
196 222 255
196 222 255
196 222 255
196 222 255
196 222 255
196 222 255
196 222 255
196 222 255
196 222 255
196 222 255
196 222 255
196 222 255
196 222 255
196 222 255
196 222 255
196 222 255
196 222 255
196 222 255
196 222 255
196 222 255
196 222 255
196 222 255
196 222 255
196 222 255
196 222 255
196 222 255
197 222 255
197 222 255
197 222 255
197 222 255
197 222 255
197 222 255
197 222 255
197 222 255
197 222 255
197 222 255
197 222 255
197 222 255
197 222 255
197 222 255
197 222 255
197 222 255
197 222 255
197 222 255
197 222 255
197 222 255
197 222 255
197 223 255
198 223 255
198 223 255
198 223 255
198 223 255
198 223 255
198 223 255
198 223 255
198 223 255
198 223 255
198 223 255
198 223 255
198 223 255
198 223 255
198 223 255
198 223 255
198 223 255
198 223 255
199 223 255
199 223 255
199 223 255
199 223 255
199 223 255
199 223 255
199 223 255
199 223 255
199 223 255
199 223 255
199 223 255
199 223 255
199 223 255
199 224 255
199 224 255
200 224 255
200 224 255
200 224 255
200 224 255
200 224 255
200 224 255
200 224 255
200 224 255
200 224 255
200 224 255
200 224 255
200 224 255
200 224 255
200 224 255
200 224 255
201 224 255
201 224 255
201 224 255
201 224 255
201 224 255
201 224 255
201 224 255
201 224 255
201 224 255
201 224 255
201 225 255
201 225 255
201 225 255
201 225 255
202 225 255
202 225 255
202 225 255
202 225 255
202 225 255
202 225 255
202 225 255
202 225 255
202 225 255
202 225 255
202 225 255
202 225 255
202 225 255
202 225 255
202 225 255
203 225 255
203 225 255
203 225 255
203 225 255
203 225 255
203 225 255
203 225 255
203 225 255
203 225 255
203 226 255
203 226 255
203 226 255
203 226 255
203 226 255
203 226 255
203 226 255
204 226 255
204 226 255
204 226 255
204 226 255
204 226 255
204 226 255
204 226 255
204 226 255
204 226 255
204 226 255
204 226 255
204 226 255
204 226 255
204 226 255
204 226 255
204 226 255
205 226 255
205 226 255
205 226 255
205 226 255
205 226 255
205 226 255
205 226 255
205 227 255
205 227 255
205 227 255
205 227 255
205 227 255
205 227 255
205 227 255
205 227 255
205 227 255
205 227 255
205 227 255
206 227 255
206 227 255
206 227 255
206 227 255
206 227 255
206 227 255
206 227 255
206 227 255
206 227 255
206 227 255
206 227 255
206 227 255
206 227 255
206 227 255
206 227 255
206 227 255
206 227 255
206 227 255
206 227 255
207 227 255
207 227 255
207 227 255
207 227 255
207 227 255
207 227 255
206 227 255
206 227 255
206 227 255
206 227 255
206 227 255
206 227 255
206 227 255
206 227 255
206 227 255
206 227 255
206 227 255
206 227 255
206 227 255
206 227 255
206 227 255
206 227 255
206 227 255
206 227 255
206 227 255
206 227 255
205 227 255
205 227 255
205 227 255
205 227 255
205 227 255
205 227 255
205 227 255
205 227 255
205 227 255
205 227 255
205 226 255
205 226 255
205 226 255
205 226 255
205 226 255
205 226 255
205 226 255
204 226 255
204 226 255
204 226 255
204 226 255
204 226 255
204 226 255
204 226 255
204 226 255
204 226 255
204 226 255
204 226 255
204 226 255
204 226 255
204 226 255
204 226 255
204 226 255
204 226 255
203 226 255
203 226 255
203 226 255
203 226 255
203 226 255
203 226 255
203 225 255
203 225 255
203 225 255
203 225 255
203 225 255
203 225 255
203 225 255
203 225 255
203 225 255
202 225 255
202 225 255
202 225 255
202 225 255
202 225 255
202 225 255
202 225 255
202 225 255
202 225 255
202 225 255
202 225 255
202 225 255
202 225 255
202 225 255
202 225 255
201 225 255
201 225 255
201 225 255
201 225 255
201 224 255
201 224 255
201 224 255
201 224 255
201 224 255
201 224 255
201 224 255
201 224 255
201 224 255
201 224 255
201 224 255
200 224 255
200 224 255
200 224 255
200 224 255
200 224 255
200 224 255
200 224 255
200 224 255
200 224 255
200 224 255
200 224 255
200 224 255
200 224 255
200 224 255
199 224 255
199 224 255
199 224 255
199 223 255
199 223 255
199 223 255
199 223 255
199 223 255
199 223 255
199 223 255
199 223 255
199 223 255
199 223 255
199 223 255
199 223 255
199 223 255
198 223 255
198 223 255
198 223 255
198 223 255
198 223 255
198 223 255
198 223 255
198 223 255
198 223 255
198 223 255
198 223 255
198 223 255
198 223 255
198 223 255
198 223 255
198 223 255
198 223 255
197 223 255
197 222 255
197 222 255
197 222 255
197 222 255
197 222 255
197 222 255
197 222 255
197 222 255
197 222 255
197 222 255
197 222 255
197 222 255
197 222 255
197 222 255
197 222 255
197 222 255
197 222 255
197 222 255
197 222 255
197 222 255
197 222 255
197 222 255
197 222 255
196 222 255
196 222 255
196 222 255
196 222 255
196 222 255
196 222 255
196 222 255
196 222 255
196 222 255
196 222 255
196 222 255
196 222 255
196 222 255
196 222 255
196 222 255
196 222 255
196 222 255
196 222 255
196 222 255
196 222 255
196 222 255
196 222 255
196 222 255
196 222 255
196 222 255
196 222 255
196 222 255
196 222 255
196 222 255
196 222 255
196 222 255
196 222 255
196 222 255
196 222 255
196 222 255
196 222 255
196 222 255
196 222 255
196 222 255
196 222 255
196 222 255
196 222 255
196 222 255
196 222 255
196 222 255
196 222 255
196 222 255
196 222 255
196 222 255
196 222 255
196 222 255
196 222 255
197 222 255
197 222 255
197 222 255
197 222 255
197 222 255
197 222 255
197 222 255
197 222 255
197 222 255
197 222 255
197 222 255
197 222 255
197 222 255
197 222 255
197 222 255
197 222 255
197 222 255
197 222 255
197 222 255
197 222 255
197 222 255
197 222 255
197 222 255
197 223 255
198 223 255
198 223 255
198 223 255
198 223 255
198 223 255
198 223 255
198 223 255
198 223 255
198 223 255
198 223 255
198 223 255
198 223 255
198 223 255
198 223 255
198 223 255
198 223 255
198 223 255
199 223 255
199 223 255
199 223 255
199 223 255
199 223 255
199 223 255
199 223 255
199 223 255
199 223 255
199 223 255
199 223 255
199 223 255
199 223 255
199 224 255
199 224 255
199 224 255
200 224 255
200 224 255
200 224 255
200 224 255
200 224 255
200 224 255
200 224 255
200 224 255
200 224 255
200 224 255
200 224 255
200 224 255
200 224 255
200 224 255
201 224 255
201 224 255
201 224 255
201 224 255
201 224 255
201 224 255
201 224 255
201 224 255
201 224 255
201 224 255
201 224 255
201 225 255
201 225 255
201 225 255
201 225 255
202 225 255
202 225 255
202 225 255
202 225 255
202 225 255
202 225 255
202 225 255
202 225 255
202 225 255
202 225 255
202 225 255
202 225 255
202 225 255
202 225 255
202 225 255
203 225 255
203 225 255
203 225 255
203 225 255
203 225 255
203 225 255
203 225 255
203 225 255
203 226 255
203 226 255
203 226 255
203 226 255
203 226 255
203 226 255
203 226 255
204 226 255
204 226 255
204 226 255
204 226 255
204 226 255
204 226 255
204 226 255
204 226 255
204 226 255
204 226 255
204 226 255
204 226 255
204 226 255
204 226 255
204 226 255
204 226 255
204 226 255
205 226 255
205 226 255
205 226 255
205 226 255
205 226 255
205 226 255
205 226 255
205 227 255
205 227 255
205 227 255
205 227 255
205 227 255
205 227 255
205 227 255
205 227 255
205 227 255
205 227 255
206 227 255
206 227 255
206 227 255
206 227 255
206 227 255
206 227 255
206 227 255
206 227 255
206 227 255
206 227 255
206 227 255
206 227 255
206 227 255
206 227 255
206 227 255
206 227 255
206 227 255
206 227 255
206 227 255
207 227 255
207 227 255
207 227 255
207 227 255
207 227 255
207 228 255
207 228 255
207 227 255
207 227 255
207 227 255
207 227 255
207 227 255
206 227 255
206 227 255
206 227 255
206 227 255
206 227 255
206 227 255
206 227 255
206 227 255
206 227 255
206 227 255
206 227 255
206 227 255
206 227 255
206 227 255
206 227 255
206 227 255
206 227 255
206 227 255
206 227 255
205 227 255
205 227 255
205 227 255
205 227 255
205 227 255
205 227 255
205 227 255
205 227 255
205 227 255
205 227 255
205 227 255
205 226 255
205 226 255
205 226 255
205 226 255
205 226 255
205 226 255
205 226 255
204 226 255
204 226 255
204 226 255
204 226 255
204 226 255
204 226 255
204 226 255
204 226 255
204 226 255
204 226 255
204 226 255
204 226 255
204 226 255
204 226 255
204 226 255
204 226 255
203 226 255
203 226 255
203 226 255
203 226 255
203 226 255
203 226 255
203 226 255
203 225 255
203 225 255
203 225 255
203 225 255
203 225 255
203 225 255
203 225 255
203 225 255
203 225 255
202 225 255
202 225 255
202 225 255
202 225 255
202 225 255
202 225 255
202 225 255
202 225 255
202 225 255
202 225 255
202 225 255
202 225 255
202 225 255
202 225 255
201 225 255
201 225 255
201 225 255
201 225 255
201 225 255
201 224 255
201 224 255
201 224 255
201 224 255
201 224 255
201 224 255
201 224 255
201 224 255
201 224 255
201 224 255
200 224 255
200 224 255
200 224 255
200 224 255
200 224 255
200 224 255
200 224 255
200 224 255
200 224 255
200 224 255
200 224 255
200 224 255
200 224 255
200 224 255
200 224 255
199 224 255
199 224 255
199 223 255
199 223 255
199 223 255
199 223 255
199 223 255
199 223 255
199 223 255
199 223 255
199 223 255
199 223 255
199 223 255
199 223 255
199 223 255
198 223 255
198 223 255
198 223 255
198 223 255
198 223 255
198 223 255
198 223 255
198 223 255
198 223 255
198 223 255
198 223 255
198 223 255
198 223 255
198 223 255
198 223 255
198 223 255
198 223 255
198 223 255
198 223 255
197 222 255
197 222 255
197 222 255
197 222 255
197 222 255
197 222 255
197 222 255
197 222 255
197 222 255
197 222 255
197 222 255
197 222 255
197 222 255
197 222 255
197 222 255
197 222 255
197 222 255
197 222 255
197 222 255
197 222 255
197 222 255
197 222 255
197 222 255
197 222 255
197 222 255
197 222 255
196 222 255
196 222 255
196 222 255
196 222 255
196 222 255
196 222 255
196 222 255
196 222 255
196 222 255
196 222 255
196 222 255
196 222 255
196 222 255
196 222 255
196 222 255
196 222 255
196 222 255
196 222 255
196 222 255
196 222 255
196 222 255
196 222 255
196 222 255
196 222 255
196 222 255
196 222 255
196 222 255
196 222 255
196 222 255
196 222 255
196 222 255
196 222 255
196 222 255
196 222 255
196 222 255
196 222 255
196 222 255
196 222 255
196 222 255
196 222 255
197 222 255
197 222 255
197 222 255
197 222 255
197 222 255
197 222 255
197 222 255
197 222 255
197 222 255
197 222 255
197 222 255
197 222 255
197 222 255
197 222 255
197 222 255
197 222 255
197 222 255
197 222 255
197 222 255
197 222 255
197 222 255
197 222 255
197 222 255
197 222 255
197 222 255
197 222 255
198 223 255
198 223 255
198 223 255
198 223 255
198 223 255
198 223 255
198 223 255
198 223 255
198 223 255
198 223 255
198 223 255
198 223 255
198 223 255
198 223 255
198 223 255
198 223 255
198 223 255
198 223 255
199 223 255
199 223 255
199 223 255
199 223 255
199 223 255
199 223 255
199 223 255
199 223 255
199 223 255
199 223 255
199 223 255
199 223 255
199 223 255
199 223 255
199 224 255
199 224 255
200 224 255
200 224 255
200 224 255
200 224 255
200 224 255
200 224 255
200 224 255
200 224 255
200 224 255
200 224 255
200 224 255
200 224 255
200 224 255
200 224 255
200 224 255
201 224 255
201 224 255
201 224 255
201 224 255
201 224 255
201 224 255
201 224 255
201 224 255
201 224 255
201 224 255
201 225 255
201 225 255
201 225 255
201 225 255
201 225 255
202 225 255
202 225 255
202 225 255
202 225 255
202 225 255
202 225 255
202 225 255
202 225 255
202 225 255
202 225 255
202 225 255
202 225 255
202 225 255
202 225 255
202 225 255
203 225 255
203 225 255
203 225 255
203 225 255
203 225 255
203 225 255
203 225 255
203 225 255
203 226 255
203 226 255
203 226 255
203 226 255
203 226 255
203 226 255
203 226 255
204 226 255
204 226 255
204 226 255
204 226 255
204 226 255
204 226 255
204 226 255
204 226 255
204 226 255
204 226 255
204 226 255
204 226 255
204 226 255
204 226 255
204 226 255
204 226 255
205 226 255
205 226 255
205 226 255
205 226 255
205 226 255
205 226 255
205 226 255
205 227 255
205 227 255
205 227 255
205 227 255
205 227 255
205 227 255
205 227 255
205 227 255
205 227 255
205 227 255
205 227 255
206 227 255
206 227 255
206 227 255
206 227 255
206 227 255
206 227 255
206 227 255
206 227 255
206 227 255
206 227 255
206 227 255
206 227 255
206 227 255
206 227 255
206 227 255
206 227 255
206 227 255
206 227 255
206 227 255
207 227 255
207 227 255
207 227 255
207 227 255
207 227 255
207 228 255
207 228 255
207 228 255
207 228 255
207 228 255
207 228 255
207 228 255
207 227 255
207 227 255
207 227 255
207 227 255
207 227 255
206 227 255
206 227 255
206 227 255
206 227 255
206 227 255
206 227 255
206 227 255
206 227 255
206 227 255
206 227 255
206 227 255
206 227 255
206 227 255
206 227 255
206 227 255
206 227 255
206 227 255
206 227 255
206 227 255
205 227 255
205 227 255
205 227 255
205 227 255
205 227 255
205 227 255
205 227 255
205 227 255
205 227 255
205 227 255
205 226 255
205 226 255
205 226 255
205 226 255
205 226 255
205 226 255
205 226 255
204 226 255
204 226 255
204 226 255
204 226 255
204 226 255
204 226 255
204 226 255
204 226 255
204 226 255
204 226 255
204 226 255
204 226 255
204 226 255
204 226 255
204 226 255
204 226 255
204 226 255
203 226 255
203 226 255
203 226 255
203 226 255
203 226 255
203 226 255
203 225 255
203 225 255
203 225 255
203 225 255
203 225 255
203 225 255
203 225 255
203 225 255
203 225 255
202 225 255
202 225 255
202 225 255
202 225 255
202 225 255
202 225 255
202 225 255
202 225 255
202 225 255
202 225 255
202 225 255
202 225 255
202 225 255
202 225 255
202 225 255
201 225 255
201 225 255
201 225 255
201 225 255
201 224 255
201 224 255
201 224 255
201 224 255
201 224 255
201 224 255
201 224 255
201 224 255
201 224 255
201 224 255
200 224 255
200 224 255
200 224 255
200 224 255
200 224 255
200 224 255
200 224 255
200 224 255
200 224 255
200 224 255
200 224 255
200 224 255
200 224 255
200 224 255
200 224 255
199 224 255
199 224 255
199 224 255
199 223 255
199 223 255
199 223 255
199 223 255
199 223 255
199 223 255
199 223 255
199 223 255
199 223 255
199 223 255
199 223 255
199 223 255
199 223 255
199 223 255
198 223 255
198 223 255
198 223 255
198 223 255
198 223 255
198 223 255
198 223 255
198 223 255
198 223 255
198 223 255
198 223 255
198 223 255
198 223 255
198 223 255
198 223 255
198 223 255
198 223 255
198 223 255
197 223 255
197 222 255
197 222 255
197 222 255
197 222 255
197 222 255
197 222 255
197 222 255
197 222 255
197 222 255
197 222 255
197 222 255
197 222 255
197 222 255
197 222 255
197 222 255
197 222 255
197 222 255
197 222 255
197 222 255
197 222 255
197 222 255
197 222 255
197 222 255
197 222 255
197 222 255
197 222 255
197 222 255
197 222 255
197 222 255
197 222 255
197 222 255
196 222 255
196 222 255
196 222 255
196 222 255
196 222 255
196 222 255
196 222 255
196 222 255
196 222 255
196 222 255
196 222 255
196 222 255
196 222 255
196 222 255
196 222 255
196 222 255
196 222 255
196 222 255
196 222 255
196 222 255
196 222 255
197 222 255
197 222 255
197 222 255
197 222 255
197 222 255
197 222 255
197 222 255
197 222 255
197 222 255
197 222 255
197 222 255
197 222 255
197 222 255
197 222 255
197 222 255
197 222 255
197 222 255
197 222 255
197 222 255
197 222 255
197 222 255
197 222 255
197 222 255
197 222 255
197 222 255
197 222 255
197 222 255
197 222 255
197 222 255
197 222 255
197 222 255
197 222 255
197 223 255
198 223 255
198 223 255
198 223 255
198 223 255
198 223 255
198 223 255
198 223 255
198 223 255
198 223 255
198 223 255
198 223 255
198 223 255
198 223 255
198 223 255
198 223 255
198 223 255
198 223 255
198 223 255
198 223 255
199 223 255
199 223 255
199 223 255
199 223 255
199 223 255
199 223 255
199 223 255
199 223 255
199 223 255
199 223 255
199 223 255
199 223 255
199 223 255
199 224 255
199 224 255
200 224 255
200 224 255
200 224 255
200 224 255
200 224 255
200 224 255
200 224 255
200 224 255
200 224 255
200 224 255
200 224 255
200 224 255
200 224 255
200 224 255
200 224 255
201 224 255
201 224 255
201 224 255
201 224 255
201 224 255
201 224 255
201 224 255
201 224 255
201 224 255
201 224 255
201 224 255
201 225 255
201 225 255
201 225 255
201 225 255
202 225 255
202 225 255
202 225 255
202 225 255
202 225 255
202 225 255
202 225 255
202 225 255
202 225 255
202 225 255
202 225 255
202 225 255
202 225 255
202 225 255
202 225 255
203 225 255
203 225 255
203 225 255
203 225 255
203 225 255
203 225 255
203 225 255
203 225 255
203 225 255
203 226 255
203 226 255
203 226 255
203 226 255
203 226 255
203 226 255
204 226 255
204 226 255
204 226 255
204 226 255
204 226 255
204 226 255
204 226 255
204 226 255
204 226 255
204 226 255
204 226 255
204 226 255
204 226 255
204 226 255
204 226 255
204 226 255
204 226 255
205 226 255
205 226 255
205 226 255
205 226 255
205 226 255
205 226 255
205 227 255
205 227 255
205 227 255
205 227 255
205 227 255
205 227 255
205 227 255
205 227 255
205 227 255
205 227 255
205 227 255
206 227 255
206 227 255
206 227 255
206 227 255
206 227 255
206 227 255
206 227 255
206 227 255
206 227 255
206 227 255
206 227 255
206 227 255
206 227 255
206 227 255
206 227 255
206 227 255
206 227 255
206 227 255
206 227 255
207 227 255
207 227 255
207 227 255
207 227 255
207 227 255
207 228 255
207 228 255
207 228 255
207 228 255
207 228 255
207 228 255
207 228 255
207 228 255
207 228 255
207 228 255
207 228 255
207 228 255
207 228 255
207 227 255
207 227 255
207 227 255
207 227 255
207 227 255
206 227 255
206 227 255
206 227 255
206 227 255
206 227 255
206 227 255
206 227 255
206 227 255
206 227 255
206 227 255
206 227 255
206 227 255
206 227 255
206 227 255
206 227 255
206 227 255
206 227 255
206 227 255
206 227 255
205 227 255
205 227 255
205 227 255
205 227 255
205 227 255
205 227 255
205 227 255
205 227 255
205 227 255
205 227 255
205 226 255
205 226 255
205 226 255
205 226 255
205 226 255
205 226 255
205 226 255
204 226 255
204 226 255
204 226 255
204 226 255
204 226 255
204 226 255
204 226 255
204 226 255
204 226 255
204 226 255
204 226 255
204 226 255
204 226 255
204 226 255
204 226 255
204 226 255
203 226 255
203 226 255
203 226 255
203 226 255
203 226 255
203 226 255
203 226 255
203 225 255
203 225 255
203 225 255
203 225 255
203 225 255
203 225 255
203 225 255
203 225 255
203 225 255
202 225 255
202 225 255
202 225 255
202 225 255
202 225 255
202 225 255
202 225 255
202 225 255
202 225 255
202 225 255
202 225 255
202 225 255
202 225 255
202 225 255
201 225 255
201 225 255
201 225 255
201 225 255
201 225 255
201 224 255
201 224 255
201 224 255
201 224 255
201 224 255
201 224 255
201 224 255
201 224 255
201 224 255
201 224 255
200 224 255
200 224 255
200 224 255
200 224 255
200 224 255
200 224 255
200 224 255
200 224 255
200 224 255
200 224 255
200 224 255
200 224 255
200 224 255
200 224 255
200 224 255
199 224 255
199 224 255
199 224 255
199 223 255
199 223 255
199 223 255
199 223 255
199 223 255
199 223 255
199 223 255
199 223 255
199 223 255
199 223 255
199 223 255
199 223 255
199 223 255
198 223 255
198 223 255
198 223 255
198 223 255
198 223 255
198 223 255
198 223 255
198 223 255
198 223 255
198 223 255
198 223 255
198 223 255
198 223 255
198 223 255
198 223 255
198 223 255
198 223 255
198 223 255
198 223 255
198 223 255
197 223 255
197 222 255
197 222 255
197 222 255
197 222 255
197 222 255
197 222 255
197 222 255
197 222 255
197 222 255
197 222 255
197 222 255
197 222 255
197 222 255
197 222 255
197 222 255
197 222 255
197 222 255
197 222 255
197 222 255
197 222 255
197 222 255
197 222 255
197 222 255
197 222 255
197 222 255
197 222 255
197 222 255
197 222 255
197 222 255
197 222 255
197 222 255
197 222 255
197 222 255
197 222 255
197 222 255
197 222 255
197 222 255
197 222 255
197 222 255
197 222 255
197 222 255
197 222 255
197 222 255
197 222 255
197 222 255
197 222 255
197 222 255
197 222 255
197 222 255
197 222 255
197 222 255
197 222 255
197 222 255
197 222 255
197 222 255
197 222 255
197 222 255
197 222 255
197 222 255
197 222 255
197 222 255
197 222 255
197 222 255
197 222 255
197 222 255
197 222 255
197 222 255
197 222 255
197 222 255
197 222 255
197 222 255
197 222 255
197 222 255
197 222 255
197 222 255
197 222 255
197 223 255
198 223 255
198 223 255
198 223 255
198 223 255
198 223 255
198 223 255
198 223 255
198 223 255
198 223 255
198 223 255
198 223 255
198 223 255
198 223 255
198 223 255
198 223 255
198 223 255
198 223 255
198 223 255
198 223 255
199 223 255
199 223 255
199 223 255
199 223 255
199 223 255
199 223 255
199 223 255
199 223 255
199 223 255
199 223 255
199 223 255
199 223 255
199 223 255
199 223 255
199 224 255
199 224 255
199 224 255
200 224 255
200 224 255
200 224 255
200 224 255
200 224 255
200 224 255
200 224 255
200 224 255
200 224 255
200 224 255
200 224 255
200 224 255
200 224 255
200 224 255
200 224 255
201 224 255
201 224 255
201 224 255
201 224 255
201 224 255
201 224 255
201 224 255
201 224 255
201 224 255
201 224 255
201 224 255
201 225 255
201 225 255
201 225 255
201 225 255
202 225 255
202 225 255
202 225 255
202 225 255
202 225 255
202 225 255
202 225 255
202 225 255
202 225 255
202 225 255
202 225 255
202 225 255
202 225 255
202 225 255
202 225 255
203 225 255
203 225 255
203 225 255
203 225 255
203 225 255
203 225 255
203 225 255
203 225 255
203 226 255
203 226 255
203 226 255
203 226 255
203 226 255
203 226 255
203 226 255
204 226 255
204 226 255
204 226 255
204 226 255
204 226 255
204 226 255
204 226 255
204 226 255
204 226 255
204 226 255
204 226 255
204 226 255
204 226 255
204 226 255
204 226 255
204 226 255
205 226 255
205 226 255
205 226 255
205 226 255
205 226 255
205 226 255
205 226 255
205 227 255
205 227 255
205 227 255
205 227 255
205 227 255
205 227 255
205 227 255
205 227 255
205 227 255
205 227 255
206 227 255
206 227 255
206 227 255
206 227 255
206 227 255
206 227 255
206 227 255
206 227 255
206 227 255
206 227 255
206 227 255
206 227 255
206 227 255
206 227 255
206 227 255
206 227 255
206 227 255
206 227 255
206 227 255
207 227 255
207 227 255
207 227 255
207 227 255
207 227 255
207 228 255
207 228 255
207 228 255
207 228 255
207 228 255
207 228 255
207 228 255
207 228 255
207 228 255
207 228 255
207 228 255
207 228 255
207 228 255
207 228 255
207 228 255
207 228 255
207 228 255
207 228 255
207 228 255
207 227 255
207 227 255
207 227 255
207 227 255
207 227 255
206 227 255
206 227 255
206 227 255
206 227 255
206 227 255
206 227 255
206 227 255
206 227 255
206 227 255
206 227 255
206 227 255
206 227 255
206 227 255
206 227 255
206 227 255
206 227 255
206 227 255
206 227 255
205 227 255
205 227 255
205 227 255
205 227 255
205 227 255
205 227 255
205 227 255
205 227 255
205 227 255
205 227 255
205 227 255
205 226 255
205 226 255
205 226 255
205 226 255
205 226 255
205 226 255
205 226 255
204 226 255
204 226 255
204 226 255
204 226 255
204 226 255
204 226 255
204 226 255
204 226 255
204 226 255
204 226 255
204 226 255
204 226 255
204 226 255
204 226 255
204 226 255
204 226 255
203 226 255
203 226 255
203 226 255
203 226 255
203 226 255
203 226 255
203 225 255
203 225 255
203 225 255
203 225 255
203 225 255
203 225 255
203 225 255
203 225 255
203 225 255
202 225 255
202 225 255
202 225 255
202 225 255
202 225 255
202 225 255
202 225 255
202 225 255
202 225 255
202 225 255
202 225 255
202 225 255
202 225 255
202 225 255
202 225 255
201 225 255
201 225 255
201 225 255
201 225 255
201 224 255
201 224 255
201 224 255
201 224 255
201 224 255
201 224 255
201 224 255
201 224 255
201 224 255
201 224 255
201 224 255
200 224 255
200 224 255
200 224 255
200 224 255
200 224 255
200 224 255
200 224 255
200 224 255
200 224 255
200 224 255
200 224 255
200 224 255
200 224 255
200 224 255
200 224 255
199 224 255
199 224 255
199 223 255
199 223 255
199 223 255
199 223 255
199 223 255
199 223 255
199 223 255
199 223 255
199 223 255
199 223 255
199 223 255
199 223 255
199 223 255
199 223 255
198 223 255
198 223 255
198 223 255
198 223 255
198 223 255
198 223 255
198 223 255
198 223 255
198 223 255
198 223 255
198 223 255
198 223 255
198 223 255
198 223 255
198 223 255
198 223 255
198 223 255
198 223 255
198 223 255
198 223 255
198 223 255
197 223 255
197 222 255
197 222 255
197 222 255
197 222 255
197 222 255
197 222 255
197 222 255
197 222 255
197 222 255
197 222 255
197 222 255
197 222 255
197 222 255
197 222 255
197 222 255
197 222 255
197 222 255
197 222 255
197 222 255
197 222 255
197 222 255
197 222 255
197 222 255
197 222 255
197 222 255
197 222 255
197 222 255
197 222 255
197 222 255
197 222 255
197 222 255
197 222 255
197 222 255
197 222 255
197 222 255
197 222 255
197 222 255
197 222 255
197 222 255
197 222 255
197 222 255
197 222 255
197 222 255
197 222 255
197 222 255
197 222 255
197 222 255
197 222 255
197 222 255
197 222 255
197 222 255
197 222 255
197 222 255
197 222 255
197 222 255
197 222 255
197 222 255
197 222 255
197 222 255
197 222 255
197 222 255
197 222 255
197 222 255
197 222 255
197 222 255
197 222 255
197 222 255
197 222 255
197 223 255
198 223 255
198 223 255
198 223 255
198 223 255
198 223 255
198 223 255
198 223 255
198 223 255
198 223 255
198 223 255
198 223 255
198 223 255
198 223 255
198 223 255
198 223 255
198 223 255
198 223 255
198 223 255
198 223 255
198 223 255
198 223 255
199 223 255
199 223 255
199 223 255
199 223 255
199 223 255
199 223 255
199 223 255
199 223 255
199 223 255
199 223 255
199 223 255
199 223 255
199 223 255
199 223 255
199 224 255
199 224 255
200 224 255
200 224 255
200 224 255
200 224 255
200 224 255
200 224 255
200 224 255
200 224 255
200 224 255
200 224 255
200 224 255
200 224 255
200 224 255
200 224 255
200 224 255
201 224 255
201 224 255
201 224 255
201 224 255
201 224 255
201 224 255
201 224 255
201 224 255
201 224 255
201 224 255
201 224 255
201 225 255
201 225 255
201 225 255
201 225 255
202 225 255
202 225 255
202 225 255
202 225 255
202 225 255
202 225 255
202 225 255
202 225 255
202 225 255
202 225 255
202 225 255
202 225 255
202 225 255
202 225 255
202 225 255
203 225 255
203 225 255
203 225 255
203 225 255
203 225 255
203 225 255
203 225 255
203 225 255
203 225 255
203 226 255
203 226 255
203 226 255
203 226 255
203 226 255
203 226 255
204 226 255
204 226 255
204 226 255
204 226 255
204 226 255
204 226 255
204 226 255
204 226 255
204 226 255
204 226 255
204 226 255
204 226 255
204 226 255
204 226 255
204 226 255
204 226 255
205 226 255
205 226 255
205 226 255
205 226 255
205 226 255
205 226 255
205 226 255
205 227 255
205 227 255
205 227 255
205 227 255
205 227 255
205 227 255
205 227 255
205 227 255
205 227 255
205 227 255
205 227 255
206 227 255
206 227 255
206 227 255
206 227 255
206 227 255
206 227 255
206 227 255
206 227 255
206 227 255
206 227 255
206 227 255
206 227 255
206 227 255
206 227 255
206 227 255
206 227 255
206 227 255
206 227 255
207 227 255
207 227 255
207 227 255
207 227 255
207 227 255
207 228 255
207 228 255
207 228 255
207 228 255
207 228 255
207 228 255
207 228 255
207 228 255
207 228 255
207 228 255
207 228 255
207 228 255
207 228 255
207 228 255
207 228 255
207 228 255
207 228 255
207 228 255
207 228 255
207 228 255
207 228 255
207 228 255
207 228 255
207 228 255
207 228 255
207 227 255
207 227 255
207 227 255
207 227 255
206 227 255
206 227 255
206 227 255
206 227 255
206 227 255
206 227 255
206 227 255
206 227 255
206 227 255
206 227 255
206 227 255
206 227 255
206 227 255
206 227 255
206 227 255
206 227 255
206 227 255
206 227 255
206 227 255
205 227 255
205 227 255
205 227 255
205 227 255
205 227 255
205 227 255
205 227 255
205 227 255
205 227 255
205 227 255
205 226 255
205 226 255
205 226 255
205 226 255
205 226 255
205 226 255
205 226 255
204 226 255
204 226 255
204 226 255
204 226 255
204 226 255
204 226 255
204 226 255
204 226 255
204 226 255
204 226 255
204 226 255
204 226 255
204 226 255
204 226 255
204 226 255
204 226 255
203 226 255
203 226 255
203 226 255
203 226 255
203 226 255
203 226 255
203 226 255
203 225 255
203 225 255
203 225 255
203 225 255
203 225 255
203 225 255
203 225 255
203 225 255
202 225 255
202 225 255
202 225 255
202 225 255
202 225 255
202 225 255
202 225 255
202 225 255
202 225 255
202 225 255
202 225 255
202 225 255
202 225 255
202 225 255
202 225 255
201 225 255
201 225 255
201 225 255
201 225 255
201 225 255
201 224 255
201 224 255
201 224 255
201 224 255
201 224 255
201 224 255
201 224 255
201 224 255
201 224 255
201 224 255
200 224 255
200 224 255
200 224 255
200 224 255
200 224 255
200 224 255
200 224 255
200 224 255
200 224 255
200 224 255
200 224 255
200 224 255
200 224 255
200 224 255
200 224 255
200 224 255
199 224 255
199 224 255
199 223 255
199 223 255
199 223 255
199 223 255
199 223 255
199 223 255
199 223 255
199 223 255
199 223 255
199 223 255
199 223 255
199 223 255
199 223 255
199 223 255
199 223 255
198 223 255
198 223 255
198 223 255
198 223 255
198 223 255
198 223 255
198 223 255
198 223 255
198 223 255
198 223 255
198 223 255
198 223 255
198 223 255
198 223 255
198 223 255
198 223 255
198 223 255
198 223 255
198 223 255
198 223 255
198 223 255
198 223 255
197 223 255
197 222 255
197 222 255
197 222 255
197 222 255
197 222 255
197 222 255
197 222 255
197 222 255
197 222 255
197 222 255
197 222 255
197 222 255
197 222 255
197 222 255
197 222 255
197 222 255
197 222 255
197 222 255
197 222 255
197 222 255
197 222 255
197 222 255
197 222 255
197 222 255
197 222 255
197 222 255
197 222 255
197 222 255
197 222 255
197 222 255
197 222 255
197 222 255
197 222 255
197 222 255
197 222 255
197 222 255
197 222 255
197 222 255
197 222 255
197 222 255
197 222 255
197 222 255
197 222 255
197 222 255
197 222 255
197 222 255
197 222 255
197 222 255
197 222 255
197 222 255
197 222 255
197 222 255
197 222 255
197 222 255
197 222 255
197 222 255
197 222 255
197 222 255
197 223 255
198 223 255
198 223 255
198 223 255
198 223 255
198 223 255
198 223 255
198 223 255
198 223 255
198 223 255
198 223 255
198 223 255
198 223 255
198 223 255
198 223 255
198 223 255
198 223 255
198 223 255
198 223 255
198 223 255
198 223 255
198 223 255
198 223 255
199 223 255
199 223 255
199 223 255
199 223 255
199 223 255
199 223 255
199 223 255
199 223 255
199 223 255
199 223 255
199 223 255
199 223 255
199 223 255
199 223 255
199 223 255
199 224 255
199 224 255
200 224 255
200 224 255
200 224 255
200 224 255
200 224 255
200 224 255
200 224 255
200 224 255
200 224 255
200 224 255
200 224 255
200 224 255
200 224 255
200 224 255
200 224 255
200 224 255
201 224 255
201 224 255
201 224 255
201 224 255
201 224 255
201 224 255
201 224 255
201 224 255
201 224 255
201 224 255
201 225 255
201 225 255
201 225 255
201 225 255
201 225 255
202 225 255
202 225 255
202 225 255
202 225 255
202 225 255
202 225 255
202 225 255
202 225 255
202 225 255
202 225 255
202 225 255
202 225 255
202 225 255
202 225 255
202 225 255
203 225 255
203 225 255
203 225 255
203 225 255
203 225 255
203 225 255
203 225 255
203 225 255
203 226 255
203 226 255
203 226 255
203 226 255
203 226 255
203 226 255
203 226 255
204 226 255
204 226 255
204 226 255
204 226 255
204 226 255
204 226 255
204 226 255
204 226 255
204 226 255
204 226 255
204 226 255
204 226 255
204 226 255
204 226 255
204 226 255
204 226 255
205 226 255
205 226 255
205 226 255
205 226 255
205 226 255
205 226 255
205 226 255
205 227 255
205 227 255
205 227 255
205 227 255
205 227 255
205 227 255
205 227 255
205 227 255
205 227 255
205 227 255
206 227 255
206 227 255
206 227 255
206 227 255
206 227 255
206 227 255
206 227 255
206 227 255
206 227 255
206 227 255
206 227 255
206 227 255
206 227 255
206 227 255
206 227 255
206 227 255
206 227 255
206 227 255
206 227 255
207 227 255
207 227 255
207 227 255
207 227 255
207 228 255
207 228 255
207 228 255
207 228 255
207 228 255
207 228 255
207 228 255
207 228 255
207 228 255
207 228 255
207 228 255
207 228 255
207 228 255
207 228 255
208 228 255
207 228 255
207 228 255
207 228 255
207 228 255
207 228 255
207 228 255
207 228 255
207 228 255
207 228 255
207 228 255
207 228 255
207 228 255
207 228 255
207 228 255
207 228 255
207 228 255
207 227 255
207 227 255
207 227 255
207 227 255
206 227 255
206 227 255
206 227 255
206 227 255
206 227 255
206 227 255
206 227 255
206 227 255
206 227 255
206 227 255
206 227 255
206 227 255
206 227 255
206 227 255
206 227 255
206 227 255
206 227 255
206 227 255
206 227 255
205 227 255
205 227 255
205 227 255
205 227 255
205 227 255
205 227 255
205 227 255
205 227 255
205 227 255
205 227 255
205 226 255
205 226 255
205 226 255
205 226 255
205 226 255
205 226 255
205 226 255
204 226 255
204 226 255
204 226 255
204 226 255
204 226 255
204 226 255
204 226 255
204 226 255
204 226 255
204 226 255
204 226 255
204 226 255
204 226 255
204 226 255
204 226 255
204 226 255
203 226 255
203 226 255
203 226 255
203 226 255
203 226 255
203 226 255
203 226 255
203 225 255
203 225 255
203 225 255
203 225 255
203 225 255
203 225 255
203 225 255
203 225 255
202 225 255
202 225 255
202 225 255
202 225 255
202 225 255
202 225 255
202 225 255
202 225 255
202 225 255
202 225 255
202 225 255
202 225 255
202 225 255
202 225 255
202 225 255
201 225 255
201 225 255
201 225 255
201 225 255
201 224 255
201 224 255
201 224 255
201 224 255
201 224 255
201 224 255
201 224 255
201 224 255
201 224 255
201 224 255
201 224 255
200 224 255
200 224 255
200 224 255
200 224 255
200 224 255
200 224 255
200 224 255
200 224 255
200 224 255
200 224 255
200 224 255
200 224 255
200 224 255
200 224 255
200 224 255
199 224 255
199 224 255
199 224 255
199 223 255
199 223 255
199 223 255
199 223 255
199 223 255
199 223 255
199 223 255
199 223 255
199 223 255
199 223 255
199 223 255
199 223 255
199 223 255
199 223 255
199 223 255
198 223 255
198 223 255
198 223 255
198 223 255
198 223 255
198 223 255
198 223 255
198 223 255
198 223 255
198 223 255
198 223 255
198 223 255
198 223 255
198 223 255
198 223 255
198 223 255
198 223 255
198 223 255
198 223 255
198 223 255
198 223 255
198 223 255
198 223 255
198 223 255
198 223 255
197 223 255
197 222 255
197 222 255
197 222 255
197 222 255
197 222 255
197 222 255
197 222 255
197 222 255
197 222 255
197 222 255
197 222 255
197 222 255
197 222 255
197 222 255
197 222 255
197 222 255
197 222 255
197 222 255
197 222 255
197 222 255
197 222 255
197 222 255
197 222 255
197 222 255
197 222 255
197 222 255
197 222 255
197 222 255
197 222 255
197 222 255
197 222 255
197 222 255
197 222 255
197 222 255
197 222 255
197 222 255
197 222 255
197 222 255
197 222 255
197 222 255
197 222 255
197 222 255
197 222 255
197 222 255
197 222 255
197 222 255
197 223 255
197 223 255
198 223 255
198 223 255
198 223 255
198 223 255
198 223 255
198 223 255
198 223 255
198 223 255
198 223 255
198 223 255
198 223 255
198 223 255
198 223 255
198 223 255
198 223 255
198 223 255
198 223 255
198 223 255
198 223 255
198 223 255
198 223 255
198 223 255
198 223 255
198 223 255
199 223 255
199 223 255
199 223 255
199 223 255
199 223 255
199 223 255
199 223 255
199 223 255
199 223 255
199 223 255
199 223 255
199 223 255
199 223 255
199 223 255
199 223 255
199 224 255
199 224 255
199 224 255
200 224 255
200 224 255
200 224 255
200 224 255
200 224 255
200 224 255
200 224 255
200 224 255
200 224 255
200 224 255
200 224 255
200 224 255
200 224 255
200 224 255
200 224 255
201 224 255
201 224 255
201 224 255
201 224 255
201 224 255
201 224 255
201 224 255
201 224 255
201 224 255
201 224 255
201 224 255
201 225 255
201 225 255
201 225 255
201 225 255
202 225 255
202 225 255
202 225 255
202 225 255
202 225 255
202 225 255
202 225 255
202 225 255
202 225 255
202 225 255
202 225 255
202 225 255
202 225 255
202 225 255
202 225 255
203 225 255
203 225 255
203 225 255
203 225 255
203 225 255
203 225 255
203 225 255
203 225 255
203 226 255
203 226 255
203 226 255
203 226 255
203 226 255
203 226 255
203 226 255
204 226 255
204 226 255
204 226 255
204 226 255
204 226 255
204 226 255
204 226 255
204 226 255
204 226 255
204 226 255
204 226 255
204 226 255
204 226 255
204 226 255
204 226 255
204 226 255
205 226 255
205 226 255
205 226 255
205 226 255
205 226 255
205 226 255
205 226 255
205 227 255
205 227 255
205 227 255
205 227 255
205 227 255
205 227 255
205 227 255
205 227 255
205 227 255
205 227 255
206 227 255
206 227 255
206 227 255
206 227 255
206 227 255
206 227 255
206 227 255
206 227 255
206 227 255
206 227 255
206 227 255
206 227 255
206 227 255
206 227 255
206 227 255
206 227 255
206 227 255
206 227 255
206 227 255
207 227 255
207 227 255
207 227 255
207 227 255
207 228 255
207 228 255
207 228 255
207 228 255
207 228 255
207 228 255
207 228 255
207 228 255
207 228 255
207 228 255
207 228 255
207 228 255
207 228 255
207 228 255
207 228 255
207 228 255
208 228 255
208 228 255
208 228 255
208 228 255
208 228 255
207 228 255
207 228 255
207 228 255
207 228 255
207 228 255
207 228 255
207 228 255
207 228 255
207 228 255
207 228 255
207 228 255
207 228 255
207 228 255
207 228 255
207 228 255
207 228 255
207 227 255
207 227 255
207 227 255
207 227 255
206 227 255
206 227 255
206 227 255
206 227 255
206 227 255
206 227 255
206 227 255
206 227 255
206 227 255
206 227 255
206 227 255
206 227 255
206 227 255
206 227 255
206 227 255
206 227 255
206 227 255
206 227 255
205 227 255
205 227 255
205 227 255
205 227 255
205 227 255
205 227 255
205 227 255
205 227 255
205 227 255
205 227 255
205 227 255
205 226 255
205 226 255
205 226 255
205 226 255
205 226 255
205 226 255
204 226 255
204 226 255
204 226 255
204 226 255
204 226 255
204 226 255
204 226 255
204 226 255
204 226 255
204 226 255
204 226 255
204 226 255
204 226 255
204 226 255
204 226 255
204 226 255
203 226 255
203 226 255
203 226 255
203 226 255
203 226 255
203 226 255
203 226 255
203 225 255
203 225 255
203 225 255
203 225 255
203 225 255
203 225 255
203 225 255
203 225 255
202 225 255
202 225 255
202 225 255
202 225 255
202 225 255
202 225 255
202 225 255
202 225 255
202 225 255
202 225 255
202 225 255
202 225 255
202 225 255
202 225 255
202 225 255
202 225 255
201 225 255
201 225 255
201 225 255
201 225 255
201 224 255
201 224 255
201 224 255
201 224 255
201 224 255
201 224 255
201 224 255
201 224 255
201 224 255
201 224 255
201 224 255
200 224 255
200 224 255
200 224 255
200 224 255
200 224 255
200 224 255
200 224 255
200 224 255
200 224 255
200 224 255
200 224 255
200 224 255
200 224 255
200 224 255
200 224 255
199 224 255
199 224 255
199 224 255
199 223 255
199 223 255
199 223 255
199 223 255
199 223 255
199 223 255
199 223 255
199 223 255
199 223 255
199 223 255
199 223 255
199 223 255
199 223 255
199 223 255
199 223 255
199 223 255
198 223 255
198 223 255
198 223 255
198 223 255
198 223 255
198 223 255
198 223 255
198 223 255
198 223 255
198 223 255
198 223 255
198 223 255
198 223 255
198 223 255
198 223 255
198 223 255
198 223 255
198 223 255
198 223 255
198 223 255
198 223 255
198 223 255
198 223 255
198 223 255
198 223 255
198 223 255
198 223 255
197 223 255
197 223 255
197 223 255
197 222 255
197 222 255
197 222 255
197 222 255
197 222 255
197 222 255
197 222 255
197 222 255
197 222 255
197 222 255
197 222 255
197 222 255
197 222 255
197 222 255
197 222 255
197 222 255
197 222 255
197 222 255
197 222 255
197 222 255
197 222 255
197 222 255
197 222 255
197 222 255
197 222 255
197 222 255
197 222 255
197 222 255
197 222 255
197 222 255
197 223 255
197 223 255
198 223 255
198 223 255
198 223 255
198 223 255
198 223 255
198 223 255
198 223 255
198 223 255
198 223 255
198 223 255
198 223 255
198 223 255
198 223 255
198 223 255
198 223 255
198 223 255
198 223 255
198 223 255
198 223 255
198 223 255
198 223 255
198 223 255
198 223 255
198 223 255
198 223 255
198 223 255
198 223 255
198 223 255
199 223 255
199 223 255
199 223 255
199 223 255
199 223 255
199 223 255
199 223 255
199 223 255
199 223 255
199 223 255
199 223 255
199 223 255
199 223 255
199 223 255
199 223 255
199 223 255
199 224 255
199 224 255
199 224 255
200 224 255
200 224 255
200 224 255
200 224 255
200 224 255
200 224 255
200 224 255
200 224 255
200 224 255
200 224 255
200 224 255
200 224 255
200 224 255
200 224 255
200 224 255
201 224 255
201 224 255
201 224 255
201 224 255
201 224 255
201 224 255
201 224 255
201 224 255
201 224 255
201 224 255
201 224 255
201 225 255
201 225 255
201 225 255
201 225 255
201 225 255
202 225 255
202 225 255
202 225 255
202 225 255
202 225 255
202 225 255
202 225 255
202 225 255
202 225 255
202 225 255
202 225 255
202 225 255
202 225 255
202 225 255
202 225 255
203 225 255
203 225 255
203 225 255
203 225 255
203 225 255
203 225 255
203 225 255
203 225 255
203 226 255
203 226 255
203 226 255
203 226 255
203 226 255
203 226 255
203 226 255
204 226 255
204 226 255
204 226 255
204 226 255
204 226 255
204 226 255
204 226 255
204 226 255
204 226 255
204 226 255
204 226 255
204 226 255
204 226 255
204 226 255
204 226 255
204 226 255
205 226 255
205 226 255
205 226 255
205 226 255
205 226 255
205 226 255
205 227 255
205 227 255
205 227 255
205 227 255
205 227 255
205 227 255
205 227 255
205 227 255
205 227 255
205 227 255
205 227 255
206 227 255
206 227 255
206 227 255
206 227 255
206 227 255
206 227 255
206 227 255
206 227 255
206 227 255
206 227 255
206 227 255
206 227 255
206 227 255
206 227 255
206 227 255
206 227 255
206 227 255
206 227 255
207 227 255
207 227 255
207 227 255
207 227 255
207 228 255
207 228 255
207 228 255
207 228 255
207 228 255
207 228 255
207 228 255
207 228 255
207 228 255
207 228 255
207 228 255
207 228 255
207 228 255
207 228 255
207 228 255
207 228 255
208 228 255
208 228 255
208 228 255
208 228 255
208 228 255
208 228 255
208 228 255
208 228 255
208 228 255
208 228 255
208 228 255
207 228 255
207 228 255
207 228 255
207 228 255
207 228 255
207 228 255
207 228 255
207 228 255
207 228 255
207 228 255
207 228 255
207 228 255
207 228 255
207 228 255
207 228 255
207 227 255
207 227 255
207 227 255
207 227 255
207 227 255
206 227 255
206 227 255
206 227 255
206 227 255
206 227 255
206 227 255
206 227 255
206 227 255
206 227 255
206 227 255
206 227 255
206 227 255
206 227 255
206 227 255
206 227 255
206 227 255
206 227 255
206 227 255
205 227 255
205 227 255
205 227 255
205 227 255
205 227 255
205 227 255
205 227 255
205 227 255
205 227 255
205 227 255
205 226 255
205 226 255
205 226 255
205 226 255
205 226 255
205 226 255
205 226 255
204 226 255
204 226 255
204 226 255
204 226 255
204 226 255
204 226 255
204 226 255
204 226 255
204 226 255
204 226 255
204 226 255
204 226 255
204 226 255
204 226 255
204 226 255
204 226 255
203 226 255
203 226 255
203 226 255
203 226 255
203 226 255
203 226 255
203 226 255
203 225 255
203 225 255
203 225 255
203 225 255
203 225 255
203 225 255
203 225 255
203 225 255
202 225 255
202 225 255
202 225 255
202 225 255
202 225 255
202 225 255
202 225 255
202 225 255
202 225 255
202 225 255
202 225 255
202 225 255
202 225 255
202 225 255
202 225 255
201 225 255
201 225 255
201 225 255
201 225 255
201 225 255
201 224 255
201 224 255
201 224 255
201 224 255
201 224 255
201 224 255
201 224 255
201 224 255
201 224 255
201 224 255
200 224 255
200 224 255
200 224 255
200 224 255
200 224 255
200 224 255
200 224 255
200 224 255
200 224 255
200 224 255
200 224 255
200 224 255
200 224 255
200 224 255
200 224 255
200 224 255
200 224 255
199 224 255
199 224 255
199 223 255
199 223 255
199 223 255
199 223 255
199 223 255
199 223 255
199 223 255
199 223 255
199 223 255
199 223 255
199 223 255
199 223 255
199 223 255
199 223 255
199 223 255
199 223 255
199 223 255
198 223 255
198 223 255
198 223 255
198 223 255
198 223 255
198 223 255
198 223 255
198 223 255
198 223 255
198 223 255
198 223 255
198 223 255
198 223 255
198 223 255
198 223 255
198 223 255
198 223 255
198 223 255
198 223 255
198 223 255
198 223 255
198 223 255
198 223 255
198 223 255
198 223 255
198 223 255
198 223 255
198 223 255
198 223 255
198 223 255
198 223 255
198 223 255
198 223 255
198 223 255
198 223 255
198 223 255
198 223 255
198 223 255
198 223 255
197 223 255
197 223 255
197 223 255
198 223 255
197 223 255
197 223 255
198 223 255
198 223 255
198 223 255
198 223 255
198 223 255
198 223 255
198 223 255
198 223 255
198 223 255
198 223 255
198 223 255
198 223 255
198 223 255
198 223 255
198 223 255
198 223 255
198 223 255
198 223 255
198 223 255
198 223 255
198 223 255
198 223 255
198 223 255
198 223 255
198 223 255
198 223 255
198 223 255
198 223 255
198 223 255
198 223 255
198 223 255
198 223 255
198 223 255
198 223 255
198 223 255
198 223 255
198 223 255
199 223 255
199 223 255
199 223 255
199 223 255
199 223 255
199 223 255
199 223 255
199 223 255
199 223 255
199 223 255
199 223 255
199 223 255
199 223 255
199 223 255
199 223 255
199 223 255
199 223 255
199 224 255
199 224 255
199 224 255
200 224 255
200 224 255
200 224 255
200 224 255
200 224 255
200 224 255
200 224 255
200 224 255
200 224 255
200 224 255
200 224 255
200 224 255
200 224 255
200 224 255
200 224 255
200 224 255
201 224 255
201 224 255
201 224 255
201 224 255
201 224 255
201 224 255
201 224 255
201 224 255
201 224 255
201 224 255
201 224 255
201 225 255
201 225 255
201 225 255
201 225 255
202 225 255
202 225 255
202 225 255
202 225 255
202 225 255
202 225 255
202 225 255
202 225 255
202 225 255
202 225 255
202 225 255
202 225 255
202 225 255
202 225 255
202 225 255
203 225 255
203 225 255
203 225 255
203 225 255
203 225 255
203 225 255
203 225 255
203 225 255
203 226 255
203 226 255
203 226 255
203 226 255
203 226 255
203 226 255
203 226 255
204 226 255
204 226 255
204 226 255
204 226 255
204 226 255
204 226 255
204 226 255
204 226 255
204 226 255
204 226 255
204 226 255
204 226 255
204 226 255
204 226 255
204 226 255
204 226 255
205 226 255
205 226 255
205 226 255
205 226 255
205 226 255
205 226 255
205 226 255
205 227 255
205 227 255
205 227 255
205 227 255
205 227 255
205 227 255
205 227 255
205 227 255
205 227 255
205 227 255
206 227 255
206 227 255
206 227 255
206 227 255
206 227 255
206 227 255
206 227 255
206 227 255
206 227 255
206 227 255
206 227 255
206 227 255
206 227 255
206 227 255
206 227 255
206 227 255
206 227 255
206 227 255
207 227 255
207 227 255
207 227 255
207 227 255
207 227 255
207 228 255
207 228 255
207 228 255
207 228 255
207 228 255
207 228 255
207 228 255
207 228 255
207 228 255
207 228 255
207 228 255
207 228 255
207 228 255
207 228 255
207 228 255
208 228 255
208 228 255
208 228 255
208 228 255
208 228 255
208 228 255
208 228 255
208 228 255
208 228 255
208 228 255
208 228 255
208 228 255
208 228 255
208 228 255
208 228 255
208 228 255
208 228 255
207 228 255
207 228 255
207 228 255
207 228 255
207 228 255
207 228 255
207 228 255
207 228 255
207 228 255
207 228 255
207 228 255
207 228 255
207 228 255
207 228 255
207 228 255
207 227 255
207 227 255
207 227 255
207 227 255
207 227 255
206 227 255
206 227 255
206 227 255
206 227 255
206 227 255
206 227 255
206 227 255
206 227 255
206 227 255
206 227 255
206 227 255
206 227 255
206 227 255
206 227 255
206 227 255
206 227 255
206 227 255
206 227 255
205 227 255
205 227 255
205 227 255
205 227 255
205 227 255
205 227 255
205 227 255
205 227 255
205 227 255
205 227 255
205 226 255
205 226 255
205 226 255
205 226 255
205 226 255
205 226 255
205 226 255
204 226 255
204 226 255
204 226 255
204 226 255
204 226 255
204 226 255
204 226 255
204 226 255
204 226 255
204 226 255
204 226 255
204 226 255
204 226 255
204 226 255
204 226 255
204 226 255
203 226 255
203 226 255
203 226 255
203 226 255
203 226 255
203 226 255
203 225 255
203 225 255
203 225 255
203 225 255
203 225 255
203 225 255
203 225 255
203 225 255
203 225 255
202 225 255
202 225 255
202 225 255
202 225 255
202 225 255
202 225 255
202 225 255
202 225 255
202 225 255
202 225 255
202 225 255
202 225 255
202 225 255
202 225 255
202 225 255
201 225 255
201 225 255
201 225 255
201 225 255
201 224 255
201 224 255
201 224 255
201 224 255
201 224 255
201 224 255
201 224 255
201 224 255
201 224 255
201 224 255
201 224 255
200 224 255
200 224 255
200 224 255
200 224 255
200 224 255
200 224 255
200 224 255
200 224 255
200 224 255
200 224 255
200 224 255
200 224 255
200 224 255
200 224 255
200 224 255
200 224 255
200 224 255
199 224 255
199 224 255
199 224 255
199 223 255
199 223 255
199 223 255
199 223 255
199 223 255
199 223 255
199 223 255
199 223 255
199 223 255
199 223 255
199 223 255
199 223 255
199 223 255
199 223 255
199 223 255
199 223 255
199 223 255
198 223 255
198 223 255
198 223 255
198 223 255
198 223 255
198 223 255
198 223 255
198 223 255
198 223 255
198 223 255
198 223 255
198 223 255
198 223 255
198 223 255
198 223 255
198 223 255
198 223 255
198 223 255
198 223 255
198 223 255
198 223 255
198 223 255
198 223 255
198 223 255
198 223 255
198 223 255
198 223 255
198 223 255
198 223 255
198 223 255
198 223 255
198 223 255
198 223 255
198 223 255
198 223 255
198 223 255
198 223 255
198 223 255
198 223 255
198 223 255
198 223 255
198 223 255
198 223 255
198 223 255
198 223 255
198 223 255
198 223 255
198 223 255
198 223 255
198 223 255
198 223 255
198 223 255
198 223 255
198 223 255
198 223 255
198 223 255
198 223 255
198 223 255
198 223 255
198 223 255
198 223 255
198 223 255
198 223 255
198 223 255
198 223 255
198 223 255
198 223 255
198 223 255
198 223 255
198 223 255
198 223 255
198 223 255
198 223 255
198 223 255
199 223 255
199 223 255
199 223 255
199 223 255
199 223 255
199 223 255
199 223 255
199 223 255
199 223 255
199 223 255
199 223 255
199 223 255
199 223 255
199 223 255
199 223 255
199 223 255
199 223 255
199 224 255
199 224 255
199 224 255
200 224 255
200 224 255
200 224 255
200 224 255
200 224 255
200 224 255
200 224 255
200 224 255
200 224 255
200 224 255
200 224 255
200 224 255
200 224 255
200 224 255
200 224 255
200 224 255
200 224 255
201 224 255
201 224 255
201 224 255
201 224 255
201 224 255
201 224 255
201 224 255
201 224 255
201 224 255
201 224 255
201 224 255
201 225 255
201 225 255
201 225 255
201 225 255
202 225 255
202 225 255
202 225 255
202 225 255
202 225 255
202 225 255
202 225 255
202 225 255
202 225 255
202 225 255
202 225 255
202 225 255
202 225 255
202 225 255
202 225 255
203 225 255
203 225 255
203 225 255
203 225 255
203 225 255
203 225 255
203 225 255
203 225 255
203 225 255
203 226 255
203 226 255
203 226 255
203 226 255
203 226 255
203 226 255
204 226 255
204 226 255
204 226 255
204 226 255
204 226 255
204 226 255
204 226 255
204 226 255
204 226 255
204 226 255
204 226 255
204 226 255
204 226 255
204 226 255
204 226 255
204 226 255
205 226 255
205 226 255
205 226 255
205 226 255
205 226 255
205 226 255
205 226 255
205 227 255
205 227 255
205 227 255
205 227 255
205 227 255
205 227 255
205 227 255
205 227 255
205 227 255
205 227 255
206 227 255
206 227 255
206 227 255
206 227 255
206 227 255
206 227 255
206 227 255
206 227 255
206 227 255
206 227 255
206 227 255
206 227 255
206 227 255
206 227 255
206 227 255
206 227 255
206 227 255
206 227 255
207 227 255
207 227 255
207 227 255
207 227 255
207 227 255
207 228 255
207 228 255
207 228 255
207 228 255
207 228 255
207 228 255
207 228 255
207 228 255
207 228 255
207 228 255
207 228 255
207 228 255
207 228 255
207 228 255
207 228 255
208 228 255
208 228 255
208 228 255
208 228 255
208 228 255
208 228 255
208 228 255
208 228 255
208 228 255
208 228 255
208 228 255
208 228 255
208 228 255
208 228 255
208 228 255
208 228 255
208 228 255
208 228 255
208 228 255
208 228 255
208 228 255
208 228 255
208 228 255
207 228 255
207 228 255
207 228 255
207 228 255
207 228 255
207 228 255
207 228 255
207 228 255
207 228 255
207 228 255
207 228 255
207 228 255
207 228 255
207 228 255
207 228 255
207 227 255
207 227 255
207 227 255
207 227 255
207 227 255
206 227 255
206 227 255
206 227 255
206 227 255
206 227 255
206 227 255
206 227 255
206 227 255
206 227 255
206 227 255
206 227 255
206 227 255
206 227 255
206 227 255
206 227 255
206 227 255
206 227 255
206 227 255
205 227 255
205 227 255
205 227 255
205 227 255
205 227 255
205 227 255
205 227 255
205 227 255
205 227 255
205 227 255
205 226 255
205 226 255
205 226 255
205 226 255
205 226 255
205 226 255
204 226 255
204 226 255
204 226 255
204 226 255
204 226 255
204 226 255
204 226 255
204 226 255
204 226 255
204 226 255
204 226 255
204 226 255
204 226 255
204 226 255
204 226 255
204 226 255
203 226 255
203 226 255
203 226 255
203 226 255
203 226 255
203 226 255
203 226 255
203 225 255
203 225 255
203 225 255
203 225 255
203 225 255
203 225 255
203 225 255
203 225 255
202 225 255
202 225 255
202 225 255
202 225 255
202 225 255
202 225 255
202 225 255
202 225 255
202 225 255
202 225 255
202 225 255
202 225 255
202 225 255
202 225 255
202 225 255
202 225 255
201 225 255
201 225 255
201 225 255
201 225 255
201 224 255
201 224 255
201 224 255
201 224 255
201 224 255
201 224 255
201 224 255
201 224 255
201 224 255
201 224 255
201 224 255
200 224 255
200 224 255
200 224 255
200 224 255
200 224 255
200 224 255
200 224 255
200 224 255
200 224 255
200 224 255
200 224 255
200 224 255
200 224 255
200 224 255
200 224 255
200 224 255
200 224 255
199 224 255
199 224 255
199 224 255
199 223 255
199 223 255
199 223 255
199 223 255
199 223 255
199 223 255
199 223 255
199 223 255
199 223 255
199 223 255
199 223 255
199 223 255
199 223 255
199 223 255
199 223 255
199 223 255
199 223 255
199 223 255
198 223 255
198 223 255
198 223 255
198 223 255
198 223 255
198 223 255
198 223 255
198 223 255
198 223 255
198 223 255
198 223 255
198 223 255
198 223 255
198 223 255
198 223 255
198 223 255
198 223 255
198 223 255
198 223 255
198 223 255
198 223 255
198 223 255
198 223 255
198 223 255
198 223 255
198 223 255
198 223 255
198 223 255
198 223 255
198 223 255
198 223 255
198 223 255
198 223 255
198 223 255
198 223 255
198 223 255
198 223 255
198 223 255
198 223 255
198 223 255
198 223 255
198 223 255
198 223 255
198 223 255
198 223 255
198 223 255
198 223 255
198 223 255
198 223 255
198 223 255
198 223 255
198 223 255
198 223 255
198 223 255
198 223 255
198 223 255
198 223 255
198 223 255
198 223 255
198 223 255
198 223 255
198 223 255
198 223 255
198 223 255
198 223 255
199 223 255
199 223 255
199 223 255
199 223 255
199 223 255
199 223 255
199 223 255
199 223 255
199 223 255
199 223 255
199 223 255
199 223 255
199 223 255
199 223 255
199 223 255
199 223 255
199 223 255
199 223 255
199 223 255
199 224 255
199 224 255
199 224 255
200 224 255
200 224 255
200 224 255
200 224 255
200 224 255
200 224 255
200 224 255
200 224 255
200 224 255
200 224 255
200 224 255
200 224 255
200 224 255
200 224 255
200 224 255
200 224 255
200 224 255
201 224 255
201 224 255
201 224 255
201 224 255
201 224 255
201 224 255
201 224 255
201 224 255
201 224 255
201 224 255
201 224 255
201 225 255
201 225 255
201 225 255
201 225 255
202 225 255
202 225 255
202 225 255
202 225 255
202 225 255
202 225 255
202 225 255
202 225 255
202 225 255
202 225 255
202 225 255
202 225 255
202 225 255
202 225 255
202 225 255
203 225 255
203 225 255
203 225 255
203 225 255
203 225 255
203 225 255
203 225 255
203 225 255
203 225 255
203 226 255
203 226 255
203 226 255
203 226 255
203 226 255
203 226 255
203 226 255
204 226 255
204 226 255
204 226 255
204 226 255
204 226 255
204 226 255
204 226 255
204 226 255
204 226 255
204 226 255
204 226 255
204 226 255
204 226 255
204 226 255
204 226 255
204 226 255
205 226 255
205 226 255
205 226 255
205 226 255
205 226 255
205 226 255
205 227 255
205 227 255
205 227 255
205 227 255
205 227 255
205 227 255
205 227 255
205 227 255
205 227 255
205 227 255
206 227 255
206 227 255
206 227 255
206 227 255
206 227 255
206 227 255
206 227 255
206 227 255
206 227 255
206 227 255
206 227 255
206 227 255
206 227 255
206 227 255
206 227 255
206 227 255
206 227 255
206 227 255
207 227 255
207 227 255
207 227 255
207 227 255
207 227 255
207 228 255
207 228 255
207 228 255
207 228 255
207 228 255
207 228 255
207 228 255
207 228 255
207 228 255
207 228 255
207 228 255
207 228 255
207 228 255
207 228 255
207 228 255
208 228 255
208 228 255
208 228 255
208 228 255
208 228 255
208 228 255
208 228 255
208 228 255
208 228 255
208 228 255
208 228 255
208 228 255
208 228 255
208 228 255
208 228 255
208 228 255
208 228 255
208 228 255
208 228 255
208 228 255
208 228 255
208 228 255
208 228 255
208 228 255
208 228 255
208 228 255
208 228 255
208 228 255
208 228 255
207 228 255
207 228 255
207 228 255
207 228 255
207 228 255
207 228 255
207 228 255
207 228 255
207 228 255
207 228 255
207 228 255
207 228 255
207 228 255
207 228 255
207 228 255
207 227 255
207 227 255
207 227 255
207 227 255
206 227 255
206 227 255
206 227 255
206 227 255
206 227 255
206 227 255
206 227 255
206 227 255
206 227 255
206 227 255
206 227 255
206 227 255
206 227 255
206 227 255
206 227 255
206 227 255
206 227 255
206 227 255
206 227 255
205 227 255
205 227 255
205 227 255
205 227 255
205 227 255
205 227 255
205 227 255
205 227 255
205 227 255
205 227 255
205 226 255
205 226 255
205 226 255
205 226 255
205 226 255
205 226 255
204 226 255
204 226 255
204 226 255
204 226 255
204 226 255
204 226 255
204 226 255
204 226 255
204 226 255
204 226 255
204 226 255
204 226 255
204 226 255
204 226 255
204 226 255
204 226 255
203 226 255
203 226 255
203 226 255
203 226 255
203 226 255
203 226 255
203 226 255
203 225 255
203 225 255
203 225 255
203 225 255
203 225 255
203 225 255
203 225 255
203 225 255
202 225 255
202 225 255
202 225 255
202 225 255
202 225 255
202 225 255
202 225 255
202 225 255
202 225 255
202 225 255
202 225 255
202 225 255
202 225 255
202 225 255
202 225 255
201 225 255
201 225 255
201 225 255
201 225 255
201 225 255
201 224 255
201 224 255
201 224 255
201 224 255
201 224 255
201 224 255
201 224 255
201 224 255
201 224 255
201 224 255
201 224 255
200 224 255
200 224 255
200 224 255
200 224 255
200 224 255
200 224 255
200 224 255
200 224 255
200 224 255
200 224 255
200 224 255
200 224 255
200 224 255
200 224 255
200 224 255
200 224 255
200 224 255
200 224 255
199 224 255
199 224 255
199 224 255
199 223 255
199 223 255
199 223 255
199 223 255
199 223 255
199 223 255
199 223 255
199 223 255
199 223 255
199 223 255
199 223 255
199 223 255
199 223 255
199 223 255
199 223 255
199 223 255
199 223 255
199 223 255
199 223 255
199 223 255
198 223 255
198 223 255
198 223 255
198 223 255
198 223 255
198 223 255
198 223 255
198 223 255
198 223 255
198 223 255
198 223 255
198 223 255
198 223 255
198 223 255
198 223 255
198 223 255
198 223 255
198 223 255
198 223 255
198 223 255
198 223 255
198 223 255
198 223 255
198 223 255
198 223 255
198 223 255
198 223 255
198 223 255
198 223 255
198 223 255
198 223 255
198 223 255
198 223 255
198 223 255
198 223 255
198 223 255
198 223 255
198 223 255
198 223 255
198 223 255
198 223 255
198 223 255
198 223 255
198 223 255
198 223 255
198 223 255
198 223 255
198 223 255
198 223 255
198 223 255
198 223 255
198 223 255
198 223 255
198 223 255
199 223 255
199 223 255
199 223 255
199 223 255
199 223 255
199 223 255
199 223 255
199 223 255
199 223 255
199 223 255
199 223 255
199 223 255
199 223 255
199 223 255
199 223 255
199 223 255
199 223 255
199 223 255
199 223 255
199 223 255
199 224 255
199 224 255
199 224 255
200 224 255
200 224 255
200 224 255
200 224 255
200 224 255
200 224 255
200 224 255
200 224 255
200 224 255
200 224 255
200 224 255
200 224 255
200 224 255
200 224 255
200 224 255
200 224 255
200 224 255
200 224 255
201 224 255
201 224 255
201 224 255
201 224 255
201 224 255
201 224 255
201 224 255
201 224 255
201 224 255
201 224 255
201 224 255
201 225 255
201 225 255
201 225 255
201 225 255
201 225 255
202 225 255
202 225 255
202 225 255
202 225 255
202 225 255
202 225 255
202 225 255
202 225 255
202 225 255
202 225 255
202 225 255
202 225 255
202 225 255
202 225 255
202 225 255
203 225 255
203 225 255
203 225 255
203 225 255
203 225 255
203 225 255
203 225 255
203 225 255
203 226 255
203 226 255
203 226 255
203 226 255
203 226 255
203 226 255
203 226 255
204 226 255
204 226 255
204 226 255
204 226 255
204 226 255
204 226 255
204 226 255
204 226 255
204 226 255
204 226 255
204 226 255
204 226 255
204 226 255
204 226 255
204 226 255
204 226 255
205 226 255
205 226 255
205 226 255
205 226 255
205 226 255
205 226 255
205 226 255
205 227 255
205 227 255
205 227 255
205 227 255
205 227 255
205 227 255
205 227 255
205 227 255
205 227 255
206 227 255
206 227 255
206 227 255
206 227 255
206 227 255
206 227 255
206 227 255
206 227 255
206 227 255
206 227 255
206 227 255
206 227 255
206 227 255
206 227 255
206 227 255
206 227 255
206 227 255
206 227 255
207 227 255
207 227 255
207 227 255
207 227 255
207 227 255
207 228 255
207 228 255
207 228 255
207 228 255
207 228 255
207 228 255
207 228 255
207 228 255
207 228 255
207 228 255
207 228 255
207 228 255
207 228 255
207 228 255
207 228 255
208 228 255
208 228 255
208 228 255
208 228 255
208 228 255
208 228 255
208 228 255
208 228 255
208 228 255
208 228 255
208 228 255
208 228 255
208 228 255
208 228 255
208 228 255
208 228 255
208 228 255
208 228 255
208 228 255
208 228 255
208 228 255
208 228 255
208 228 255
208 228 255
208 228 255
208 228 255
208 228 255
208 228 255
208 228 255
208 228 255
208 228 255
208 228 255
208 228 255
208 228 255
208 228 255
207 228 255
207 228 255
207 228 255
207 228 255
207 228 255
207 228 255
207 228 255
207 228 255
207 228 255
207 228 255
207 228 255
207 228 255
207 228 255
207 228 255
207 228 255
207 227 255
207 227 255
207 227 255
207 227 255
206 227 255
206 227 255
206 227 255
206 227 255
206 227 255
206 227 255
206 227 255
206 227 255
206 227 255
206 227 255
206 227 255
206 227 255
206 227 255
206 227 255
206 227 255
206 227 255
206 227 255
206 227 255
205 227 255
205 227 255
205 227 255
205 227 255
205 227 255
205 227 255
205 227 255
205 227 255
205 227 255
205 227 255
205 226 255
205 226 255
205 226 255
205 226 255
205 226 255
205 226 255
205 226 255
204 226 255
204 226 255
204 226 255
204 226 255
204 226 255
204 226 255
204 226 255
204 226 255
204 226 255
204 226 255
204 226 255
204 226 255
204 226 255
204 226 255
204 226 255
204 226 255
203 226 255
203 226 255
203 226 255
203 226 255
203 226 255
203 226 255
203 225 255
203 225 255
203 225 255
203 225 255
203 225 255
203 225 255
203 225 255
203 225 255
203 225 255
202 225 255
202 225 255
202 225 255
202 225 255
202 225 255
202 225 255
202 225 255
202 225 255
202 225 255
202 225 255
202 225 255
202 225 255
202 225 255
202 225 255
202 225 255
201 225 255
201 225 255
201 225 255
201 225 255
201 225 255
201 224 255
201 224 255
201 224 255
201 224 255
201 224 255
201 224 255
201 224 255
201 224 255
201 224 255
201 224 255
201 224 255
200 224 255
200 224 255
200 224 255
200 224 255
200 224 255
200 224 255
200 224 255
200 224 255
200 224 255
200 224 255
200 224 255
200 224 255
200 224 255
200 224 255
200 224 255
200 224 255
200 224 255
200 224 255
199 224 255
199 224 255
199 224 255
199 224 255
199 223 255
199 223 255
199 223 255
199 223 255
199 223 255
199 223 255
199 223 255
199 223 255
199 223 255
199 223 255
199 223 255
199 223 255
199 223 255
199 223 255
199 223 255
199 223 255
199 223 255
199 223 255
199 223 255
199 223 255
199 223 255
199 223 255
199 223 255
198 223 255
198 223 255
198 223 255
198 223 255
198 223 255
198 223 255
198 223 255
198 223 255
198 223 255
198 223 255
198 223 255
198 223 255
198 223 255
198 223 255
198 223 255
198 223 255
198 223 255
198 223 255
198 223 255
198 223 255
198 223 255
198 223 255
198 223 255
198 223 255
198 223 255
198 223 255
198 223 255
198 223 255
198 223 255
198 223 255
198 223 255
198 223 255
198 223 255
198 223 255
198 223 255
198 223 255
198 223 255
198 223 255
198 223 255
198 223 255
199 223 255
199 223 255
199 223 255
199 223 255
199 223 255
199 223 255
199 223 255
199 223 255
199 223 255
199 223 255
199 223 255
199 223 255
199 223 255
199 223 255
199 223 255
199 223 255
199 223 255
199 223 255
199 223 255
199 223 255
199 223 255
199 223 255
199 223 255
199 224 255
199 224 255
199 224 255
199 224 255
200 224 255
200 224 255
200 224 255
200 224 255
200 224 255
200 224 255
200 224 255
200 224 255
200 224 255
200 224 255
200 224 255
200 224 255
200 224 255
200 224 255
200 224 255
200 224 255
200 224 255
200 224 255
201 224 255
201 224 255
201 224 255
201 224 255
201 224 255
201 224 255
201 224 255
201 224 255
201 224 255
201 224 255
201 224 255
201 225 255
201 225 255
201 225 255
201 225 255
201 225 255
202 225 255
202 225 255
202 225 255
202 225 255
202 225 255
202 225 255
202 225 255
202 225 255
202 225 255
202 225 255
202 225 255
202 225 255
202 225 255
202 225 255
202 225 255
203 225 255
203 225 255
203 225 255
203 225 255
203 225 255
203 225 255
203 225 255
203 225 255
203 226 255
203 226 255
203 226 255
203 226 255
203 226 255
203 226 255
203 226 255
204 226 255
204 226 255
204 226 255
204 226 255
204 226 255
204 226 255
204 226 255
204 226 255
204 226 255
204 226 255
204 226 255
204 226 255
204 226 255
204 226 255
204 226 255
204 226 255
205 226 255
205 226 255
205 226 255
205 226 255
205 226 255
205 226 255
205 226 255
205 227 255
205 227 255
205 227 255
205 227 255
205 227 255
205 227 255
205 227 255
205 227 255
205 227 255
205 227 255
206 227 255
206 227 255
206 227 255
206 227 255
206 227 255
206 227 255
206 227 255
206 227 255
206 227 255
206 227 255
206 227 255
206 227 255
206 227 255
206 227 255
206 227 255
206 227 255
206 227 255
207 227 255
207 227 255
207 227 255
207 227 255
207 227 255
207 228 255
207 228 255
207 228 255
207 228 255
207 228 255
207 228 255
207 228 255
207 228 255
207 228 255
207 228 255
207 228 255
207 228 255
207 228 255
207 228 255
207 228 255
208 228 255
208 228 255
208 228 255
208 228 255
208 228 255
208 228 255
208 228 255
208 228 255
208 228 255
208 228 255
208 228 255
208 228 255
208 228 255
208 228 255
208 228 255
208 228 255
208 228 255
208 228 255
208 228 255
209 228 255
208 228 255
208 228 255
208 228 255
208 228 255
208 228 255
208 228 255
208 228 255
208 228 255
208 228 255
208 228 255
208 228 255
208 228 255
208 228 255
208 228 255
208 228 255
208 228 255
208 228 255
208 228 255
208 228 255
208 228 255
208 228 255
207 228 255
207 228 255
207 228 255
207 228 255
207 228 255
207 228 255
207 228 255
207 228 255
207 228 255
207 228 255
207 228 255
207 228 255
207 228 255
207 228 255
207 228 255
207 227 255
207 227 255
207 227 255
207 227 255
207 227 255
206 227 255
206 227 255
206 227 255
206 227 255
206 227 255
206 227 255
206 227 255
206 227 255
206 227 255
206 227 255
206 227 255
206 227 255
206 227 255
206 227 255
206 227 255
206 227 255
206 227 255
205 227 255
205 227 255
205 227 255
205 227 255
205 227 255
205 227 255
205 227 255
205 227 255
205 227 255
205 227 255
205 226 255
205 226 255
205 226 255
205 226 255
205 226 255
205 226 255
205 226 255
204 226 255
204 226 255
204 226 255
204 226 255
204 226 255
204 226 255
204 226 255
204 226 255
204 226 255
204 226 255
204 226 255
204 226 255
204 226 255
204 226 255
204 226 255
203 226 255
203 226 255
203 226 255
203 226 255
203 226 255
203 226 255
203 226 255
203 225 255
203 225 255
203 225 255
203 225 255
203 225 255
203 225 255
203 225 255
203 225 255
203 225 255
202 225 255
202 225 255
202 225 255
202 225 255
202 225 255
202 225 255
202 225 255
202 225 255
202 225 255
202 225 255
202 225 255
202 225 255
202 225 255
202 225 255
202 225 255
201 225 255
201 225 255
201 225 255
201 225 255
201 225 255
201 224 255
201 224 255
201 224 255
201 224 255
201 224 255
201 224 255
201 224 255
201 224 255
201 224 255
201 224 255
201 224 255
201 224 255
200 224 255
200 224 255
200 224 255
200 224 255
200 224 255
200 224 255
200 224 255
200 224 255
200 224 255
200 224 255
200 224 255
200 224 255
200 224 255
200 224 255
200 224 255
200 224 255
200 224 255
200 224 255
199 224 255
199 224 255
199 224 255
199 224 255
199 223 255
199 223 255
199 223 255
199 223 255
199 223 255
199 223 255
199 223 255
199 223 255
199 223 255
199 223 255
199 223 255
199 223 255
199 223 255
199 223 255
199 223 255
199 223 255
199 223 255
199 223 255
199 223 255
199 223 255
199 223 255
199 223 255
199 223 255
199 223 255
199 223 255
199 223 255
199 223 255
199 223 255
199 223 255
199 223 255
198 223 255
198 223 255
198 223 255
198 223 255
198 223 255
198 223 255
198 223 255
198 223 255
198 223 255
198 223 255
198 223 255
198 223 255
198 223 255
198 223 255
198 223 255
198 223 255
198 223 255
198 223 255
198 223 255
199 223 255
199 223 255
199 223 255
199 223 255
199 223 255
199 223 255
199 223 255
199 223 255
199 223 255
199 223 255
199 223 255
199 223 255
199 223 255
199 223 255
199 223 255
199 223 255
199 223 255
199 223 255
199 223 255
199 223 255
199 223 255
199 223 255
199 223 255
199 223 255
199 223 255
199 223 255
199 223 255
199 223 255
199 223 255
199 224 255
199 224 255
199 224 255
199 224 255
200 224 255
200 224 255
200 224 255
200 224 255
200 224 255
200 224 255
200 224 255
200 224 255
200 224 255
200 224 255
200 224 255
200 224 255
200 224 255
200 224 255
200 224 255
200 224 255
200 224 255
200 224 255
201 224 255
201 224 255
201 224 255
201 224 255
201 224 255
201 224 255
201 224 255
201 224 255
201 224 255
201 224 255
201 224 255
201 224 255
201 225 255
201 225 255
201 225 255
201 225 255
201 225 255
202 225 255
202 225 255
202 225 255
202 225 255
202 225 255
202 225 255
202 225 255
202 225 255
202 225 255
202 225 255
202 225 255
202 225 255
202 225 255
202 225 255
202 225 255
203 225 255
203 225 255
203 225 255
203 225 255
203 225 255
203 225 255
203 225 255
203 225 255
203 225 255
203 226 255
203 226 255
203 226 255
203 226 255
203 226 255
203 226 255
203 226 255
204 226 255
204 226 255
204 226 255
204 226 255
204 226 255
204 226 255
204 226 255
204 226 255
204 226 255
204 226 255
204 226 255
204 226 255
204 226 255
204 226 255
204 226 255
205 226 255
205 226 255
205 226 255
205 226 255
205 226 255
205 226 255
205 226 255
205 227 255
205 227 255
205 227 255
205 227 255
205 227 255
205 227 255
205 227 255
205 227 255
205 227 255
205 227 255
206 227 255
206 227 255
206 227 255
206 227 255
206 227 255
206 227 255
206 227 255
206 227 255
206 227 255
206 227 255
206 227 255
206 227 255
206 227 255
206 227 255
206 227 255
206 227 255
206 227 255
207 227 255
207 227 255
207 227 255
207 227 255
207 227 255
207 228 255
207 228 255
207 228 255
207 228 255
207 228 255
207 228 255
207 228 255
207 228 255
207 228 255
207 228 255
207 228 255
207 228 255
207 228 255
207 228 255
207 228 255
208 228 255
208 228 255
208 228 255
208 228 255
208 228 255
208 228 255
208 228 255
208 228 255
208 228 255
208 228 255
208 228 255
208 228 255
208 228 255
208 228 255
208 228 255
208 228 255
208 228 255
208 228 255
208 228 255
208 228 255
208 228 255
209 228 255
209 229 255
209 229 255
209 228 255
209 228 255
208 228 255
208 228 255
208 228 255
208 228 255
208 228 255
208 228 255
208 228 255
208 228 255
208 228 255
208 228 255
208 228 255
208 228 255
208 228 255
208 228 255
208 228 255
208 228 255
208 228 255
208 228 255
208 228 255
208 228 255
208 228 255
208 228 255
207 228 255
207 228 255
207 228 255
207 228 255
207 228 255
207 228 255
207 228 255
207 228 255
207 228 255
207 228 255
207 228 255
207 228 255
207 228 255
207 228 255
207 227 255
207 227 255
207 227 255
207 227 255
207 227 255
206 227 255
206 227 255
206 227 255
206 227 255
206 227 255
206 227 255
206 227 255
206 227 255
206 227 255
206 227 255
206 227 255
206 227 255
206 227 255
206 227 255
206 227 255
206 227 255
206 227 255
205 227 255
205 227 255
205 227 255
205 227 255
205 227 255
205 227 255
205 227 255
205 227 255
205 227 255
205 227 255
205 226 255
205 226 255
205 226 255
205 226 255
205 226 255
205 226 255
205 226 255
204 226 255
204 226 255
204 226 255
204 226 255
204 226 255
204 226 255
204 226 255
204 226 255
204 226 255
204 226 255
204 226 255
204 226 255
204 226 255
204 226 255
204 226 255
203 226 255
203 226 255
203 226 255
203 226 255
203 226 255
203 226 255
203 226 255
203 225 255
203 225 255
203 225 255
203 225 255
203 225 255
203 225 255
203 225 255
203 225 255
203 225 255
202 225 255
202 225 255
202 225 255
202 225 255
202 225 255
202 225 255
202 225 255
202 225 255
202 225 255
202 225 255
202 225 255
202 225 255
202 225 255
202 225 255
202 225 255
201 225 255
201 225 255
201 225 255
201 225 255
201 225 255
201 224 255
201 224 255
201 224 255
201 224 255
201 224 255
201 224 255
201 224 255
201 224 255
201 224 255
201 224 255
201 224 255
201 224 255
200 224 255
200 224 255
200 224 255
200 224 255
200 224 255
200 224 255
200 224 255
200 224 255
200 224 255
200 224 255
200 224 255
200 224 255
200 224 255
200 224 255
200 224 255
200 224 255
200 224 255
200 224 255
200 224 255
200 224 255
199 224 255
199 224 255
199 224 255
199 224 255
199 223 255
199 223 255
199 223 255
199 223 255
199 223 255
199 223 255
199 223 255
199 223 255
199 223 255
199 223 255
199 223 255
199 223 255
199 223 255
199 223 255
199 223 255
199 223 255
199 223 255
199 223 255
199 223 255
199 223 255
199 223 255
199 223 255
199 223 255
199 223 255
199 223 255
199 223 255
199 223 255
199 223 255
199 223 255
199 223 255
199 223 255
199 223 255
199 223 255
199 223 255
199 223 255
199 223 255
199 223 255
199 223 255
199 223 255
199 223 255
199 223 255
199 223 255
199 223 255
199 223 255
199 223 255
199 223 255
199 223 255
199 223 255
199 223 255
199 223 255
199 223 255
199 223 255
199 223 255
199 223 255
199 223 255
199 223 255
199 223 255
199 223 255
199 223 255
199 223 255
199 223 255
199 223 255
199 223 255
199 223 255
199 223 255
199 223 255
199 223 255
199 223 255
199 224 255
199 224 255
199 224 255
199 224 255
200 224 255
200 224 255
200 224 255
200 224 255
200 224 255
200 224 255
200 224 255
200 224 255
200 224 255
200 224 255
200 224 255
200 224 255
200 224 255
200 224 255
200 224 255
200 224 255
200 224 255
200 224 255
200 224 255
200 224 255
201 224 255
201 224 255
201 224 255
201 224 255
201 224 255
201 224 255
201 224 255
201 224 255
201 224 255
201 224 255
201 224 255
201 224 255
201 225 255
201 225 255
201 225 255
201 225 255
201 225 255
202 225 255
202 225 255
202 225 255
202 225 255
202 225 255
202 225 255
202 225 255
202 225 255
202 225 255
202 225 255
202 225 255
202 225 255
202 225 255
202 225 255
202 225 255
203 225 255
203 225 255
203 225 255
203 225 255
203 225 255
203 225 255
203 225 255
203 225 255
203 225 255
203 226 255
203 226 255
203 226 255
203 226 255
203 226 255
203 226 255
203 226 255
204 226 255
204 226 255
204 226 255
204 226 255
204 226 255
204 226 255
204 226 255
204 226 255
204 226 255
204 226 255
204 226 255
204 226 255
204 226 255
204 226 255
204 226 255
205 226 255
205 226 255
205 226 255
205 226 255
205 226 255
205 226 255
205 226 255
205 227 255
205 227 255
205 227 255
205 227 255
205 227 255
205 227 255
205 227 255
205 227 255
205 227 255
205 227 255
206 227 255
206 227 255
206 227 255
206 227 255
206 227 255
206 227 255
206 227 255
206 227 255
206 227 255
206 227 255
206 227 255
206 227 255
206 227 255
206 227 255
206 227 255
206 227 255
206 227 255
207 227 255
207 227 255
207 227 255
207 227 255
207 227 255
207 228 255
207 228 255
207 228 255
207 228 255
207 228 255
207 228 255
207 228 255
207 228 255
207 228 255
207 228 255
207 228 255
207 228 255
207 228 255
207 228 255
207 228 255
208 228 255
208 228 255
208 228 255
208 228 255
208 228 255
208 228 255
208 228 255
208 228 255
208 228 255
208 228 255
208 228 255
208 228 255
208 228 255
208 228 255
208 228 255
208 228 255
208 228 255
208 228 255
208 228 255
208 228 255
208 228 255
209 228 255
209 229 255
209 229 255
209 229 255
209 229 255
209 229 255
209 229 255
209 229 255
209 229 255
209 229 255
209 228 255
208 228 255
208 228 255
208 228 255
208 228 255
208 228 255
208 228 255
208 228 255
208 228 255
208 228 255
208 228 255
208 228 255
208 228 255
208 228 255
208 228 255
208 228 255
208 228 255
208 228 255
208 228 255
208 228 255
208 228 255
208 228 255
207 228 255
207 228 255
207 228 255
207 228 255
207 228 255
207 228 255
207 228 255
207 228 255
207 228 255
207 228 255
207 228 255
207 228 255
207 228 255
207 228 255
207 228 255
207 227 255
207 227 255
207 227 255
207 227 255
206 227 255
206 227 255
206 227 255
206 227 255
206 227 255
206 227 255
206 227 255
206 227 255
206 227 255
206 227 255
206 227 255
206 227 255
206 227 255
206 227 255
206 227 255
206 227 255
206 227 255
206 227 255
205 227 255
205 227 255
205 227 255
205 227 255
205 227 255
205 227 255
205 227 255
205 227 255
205 227 255
205 227 255
205 226 255
205 226 255
205 226 255
205 226 255
205 226 255
205 226 255
204 226 255
204 226 255
204 226 255
204 226 255
204 226 255
204 226 255
204 226 255
204 226 255
204 226 255
204 226 255
204 226 255
204 226 255
204 226 255
204 226 255
204 226 255
204 226 255
203 226 255
203 226 255
203 226 255
203 226 255
203 226 255
203 226 255
203 226 255
203 225 255
203 225 255
203 225 255
203 225 255
203 225 255
203 225 255
203 225 255
203 225 255
203 225 255
202 225 255
202 225 255
202 225 255
202 225 255
202 225 255
202 225 255
202 225 255
202 225 255
202 225 255
202 225 255
202 225 255
202 225 255
202 225 255
202 225 255
202 225 255
201 225 255
201 225 255
201 225 255
201 225 255
201 225 255
201 224 255
201 224 255
201 224 255
201 224 255
201 224 255
201 224 255
201 224 255
201 224 255
201 224 255
201 224 255
201 224 255
201 224 255
201 224 255
200 224 255
200 224 255
200 224 255
200 224 255
200 224 255
200 224 255
200 224 255
200 224 255
200 224 255
200 224 255
200 224 255
200 224 255
200 224 255
200 224 255
200 224 255
200 224 255
200 224 255
200 224 255
200 224 255
200 224 255
200 224 255
199 224 255
199 224 255
199 224 255
199 224 255
199 223 255
199 223 255
199 223 255
199 223 255
199 223 255
199 223 255
199 223 255
199 223 255
199 223 255
199 223 255
199 223 255
199 223 255
199 223 255
199 223 255
199 223 255
199 223 255
199 223 255
199 223 255
199 223 255
199 223 255
199 223 255
199 223 255
199 223 255
199 223 255
199 223 255
199 223 255
199 223 255
199 223 255
199 223 255
199 223 255
199 223 255
199 223 255
199 223 255
199 223 255
199 223 255
199 223 255
199 223 255
199 223 255
199 223 255
199 223 255
199 223 255
199 223 255
199 223 255
199 223 255
199 223 255
199 223 255
199 223 255
199 223 255
199 223 255
199 223 255
199 223 255
199 223 255
199 223 255
199 223 255
199 223 255
199 223 255
199 223 255
199 223 255
199 224 255
199 224 255
199 224 255
199 224 255
200 224 255
200 224 255
200 224 255
200 224 255
200 224 255
200 224 255
200 224 255
200 224 255
200 224 255
200 224 255
200 224 255
200 224 255
200 224 255
200 224 255
200 224 255
200 224 255
200 224 255
200 224 255
200 224 255
200 224 255
200 224 255
200 224 255
201 224 255
201 224 255
201 224 255
201 224 255
201 224 255
201 224 255
201 224 255
201 224 255
201 224 255
201 224 255
201 224 255
201 224 255
201 225 255
201 225 255
201 225 255
201 225 255
201 225 255
202 225 255
202 225 255
202 225 255
202 225 255
202 225 255
202 225 255
202 225 255
202 225 255
202 225 255
202 225 255
202 225 255
202 225 255
202 225 255
202 225 255
202 225 255
203 225 255
203 225 255
203 225 255
203 225 255
203 225 255
203 225 255
203 225 255
203 225 255
203 225 255
203 226 255
203 226 255
203 226 255
203 226 255
203 226 255
203 226 255
203 226 255
204 226 255
204 226 255
204 226 255
204 226 255
204 226 255
204 226 255
204 226 255
204 226 255
204 226 255
204 226 255
204 226 255
204 226 255
204 226 255
204 226 255
204 226 255
204 226 255
205 226 255
205 226 255
205 226 255
205 226 255
205 226 255
205 226 255
205 227 255
205 227 255
205 227 255
205 227 255
205 227 255
205 227 255
205 227 255
205 227 255
205 227 255
205 227 255
206 227 255
206 227 255
206 227 255
206 227 255
206 227 255
206 227 255
206 227 255
206 227 255
206 227 255
206 227 255
206 227 255
206 227 255
206 227 255
206 227 255
206 227 255
206 227 255
206 227 255
207 227 255
207 227 255
207 227 255
207 227 255
207 227 255
207 228 255
207 228 255
207 228 255
207 228 255
207 228 255
207 228 255
207 228 255
207 228 255
207 228 255
207 228 255
207 228 255
207 228 255
207 228 255
207 228 255
208 228 255
208 228 255
208 228 255
208 228 255
208 228 255
208 228 255
208 228 255
208 228 255
208 228 255
208 228 255
208 228 255
208 228 255
208 228 255
208 228 255
208 228 255
208 228 255
208 228 255
208 228 255
208 228 255
208 228 255
208 228 255
208 228 255
209 228 255
209 229 255
209 229 255
209 229 255
209 229 255
209 229 255
209 229 255
209 229 255
209 229 255
209 229 255
209 229 255
209 229 255
209 229 255
209 229 255
209 229 255
209 229 255
209 228 255
209 228 255
208 228 255
208 228 255
208 228 255
208 228 255
208 228 255
208 228 255
208 228 255
208 228 255
208 228 255
208 228 255
208 228 255
208 228 255
208 228 255
208 228 255
208 228 255
208 228 255
208 228 255
208 228 255
208 228 255
208 228 255
208 228 255
207 228 255
207 228 255
207 228 255
207 228 255
207 228 255
207 228 255
207 228 255
207 228 255
207 228 255
207 228 255
207 228 255
207 228 255
207 228 255
207 228 255
207 227 255
207 227 255
207 227 255
207 227 255
206 227 255
206 227 255
206 227 255
206 227 255
206 227 255
206 227 255
206 227 255
206 227 255
206 227 255
206 227 255
206 227 255
206 227 255
206 227 255
206 227 255
206 227 255
206 227 255
206 227 255
206 227 255
205 227 255
205 227 255
205 227 255
205 227 255
205 227 255
205 227 255
205 227 255
205 227 255
205 227 255
205 227 255
205 226 255
205 226 255
205 226 255
205 226 255
205 226 255
205 226 255
204 226 255
204 226 255
204 226 255
204 226 255
204 226 255
204 226 255
204 226 255
204 226 255
204 226 255
204 226 255
204 226 255
204 226 255
204 226 255
204 226 255
204 226 255
204 226 255
203 226 255
203 226 255
203 226 255
203 226 255
203 226 255
203 226 255
203 226 255
203 225 255
203 225 255
203 225 255
203 225 255
203 225 255
203 225 255
203 225 255
203 225 255
203 225 255
202 225 255
202 225 255
202 225 255
202 225 255
202 225 255
202 225 255
202 225 255
202 225 255
202 225 255
202 225 255
202 225 255
202 225 255
202 225 255
202 225 255
202 225 255
201 225 255
201 225 255
201 225 255
201 225 255
201 225 255
201 224 255
201 224 255
201 224 255
201 224 255
201 224 255
201 224 255
201 224 255
201 224 255
201 224 255
201 224 255
201 224 255
201 224 255
201 224 255
200 224 255
200 224 255
200 224 255
200 224 255
200 224 255
200 224 255
200 224 255
200 224 255
200 224 255
200 224 255
200 224 255
200 224 255
200 224 255
200 224 255
200 224 255
200 224 255
200 224 255
200 224 255
200 224 255
200 224 255
200 224 255
200 224 255
200 224 255
200 224 255
199 224 255
199 224 255
199 224 255
199 224 255
199 224 255
199 223 255
199 223 255
199 223 255
199 223 255
199 223 255
199 223 255
199 223 255
199 223 255
199 223 255
199 223 255
199 223 255
199 223 255
199 223 255
199 223 255
199 223 255
199 223 255
199 223 255
199 223 255
199 223 255
199 223 255
199 223 255
199 223 255
199 223 255
199 223 255
199 223 255
199 223 255
199 223 255
199 223 255
199 223 255
199 223 255
199 223 255
199 223 255
199 223 255
199 223 255
199 223 255
199 223 255
199 223 255
199 223 255
199 223 255
199 223 255
199 223 255
199 223 255
199 223 255
199 223 255
199 224 255
199 224 255
199 224 255
199 224 255
199 224 255
200 224 255
200 224 255
200 224 255
200 224 255
200 224 255
200 224 255
200 224 255
200 224 255
200 224 255
200 224 255
200 224 255
200 224 255
200 224 255
200 224 255
200 224 255
200 224 255
200 224 255
200 224 255
200 224 255
200 224 255
200 224 255
200 224 255
200 224 255
200 224 255
201 224 255
201 224 255
201 224 255
201 224 255
201 224 255
201 224 255
201 224 255
201 224 255
201 224 255
201 224 255
201 224 255
201 224 255
201 224 255
201 225 255
201 225 255
201 225 255
201 225 255
201 225 255
202 225 255
202 225 255
202 225 255
202 225 255
202 225 255
202 225 255
202 225 255
202 225 255
202 225 255
202 225 255
202 225 255
202 225 255
202 225 255
202 225 255
202 225 255
202 225 255
203 225 255
203 225 255
203 225 255
203 225 255
203 225 255
203 225 255
203 225 255
203 225 255
203 226 255
203 226 255
203 226 255
203 226 255
203 226 255
203 226 255
203 226 255
204 226 255
204 226 255
204 226 255
204 226 255
204 226 255
204 226 255
204 226 255
204 226 255
204 226 255
204 226 255
204 226 255
204 226 255
204 226 255
204 226 255
204 226 255
204 226 255
205 226 255
205 226 255
205 226 255
205 226 255
205 226 255
205 226 255
205 227 255
205 227 255
205 227 255
205 227 255
205 227 255
205 227 255
205 227 255
205 227 255
205 227 255
205 227 255
206 227 255
206 227 255
206 227 255
206 227 255
206 227 255
206 227 255
206 227 255
206 227 255
206 227 255
206 227 255
206 227 255
206 227 255
206 227 255
206 227 255
206 227 255
206 227 255
206 227 255
206 227 255
207 227 255
207 227 255
207 227 255
207 227 255
207 228 255
207 228 255
207 228 255
207 228 255
207 228 255
207 228 255
207 228 255
207 228 255
207 228 255
207 228 255
207 228 255
207 228 255
207 228 255
207 228 255
208 228 255
208 228 255
208 228 255
208 228 255
208 228 255
208 228 255
208 228 255
208 228 255
208 228 255
208 228 255
208 228 255
208 228 255
208 228 255
208 228 255
208 228 255
208 228 255
208 228 255
208 228 255
208 228 255
208 228 255
208 228 255
209 228 255
209 228 255
209 229 255
209 229 255
209 229 255
209 229 255
209 229 255
209 229 255
209 229 255
209 229 255
209 229 255
209 229 255
209 229 255
209 229 255
209 229 255
209 229 255
209 229 255
209 229 255
209 229 255
209 229 255
209 229 255
209 229 255
209 229 255
209 228 255
209 228 255
208 228 255
208 228 255
208 228 255
208 228 255
208 228 255
208 228 255
208 228 255
208 228 255
208 228 255
208 228 255
208 228 255
208 228 255
208 228 255
208 228 255
208 228 255
208 228 255
208 228 255
208 228 255
208 228 255
208 228 255
208 228 255
207 228 255
207 228 255
207 228 255
207 228 255
207 228 255
207 228 255
207 228 255
207 228 255
207 228 255
207 228 255
207 228 255
207 228 255
207 228 255
207 228 255
207 227 255
207 227 255
207 227 255
207 227 255
206 227 255
206 227 255
206 227 255
206 227 255
206 227 255
206 227 255
206 227 255
206 227 255
206 227 255
206 227 255
206 227 255
206 227 255
206 227 255
206 227 255
206 227 255
206 227 255
206 227 255
206 227 255
205 227 255
205 227 255
205 227 255
205 227 255
205 227 255
205 227 255
205 227 255
205 227 255
205 227 255
205 227 255
205 226 255
205 226 255
205 226 255
205 226 255
205 226 255
205 226 255
204 226 255
204 226 255
204 226 255
204 226 255
204 226 255
204 226 255
204 226 255
204 226 255
204 226 255
204 226 255
204 226 255
204 226 255
204 226 255
204 226 255
204 226 255
204 226 255
203 226 255
203 226 255
203 226 255
203 226 255
203 226 255
203 226 255
203 226 255
203 225 255
203 225 255
203 225 255
203 225 255
203 225 255
203 225 255
203 225 255
203 225 255
203 225 255
202 225 255
202 225 255
202 225 255
202 225 255
202 225 255
202 225 255
202 225 255
202 225 255
202 225 255
202 225 255
202 225 255
202 225 255
202 225 255
202 225 255
202 225 255
202 225 255
201 225 255
201 225 255
201 225 255
201 225 255
201 225 255
201 224 255
201 224 255
201 224 255
201 224 255
201 224 255
201 224 255
201 224 255
201 224 255
201 224 255
201 224 255
201 224 255
201 224 255
201 224 255
200 224 255
200 224 255
200 224 255
200 224 255
200 224 255
200 224 255
200 224 255
200 224 255
200 224 255
200 224 255
200 224 255
200 224 255
200 224 255
200 224 255
200 224 255
200 224 255
200 224 255
200 224 255
200 224 255
200 224 255
200 224 255
200 224 255
200 224 255
200 224 255
200 224 255
200 224 255
200 224 255
199 224 255
199 224 255
199 224 255
199 224 255
199 224 255
199 224 255
199 224 255
199 223 255
199 223 255
199 223 255
199 223 255
199 223 255
199 223 255
199 223 255
199 223 255
199 223 255
199 223 255
199 223 255
199 223 255
199 223 255
199 223 255
199 223 255
199 223 255
199 223 255
199 223 255
199 223 255
199 223 255
199 223 255
199 223 255
199 223 255
199 223 255
199 223 255
199 224 255
199 224 255
199 224 255
199 224 255
199 224 255
199 224 255
199 224 255
199 224 255
199 224 255
200 224 255
200 224 255
200 224 255
200 224 255
200 224 255
200 224 255
200 224 255
200 224 255
200 224 255
200 224 255
200 224 255
200 224 255
200 224 255
200 224 255
200 224 255
200 224 255
200 224 255
200 224 255
200 224 255
200 224 255
200 224 255
200 224 255
200 224 255
200 224 255
200 224 255
200 224 255
201 224 255
201 224 255
201 224 255
201 224 255
201 224 255
201 224 255
201 224 255
201 224 255
201 224 255
201 224 255
201 224 255
201 224 255
201 224 255
201 225 255
201 225 255
201 225 255
201 225 255
201 225 255
202 225 255
202 225 255
202 225 255
202 225 255
202 225 255
202 225 255
202 225 255
202 225 255
202 225 255
202 225 255
202 225 255
202 225 255
202 225 255
202 225 255
202 225 255
202 225 255
202 225 255
203 225 255
203 225 255
203 225 255
203 225 255
203 225 255
203 225 255
203 225 255
203 225 255
203 226 255
203 226 255
203 226 255
203 226 255
203 226 255
203 226 255
203 226 255
204 226 255
204 226 255
204 226 255
204 226 255
204 226 255
204 226 255
204 226 255
204 226 255
204 226 255
204 226 255
204 226 255
204 226 255
204 226 255
204 226 255
204 226 255
204 226 255
205 226 255
205 226 255
205 226 255
205 226 255
205 226 255
205 226 255
205 227 255
205 227 255
205 227 255
205 227 255
205 227 255
205 227 255
205 227 255
205 227 255
205 227 255
205 227 255
206 227 255
206 227 255
206 227 255
206 227 255
206 227 255
206 227 255
206 227 255
206 227 255
206 227 255
206 227 255
206 227 255
206 227 255
206 227 255
206 227 255
206 227 255
206 227 255
206 227 255
207 227 255
207 227 255
207 227 255
207 227 255
207 227 255
207 228 255
207 228 255
207 228 255
207 228 255
207 228 255
207 228 255
207 228 255
207 228 255
207 228 255
207 228 255
207 228 255
207 228 255
207 228 255
207 228 255
208 228 255
208 228 255
208 228 255
208 228 255
208 228 255
208 228 255
208 228 255
208 228 255
208 228 255
208 228 255
208 228 255
208 228 255
208 228 255
208 228 255
208 228 255
208 228 255
208 228 255
208 228 255
208 228 255
208 228 255
208 228 255
209 228 255
209 229 255
209 229 255
209 229 255
209 229 255
209 229 255
209 229 255
209 229 255
209 229 255
209 229 255
209 229 255
209 229 255
209 229 255
209 229 255
209 229 255
209 229 255
209 229 255
209 229 255
209 229 255
209 229 255
209 229 255
209 229 255
209 229 255
209 229 255
209 229 255
209 229 255
209 229 255
209 229 255
209 229 255
209 229 255
209 228 255
208 228 255
208 228 255
208 228 255
208 228 255
208 228 255
208 228 255
208 228 255
208 228 255
208 228 255
208 228 255
208 228 255
208 228 255
208 228 255
208 228 255
208 228 255
208 228 255
208 228 255
208 228 255
208 228 255
208 228 255
208 228 255
207 228 255
207 228 255
207 228 255
207 228 255
207 228 255
207 228 255
207 228 255
207 228 255
207 228 255
207 228 255
207 228 255
207 228 255
207 228 255
207 228 255
207 227 255
207 227 255
207 227 255
207 227 255
207 227 255
206 227 255
206 227 255
206 227 255
206 227 255
206 227 255
206 227 255
206 227 255
206 227 255
206 227 255
206 227 255
206 227 255
206 227 255
206 227 255
206 227 255
206 227 255
206 227 255
206 227 255
205 227 255
205 227 255
205 227 255
205 227 255
205 227 255
205 227 255
205 227 255
205 227 255
205 227 255
205 227 255
205 226 255
205 226 255
205 226 255
205 226 255
205 226 255
205 226 255
204 226 255
204 226 255
204 226 255
204 226 255
204 226 255
204 226 255
204 226 255
204 226 255
204 226 255
204 226 255
204 226 255
204 226 255
204 226 255
204 226 255
204 226 255
204 226 255
203 226 255
203 226 255
203 226 255
203 226 255
203 226 255
203 226 255
203 226 255
203 225 255
203 225 255
203 225 255
203 225 255
203 225 255
203 225 255
203 225 255
203 225 255
203 225 255
202 225 255
202 225 255
202 225 255
202 225 255
202 225 255
202 225 255
202 225 255
202 225 255
202 225 255
202 225 255
202 225 255
202 225 255
202 225 255
202 225 255
202 225 255
202 225 255
201 225 255
201 225 255
201 225 255
201 225 255
201 225 255
201 225 255
201 224 255
201 224 255
201 224 255
201 224 255
201 224 255
201 224 255
201 224 255
201 224 255
201 224 255
201 224 255
201 224 255
201 224 255
201 224 255
200 224 255
200 224 255
200 224 255
200 224 255
200 224 255
200 224 255
200 224 255
200 224 255
200 224 255
200 224 255
200 224 255
200 224 255
200 224 255
200 224 255
200 224 255
200 224 255
200 224 255
200 224 255
200 224 255
200 224 255
200 224 255
200 224 255
200 224 255
200 224 255
200 224 255
200 224 255
200 224 255
200 224 255
200 224 255
200 224 255
200 224 255
200 224 255
200 224 255
200 224 255
199 224 255
199 224 255
199 224 255
199 224 255
199 224 255
199 224 255
199 224 255
199 224 255
199 224 255
199 224 255
199 224 255
199 224 255
199 224 255
199 224 255
199 224 255
199 224 255
199 224 255
199 224 255
199 224 255
200 224 255
200 224 255
200 224 255
200 224 255
200 224 255
200 224 255
200 224 255
200 224 255
200 224 255
200 224 255
200 224 255
200 224 255
200 224 255
200 224 255
200 224 255
200 224 255
200 224 255
200 224 255
200 224 255
200 224 255
200 224 255
200 224 255
200 224 255
200 224 255
200 224 255
200 224 255
200 224 255
200 224 255
200 224 255
200 224 255
200 224 255
200 224 255
200 224 255
201 224 255
201 224 255
201 224 255
201 224 255
201 224 255
201 224 255
201 224 255
201 224 255
201 224 255
201 224 255
201 224 255
201 224 255
201 224 255
201 224 255
201 225 255
201 225 255
201 225 255
201 225 255
201 225 255
202 225 255
202 225 255
202 225 255
202 225 255
202 225 255
202 225 255
202 225 255
202 225 255
202 225 255
202 225 255
202 225 255
202 225 255
202 225 255
202 225 255
202 225 255
202 225 255
203 225 255
203 225 255
203 225 255
203 225 255
203 225 255
203 225 255
203 225 255
203 225 255
203 225 255
203 226 255
203 226 255
203 226 255
203 226 255
203 226 255
203 226 255
203 226 255
204 226 255
204 226 255
204 226 255
204 226 255
204 226 255
204 226 255
204 226 255
204 226 255
204 226 255
204 226 255
204 226 255
204 226 255
204 226 255
204 226 255
204 226 255
204 226 255
205 226 255
205 226 255
205 226 255
205 226 255
205 226 255
205 226 255
205 227 255
205 227 255
205 227 255
205 227 255
205 227 255
205 227 255
205 227 255
205 227 255
205 227 255
205 227 255
206 227 255
206 227 255
206 227 255
206 227 255
206 227 255
206 227 255
206 227 255
206 227 255
206 227 255
206 227 255
206 227 255
206 227 255
206 227 255
206 227 255
206 227 255
206 227 255
206 227 255
206 227 255
207 227 255
207 227 255
207 227 255
207 227 255
207 228 255
207 228 255
207 228 255
207 228 255
207 228 255
207 228 255
207 228 255
207 228 255
207 228 255
207 228 255
207 228 255
207 228 255
207 228 255
207 228 255
208 228 255
208 228 255
208 228 255
208 228 255
208 228 255
208 228 255
208 228 255
208 228 255
208 228 255
208 228 255
208 228 255
208 228 255
208 228 255
208 228 255
208 228 255
208 228 255
208 228 255
208 228 255
208 228 255
208 228 255
208 228 255
209 228 255
209 229 255
209 229 255
209 229 255
209 229 255
209 229 255
209 229 255
209 229 255
209 229 255
209 229 255
209 229 255
209 229 255
209 229 255
209 229 255
209 229 255
209 229 255
209 229 255
209 229 255
209 229 255
209 229 255
209 229 255
209 229 255
209 229 255
209 229 255
209 229 255
209 229 255
209 229 255
209 229 255
209 229 255
209 229 255
209 229 255
209 229 255
209 229 255
209 229 255
209 229 255
209 229 255
209 228 255
208 228 255
208 228 255
208 228 255
208 228 255
208 228 255
208 228 255
208 228 255
208 228 255
208 228 255
208 228 255
208 228 255
208 228 255
208 228 255
208 228 255
208 228 255
208 228 255
208 228 255
208 228 255
208 228 255
208 228 255
208 228 255
207 228 255
207 228 255
207 228 255
207 228 255
207 228 255
207 228 255
207 228 255
207 228 255
207 228 255
207 228 255
207 228 255
207 228 255
207 228 255
207 228 255
207 227 255
207 227 255
207 227 255
207 227 255
206 227 255
206 227 255
206 227 255
206 227 255
206 227 255
206 227 255
206 227 255
206 227 255
206 227 255
206 227 255
206 227 255
206 227 255
206 227 255
206 227 255
206 227 255
206 227 255
206 227 255
206 227 255
205 227 255
205 227 255
205 227 255
205 227 255
205 227 255
205 227 255
205 227 255
205 227 255
205 227 255
205 227 255
205 226 255
205 226 255
205 226 255
205 226 255
205 226 255
205 226 255
204 226 255
204 226 255
204 226 255
204 226 255
204 226 255
204 226 255
204 226 255
204 226 255
204 226 255
204 226 255
204 226 255
204 226 255
204 226 255
204 226 255
204 226 255
204 226 255
203 226 255
203 226 255
203 226 255
203 226 255
203 226 255
203 226 255
203 226 255
203 225 255
203 225 255
203 225 255
203 225 255
203 225 255
203 225 255
203 225 255
203 225 255
203 225 255
202 225 255
202 225 255
202 225 255
202 225 255
202 225 255
202 225 255
202 225 255
202 225 255
202 225 255
202 225 255
202 225 255
202 225 255
202 225 255
202 225 255
202 225 255
202 225 255
202 225 255
201 225 255
201 225 255
201 225 255
201 225 255
201 225 255
201 224 255
201 224 255
201 224 255
201 224 255
201 224 255
201 224 255
201 224 255
201 224 255
201 224 255
201 224 255
201 224 255
201 224 255
201 224 255
201 224 255
201 224 255
200 224 255
200 224 255
200 224 255
200 224 255
200 224 255
200 224 255
200 224 255
200 224 255
200 224 255
200 224 255
200 224 255
200 224 255
200 224 255
200 224 255
200 224 255
200 224 255
200 224 255
200 224 255
200 224 255
200 224 255
200 224 255
200 224 255
200 224 255
200 224 255
200 224 255
200 224 255
200 224 255
200 224 255
200 224 255
200 224 255
200 224 255
200 224 255
200 224 255
200 224 255
200 224 255
200 224 255
200 224 255
200 224 255
200 224 255
200 224 255
200 224 255
200 224 255
200 224 255
200 224 255
200 224 255
200 224 255
200 224 255
200 224 255
200 224 255
200 224 255
200 224 255
200 224 255
200 224 255
200 224 255
200 224 255
200 224 255
200 224 255
200 224 255
200 224 255
200 224 255
200 224 255
200 224 255
200 224 255
200 224 255
200 224 255
200 224 255
200 224 255
200 224 255
200 224 255
200 224 255
200 224 255
200 224 255
200 224 255
200 224 255
200 224 255
200 224 255
201 224 255
201 224 255
201 224 255
201 224 255
201 224 255
201 224 255
201 224 255
201 224 255
201 224 255
201 224 255
201 224 255
201 224 255
201 224 255
201 224 255
201 224 255
201 225 255
201 225 255
201 225 255
201 225 255
201 225 255
202 225 255
202 225 255
202 225 255
202 225 255
202 225 255
202 225 255
202 225 255
202 225 255
202 225 255
202 225 255
202 225 255
202 225 255
202 225 255
202 225 255
202 225 255
202 225 255
202 225 255
203 225 255
203 225 255
203 225 255
203 225 255
203 225 255
203 225 255
203 225 255
203 225 255
203 225 255
203 226 255
203 226 255
203 226 255
203 226 255
203 226 255
203 226 255
203 226 255
204 226 255
204 226 255
204 226 255
204 226 255
204 226 255
204 226 255
204 226 255
204 226 255
204 226 255
204 226 255
204 226 255
204 226 255
204 226 255
204 226 255
204 226 255
204 226 255
205 226 255
205 226 255
205 226 255
205 226 255
205 226 255
205 226 255
205 226 255
205 227 255
205 227 255
205 227 255
205 227 255
205 227 255
205 227 255
205 227 255
205 227 255
205 227 255
206 227 255
206 227 255
206 227 255
206 227 255
206 227 255
206 227 255
206 227 255
206 227 255
206 227 255
206 227 255
206 227 255
206 227 255
206 227 255
206 227 255
206 227 255
206 227 255
206 227 255
207 227 255
207 227 255
207 227 255
207 227 255
207 227 255
207 228 255
207 228 255
207 228 255
207 228 255
207 228 255
207 228 255
207 228 255
207 228 255
207 228 255
207 228 255
207 228 255
207 228 255
207 228 255
207 228 255
208 228 255
208 228 255
208 228 255
208 228 255
208 228 255
208 228 255
208 228 255
208 228 255
208 228 255
208 228 255
208 228 255
208 228 255
208 228 255
208 228 255
208 228 255
208 228 255
208 228 255
208 228 255
208 228 255
208 228 255
209 228 255
209 228 255
209 229 255
209 229 255
209 229 255
209 229 255
209 229 255
209 229 255
209 229 255
209 229 255
209 229 255
209 229 255
209 229 255
209 229 255
209 229 255
209 229 255
209 229 255
209 229 255
209 229 255
209 229 255
209 229 255
210 229 255
209 229 255
209 229 255
209 229 255
209 229 255
209 229 255
209 229 255
209 229 255
209 229 255
209 229 255
209 229 255
209 229 255
209 229 255
209 229 255
209 229 255
209 229 255
209 229 255
209 229 255
209 229 255
209 229 255
209 229 255
209 229 255
209 228 255
209 228 255
208 228 255
208 228 255
208 228 255
208 228 255
208 228 255
208 228 255
208 228 255
208 228 255
208 228 255
208 228 255
208 228 255
208 228 255
208 228 255
208 228 255
208 228 255
208 228 255
208 228 255
208 228 255
208 228 255
208 228 255
207 228 255
207 228 255
207 228 255
207 228 255
207 228 255
207 228 255
207 228 255
207 228 255
207 228 255
207 228 255
207 228 255
207 228 255
207 228 255
207 228 255
207 227 255
207 227 255
207 227 255
207 227 255
207 227 255
206 227 255
206 227 255
206 227 255
206 227 255
206 227 255
206 227 255
206 227 255
206 227 255
206 227 255
206 227 255
206 227 255
206 227 255
206 227 255
206 227 255
206 227 255
206 227 255
206 227 255
205 227 255
205 227 255
205 227 255
205 227 255
205 227 255
205 227 255
205 227 255
205 227 255
205 227 255
205 227 255
205 226 255
205 226 255
205 226 255
205 226 255
205 226 255
205 226 255
204 226 255
204 226 255
204 226 255
204 226 255
204 226 255
204 226 255
204 226 255
204 226 255
204 226 255
204 226 255
204 226 255
204 226 255
204 226 255
204 226 255
204 226 255
204 226 255
203 226 255
203 226 255
203 226 255
203 226 255
203 226 255
203 226 255
203 226 255
203 225 255
203 225 255
203 225 255
203 225 255
203 225 255
203 225 255
203 225 255
203 225 255
203 225 255
202 225 255
202 225 255
202 225 255
202 225 255
202 225 255
202 225 255
202 225 255
202 225 255
202 225 255
202 225 255
202 225 255
202 225 255
202 225 255
202 225 255
202 225 255
202 225 255
202 225 255
202 225 255
201 225 255
201 225 255
201 225 255
201 225 255
201 225 255
201 224 255
201 224 255
201 224 255
201 224 255
201 224 255
201 224 255
201 224 255
201 224 255
201 224 255
201 224 255
201 224 255
201 224 255
201 224 255
201 224 255
201 224 255
201 224 255
200 224 255
200 224 255
200 224 255
200 224 255
200 224 255
200 224 255
200 224 255
200 224 255
200 224 255
200 224 255
200 224 255
200 224 255
200 224 255
200 224 255
200 224 255
200 224 255
200 224 255
200 224 255
200 224 255
200 224 255
200 224 255
200 224 255
200 224 255
200 224 255
200 224 255
200 224 255
200 224 255
200 224 255
200 224 255
200 224 255
200 224 255
200 224 255
200 224 255
200 224 255
200 224 255
200 224 255
200 224 255
200 224 255
200 224 255
200 224 255
200 224 255
200 224 255
200 224 255
200 224 255
200 224 255
200 224 255
200 224 255
200 224 255
200 224 255
200 224 255
200 224 255
200 224 255
200 224 255
200 224 255
200 224 255
200 224 255
200 224 255
200 224 255
200 224 255
200 224 255
200 224 255
200 224 255
200 224 255
200 224 255
200 224 255
200 224 255
201 224 255
201 224 255
201 224 255
201 224 255
201 224 255
201 224 255
201 224 255
201 224 255
201 224 255
201 224 255
201 224 255
201 224 255
201 224 255
201 224 255
201 224 255
201 224 255
201 225 255
201 225 255
201 225 255
201 225 255
201 225 255
201 225 255
202 225 255
202 225 255
202 225 255
202 225 255
202 225 255
202 225 255
202 225 255
202 225 255
202 225 255
202 225 255
202 225 255
202 225 255
202 225 255
202 225 255
202 225 255
202 225 255
202 225 255
203 225 255
203 225 255
203 225 255
203 225 255
203 225 255
203 225 255
203 225 255
203 225 255
203 225 255
203 226 255
203 226 255
203 226 255
203 226 255
203 226 255
203 226 255
203 226 255
204 226 255
204 226 255
204 226 255
204 226 255
204 226 255
204 226 255
204 226 255
204 226 255
204 226 255
204 226 255
204 226 255
204 226 255
204 226 255
204 226 255
204 226 255
204 226 255
205 226 255
205 226 255
205 226 255
205 226 255
205 226 255
205 226 255
205 227 255
205 227 255
205 227 255
205 227 255
205 227 255
205 227 255
205 227 255
205 227 255
205 227 255
205 227 255
206 227 255
206 227 255
206 227 255
206 227 255
206 227 255
206 227 255
206 227 255
206 227 255
206 227 255
206 227 255
206 227 255
206 227 255
206 227 255
206 227 255
206 227 255
206 227 255
206 227 255
207 227 255
207 227 255
207 227 255
207 227 255
207 227 255
207 228 255
207 228 255
207 228 255
207 228 255
207 228 255
207 228 255
207 228 255
207 228 255
207 228 255
207 228 255
207 228 255
207 228 255
207 228 255
207 228 255
208 228 255
208 228 255
208 228 255
208 228 255
208 228 255
208 228 255
208 228 255
208 228 255
208 228 255
208 228 255
208 228 255
208 228 255
208 228 255
208 228 255
208 228 255
208 228 255
208 228 255
208 228 255
208 228 255
208 228 255
209 228 255
209 228 255
209 229 255
209 229 255
209 229 255
209 229 255
209 229 255
209 229 255
209 229 255
209 229 255
209 229 255
209 229 255
209 229 255
209 229 255
209 229 255
209 229 255
209 229 255
209 229 255
209 229 255
209 229 255
209 229 255
209 229 255
209 229 255
210 229 255
210 229 255
210 229 255
210 229 255
210 229 255
210 229 255
209 229 255
209 229 255
209 229 255
209 229 255
209 229 255
209 229 255
209 229 255
209 229 255
209 229 255
209 229 255
209 229 255
209 229 255
209 229 255
209 229 255
209 229 255
209 229 255
209 229 255
209 229 255
209 229 255
209 229 255
209 229 255
209 228 255
209 228 255
208 228 255
208 228 255
208 228 255
208 228 255
208 228 255
208 228 255
208 228 255
208 228 255
208 228 255
208 228 255
208 228 255
208 228 255
208 228 255
208 228 255
208 228 255
208 228 255
208 228 255
208 228 255
208 228 255
207 228 255
207 228 255
207 228 255
207 228 255
207 228 255
207 228 255
207 228 255
207 228 255
207 228 255
207 228 255
207 228 255
207 228 255
207 228 255
207 228 255
207 228 255
207 227 255
207 227 255
207 227 255
207 227 255
206 227 255
206 227 255
206 227 255
206 227 255
206 227 255
206 227 255
206 227 255
206 227 255
206 227 255
206 227 255
206 227 255
206 227 255
206 227 255
206 227 255
206 227 255
206 227 255
206 227 255
205 227 255
205 227 255
205 227 255
205 227 255
205 227 255
205 227 255
205 227 255
205 227 255
205 227 255
205 227 255
205 226 255
205 226 255
205 226 255
205 226 255
205 226 255
205 226 255
204 226 255
204 226 255
204 226 255
204 226 255
204 226 255
204 226 255
204 226 255
204 226 255
204 226 255
204 226 255
204 226 255
204 226 255
204 226 255
204 226 255
204 226 255
204 226 255
203 226 255
203 226 255
203 226 255
203 226 255
203 226 255
203 226 255
203 226 255
203 225 255
203 225 255
203 225 255
203 225 255
203 225 255
203 225 255
203 225 255
203 225 255
203 225 255
203 225 255
202 225 255
202 225 255
202 225 255
202 225 255
202 225 255
202 225 255
202 225 255
202 225 255
202 225 255
202 225 255
202 225 255
202 225 255
202 225 255
202 225 255
202 225 255
202 225 255
202 225 255
202 225 255
201 225 255
201 225 255
201 225 255
201 225 255
201 225 255
201 225 255
201 224 255
201 224 255
201 224 255
201 224 255
201 224 255
201 224 255
201 224 255
201 224 255
201 224 255
201 224 255
201 224 255
201 224 255
201 224 255
201 224 255
201 224 255
201 224 255
201 224 255
201 224 255
200 224 255
200 224 255
200 224 255
200 224 255
200 224 255
200 224 255
200 224 255
200 224 255
200 224 255
200 224 255
200 224 255
200 224 255
200 224 255
200 224 255
200 224 255
200 224 255
200 224 255
200 224 255
200 224 255
200 224 255
200 224 255
200 224 255
200 224 255
200 224 255
200 224 255
200 224 255
200 224 255
200 224 255
200 224 255
200 224 255
200 224 255
200 224 255
200 224 255
200 224 255
200 224 255
200 224 255
200 224 255
200 224 255
200 224 255
200 224 255
200 224 255
200 224 255
200 224 255
200 224 255
200 224 255
200 224 255
200 224 255
200 224 255
200 224 255
200 224 255
200 224 255
200 224 255
200 224 255
201 224 255
201 224 255
201 224 255
201 224 255
201 224 255
201 224 255
201 224 255
201 224 255
201 224 255
201 224 255
201 224 255
201 224 255
201 224 255
201 224 255
201 224 255
201 224 255
201 224 255
201 225 255
201 225 255
201 225 255
201 225 255
201 225 255
201 225 255
202 225 255
202 225 255
202 225 255
202 225 255
202 225 255
202 225 255
202 225 255
202 225 255
202 225 255
202 225 255
202 225 255
202 225 255
202 225 255
202 225 255
202 225 255
202 225 255
202 225 255
202 225 255
203 225 255
203 225 255
203 225 255
203 225 255
203 225 255
203 225 255
203 225 255
203 225 255
203 225 255
203 225 255
203 226 255
203 226 255
203 226 255
203 226 255
203 226 255
203 226 255
203 226 255
204 226 255
204 226 255
204 226 255
204 226 255
204 226 255
204 226 255
204 226 255
204 226 255
204 226 255
204 226 255
204 226 255
204 226 255
204 226 255
204 226 255
204 226 255
204 226 255
205 226 255
205 226 255
205 226 255
205 226 255
205 226 255
205 226 255
205 226 255
205 227 255
205 227 255
205 227 255
205 227 255
205 227 255
205 227 255
205 227 255
205 227 255
205 227 255
206 227 255
206 227 255
206 227 255
206 227 255
206 227 255
206 227 255
206 227 255
206 227 255
206 227 255
206 227 255
206 227 255
206 227 255
206 227 255
206 227 255
206 227 255
206 227 255
206 227 255
207 227 255
207 227 255
207 227 255
207 227 255
207 227 255
207 228 255
207 228 255
207 228 255
207 228 255
207 228 255
207 228 255
207 228 255
207 228 255
207 228 255
207 228 255
207 228 255
207 228 255
207 228 255
207 228 255
208 228 255
208 228 255
208 228 255
208 228 255
208 228 255
208 228 255
208 228 255
208 228 255
208 228 255
208 228 255
208 228 255
208 228 255
208 228 255
208 228 255
208 228 255
208 228 255
208 228 255
208 228 255
208 228 255
208 228 255
209 228 255
209 229 255
209 229 255
209 229 255
209 229 255
209 229 255
209 229 255
209 229 255
209 229 255
209 229 255
209 229 255
209 229 255
209 229 255
209 229 255
209 229 255
209 229 255
209 229 255
209 229 255
209 229 255
209 229 255
209 229 255
209 229 255
210 229 255
210 229 255
210 229 255
210 229 255
210 229 255
210 229 255
210 229 255
210 229 255
210 229 255
210 229 255
210 229 255
210 229 255
210 229 255
209 229 255
209 229 255
209 229 255
209 229 255
209 229 255
209 229 255
209 229 255
209 229 255
209 229 255
209 229 255
209 229 255
209 229 255
209 229 255
209 229 255
209 229 255
209 229 255
209 229 255
209 229 255
209 229 255
209 229 255
209 229 255
209 228 255
209 228 255
208 228 255
208 228 255
208 228 255
208 228 255
208 228 255
208 228 255
208 228 255
208 228 255
208 228 255
208 228 255
208 228 255
208 228 255
208 228 255
208 228 255
208 228 255
208 228 255
208 228 255
208 228 255
208 228 255
208 228 255
207 228 255
207 228 255
207 228 255
207 228 255
207 228 255
207 228 255
207 228 255
207 228 255
207 228 255
207 228 255
207 228 255
207 228 255
207 228 255
207 228 255
207 227 255
207 227 255
207 227 255
207 227 255
206 227 255
206 227 255
206 227 255
206 227 255
206 227 255
206 227 255
206 227 255
206 227 255
206 227 255
206 227 255
206 227 255
206 227 255
206 227 255
206 227 255
206 227 255
206 227 255
206 227 255
205 227 255
205 227 255
205 227 255
205 227 255
205 227 255
205 227 255
205 227 255
205 227 255
205 227 255
205 227 255
205 226 255
205 226 255
205 226 255
205 226 255
205 226 255
205 226 255
204 226 255
204 226 255
204 226 255
204 226 255
204 226 255
204 226 255
204 226 255
204 226 255
204 226 255
204 226 255
204 226 255
204 226 255
204 226 255
204 226 255
204 226 255
204 226 255
203 226 255
203 226 255
203 226 255
203 226 255
203 226 255
203 226 255
203 226 255
203 226 255
203 225 255
203 225 255
203 225 255
203 225 255
203 225 255
203 225 255
203 225 255
203 225 255
203 225 255
202 225 255
202 225 255
202 225 255
202 225 255
202 225 255
202 225 255
202 225 255
202 225 255
202 225 255
202 225 255
202 225 255
202 225 255
202 225 255
202 225 255
202 225 255
202 225 255
202 225 255
202 225 255
202 225 255
201 225 255
201 225 255
201 225 255
201 225 255
201 225 255
201 225 255
201 224 255
201 224 255
201 224 255
201 224 255
201 224 255
201 224 255
201 224 255
201 224 255
201 224 255
201 224 255
201 224 255
201 224 255
201 224 255
201 224 255
201 224 255
201 224 255
201 224 255
201 224 255
201 224 255
201 224 255
201 224 255
200 224 255
200 224 255
200 224 255
200 224 255
200 224 255
200 224 255
200 224 255
200 224 255
200 224 255
200 224 255
200 224 255
200 224 255
200 224 255
200 224 255
200 224 255
200 224 255
200 224 255
200 224 255
200 224 255
200 224 255
200 224 255
200 224 255
200 224 255
200 224 255
200 224 255
200 224 255
200 224 255
200 224 255
200 224 255
200 224 255
200 224 255
200 224 255
200 224 255
200 224 255
200 224 255
200 224 255
200 224 255
201 224 255
201 224 255
201 224 255
201 224 255
201 224 255
201 224 255
201 224 255
201 224 255
201 224 255
201 224 255
201 224 255
201 224 255
201 224 255
201 224 255
201 224 255
201 224 255
201 224 255
201 224 255
201 224 255
201 224 255
201 224 255
201 224 255
201 225 255
201 225 255
201 225 255
201 225 255
201 225 255
201 225 255
202 225 255
202 225 255
202 225 255
202 225 255
202 225 255
202 225 255
202 225 255
202 225 255
202 225 255
202 225 255
202 225 255
202 225 255
202 225 255
202 225 255
202 225 255
202 225 255
202 225 255
202 225 255
202 225 255
203 225 255
203 225 255
203 225 255
203 225 255
203 225 255
203 225 255
203 225 255
203 225 255
203 225 255
203 226 255
203 226 255
203 226 255
203 226 255
203 226 255
203 226 255
203 226 255
203 226 255
204 226 255
204 226 255
204 226 255
204 226 255
204 226 255
204 226 255
204 226 255
204 226 255
204 226 255
204 226 255
204 226 255
204 226 255
204 226 255
204 226 255
204 226 255
204 226 255
205 226 255
205 226 255
205 226 255
205 226 255
205 226 255
205 226 255
205 227 255
205 227 255
205 227 255
205 227 255
205 227 255
205 227 255
205 227 255
205 227 255
205 227 255
205 227 255
206 227 255
206 227 255
206 227 255
206 227 255
206 227 255
206 227 255
206 227 255
206 227 255
206 227 255
206 227 255
206 227 255
206 227 255
206 227 255
206 227 255
206 227 255
206 227 255
206 227 255
207 227 255
207 227 255
207 227 255
207 227 255
207 228 255
207 228 255
207 228 255
207 228 255
207 228 255
207 228 255
207 228 255
207 228 255
207 228 255
207 228 255
207 228 255
207 228 255
207 228 255
207 228 255
207 228 255
208 228 255
208 228 255
208 228 255
208 228 255
208 228 255
208 228 255
208 228 255
208 228 255
208 228 255
208 228 255
208 228 255
208 228 255
208 228 255
208 228 255
208 228 255
208 228 255
208 228 255
208 228 255
208 228 255
209 228 255
209 228 255
209 229 255
209 229 255
209 229 255
209 229 255
209 229 255
209 229 255
209 229 255
209 229 255
209 229 255
209 229 255
209 229 255
209 229 255
209 229 255
209 229 255
209 229 255
209 229 255
209 229 255
209 229 255
209 229 255
209 229 255
209 229 255
210 229 255
210 229 255
210 229 255
210 229 255
210 229 255
210 229 255
210 229 255
210 229 255
210 229 255
210 229 255
210 229 255
210 229 255
210 229 255
210 229 255
210 229 255
210 229 255
210 229 255
210 229 255
210 229 255
210 229 255
209 229 255
209 229 255
209 229 255
209 229 255
209 229 255
209 229 255
209 229 255
209 229 255
209 229 255
209 229 255
209 229 255
209 229 255
209 229 255
209 229 255
209 229 255
209 229 255
209 229 255
209 229 255
209 229 255
209 229 255
209 229 255
209 228 255
208 228 255
208 228 255
208 228 255
208 228 255
208 228 255
208 228 255
208 228 255
208 228 255
208 228 255
208 228 255
208 228 255
208 228 255
208 228 255
208 228 255
208 228 255
208 228 255
208 228 255
208 228 255
208 228 255
208 228 255
207 228 255
207 228 255
207 228 255
207 228 255
207 228 255
207 228 255
207 228 255
207 228 255
207 228 255
207 228 255
207 228 255
207 228 255
207 228 255
207 228 255
207 227 255
207 227 255
207 227 255
207 227 255
206 227 255
206 227 255
206 227 255
206 227 255
206 227 255
206 227 255
206 227 255
206 227 255
206 227 255
206 227 255
206 227 255
206 227 255
206 227 255
206 227 255
206 227 255
206 227 255
206 227 255
205 227 255
205 227 255
205 227 255
205 227 255
205 227 255
205 227 255
205 227 255
205 227 255
205 227 255
205 227 255
205 226 255
205 226 255
205 226 255
205 226 255
205 226 255
205 226 255
204 226 255
204 226 255
204 226 255
204 226 255
204 226 255
204 226 255
204 226 255
204 226 255
204 226 255
204 226 255
204 226 255
204 226 255
204 226 255
204 226 255
204 226 255
204 226 255
204 226 255
203 226 255
203 226 255
203 226 255
203 226 255
203 226 255
203 226 255
203 226 255
203 225 255
203 225 255
203 225 255
203 225 255
203 225 255
203 225 255
203 225 255
203 225 255
203 225 255
203 225 255
202 225 255
202 225 255
202 225 255
202 225 255
202 225 255
202 225 255
202 225 255
202 225 255
202 225 255
202 225 255
202 225 255
202 225 255
202 225 255
202 225 255
202 225 255
202 225 255
202 225 255
202 225 255
202 225 255
202 225 255
201 225 255
201 225 255
201 225 255
201 225 255
201 225 255
201 225 255
201 224 255
201 224 255
201 224 255
201 224 255
201 224 255
201 224 255
201 224 255
201 224 255
201 224 255
201 224 255
201 224 255
201 224 255
201 224 255
201 224 255
201 224 255
201 224 255
201 224 255
201 224 255
201 224 255
201 224 255
201 224 255
201 224 255
201 224 255
201 224 255
201 224 255
201 224 255
201 224 255
201 224 255
201 224 255
201 224 255
201 224 255
201 224 255
201 224 255
201 224 255
201 224 255
201 224 255
201 224 255
201 224 255
201 224 255
201 224 255
201 224 255
201 224 255
201 224 255
201 224 255
201 224 255
201 224 255
201 224 255
201 224 255
201 224 255
201 224 255
201 224 255
201 224 255
201 224 255
201 224 255
201 224 255
201 224 255
201 224 255
201 224 255
201 224 255
201 224 255
201 224 255
201 224 255
201 224 255
201 224 255
201 224 255
201 224 255
201 224 255
201 224 255
201 224 255
201 225 255
201 225 255
201 225 255
201 225 255
201 225 255
201 225 255
201 225 255
202 225 255
202 225 255
202 225 255
202 225 255
202 225 255
202 225 255
202 225 255
202 225 255
202 225 255
202 225 255
202 225 255
202 225 255
202 225 255
202 225 255
202 225 255
202 225 255
202 225 255
202 225 255
202 225 255
202 225 255
203 225 255
203 225 255
203 225 255
203 225 255
203 225 255
203 225 255
203 225 255
203 225 255
203 225 255
203 225 255
203 226 255
203 226 255
203 226 255
203 226 255
203 226 255
203 226 255
203 226 255
204 226 255
204 226 255
204 226 255
204 226 255
204 226 255
204 226 255
204 226 255
204 226 255
204 226 255
204 226 255
204 226 255
204 226 255
204 226 255
204 226 255
204 226 255
204 226 255
204 226 255
205 226 255
205 226 255
205 226 255
205 226 255
205 226 255
205 226 255
205 227 255
205 227 255
205 227 255
205 227 255
205 227 255
205 227 255
205 227 255
205 227 255
205 227 255
205 227 255
206 227 255
206 227 255
206 227 255
206 227 255
206 227 255
206 227 255
206 227 255
206 227 255
206 227 255
206 227 255
206 227 255
206 227 255
206 227 255
206 227 255
206 227 255
206 227 255
206 227 255
207 227 255
207 227 255
207 227 255
207 227 255
207 228 255
207 228 255
207 228 255
207 228 255
207 228 255
207 228 255
207 228 255
207 228 255
207 228 255
207 228 255
207 228 255
207 228 255
207 228 255
207 228 255
208 228 255
208 228 255
208 228 255
208 228 255
208 228 255
208 228 255
208 228 255
208 228 255
208 228 255
208 228 255
208 228 255
208 228 255
208 228 255
208 228 255
208 228 255
208 228 255
208 228 255
208 228 255
208 228 255
208 228 255
209 228 255
209 229 255
209 229 255
209 229 255
209 229 255
209 229 255
209 229 255
209 229 255
209 229 255
209 229 255
209 229 255
209 229 255
209 229 255
209 229 255
209 229 255
209 229 255
209 229 255
209 229 255
209 229 255
209 229 255
209 229 255
209 229 255
210 229 255
210 229 255
210 229 255
210 229 255
210 229 255
210 229 255
210 229 255
210 229 255
210 229 255
210 229 255
210 229 255
210 229 255
210 229 255
210 229 255
210 229 255
210 229 255
210 229 255
210 229 255
210 229 255
210 229 255
210 229 255
210 229 255
210 229 255
210 229 255
210 229 255
210 229 255
210 229 255
210 229 255
209 229 255
209 229 255
209 229 255
209 229 255
209 229 255
209 229 255
209 229 255
209 229 255
209 229 255
209 229 255
209 229 255
209 229 255
209 229 255
209 229 255
209 229 255
209 229 255
209 229 255
209 229 255
209 229 255
209 229 255
209 228 255
209 228 255
208 228 255
208 228 255
208 228 255
208 228 255
208 228 255
208 228 255
208 228 255
208 228 255
208 228 255
208 228 255
208 228 255
208 228 255
208 228 255
208 228 255
208 228 255
208 228 255
208 228 255
208 228 255
208 228 255
207 228 255
207 228 255
207 228 255
207 228 255
207 228 255
207 228 255
207 228 255
207 228 255
207 228 255
207 228 255
207 228 255
207 228 255
207 228 255
207 228 255
207 227 255
207 227 255
207 227 255
207 227 255
206 227 255
206 227 255
206 227 255
206 227 255
206 227 255
206 227 255
206 227 255
206 227 255
206 227 255
206 227 255
206 227 255
206 227 255
206 227 255
206 227 255
206 227 255
206 227 255
206 227 255
205 227 255
205 227 255
205 227 255
205 227 255
205 227 255
205 227 255
205 227 255
205 227 255
205 227 255
205 227 255
205 226 255
205 226 255
205 226 255
205 226 255
205 226 255
205 226 255
204 226 255
204 226 255
204 226 255
204 226 255
204 226 255
204 226 255
204 226 255
204 226 255
204 226 255
204 226 255
204 226 255
204 226 255
204 226 255
204 226 255
204 226 255
204 226 255
204 226 255
203 226 255
203 226 255
203 226 255
203 226 255
203 226 255
203 226 255
203 226 255
203 226 255
203 225 255
203 225 255
203 225 255
203 225 255
203 225 255
203 225 255
203 225 255
203 225 255
203 225 255
202 225 255
202 225 255
202 225 255
202 225 255
202 225 255
202 225 255
202 225 255
202 225 255
202 225 255
202 225 255
202 225 255
202 225 255
202 225 255
202 225 255
202 225 255
202 225 255
202 225 255
202 225 255
202 225 255
202 225 255
202 225 255
202 225 255
201 225 255
201 225 255
201 225 255
201 225 255
201 225 255
201 225 255
201 225 255
201 225 255
201 224 255
201 224 255
201 224 255
201 224 255
201 224 255
201 224 255
201 224 255
201 224 255
201 224 255
201 224 255
201 224 255
201 224 255
201 224 255
201 224 255
201 224 255
201 224 255
201 224 255
201 224 255
201 224 255
201 224 255
201 224 255
201 224 255
201 224 255
201 224 255
201 224 255
201 224 255
201 224 255
201 224 255
201 224 255
201 224 255
201 224 255
201 224 255
201 224 255
201 224 255
201 224 255
201 224 255
201 224 255
201 224 255
201 224 255
201 224 255
201 224 255
201 224 255
201 224 255
201 224 255
201 224 255
201 224 255
201 224 255
201 224 255
201 224 255
201 224 255
201 224 255
201 224 255
201 224 255
201 224 255
201 224 255
201 224 255
201 225 255
201 225 255
201 225 255
201 225 255
201 225 255
201 225 255
201 225 255
201 225 255
202 225 255
202 225 255
202 225 255
202 225 255
202 225 255
202 225 255
202 225 255
202 225 255
202 225 255
202 225 255
202 225 255
202 225 255
202 225 255
202 225 255
202 225 255
202 225 255
202 225 255
202 225 255
202 225 255
202 225 255
202 225 255
203 225 255
203 225 255
203 225 255
203 225 255
203 225 255
203 225 255
203 225 255
203 225 255
203 225 255
203 225 255
203 226 255
203 226 255
203 226 255
203 226 255
203 226 255
203 226 255
203 226 255
203 226 255
204 226 255
204 226 255
204 226 255
204 226 255
204 226 255
204 226 255
204 226 255
204 226 255
204 226 255
204 226 255
204 226 255
204 226 255
204 226 255
204 226 255
204 226 255
204 226 255
205 226 255
205 226 255
205 226 255
205 226 255
205 226 255
205 226 255
205 226 255
205 227 255
205 227 255
205 227 255
205 227 255
205 227 255
205 227 255
205 227 255
205 227 255
205 227 255
205 227 255
206 227 255
206 227 255
206 227 255
206 227 255
206 227 255
206 227 255
206 227 255
206 227 255
206 227 255
206 227 255
206 227 255
206 227 255
206 227 255
206 227 255
206 227 255
206 227 255
206 227 255
207 227 255
207 227 255
207 227 255
207 227 255
207 228 255
207 228 255
207 228 255
207 228 255
207 228 255
207 228 255
207 228 255
207 228 255
207 228 255
207 228 255
207 228 255
207 228 255
207 228 255
207 228 255
208 228 255
208 228 255
208 228 255
208 228 255
208 228 255
208 228 255
208 228 255
208 228 255
208 228 255
208 228 255
208 228 255
208 228 255
208 228 255
208 228 255
208 228 255
208 228 255
208 228 255
208 228 255
208 228 255
208 228 255
209 228 255
209 229 255
209 229 255
209 229 255
209 229 255
209 229 255
209 229 255
209 229 255
209 229 255
209 229 255
209 229 255
209 229 255
209 229 255
209 229 255
209 229 255
209 229 255
209 229 255
209 229 255
209 229 255
209 229 255
209 229 255
210 229 255
210 229 255
210 229 255
210 229 255
210 229 255
210 229 255
210 229 255
210 229 255
210 229 255
210 229 255
210 229 255
210 229 255
210 229 255
210 229 255
210 229 255
210 229 255
210 229 255
210 229 255
210 229 255
210 229 255
210 229 255
210 229 255
210 229 255
210 229 255
210 229 255
210 229 255
210 229 255
210 229 255
210 229 255
210 229 255
210 229 255
210 229 255
210 229 255
210 229 255
210 229 255
210 229 255
209 229 255
209 229 255
209 229 255
209 229 255
209 229 255
209 229 255
209 229 255
209 229 255
209 229 255
209 229 255
209 229 255
209 229 255
209 229 255
209 229 255
209 229 255
209 229 255
209 229 255
209 229 255
209 229 255
209 228 255
209 228 255
208 228 255
208 228 255
208 228 255
208 228 255
208 228 255
208 228 255
208 228 255
208 228 255
208 228 255
208 228 255
208 228 255
208 228 255
208 228 255
208 228 255
208 228 255
208 228 255
208 228 255
208 228 255
208 228 255
208 228 255
207 228 255
207 228 255
207 228 255
207 228 255
207 228 255
207 228 255
207 228 255
207 228 255
207 228 255
207 228 255
207 228 255
207 228 255
207 228 255
207 227 255
207 227 255
207 227 255
207 227 255
207 227 255
206 227 255
206 227 255
206 227 255
206 227 255
206 227 255
206 227 255
206 227 255
206 227 255
206 227 255
206 227 255
206 227 255
206 227 255
206 227 255
206 227 255
206 227 255
206 227 255
205 227 255
205 227 255
205 227 255
205 227 255
205 227 255
205 227 255
205 227 255
205 227 255
205 227 255
205 227 255
205 227 255
205 226 255
205 226 255
205 226 255
205 226 255
205 226 255
205 226 255
204 226 255
204 226 255
204 226 255
204 226 255
204 226 255
204 226 255
204 226 255
204 226 255
204 226 255
204 226 255
204 226 255
204 226 255
204 226 255
204 226 255
204 226 255
204 226 255
204 226 255
203 226 255
203 226 255
203 226 255
203 226 255
203 226 255
203 226 255
203 226 255
203 225 255
203 225 255
203 225 255
203 225 255
203 225 255
203 225 255
203 225 255
203 225 255
203 225 255
203 225 255
203 225 255
202 225 255
202 225 255
202 225 255
202 225 255
202 225 255
202 225 255
202 225 255
202 225 255
202 225 255
202 225 255
202 225 255
202 225 255
202 225 255
202 225 255
202 225 255
202 225 255
202 225 255
202 225 255
202 225 255
202 225 255
202 225 255
202 225 255
202 225 255
201 225 255
201 225 255
201 225 255
201 225 255
201 225 255
201 225 255
201 225 255
201 225 255
201 225 255
201 225 255
201 224 255
201 224 255
201 224 255
201 224 255
201 224 255
201 224 255
201 224 255
201 224 255
201 224 255
201 224 255
201 224 255
201 224 255
201 224 255
201 224 255
201 224 255
201 224 255
201 224 255
201 224 255
201 224 255
201 224 255
201 224 255
201 224 255
201 224 255
201 224 255
201 224 255
201 224 255
201 224 255
201 224 255
201 224 255
201 224 255
201 224 255
201 224 255
201 224 255
201 224 255
201 224 255
201 224 255
201 224 255
201 224 255
201 224 255
201 224 255
201 225 255
201 225 255
201 225 255
201 225 255
201 225 255
201 225 255
201 225 255
201 225 255
201 225 255
201 225 255
202 225 255
202 225 255
202 225 255
202 225 255
202 225 255
202 225 255
202 225 255
202 225 255
202 225 255
202 225 255
202 225 255
202 225 255
202 225 255
202 225 255
202 225 255
202 225 255
202 225 255
202 225 255
202 225 255
202 225 255
202 225 255
202 225 255
202 225 255
203 225 255
203 225 255
203 225 255
203 225 255
203 225 255
203 225 255
203 225 255
203 225 255
203 225 255
203 225 255
203 225 255
203 226 255
203 226 255
203 226 255
203 226 255
203 226 255
203 226 255
203 226 255
204 226 255
204 226 255
204 226 255
204 226 255
204 226 255
204 226 255
204 226 255
204 226 255
204 226 255
204 226 255
204 226 255
204 226 255
204 226 255
204 226 255
204 226 255
204 226 255
204 226 255
205 226 255
205 226 255
205 226 255
205 226 255
205 226 255
205 226 255
205 226 255
205 227 255
205 227 255
205 227 255
205 227 255
205 227 255
205 227 255
205 227 255
205 227 255
205 227 255
206 227 255
206 227 255
206 227 255
206 227 255
206 227 255
206 227 255
206 227 255
206 227 255
206 227 255
206 227 255
206 227 255
206 227 255
206 227 255
206 227 255
206 227 255
206 227 255
206 227 255
207 227 255
207 227 255
207 227 255
207 227 255
207 227 255
207 228 255
207 228 255
207 228 255
207 228 255
207 228 255
207 228 255
207 228 255
207 228 255
207 228 255
207 228 255
207 228 255
207 228 255
207 228 255
208 228 255
208 228 255
208 228 255
208 228 255
208 228 255
208 228 255
208 228 255
208 228 255
208 228 255
208 228 255
208 228 255
208 228 255
208 228 255
208 228 255
208 228 255
208 228 255
208 228 255
208 228 255
208 228 255
208 228 255
209 228 255
209 229 255
209 229 255
209 229 255
209 229 255
209 229 255
209 229 255
209 229 255
209 229 255
209 229 255
209 229 255
209 229 255
209 229 255
209 229 255
209 229 255
209 229 255
209 229 255
209 229 255
209 229 255
209 229 255
209 229 255
209 229 255
210 229 255
210 229 255
210 229 255
210 229 255
210 229 255
210 229 255
210 229 255
210 229 255
210 229 255
210 229 255
210 229 255
210 229 255
210 229 255
210 229 255
210 229 255
210 229 255
210 229 255
210 229 255
210 229 255
210 230 255
210 229 255
210 229 255
210 229 255
210 229 255
210 229 255
210 229 255
210 229 255
210 229 255
210 229 255
210 229 255
210 229 255
210 229 255
210 229 255
210 229 255
210 229 255
210 229 255
210 229 255
210 229 255
210 229 255
210 229 255
210 229 255
210 229 255
209 229 255
209 229 255
209 229 255
209 229 255
209 229 255
209 229 255
209 229 255
209 229 255
209 229 255
209 229 255
209 229 255
209 229 255
209 229 255
209 229 255
209 229 255
209 229 255
209 229 255
209 229 255
209 229 255
209 229 255
209 228 255
208 228 255
208 228 255
208 228 255
208 228 255
208 228 255
208 228 255
208 228 255
208 228 255
208 228 255
208 228 255
208 228 255
208 228 255
208 228 255
208 228 255
208 228 255
208 228 255
208 228 255
208 228 255
208 228 255
208 228 255
207 228 255
207 228 255
207 228 255
207 228 255
207 228 255
207 228 255
207 228 255
207 228 255
207 228 255
207 228 255
207 228 255
207 228 255
207 228 255
207 228 255
207 227 255
207 227 255
207 227 255
207 227 255
206 227 255
206 227 255
206 227 255
206 227 255
206 227 255
206 227 255
206 227 255
206 227 255
206 227 255
206 227 255
206 227 255
206 227 255
206 227 255
206 227 255
206 227 255
206 227 255
206 227 255
205 227 255
205 227 255
205 227 255
205 227 255
205 227 255
205 227 255
205 227 255
205 227 255
205 227 255
205 227 255
205 226 255
205 226 255
205 226 255
205 226 255
205 226 255
205 226 255
205 226 255
204 226 255
204 226 255
204 226 255
204 226 255
204 226 255
204 226 255
204 226 255
204 226 255
204 226 255
204 226 255
204 226 255
204 226 255
204 226 255
204 226 255
204 226 255
204 226 255
203 226 255
203 226 255
203 226 255
203 226 255
203 226 255
203 226 255
203 226 255
203 226 255
203 226 255
203 225 255
203 225 255
203 225 255
203 225 255
203 225 255
203 225 255
203 225 255
203 225 255
203 225 255
203 225 255
202 225 255
202 225 255
202 225 255
202 225 255
202 225 255
202 225 255
202 225 255
202 225 255
202 225 255
202 225 255
202 225 255
202 225 255
202 225 255
202 225 255
202 225 255
202 225 255
202 225 255
202 225 255
202 225 255
202 225 255
202 225 255
202 225 255
202 225 255
202 225 255
202 225 255
202 225 255
201 225 255
201 225 255
201 225 255
201 225 255
201 225 255
201 225 255
201 225 255
201 225 255
201 225 255
201 225 255
201 225 255
201 225 255
201 225 255
201 225 255
201 225 255
201 225 255
201 225 255
201 225 255
201 224 255
201 225 255
201 224 255
201 224 255
201 224 255
201 224 255
201 224 255
201 224 255
201 224 255
201 224 255
201 224 255
201 225 255
201 225 255
201 225 255
201 225 255
201 225 255
201 225 255
201 225 255
201 225 255
201 225 255
201 225 255
201 225 255
201 225 255
201 225 255
201 225 255
201 225 255
201 225 255
201 225 255
202 225 255
202 225 255
202 225 255
202 225 255
202 225 255
202 225 255
202 225 255
202 225 255
202 225 255
202 225 255
202 225 255
202 225 255
202 225 255
202 225 255
202 225 255
202 225 255
202 225 255
202 225 255
202 225 255
202 225 255
202 225 255
202 225 255
202 225 255
202 225 255
202 225 255
202 225 255
203 225 255
203 225 255
203 225 255
203 225 255
203 225 255
203 225 255
203 225 255
203 225 255
203 225 255
203 225 255
203 225 255
203 226 255
203 226 255
203 226 255
203 226 255
203 226 255
203 226 255
203 226 255
203 226 255
204 226 255
204 226 255
204 226 255
204 226 255
204 226 255
204 226 255
204 226 255
204 226 255
204 226 255
204 226 255
204 226 255
204 226 255
204 226 255
204 226 255
204 226 255
204 226 255
205 226 255
205 226 255
205 226 255
205 226 255
205 226 255
205 226 255
205 226 255
205 227 255
205 227 255
205 227 255
205 227 255
205 227 255
205 227 255
205 227 255
205 227 255
205 227 255
205 227 255
206 227 255
206 227 255
206 227 255
206 227 255
206 227 255
206 227 255
206 227 255
206 227 255
206 227 255
206 227 255
206 227 255
206 227 255
206 227 255
206 227 255
206 227 255
206 227 255
206 227 255
207 227 255
207 227 255
207 227 255
207 227 255
207 228 255
207 228 255
207 228 255
207 228 255
207 228 255
207 228 255
207 228 255
207 228 255
207 228 255
207 228 255
207 228 255
207 228 255
207 228 255
207 228 255
208 228 255
208 228 255
208 228 255
208 228 255
208 228 255
208 228 255
208 228 255
208 228 255
208 228 255
208 228 255
208 228 255
208 228 255
208 228 255
208 228 255
208 228 255
208 228 255
208 228 255
208 228 255
208 228 255
208 228 255
209 228 255
209 229 255
209 229 255
209 229 255
209 229 255
209 229 255
209 229 255
209 229 255
209 229 255
209 229 255
209 229 255
209 229 255
209 229 255
209 229 255
209 229 255
209 229 255
209 229 255
209 229 255
209 229 255
209 229 255
209 229 255
210 229 255
210 229 255
210 229 255
210 229 255
210 229 255
210 229 255
210 229 255
210 229 255
210 229 255
210 229 255
210 229 255
210 229 255
210 229 255
210 229 255
210 229 255
210 229 255
210 229 255
210 229 255
210 229 255
210 229 255
210 229 255
210 229 255
210 230 255
211 230 255
211 230 255
210 230 255
210 230 255
210 230 255
210 229 255
210 229 255
210 229 255
210 229 255
210 229 255
210 229 255
210 229 255
210 229 255
210 229 255
210 229 255
210 229 255
210 229 255
210 229 255
210 229 255
210 229 255
210 229 255
210 229 255
210 229 255
210 229 255
210 229 255
210 229 255
210 229 255
209 229 255
209 229 255
209 229 255
209 229 255
209 229 255
209 229 255
209 229 255
209 229 255
209 229 255
209 229 255
209 229 255
209 229 255
209 229 255
209 229 255
209 229 255
209 229 255
209 229 255
209 229 255
209 229 255
209 228 255
209 228 255
208 228 255
208 228 255
208 228 255
208 228 255
208 228 255
208 228 255
208 228 255
208 228 255
208 228 255
208 228 255
208 228 255
208 228 255
208 228 255
208 228 255
208 228 255
208 228 255
208 228 255
208 228 255
208 228 255
207 228 255
207 228 255
207 228 255
207 228 255
207 228 255
207 228 255
207 228 255
207 228 255
207 228 255
207 228 255
207 228 255
207 228 255
207 228 255
207 228 255
207 227 255
207 227 255
207 227 255
207 227 255
206 227 255
206 227 255
206 227 255
206 227 255
206 227 255
206 227 255
206 227 255
206 227 255
206 227 255
206 227 255
206 227 255
206 227 255
206 227 255
206 227 255
206 227 255
206 227 255
206 227 255
205 227 255
205 227 255
205 227 255
205 227 255
205 227 255
205 227 255
205 227 255
205 227 255
205 227 255
205 227 255
205 226 255
205 226 255
205 226 255
205 226 255
205 226 255
205 226 255
205 226 255
204 226 255
204 226 255
204 226 255
204 226 255
204 226 255
204 226 255
204 226 255
204 226 255
204 226 255
204 226 255
204 226 255
204 226 255
204 226 255
204 226 255
204 226 255
204 226 255
204 226 255
203 226 255
203 226 255
203 226 255
203 226 255
203 226 255
203 226 255
203 226 255
203 226 255
203 225 255
203 225 255
203 225 255
203 225 255
203 225 255
203 225 255
203 225 255
203 225 255
203 225 255
203 225 255
203 225 255
203 225 255
202 225 255
202 225 255
202 225 255
202 225 255
202 225 255
202 225 255
202 225 255
202 225 255
202 225 255
202 225 255
202 225 255
202 225 255
202 225 255
202 225 255
202 225 255
202 225 255
202 225 255
202 225 255
202 225 255
202 225 255
202 225 255
202 225 255
202 225 255
202 225 255
202 225 255
202 225 255
202 225 255
202 225 255
202 225 255
202 225 255
202 225 255
202 225 255
201 225 255
201 225 255
201 225 255
201 225 255
201 225 255
201 225 255
201 225 255
201 225 255
201 225 255
201 225 255
201 225 255
201 225 255
201 225 255
201 225 255
201 225 255
201 225 255
201 225 255
201 225 255
201 225 255
201 225 255
201 225 255
201 225 255
201 225 255
201 225 255
202 225 255
202 225 255
202 225 255
202 225 255
202 225 255
202 225 255
202 225 255
202 225 255
202 225 255
202 225 255
202 225 255
202 225 255
202 225 255
202 225 255
202 225 255
202 225 255
202 225 255
202 225 255
202 225 255
202 225 255
202 225 255
202 225 255
202 225 255
202 225 255
202 225 255
202 225 255
202 225 255
202 225 255
202 225 255
202 225 255
202 225 255
202 225 255
203 225 255
203 225 255
203 225 255
203 225 255
203 225 255
203 225 255
203 225 255
203 225 255
203 225 255
203 225 255
203 225 255
203 225 255
203 226 255
203 226 255
203 226 255
203 226 255
203 226 255
203 226 255
203 226 255
203 226 255
204 226 255
204 226 255
204 226 255
204 226 255
204 226 255
204 226 255
204 226 255
204 226 255
204 226 255
204 226 255
204 226 255
204 226 255
204 226 255
204 226 255
204 226 255
204 226 255
204 226 255
205 226 255
205 226 255
205 226 255
205 226 255
205 226 255
205 226 255
205 226 255
205 227 255
205 227 255
205 227 255
205 227 255
205 227 255
205 227 255
205 227 255
205 227 255
205 227 255
205 227 255
206 227 255
206 227 255
206 227 255
206 227 255
206 227 255
206 227 255
206 227 255
206 227 255
206 227 255
206 227 255
206 227 255
206 227 255
206 227 255
206 227 255
206 227 255
206 227 255
206 227 255
207 227 255
207 227 255
207 227 255
207 227 255
207 228 255
207 228 255
207 228 255
207 228 255
207 228 255
207 228 255
207 228 255
207 228 255
207 228 255
207 228 255
207 228 255
207 228 255
207 228 255
207 228 255
208 228 255
208 228 255
208 228 255
208 228 255
208 228 255
208 228 255
208 228 255
208 228 255
208 228 255
208 228 255
208 228 255
208 228 255
208 228 255
208 228 255
208 228 255
208 228 255
208 228 255
208 228 255
208 228 255
209 228 255
209 228 255
209 229 255
209 229 255
209 229 255
209 229 255
209 229 255
209 229 255
209 229 255
209 229 255
209 229 255
209 229 255
209 229 255
209 229 255
209 229 255
209 229 255
209 229 255
209 229 255
209 229 255
209 229 255
209 229 255
210 229 255
210 229 255
210 229 255
210 229 255
210 229 255
210 229 255
210 229 255
210 229 255
210 229 255
210 229 255
210 229 255
210 229 255
210 229 255
210 229 255
210 229 255
210 229 255
210 229 255
210 229 255
210 229 255
210 229 255
210 229 255
210 229 255
210 230 255
210 230 255
210 230 255
211 230 255
211 230 255
211 230 255
211 230 255
211 230 255
211 230 255
211 230 255
211 230 255
210 230 255
210 230 255
210 230 255
210 229 255
210 229 255
210 229 255
210 229 255
210 229 255
210 229 255
210 229 255
210 229 255
210 229 255
210 229 255
210 229 255
210 229 255
210 229 255
210 229 255
210 229 255
210 229 255
210 229 255
210 229 255
210 229 255
210 229 255
210 229 255
209 229 255
209 229 255
209 229 255
209 229 255
209 229 255
209 229 255
209 229 255
209 229 255
209 229 255
209 229 255
209 229 255
209 229 255
209 229 255
209 229 255
209 229 255
209 229 255
209 229 255
209 229 255
209 229 255
209 229 255
209 228 255
208 228 255
208 228 255
208 228 255
208 228 255
208 228 255
208 228 255
208 228 255
208 228 255
208 228 255
208 228 255
208 228 255
208 228 255
208 228 255
208 228 255
208 228 255
208 228 255
208 228 255
208 228 255
208 228 255
208 228 255
207 228 255
207 228 255
207 228 255
207 228 255
207 228 255
207 228 255
207 228 255
207 228 255
207 228 255
207 228 255
207 228 255
207 228 255
207 228 255
207 227 255
207 227 255
207 227 255
207 227 255
207 227 255
206 227 255
206 227 255
206 227 255
206 227 255
206 227 255
206 227 255
206 227 255
206 227 255
206 227 255
206 227 255
206 227 255
206 227 255
206 227 255
206 227 255
206 227 255
206 227 255
206 227 255
205 227 255
205 227 255
205 227 255
205 227 255
205 227 255
205 227 255
205 227 255
205 227 255
205 227 255
205 226 255
205 226 255
205 226 255
205 226 255
205 226 255
205 226 255
205 226 255
205 226 255
204 226 255
204 226 255
204 226 255
204 226 255
204 226 255
204 226 255
204 226 255
204 226 255
204 226 255
204 226 255
204 226 255
204 226 255
204 226 255
204 226 255
204 226 255
204 226 255
204 226 255
203 226 255
203 226 255
203 226 255
203 226 255
203 226 255
203 226 255
203 226 255
203 226 255
203 226 255
203 225 255
203 225 255
203 225 255
203 225 255
203 225 255
203 225 255
203 225 255
203 225 255
203 225 255
203 225 255
203 225 255
203 225 255
202 225 255
202 225 255
202 225 255
202 225 255
202 225 255
202 225 255
202 225 255
202 225 255
202 225 255
202 225 255
202 225 255
202 225 255
202 225 255
202 225 255
202 225 255
202 225 255
202 225 255
202 225 255
202 225 255
202 225 255
202 225 255
202 225 255
202 225 255
202 225 255
202 225 255
202 225 255
202 225 255
202 225 255
202 225 255
202 225 255
202 225 255
202 225 255
202 225 255
202 225 255
202 225 255
202 225 255
202 225 255
202 225 255
202 225 255
202 225 255
202 225 255
202 225 255
202 225 255
202 225 255
202 225 255
202 225 255
202 225 255
202 225 255
202 225 255
202 225 255
202 225 255
202 225 255
202 225 255
202 225 255
202 225 255
202 225 255
202 225 255
202 225 255
202 225 255
202 225 255
202 225 255
202 225 255
202 225 255
202 225 255
202 225 255
202 225 255
202 225 255
202 225 255
202 225 255
202 225 255
202 225 255
202 225 255
202 225 255
202 225 255
202 225 255
202 225 255
202 225 255
202 225 255
203 225 255
203 225 255
203 225 255
203 225 255
203 225 255
203 225 255
203 225 255
203 225 255
203 225 255
203 225 255
203 225 255
203 225 255
203 226 255
203 226 255
203 226 255
203 226 255
203 226 255
203 226 255
203 226 255
203 226 255
203 226 255
204 226 255
204 226 255
204 226 255
204 226 255
204 226 255
204 226 255
204 226 255
204 226 255
204 226 255
204 226 255
204 226 255
204 226 255
204 226 255
204 226 255
204 226 255
204 226 255
204 226 255
205 226 255
205 226 255
205 226 255
205 226 255
205 226 255
205 226 255
205 226 255
205 227 255
205 227 255
205 227 255
205 227 255
205 227 255
205 227 255
205 227 255
205 227 255
205 227 255
205 227 255
205 227 255
206 227 255
206 227 255
206 227 255
206 227 255
206 227 255
206 227 255
206 227 255
206 227 255
206 227 255
206 227 255
206 227 255
206 227 255
206 227 255
206 227 255
206 227 255
206 227 255
207 227 255
207 227 255
207 227 255
207 227 255
207 227 255
207 228 255
207 228 255
207 228 255
207 228 255
207 228 255
207 228 255
207 228 255
207 228 255
207 228 255
207 228 255
207 228 255
207 228 255
207 228 255
208 228 255
208 228 255
208 228 255
208 228 255
208 228 255
208 228 255
208 228 255
208 228 255
208 228 255
208 228 255
208 228 255
208 228 255
208 228 255
208 228 255
208 228 255
208 228 255
208 228 255
208 228 255
208 228 255
209 228 255
209 228 255
209 229 255
209 229 255
209 229 255
209 229 255
209 229 255
209 229 255
209 229 255
209 229 255
209 229 255
209 229 255
209 229 255
209 229 255
209 229 255
209 229 255
209 229 255
209 229 255
209 229 255
209 229 255
209 229 255
209 229 255
210 229 255
210 229 255
210 229 255
210 229 255
210 229 255
210 229 255
210 229 255
210 229 255
210 229 255
210 229 255
210 229 255
210 229 255
210 229 255
210 229 255
210 229 255
210 229 255
210 229 255
210 229 255
210 229 255
210 229 255
210 229 255
210 230 255
210 230 255
210 230 255
211 230 255
211 230 255
211 230 255
211 230 255
211 230 255
211 230 255
211 230 255
211 230 255
211 230 255
211 230 255
211 230 255
211 230 255
211 230 255
211 230 255
211 230 255
211 230 255
210 230 255
210 230 255
210 230 255
210 229 255
210 229 255
210 229 255
210 229 255
210 229 255
210 229 255
210 229 255
210 229 255
210 229 255
210 229 255
210 229 255
210 229 255
210 229 255
210 229 255
210 229 255
210 229 255
210 229 255
210 229 255
210 229 255
210 229 255
210 229 255
209 229 255
209 229 255
209 229 255
209 229 255
209 229 255
206 225 252
200 220 246
200 219 245
195 214 240
193 212 237
191 210 235
191 211 236
188 207 233
187 207 232
190 210 236
186 206 232
188 207 233
185 205 231
192 211 237
192 212 238
191 211 237
194 214 240
193 213 239
194 214 240
200 220 247
203 223 250
203 223 250
208 228 255
208 228 255
208 228 255
208 228 255
208 228 255
208 228 255
208 228 255
208 228 255
208 228 255
208 228 255
208 228 255
208 228 255
208 228 255
207 228 255
207 228 255
207 228 255
207 228 255
207 228 255
207 228 255
207 228 255
207 228 255
207 228 255
207 228 255
207 228 255
207 228 255
207 228 255
207 228 255
207 227 255
207 227 255
207 227 255
207 227 255
206 227 255
206 227 255
206 227 255
206 227 255
206 227 255
206 227 255
206 227 255
206 227 255
206 227 255
206 227 255
206 227 255
206 227 255
206 227 255
206 227 255
206 227 255
206 227 255
206 227 255
205 227 255
205 227 255
205 227 255
205 227 255
205 227 255
205 227 255
205 227 255
205 227 255
205 227 255
205 227 255
205 226 255
205 226 255
205 226 255
205 226 255
205 226 255
205 226 255
205 226 255
204 226 255
204 226 255
204 226 255
204 226 255
204 226 255
204 226 255
204 226 255
204 226 255
204 226 255
204 226 255
204 226 255
204 226 255
204 226 255
204 226 255
204 226 255
204 226 255
204 226 255
204 226 255
203 226 255
203 226 255
203 226 255
203 226 255
203 226 255
203 226 255
203 226 255
203 226 255
203 226 255
203 226 255
203 225 255
203 225 255
203 225 255
203 225 255
203 225 255
203 225 255
203 225 255
203 225 255
203 225 255
203 225 255
203 225 255
203 225 255
203 225 255
202 225 255
202 225 255
202 225 255
202 225 255
202 225 255
202 225 255
202 225 255
202 225 255
202 225 255
202 225 255
202 225 255
202 225 255
202 225 255
202 225 255
202 225 255
202 225 255
202 225 255
202 225 255
202 225 255
202 225 255
202 225 255
202 225 255
202 225 255
202 225 255
202 225 255
199 222 254
188 211 246
183 206 242
176 200 238
172 196 236
160 184 228
159 183 226
142 167 215
151 175 220
153 177 220
154 178 223
162 186 228
177 200 238
188 211 246
190 213 246
199 222 254
202 225 255
202 225 255
202 225 255
202 225 255
202 225 255
202 225 255
202 225 255
202 225 255
202 225 255
202 225 255
202 225 255
202 225 255
202 225 255
202 225 255
202 225 255
202 225 255
202 225 255
202 225 255
202 225 255
202 225 255
202 225 255
202 225 255
202 225 255
202 225 255
202 225 255
203 225 255
203 225 255
203 225 255
203 225 255
203 225 255
203 225 255
203 225 255
203 225 255
203 225 255
203 225 255
203 225 255
203 225 255
203 225 255
203 226 255
203 226 255
203 226 255
203 226 255
203 226 255
203 226 255
203 226 255
203 226 255
203 226 255
204 226 255
204 226 255
204 226 255
204 226 255
204 226 255
204 226 255
204 226 255
204 226 255
204 226 255
204 226 255
204 226 255
204 226 255
204 226 255
204 226 255
204 226 255
204 226 255
204 226 255
204 226 255
204 226 255
205 226 255
205 226 255
205 226 255
205 226 255
205 226 255
205 226 255
205 226 255
205 227 255
205 227 255
205 227 255
205 227 255
205 227 255
205 227 255
205 227 255
205 227 255
205 227 255
205 227 255
206 227 255
206 227 255
206 227 255
206 227 255
206 227 255
206 227 255
206 227 255
206 227 255
206 227 255
206 227 255
206 227 255
206 227 255
206 227 255
206 227 255
206 227 255
206 227 255
206 227 255
207 227 255
207 227 255
207 227 255
207 227 255
207 228 255
207 228 255
207 228 255
207 228 255
207 228 255
207 228 255
207 228 255
207 228 255
207 228 255
207 228 255
207 228 255
207 228 255
207 228 255
207 228 255
208 228 255
208 228 255
208 228 255
208 228 255
208 228 255
208 228 255
208 228 255
208 228 255
208 228 255
208 228 255
208 228 255
208 228 255
208 228 254
205 222 245
201 215 234
199 211 225
196 207 220
195 205 216
196 206 217
188 191 191
188 192 192
189 193 194
185 186 182
188 191 191
189 193 194
189 194 196
194 202 210
187 188 186
193 199 205
195 204 214
196 205 216
198 208 220
198 209 221
205 221 243
205 221 243
208 226 251
209 229 255
209 229 255
209 229 255
209 229 255
210 229 255
210 229 255
210 229 255
210 229 255
210 229 255
210 229 255
210 229 255
210 229 255
210 229 255
210 229 255
210 229 255
210 229 255
210 229 255
210 229 255
210 229 255
210 229 255
210 229 255
210 229 255
210 229 255
210 229 255
210 229 255
210 230 255
210 230 255
210 230 255
211 230 255
211 230 255
211 230 255
211 230 255
211 230 255
211 230 255
211 230 255
211 230 255
211 230 255
211 230 255
211 230 255
211 230 255
211 230 255
211 230 255
211 230 255
211 230 255
211 230 255
211 230 255
211 230 255
211 230 255
211 230 255
211 230 255
211 230 255
211 230 255
210 230 255
210 230 255
210 230 255
210 229 255
210 229 255
210 229 255
210 229 255
210 229 255
210 229 255
210 229 255
210 229 255
210 229 255
210 229 255
210 229 255
210 229 255
207 226 252
203 222 248
194 213 238
188 206 232
185 204 229
179 199 224
176 195 221
168 188 214
162 181 207
158 178 204
158 178 204
157 177 204
156 177 204
156 177 204
155 176 204
155 176 204
154 176 204
154 176 204
154 176 204
153 176 204
153 175 204
153 175 204
153 175 204
153 175 204
153 175 204
153 175 204
153 176 204
153 176 204
153 175 204
154 176 204
154 176 204
155 176 204
156 177 204
161 182 209
165 186 213
173 193 220
178 198 225
184 204 230
188 208 234
189 208 235
198 218 245
206 226 254
208 228 255
208 228 255
208 228 255
208 228 255
208 228 255
208 228 255
208 228 255
207 228 255
207 228 255
207 228 255
207 228 255
207 228 255
207 228 255
207 228 255
207 228 255
207 228 255
207 228 255
207 228 255
207 228 255
207 228 255
207 227 255
207 227 255
207 227 255
207 227 255
207 227 255
206 227 255
206 227 255
206 227 255
206 227 255
206 227 255
206 227 255
206 227 255
206 227 255
206 227 255
206 227 255
206 227 255
206 227 255
206 227 255
206 227 255
206 227 255
206 227 255
206 227 255
205 227 255
205 227 255
205 227 255
205 227 255
205 227 255
205 227 255
205 227 255
205 227 255
205 227 255
205 227 255
205 226 255
205 226 255
205 226 255
205 226 255
205 226 255
205 226 255
205 226 255
204 226 255
204 226 255
204 226 255
204 226 255
204 226 255
204 226 255
204 226 255
204 226 255
204 226 255
204 226 255
204 226 255
204 226 255
204 226 255
204 226 255
204 226 255
204 226 255
204 226 255
204 226 255
204 226 255
203 226 255
203 226 255
203 226 255
203 226 255
203 226 255
203 226 255
203 226 255
203 226 255
203 226 255
203 225 255
203 225 255
203 225 255
203 225 255
203 225 255
203 225 255
203 225 255
203 225 255
203 225 255
203 225 255
203 225 255
203 225 255
203 225 255
203 225 255
203 225 255
203 225 255
202 225 255
202 225 255
202 225 255
202 225 255
202 225 255
202 225 255
202 225 255
202 225 255
202 225 255
202 225 255
202 225 255
202 225 255
199 221 253
189 212 246
140 165 214
142 166 214
108 136 198
83 114 185
62 99 177
63 100 177
62 99 174
61 98 174
62 99 173
63 99 177
61 98 172
62 98 171
62 99 179
62 99 177
62 99 177
63 99 178
62 99 178
62 99 171
62 99 177
62 99 174
84 115 183
114 141 197
144 169 217
159 183 226
183 206 242
194 217 250
202 225 255
202 225 255
202 225 255
202 225 255
202 225 255
202 225 255
202 225 255
202 225 255
202 225 255
202 225 255
202 225 255
202 225 255
203 225 255
203 225 255
203 225 255
203 225 255
203 225 255
203 225 255
203 225 255
203 225 255
203 225 255
203 225 255
203 225 255
203 225 255
203 225 255
203 225 255
203 225 255
203 226 255
203 226 255
203 226 255
203 226 255
203 226 255
203 226 255
203 226 255
203 226 255
203 226 255
203 226 255
204 226 255
204 226 255
204 226 255
204 226 255
204 226 255
204 226 255
204 226 255
204 226 255
204 226 255
204 226 255
204 226 255
204 226 255
204 226 255
204 226 255
204 226 255
204 226 255
204 226 255
204 226 255
204 226 255
205 226 255
205 226 255
205 226 255
205 226 255
205 226 255
205 226 255
205 226 255
205 227 255
205 227 255
205 227 255
205 227 255
205 227 255
205 227 255
205 227 255
205 227 255
205 227 255
205 227 255
206 227 255
206 227 255
206 227 255
206 227 255
206 227 255
206 227 255
206 227 255
206 227 255
206 227 255
206 227 255
206 227 255
206 227 255
206 227 255
206 227 255
206 227 255
206 227 255
206 227 255
206 227 255
207 227 255
207 227 255
207 227 255
207 227 255
207 228 255
207 228 255
207 228 255
207 228 255
207 228 255
207 228 255
207 228 255
207 228 255
207 228 255
207 228 255
207 228 255
207 228 255
207 228 255
208 228 255
208 228 255
208 228 255
208 228 255
208 228 255
208 228 255
208 228 255
207 226 252
203 219 240
194 203 213
184 184 179
181 179 170
179 176 164
171 161 133
161 144 91
158 136 67
155 132 51
155 132 51
155 132 51
154 132 51
153 131 51
153 131 51
153 131 51
153 131 51
153 131 51
153 131 51
153 131 51
153 131 51
153 132 51
153 132 51
154 132 51
154 132 51
154 132 51
155 132 51
155 132 51
155 132 51
156 133 51
156 133 51
157 133 51
159 135 57
161 139 71
169 155 118
175 166 142
180 174 158
186 186 181
187 188 184
199 210 223
199 210 223
208 226 251
210 229 255
210 229 255
210 229 255
210 229 255
210 229 255
210 229 255
210 229 255
210 229 255
210 229 255
210 229 255
210 229 255
210 229 255
210 230 255
210 230 255
210 230 255
211 230 255
211 230 255
211 230 255
211 230 255
211 230 255
211 230 255
211 230 255
211 230 255
211 230 255
211 230 255
211 230 255
211 230 255
211 230 255
211 230 255
211 230 255
211 230 255
211 230 255
211 230 255
211 230 255
211 230 255
211 230 255
211 230 255
211 230 255
211 230 255
211 230 255
211 230 255
211 230 255
211 230 255
211 230 255
211 230 255
211 230 255
211 230 255
210 230 255
210 230 255
210 230 255
210 229 255
210 229 255
207 226 251
199 217 243
190 208 233
185 204 229
177 196 221
163 182 207
159 179 204
158 178 204
157 177 204
156 177 204
155 177 204
155 176 204
154 176 204
154 176 204
153 175 204
153 175 204
152 175 204
152 175 204
151 174 204
151 174 204
151 174 204
151 174 204
150 174 204
150 174 204
150 174 204
150 174 204
149 173 204
149 173 204
149 173 204
149 173 204
149 173 204
149 173 204
149 173 204
149 173 204
149 173 204
149 173 204
149 173 204
149 173 204
149 173 204
149 173 204
149 173 204
150 174 204
150 174 204
151 174 204
151 175 204
152 175 204
153 175 204
155 176 204
160 181 208
176 197 224
178 198 226
190 210 236
194 214 241
205 225 252
208 228 255
208 228 255
208 228 255
208 228 255
207 228 255
207 228 255
207 228 255
207 228 255
207 228 255
207 228 255
207 228 255
207 228 255
207 228 255
207 228 255
207 228 255
207 228 255
207 228 255
207 228 255
207 227 255
207 227 255
207 227 255
207 227 255
206 227 255
206 227 255
206 227 255
206 227 255
206 227 255
206 227 255
206 227 255
206 227 255
206 227 255
206 227 255
206 227 255
206 227 255
206 227 255
206 227 255
206 227 255
206 227 255
206 227 255
206 227 255
205 227 255
205 227 255
205 227 255
205 227 255
205 227 255
205 227 255
205 227 255
205 227 255
205 227 255
205 227 255
205 226 255
205 226 255
205 226 255
205 226 255
205 226 255
205 226 255
205 226 255
204 226 255
204 226 255
204 226 255
204 226 255
204 226 255
204 226 255
204 226 255
204 226 255
204 226 255
204 226 255
204 226 255
204 226 255
204 226 255
204 226 255
204 226 255
204 226 255
204 226 255
204 226 255
204 226 255
204 226 255
203 226 255
203 226 255
203 226 255
203 226 255
203 226 255
203 226 255
203 226 255
203 226 255
203 226 255
203 226 255
203 225 255
203 225 255
203 225 255
203 225 255
203 225 255
203 225 255
203 225 255
203 225 255
203 225 255
203 225 255
203 225 255
203 225 255
203 225 255
203 225 255
203 225 255
203 225 255
203 225 255
203 225 255
196 219 251
165 188 229
150 174 221
106 134 194
65 101 178
63 99 179
61 98 174
62 99 171
62 99 171
62 98 168
62 99 173
61 98 175
63 99 172
62 99 170
63 100 176
62 99 177
62 99 171
62 99 177
62 99 171
63 100 178
62 99 171
62 99 174
62 98 171
63 99 172
62 99 174
62 99 172
62 98 173
62 99 176
62 99 174
62 98 176
62 99 175
70 105 178
97 126 188
142 167 216
185 208 243
192 215 248
203 225 255
203 225 255
203 225 255
203 225 255
203 225 255
203 225 255
203 225 255
203 225 255
203 225 255
203 225 255
203 225 255
203 225 255
203 225 255
203 225 255
203 225 255
203 225 255
203 225 255
203 226 255
203 226 255
203 226 255
203 226 255
203 226 255
203 226 255
203 226 255
203 226 255
203 226 255
203 226 255
203 226 255
204 226 255
204 226 255
204 226 255
204 226 255
204 226 255
204 226 255
204 226 255
204 226 255
204 226 255
204 226 255
204 226 255
204 226 255
204 226 255
204 226 255
204 226 255
204 226 255
204 226 255
204 226 255
204 226 255
204 226 255
205 226 255
205 226 255
205 226 255
205 226 255
205 226 255
205 226 255
205 226 255
205 227 255
205 227 255
205 227 255
205 227 255
205 227 255
205 227 255
205 227 255
205 227 255
205 227 255
205 227 255
205 227 255
206 227 255
206 227 255
206 227 255
206 227 255
206 227 255
206 227 255
206 227 255
206 227 255
206 227 255
206 227 255
206 227 255
206 227 255
206 227 255
206 227 255
206 227 255
206 227 255
206 227 255
207 227 255
207 227 255
207 227 255
207 227 255
207 228 255
207 228 255
207 228 255
207 228 255
207 228 255
207 228 255
207 228 255
207 228 255
207 228 255
207 228 255
207 228 255
207 228 255
207 228 255
207 228 255
208 228 255
208 228 255
208 228 255
208 228 255
205 222 245
198 210 225
188 192 194
177 172 156
166 152 112
164 150 106
155 132 51
153 131 51
152 131 51
152 131 51
151 130 51
150 130 51
150 130 51
149 130 51
149 130 51
149 130 51
149 130 51
149 130 51
149 130 51
149 130 51
149 130 51
149 130 51
149 130 51
149 130 51
149 130 51
149 130 51
149 130 51
149 130 51
150 130 51
150 130 51
150 130 51
150 130 51
150 130 51
151 131 51
151 131 51
152 131 51
152 131 51
152 131 51
153 131 51
153 131 51
153 131 51
154 132 51
154 132 51
155 132 51
156 133 51
157 133 51
158 133 51
160 134 51
165 145 91
176 168 144
183 180 168
188 188 184
197 205 214
206 222 243
210 229 255
210 229 255
210 230 255
210 230 255
210 230 255
211 230 255
211 230 255
211 230 255
211 230 255
211 230 255
211 230 255
211 230 255
211 230 255
211 230 255
211 230 255
211 230 255
211 230 255
211 230 255
211 230 255
211 230 255
211 230 255
211 230 255
211 230 255
211 230 255
211 230 255
211 230 255
211 230 255
211 230 255
211 230 255
211 230 255
211 230 255
211 230 255
211 230 255
211 230 255
211 230 255
211 230 255
211 230 255
211 230 255
211 230 255
211 230 255
211 230 255
208 227 253
199 217 242
192 210 235
177 195 220
169 187 212
160 179 204
158 178 204
157 178 204
156 177 204
155 177 204
155 176 204
154 176 204
154 176 204
153 175 204
152 175 204
152 175 204
152 175 204
151 174 204
151 174 204
150 174 204
150 174 204
150 174 204
150 174 204
149 173 204
149 173 204
149 173 204
149 173 204
149 173 204
148 173 204
148 173 204
148 173 204
148 173 204
148 173 204
148 172 204
147 172 204
147 172 204
147 172 204
147 172 204
147 172 204
147 172 204
147 172 204
147 172 204
147 172 204
147 172 204
147 172 204
147 172 204
147 172 204
147 172 204
147 172 204
147 172 204
147 172 204
148 173 204
148 173 204
148 173 204
149 173 204
150 174 204
151 174 204
152 175 204
153 175 204
162 183 211
172 193 220
181 201 228
195 215 242
205 225 252
208 228 255
208 228 255
208 228 255
207 228 255
207 228 255
207 228 255
207 228 255
207 228 255
207 228 255
207 228 255
207 228 255
207 228 255
207 228 255
207 228 255
207 228 255
207 228 255
207 227 255
207 227 255
207 227 255
207 227 255
207 227 255
206 227 255
206 227 255
206 227 255
206 227 255
206 227 255
206 227 255
206 227 255
206 227 255
206 227 255
206 227 255
206 227 255
206 227 255
206 227 255
206 227 255
206 227 255
206 227 255
206 227 255
205 227 255
205 227 255
205 227 255
205 227 255
205 227 255
205 227 255
205 227 255
205 227 255
205 227 255
205 227 255
205 227 255
205 226 255
205 226 255
205 226 255
205 226 255
205 226 255
205 226 255
205 226 255
204 226 255
204 226 255
204 226 255
204 226 255
204 226 255
204 226 255
204 226 255
204 226 255
204 226 255
204 226 255
204 226 255
204 226 255
204 226 255
204 226 255
204 226 255
204 226 255
204 226 255
204 226 255
204 226 255
204 226 255
204 226 255
203 226 255
203 226 255
203 226 255
203 226 255
203 226 255
203 226 255
203 226 255
203 226 255
203 226 255
203 226 255
203 226 255
203 226 255
203 225 255
203 225 255
203 225 255
203 225 255
203 225 255
203 225 255
203 225 255
203 225 255
195 218 250
147 172 218
119 146 201
65 101 176
62 99 177
62 99 173
62 99 176
63 99 176
62 99 173
62 99 173
62 99 173
62 99 178
62 99 176
62 99 173
61 98 165
61 98 170
62 99 171
62 98 168
62 99 173
62 99 173
62 98 169
62 99 172
62 98 168
61 98 171
62 99 171
63 100 173
61 98 173
63 99 175
62 98 172
62 99 173
62 99 171
62 98 170
63 99 177
62 99 177
62 99 174
62 98 172
62 99 173
62 98 172
62 99 175
106 134 195
151 175 220
191 214 248
203 225 255
203 225 255
203 225 255
203 225 255
203 225 255
203 225 255
203 225 255
203 225 255
203 226 255
203 226 255
203 226 255
203 226 255
203 226 255
203 226 255
203 226 255
203 226 255
203 226 255
203 226 255
203 226 255
203 226 255
204 226 255
204 226 255
204 226 255
204 226 255
204 226 255
204 226 255
204 226 255
204 226 255
204 226 255
204 226 255
204 226 255
204 226 255
204 226 255
204 226 255
204 226 255
204 226 255
204 226 255
204 226 255
204 226 255
204 226 255
204 226 255
205 226 255
205 226 255
205 226 255
205 226 255
205 226 255
205 226 255
205 226 255
205 227 255
205 227 255
205 227 255
205 227 255
205 227 255
205 227 255
205 227 255
205 227 255
205 227 255
205 227 255
205 227 255
206 227 255
206 227 255
206 227 255
206 227 255
206 227 255
206 227 255
206 227 255
206 227 255
206 227 255
206 227 255
206 227 255
206 227 255
206 227 255
206 227 255
206 227 255
206 227 255
206 227 255
207 227 255
207 227 255
207 227 255
207 227 255
207 227 255
207 228 255
207 228 255
207 228 255
207 228 255
207 228 255
207 228 255
207 228 255
207 228 255
207 228 255
207 228 255
207 228 255
207 228 255
207 228 255
208 228 255
208 228 255
208 228 255
203 220 242
191 198 204
184 187 184
170 162 135
163 148 103
154 132 51
152 131 51
151 130 51
150 130 51
149 130 51
148 130 51
148 129 51
147 129 51
147 129 51
147 129 51
147 129 51
147 129 51
147 129 51
147 129 51
147 129 51
147 129 51
147 129 51
147 129 51
147 129 51
147 129 51
147 129 51
147 129 51
147 129 51
147 129 51
147 129 51
148 129 51
148 129 51
148 129 51
148 129 51
148 129 51
148 130 51
149 130 51
149 130 51
149 130 51
149 130 51
149 130 51
150 130 51
150 130 51
150 130 51
151 130 51
151 131 51
151 131 51
152 131 51
152 131 51
153 131 51
153 131 51
153 132 51
154 132 51
155 132 51
156 132 51
156 133 51
157 133 51
158 133 51
160 134 51
167 148 97
177 168 144
188 188 184
201 212 225
208 224 247
211 230 255
211 230 255
211 230 255
211 230 255
211 230 255
211 230 255
211 230 255
211 230 255
211 230 255
211 230 255
211 230 255
211 230 255
211 230 255
211 230 255
211 230 255
211 230 255
211 230 255
211 230 255
211 230 255
211 230 255
211 230 255
211 230 255
211 230 255
211 230 255
211 230 255
211 230 255
211 230 255
211 230 255
211 230 255
211 230 255
211 230 255
211 230 255
206 224 249
191 209 233
182 200 224
171 189 214
161 179 204
159 178 204
158 178 204
157 177 204
156 177 204
155 176 204
154 176 204
154 176 204
153 175 204
153 175 204
152 175 204
152 175 204
151 175 204
151 174 204
151 174 204
151 174 204
150 174 204
150 174 204
150 174 204
149 173 204
149 173 204
149 173 204
149 173 204
149 173 204
148 173 204
148 173 204
148 173 204
148 173 204
148 173 204
148 173 204
148 172 204
147 172 204
147 172 204
147 172 204
147 172 204
147 172 204
147 172 204
147 172 204
146 172 204
146 172 204
146 172 204
146 172 204
146 172 204
146 172 204
146 172 204
146 172 204
146 172 204
146 171 204
146 171 204
145 171 204
146 171 204
146 171 204
146 171 204
146 172 204
146 172 204
146 172 204
146 172 204
147 172 204
147 172 204
148 173 204
148 173 204
150 174 204
151 175 204
153 176 204
168 189 217
178 198 225
188 208 235
202 222 249
208 228 255
208 228 255
208 228 255
207 228 255
207 228 255
207 228 255
207 228 255
207 228 255
207 228 255
207 228 255
207 228 255
207 228 255
207 228 255
207 228 255
207 228 255
207 228 255
207 227 255
207 227 255
207 227 255
207 227 255
206 227 255
206 227 255
206 227 255
206 227 255
206 227 255
206 227 255
206 227 255
206 227 255
206 227 255
206 227 255
206 227 255
206 227 255
206 227 255
206 227 255
206 227 255
206 227 255
206 227 255
206 227 255
205 227 255
205 227 255
205 227 255
205 227 255
205 227 255
205 227 255
205 227 255
205 227 255
205 227 255
205 227 255
205 227 255
205 226 255
205 226 255
205 226 255
205 226 255
205 226 255
205 226 255
205 226 255
205 226 255
204 226 255
204 226 255
204 226 255
204 226 255
204 226 255
204 226 255
204 226 255
204 226 255
204 226 255
204 226 255
204 226 255
204 226 255
204 226 255
204 226 255
204 226 255
204 226 255
204 226 255
204 226 255
204 226 255
204 226 255
204 226 255
204 226 255
204 226 255
203 226 255
203 226 255
203 226 255
203 226 255
203 226 255
203 226 255
203 226 255
203 226 255
203 226 255
203 226 255
188 210 243
156 180 223
116 143 197
62 99 172
63 99 171
63 100 177
63 99 177
61 98 173
62 99 173
63 99 177
62 98 171
62 99 174
62 99 172
61 98 165
62 99 174
62 99 171
62 98 171
62 99 171
61 98 170
62 99 173
63 99 172
62 98 168
63 99 173
62 99 171
63 100 177
62 98 170
62 99 171
62 99 176
62 98 167
62 99 171
63 99 172
62 98 167
61 98 170
62 99 177
62 98 172
63 100 177
63 100 175
63 99 175
61 98 170
62 99 173
62 99 174
62 99 174
62 99 173
62 98 169
62 99 175
108 135 193
153 176 221
191 213 247
203 226 255
203 226 255
203 226 255
203 226 255
203 226 255
203 226 255
203 226 255
203 226 255
203 226 255
203 226 255
203 226 255
204 226 255
204 226 255
204 226 255
204 226 255
204 226 255
204 226 255
204 226 255
204 226 255
204 226 255
204 226 255
204 226 255
204 226 255
204 226 255
204 226 255
204 226 255
204 226 255
204 226 255
204 226 255
204 226 255
204 226 255
204 226 255
204 226 255
205 226 255
205 226 255
205 226 255
205 226 255
205 226 255
205 226 255
205 226 255
205 226 255
205 227 255
205 227 255
205 227 255
205 227 255
205 227 255
205 227 255
205 227 255
205 227 255
205 227 255
205 227 255
205 227 255
206 227 255
206 227 255
206 227 255
206 227 255
206 227 255
206 227 255
206 227 255
206 227 255
206 227 255
206 227 255
206 227 255
206 227 255
206 227 255
206 227 255
206 227 255
206 227 255
206 227 255
206 227 255
207 227 255
207 227 255
207 227 255
207 227 255
207 228 255
207 228 255
207 228 255
207 228 255
207 228 255
207 228 255
207 228 255
207 228 255
207 228 255
207 228 255
207 228 255
207 228 255
207 228 255
208 228 255
208 228 255
208 228 255
199 212 228
187 192 194
177 175 162
160 144 94
153 131 51
151 131 51
150 130 51
149 130 51
148 129 51
147 129 51
147 129 51
146 129 51
146 129 51
146 129 51
146 129 51
146 129 51
146 128 51
146 128 51
146 128 51
146 128 51
146 129 51
146 129 51
146 129 51
146 129 51
146 129 51
146 129 51
146 129 51
146 129 51
146 129 51
146 129 51
147 129 51
147 129 51
147 129 51
147 129 51
147 129 51
147 129 51
147 129 51
148 129 51
148 129 51
148 129 51
148 129 51
148 129 51
148 130 51
148 130 51
149 130 51
149 130 51
149 130 51
149 130 51
149 130 51
150 130 51
150 130 51
150 130 51
151 130 51
151 131 51
151 131 51
152 131 51
152 131 51
152 131 51
153 131 51
153 131 51
154 132 51
154 132 51
155 132 51
156 133 51
157 133 51
158 133 51
159 134 51
160 134 51
169 150 100
175 162 130
196 202 208
206 220 239
211 230 255
211 230 255
211 230 255
211 230 255
211 230 255
211 230 255
211 230 255
211 230 255
211 230 255
211 230 255
211 230 255
211 230 255
211 230 255
211 230 255
212 230 255
212 230 255
212 230 255
212 230 255
211 230 255
211 230 255
211 230 255
211 230 255
211 230 255
211 230 255
208 227 252
197 215 240
181 199 223
169 187 212
161 179 204
159 179 204
158 178 204
157 177 204
156 177 204
155 177 204
155 176 204
154 176 204
154 176 204
153 175 204
153 175 204
152 175 204
152 175 204
152 175 204
151 174 204
151 174 204
151 174 204
150 174 204
150 174 204
150 174 204
150 174 204
150 174 204
149 173 204
149 173 204
149 173 204
149 173 204
149 173 204
149 173 204
149 173 204
148 173 204
148 173 204
148 173 204
148 173 204
148 173 204
148 173 204
148 173 204
148 173 204
148 172 204
147 172 204
147 172 204
147 172 204
147 172 204
147 172 204
147 172 204
147 172 204
146 172 204
146 172 204
146 172 204
146 172 204
146 172 204
146 172 204
146 172 204
146 171 204
145 171 204
145 171 204
145 171 204
145 171 204
145 171 204
145 171 204
145 171 204
145 171 204
145 171 204
145 171 204
145 171 204
146 171 204
146 172 204
146 172 204
147 172 204
148 173 204
148 173 204
150 174 204
152 175 204
162 183 211
178 198 226
192 212 239
205 225 252
208 228 255
208 228 255
207 228 255
207 228 255
207 228 255
207 228 255
207 228 255
207 228 255
207 228 255
207 228 255
207 228 255
207 228 255
207 228 255
207 228 255
207 228 255
207 228 255
207 227 255
207 227 255
207 227 255
207 227 255
206 227 255
206 227 255
206 227 255
206 227 255
206 227 255
206 227 255
206 227 255
206 227 255
206 227 255
206 227 255
206 227 255
206 227 255
206 227 255
206 227 255
206 227 255
206 227 255
206 227 255
206 227 255
205 227 255
205 227 255
205 227 255
205 227 255
205 227 255
205 227 255
205 227 255
205 227 255
205 227 255
205 227 255
205 227 255
205 227 255
205 226 255
205 226 255
205 226 255
205 226 255
205 226 255
205 226 255
205 226 255
205 226 255
204 226 255
204 226 255
204 226 255
204 226 255
204 226 255
204 226 255
204 226 255
204 226 255
204 226 255
204 226 255
204 226 255
204 226 255
204 226 255
204 226 255
204 226 255
204 226 255
204 226 255
204 226 255
204 226 255
204 226 255
204 226 255
204 226 255
204 226 255
204 226 255
203 226 255
203 226 255
179 202 238
143 167 214
78 111 182
62 99 171
62 98 171
62 99 172
62 99 168
62 99 170
62 99 173
62 98 168
63 99 173
62 99 172
62 99 172
61 98 171
62 99 170
62 99 169
62 98 170
62 99 169
62 99 171
62 99 172
62 99 167
62 99 172
61 98 168
63 99 166
62 99 170
61 98 166
63 99 167
62 98 163
63 99 175
63 99 170
62 98 170
62 99 169
63 99 166
63 99 169
62 98 165
62 99 172
61 98 169
62 99 171
63 99 173
61 98 170
62 98 172
63 99 174
62 99 174
62 98 170
61 98 171
62 99 171
63 99 176
62 99 177
63 99 169
73 107 179
137 162 211
183 206 240
203 226 255
204 226 255
204 226 255
204 226 255
204 226 255
204 226 255
204 226 255
204 226 255
204 226 255
204 226 255
204 226 255
204 226 255
204 226 255
204 226 255
204 226 255
204 226 255
204 226 255
204 226 255
204 226 255
204 226 255
204 226 255
204 226 255
204 226 255
204 226 255
204 226 255
204 226 255
204 226 255
205 226 255
205 226 255
205 226 255
205 226 255
205 226 255
205 226 255
205 226 255
205 226 255
205 227 255
205 227 255
205 227 255
205 227 255
205 227 255
205 227 255
205 227 255
205 227 255
205 227 255
205 227 255
205 227 255
206 227 255
206 227 255
206 227 255
206 227 255
206 227 255
206 227 255
206 227 255
206 227 255
206 227 255
206 227 255
206 227 255
206 227 255
206 227 255
206 227 255
206 227 255
206 227 255
206 227 255
206 227 255
207 227 255
207 227 255
207 227 255
207 227 255
207 228 255
207 228 255
207 228 255
207 228 255
207 228 255
207 228 255
207 228 255
207 228 255
207 228 255
207 228 255
207 228 255
207 228 255
207 228 255
207 228 255
208 228 255
208 228 255
203 219 240
188 193 196
177 174 160
159 142 87
152 131 51
150 130 51
149 130 51
148 129 51
147 129 51
146 129 51
146 129 51
145 128 51
145 128 51
145 128 51
145 128 51
145 128 51
145 128 51
145 128 51
145 128 51
145 128 51
145 128 51
145 128 51
145 128 51
145 128 51
146 129 51
146 129 51
146 129 51
146 129 51
146 129 51
146 129 51
146 129 51
147 129 51
147 129 51
147 129 51
147 129 51
147 129 51
147 129 51
147 129 51
147 129 51
148 129 51
148 129 51
148 129 51
148 129 51
148 129 51
148 129 51
148 130 51
148 130 51
149 130 51
149 130 51
149 130 51
149 130 51
149 130 51
149 130 51
149 130 51
150 130 51
150 130 51
150 130 51
150 130 51
150 130 51
151 130 51
151 131 51
151 131 51
152 131 51
152 131 51
152 131 51
153 131 51
153 131 51
154 132 51
154 132 51
155 132 51
155 132 51
156 133 51
157 133 51
158 133 51
159 134 51
161 134 51
167 145 87
186 183 174
195 200 204
210 227 251
211 230 255
211 230 255
211 230 255
211 230 255
211 230 255
211 230 255
212 230 255
212 230 255
212 230 255
212 230 255
212 230 255
212 230 255
212 230 255
212 230 255
212 230 255
212 230 255
211 230 255
205 223 248
193 211 235
174 192 216
162 180 204
160 179 204
159 178 204
158 178 204
157 177 204
156 177 204
155 177 204
155 176 204
154 176 204
154 176 204
153 175 204
153 175 204
152 175 204
152 175 204
152 175 204
152 175 204
151 174 204
151 174 204
151 174 204
151 174 204
151 174 204
150 174 204
150 174 204
150 174 204
150 174 204
150 174 204
150 174 204
150 174 204
150 174 204
149 173 204
149 173 204
149 173 204
149 173 204
149 173 204
149 173 204
149 173 204
149 173 204
149 173 204
149 173 204
149 173 204
148 173 204
148 173 204
148 173 204
148 173 204
148 173 204
148 173 204
148 173 204
148 173 204
148 173 204
147 172 204
147 172 204
147 172 204
147 172 204
147 172 204
147 172 204
147 172 204
146 172 204
146 172 204
146 172 204
146 172 204
146 172 204
145 171 204
145 171 204
145 171 204
145 171 204
145 171 204
145 171 204
145 171 204
145 171 204
145 171 204
145 171 204
145 171 204
145 171 204
146 171 204
146 172 204
147 172 204
148 173 204
148 173 204
151 174 204
154 177 205
164 185 212
184 204 231
202 222 249
207 227 255
208 228 255
208 228 255
207 228 255
207 228 255
207 228 255
207 228 255
207 228 255
207 228 255
207 228 255
207 228 255
207 228 255
207 228 255
207 228 255
207 228 255
207 228 255
207 227 255
207 227 255
207 227 255
207 227 255
207 227 255
206 227 255
206 227 255
206 227 255
206 227 255
206 227 255
206 227 255
206 227 255
206 227 255
206 227 255
206 227 255
206 227 255
206 227 255
206 227 255
206 227 255
206 227 255
206 227 255
206 227 255
206 227 255
205 227 255
205 227 255
205 227 255
205 227 255
205 227 255
205 227 255
205 227 255
205 227 255
205 227 255
205 227 255
205 227 255
205 227 255
205 226 255
205 226 255
205 226 255
205 226 255
205 226 255
205 226 255
205 226 255
205 226 255
205 226 255
204 226 255
204 226 255
204 226 255
204 226 255
204 226 255
204 226 255
204 226 255
204 226 255
204 226 255
204 226 255
204 226 255
204 226 255
204 226 255
204 226 255
204 226 255
204 226 255
204 226 255
204 226 255
204 226 255
165 188 228
103 131 193
61 98 173
62 98 169
62 99 175
62 98 171
61 98 172
62 99 173
63 99 172
61 97 167
63 100 176
62 98 167
62 99 173
63 99 168
63 99 172
62 98 169
63 99 175
62 99 172
62 99 171
62 99 175
61 98 163
61 98 172
62 99 171
62 98 167
62 99 174
62 99 176
62 99 169
63 99 175
63 99 171
62 98 165
62 99 170
62 99 170
63 99 172
63 100 176
61 97 165
62 98 165
61 98 169
62 99 169
62 98 170
62 99 175
62 98 168
62 98 166
63 100 172
62 99 172
63 99 168
63 99 174
63 99 172
62 98 169
63 99 174
62 99 175
61 98 167
62 98 172
63 99 175
62 99 174
101 130 191
169 192 231
202 224 254
204 226 255
204 226 255
204 226 255
204 226 255
204 226 255
204 226 255
204 226 255
204 226 255
204 226 255
204 226 255
204 226 255
204 226 255
204 226 255
204 226 255
204 226 255
204 226 255
204 226 255
204 226 255
205 226 255
205 226 255
205 226 255
205 226 255
205 226 255
205 226 255
205 226 255
205 226 255
205 226 255
205 227 255
205 227 255
205 227 255
205 227 255
205 227 255
205 227 255
205 227 255
205 227 255
205 227 255
205 227 255
205 227 255
205 227 255
206 227 255
206 227 255
206 227 255
206 227 255
206 227 255
206 227 255
206 227 255
206 227 255
206 227 255
206 227 255
206 227 255
206 227 255
206 227 255
206 227 255
206 227 255
206 227 255
206 227 255
206 227 255
207 227 255
207 227 255
207 227 255
207 227 255
207 228 255
207 228 255
207 228 255
207 228 255
207 228 255
207 228 255
207 228 255
207 228 255
207 228 255
207 228 255
207 228 255
207 228 255
207 228 255
207 228 255
208 228 255
208 228 255
208 228 255
202 217 238
185 189 189
164 150 109
153 131 51
151 131 51
149 130 51
148 129 51
147 129 51
146 129 51
145 128 51
145 128 51
145 128 51
145 128 51
145 128 51
145 128 51
145 128 51
145 128 51
145 128 51
145 128 51
145 128 51
145 128 51
145 128 51
146 128 51
146 129 51
146 129 51
146 129 51
146 129 51
147 129 51
147 129 51
147 129 51
147 129 51
147 129 51
147 129 51
147 129 51
148 129 51
148 129 51
148 129 51
148 129 51
148 129 51
148 130 51
148 130 51
148 130 51
149 130 51
149 130 51
149 130 51
149 130 51
149 130 51
149 130 51
149 130 51
149 130 51
149 130 51
149 130 51
149 130 51
149 130 51
150 130 51
150 130 51
150 130 51
150 130 51
150 130 51
150 130 51
150 130 51
150 130 51
151 130 51
151 130 51
151 131 51
151 131 51
151 131 51
152 131 51
152 131 51
152 131 51
152 131 51
153 131 51
153 131 51
154 132 51
154 132 51
155 132 51
155 132 51
156 133 51
157 133 51
158 133 51
159 134 51
160 134 51
163 137 62
176 163 133
190 190 186
206 219 238
212 230 255
212 230 255
212 230 255
212 230 255
212 230 255
212 230 255
212 230 255
212 230 255
212 230 255
212 230 255
212 230 255
202 220 244
185 203 227
171 189 212
162 180 204
160 179 204
159 179 204
158 178 204
157 177 204
156 177 204
156 177 204
155 176 204
155 176 204
154 176 204
154 176 204
153 175 204
153 175 204
153 175 204
152 175 204
152 175 204
152 175 204
152 175 204
151 175 204
151 174 204
151 174 204
151 174 204
151 174 204
151 174 204
151 174 204
151 174 204
151 174 204
151 174 204
150 174 204
150 174 204
150 174 204
150 174 204
150 174 204
150 174 204
150 174 204
150 174 204
150 174 204
150 174 204
150 174 204
150 174 204
150 174 204
150 174 204
150 174 204
150 174 204
150 174 204
150 174 204
150 174 204
150 174 204
149 174 204
149 173 204
149 173 204
149 173 204
149 173 204
149 173 204
149 173 204
148 173 204
148 173 204
148 173 204
148 173 204
148 173 204
148 172 204
147 172 204
147 172 204
147 172 204
147 172 204
146 172 204
146 172 204
146 172 204
146 172 204
145 171 204
145 171 204
145 171 204
145 171 204
145 171 204
145 171 204
144 171 204
144 171 204
144 171 204
145 171 204
145 171 204
145 171 204
146 172 204
147 172 204
148 173 204
149 173 204
151 175 204
160 181 209
177 197 225
197 217 244
208 228 255
208 228 255
208 228 255
208 228 255
207 228 255
207 228 255
207 228 255
207 228 255
207 228 255
207 228 255
207 228 255
207 228 255
207 228 255
207 228 255
207 228 255
207 228 255
207 228 255
207 228 255
207 227 255
207 227 255
207 227 255
207 227 255
206 227 255
206 227 255
206 227 255
206 227 255
206 227 255
206 227 255
206 227 255
206 227 255
206 227 255
206 227 255
206 227 255
206 227 255
206 227 255
206 227 255
206 227 255
206 227 255
206 227 255
206 227 255
206 227 255
205 227 255
205 227 255
205 227 255
205 227 255
205 227 255
205 227 255
205 227 255
205 227 255
205 227 255
205 227 255
205 227 255
205 227 255
205 226 255
205 226 255
205 226 255
205 226 255
205 226 255
205 226 255
205 226 255
205 226 255
205 226 255
204 226 255
204 226 255
204 226 255
204 226 255
204 226 255
204 226 255
204 226 255
204 226 255
204 226 255
204 226 255
204 226 255
204 226 255
169 192 230
101 129 188
62 99 170
63 99 172
62 99 175
61 98 168
63 99 172
62 99 173
62 99 168
61 98 167
62 98 170
63 99 170
62 99 173
62 99 172
63 100 175
63 99 171
62 99 172
63 99 177
62 99 172
61 98 164
62 99 171
62 98 166
62 98 168
62 98 165
63 99 168
62 99 171
62 99 170
62 98 165
62 98 165
62 99 171
63 99 166
63 99 174
62 98 167
62 98 167
63 99 171
63 99 170
61 98 171
61 98 167
62 98 171
62 98 171
61 98 164
62 99 168
62 99 172
62 98 170
62 98 169
61 97 160
62 99 168
62 98 164
63 99 175
62 99 168
62 98 170
62 98 164
62 98 171
61 97 164
62 99 172
62 99 169
62 98 174
61 97 165
98 126 188
167 190 228
204 226 255
204 226 255
204 226 255
204 226 255
204 226 255
204 226 255
204 226 255
204 226 255
204 226 255
204 226 255
204 226 255
204 226 255
205 226 255
205 226 255
205 226 255
205 226 255
205 226 255
205 226 255
205 226 255
205 226 255
205 226 255
205 227 255
205 227 255
205 227 255
205 227 255
205 227 255
205 227 255
205 227 255
205 227 255
205 227 255
205 227 255
205 227 255
205 227 255
206 227 255
206 227 255
206 227 255
206 227 255
206 227 255
206 227 255
206 227 255
206 227 255
206 227 255
206 227 255
206 227 255
206 227 255
206 227 255
206 227 255
206 227 255
206 227 255
206 227 255
206 227 255
206 227 255
207 227 255
207 227 255
207 227 255
207 227 255
207 228 255
207 228 255
207 228 255
207 228 255
207 228 255
207 228 255
207 228 255
207 228 255
207 228 255
207 228 255
207 228 255
207 228 255
207 228 255
207 228 255
208 228 255
208 228 255
208 228 255
208 228 255
197 209 223
185 189 189
160 143 91
152 131 51
149 130 51
148 129 51
147 129 51
146 129 51
145 128 51
145 128 51
145 128 51
144 128 51
144 128 51
144 128 51
145 128 51
145 128 51
145 128 51
145 128 51
145 128 51
145 128 51
146 129 51
146 129 51
146 129 51
146 129 51
147 129 51
147 129 51
147 129 51
147 129 51
147 129 51
148 129 51
148 129 51
148 129 51
148 130 51
148 130 51
149 130 51
149 130 51
149 130 51
149 130 51
149 130 51
149 130 51
149 130 51
149 130 51
150 130 51
150 130 51
150 130 51
150 130 51
150 130 51
150 130 51
150 130 51
150 130 51
150 130 51
150 130 51
150 130 51
150 130 51
150 130 51
150 130 51
150 130 51
150 130 51
150 130 51
150 130 51
150 130 51
151 130 51
151 130 51
151 130 51
151 130 51
151 131 51
151 131 51
151 131 51
151 131 51
151 131 51
151 131 51
152 131 51
152 131 51
152 131 51
152 131 51
153 131 51
153 131 51
153 131 51
154 132 51
154 132 51
155 132 51
155 132 51
156 132 51
156 133 51
157 133 51
158 133 51
159 134 51
160 134 51
162 135 51
170 150 100
182 174 154
203 215 230
212 230 255
212 230 255
212 230 255
212 230 255
212 230 255
205 223 248
188 205 229
170 187 211
162 180 204
161 179 204
159 179 204
158 178 204
157 178 204
157 177 204
156 177 204
155 177 204
155 176 204
155 176 204
154 176 204
154 176 204
153 176 204
153 175 204
153 175 204
153 175 204
152 175 204
152 175 204
152 175 204
152 175 204
152 175 204
152 175 204
152 175 204
152 175 204
152 175 204
151 175 204
152 175 204
152 175 204
151 175 204
151 175 204
151 175 204
151 175 204
151 175 204
151 175 204
151 175 204
151 175 204
151 174 204
151 175 204
151 175 204
152 175 204
151 175 204
151 175 204
151 174 204
151 175 204
151 175 204
151 175 204
151 174 204
151 174 204
151 174 204
151 174 204
151 174 204
151 174 204
151 174 204
151 174 204
151 174 204
151 174 204
151 174 204
151 174 204
150 174 204
150 174 204
150 174 204
150 174 204
150 174 204
149 173 204
149 173 204
149 173 204
149 173 204
148 173 204
148 173 204
148 173 204
147 172 204
147 172 204
147 172 204
147 172 204
146 172 204
146 172 204
146 172 204
145 171 204
145 171 204
145 171 204
145 171 204
144 171 204
144 171 204
144 171 204
144 171 204
145 171 204
145 171 204
146 171 204
146 172 204
147 172 204
149 173 204
152 175 204
163 184 212
185 205 232
198 218 245
208 228 255
208 228 255
208 228 255
208 228 255
208 228 255
207 228 255
207 228 255
207 228 255
207 228 255
207 228 255
207 228 255
207 228 255
207 228 255
207 228 255
207 228 255
207 228 255
207 228 255
207 228 255
207 228 255
207 227 255
207 227 255
207 227 255
207 227 255
206 227 255
206 227 255
206 227 255
206 227 255
206 227 255
206 227 255
206 227 255
206 227 255
206 227 255
206 227 255
206 227 255
206 227 255
206 227 255
206 227 255
206 227 255
206 227 255
206 227 255
206 227 255
206 227 255
206 227 255
205 227 255
205 227 255
205 227 255
205 227 255
205 227 255
205 227 255
205 227 255
205 227 255
205 227 255
205 227 255
205 227 255
205 227 255
205 226 255
205 226 255
205 226 255
205 226 255
205 226 255
205 226 255
205 226 255
205 226 255
205 226 255
205 226 255
204 226 255
204 226 255
204 226 255
204 226 255
175 198 235
105 133 191
60 96 168
63 100 175
62 98 169
62 98 171
62 99 173
62 98 168
62 98 170
62 99 172
62 99 171
62 98 170
61 97 158
62 98 166
62 98 167
62 98 171
62 98 168
61 98 168
62 98 168
62 99 170
62 99 173
62 98 166
62 98 170
62 98 171
63 99 174
63 99 171
62 98 168
62 99 169
62 98 172
63 99 167
62 99 167
61 98 165
62 99 172
62 98 163
62 98 167
61 98 168
62 99 170
62 98 167
62 98 165
62 98 166
62 98 166
63 99 172
62 99 170
61 98 167
63 99 170
62 99 167
63 99 168
63 99 169
62 98 171
62 99 168
61 97 168
62 99 170
62 98 165
62 99 171
61 98 169
61 98 167
61 97 166
62 99 171
63 99 175
62 99 176
62 98 171
61 98 170
89 119 181
178 200 237
204 226 255
204 226 255
204 226 255
204 226 255
205 226 255
205 226 255
205 226 255
205 226 255
205 226 255
205 226 255
205 226 255
205 226 255
205 226 255
205 226 255
205 227 255
205 227 255
205 227 255
205 227 255
205 227 255
205 227 255
205 227 255
205 227 255
205 227 255
205 227 255
205 227 255
205 227 255
205 227 255
206 227 255
206 227 255
206 227 255
206 227 255
206 227 255
206 227 255
206 227 255
206 227 255
206 227 255
206 227 255
206 227 255
206 227 255
206 227 255
206 227 255
206 227 255
206 227 255
206 227 255
206 227 255
207 227 255
207 227 255
207 227 255
207 227 255
207 227 255
207 228 255
207 228 255
207 228 255
207 228 255
207 228 255
207 228 255
207 228 255
207 228 255
207 228 255
207 228 255
207 228 255
207 228 255
207 228 255
207 228 255
208 228 255
208 228 255
208 228 255
208 228 255
208 228 255
199 212 228
183 185 181
164 150 106
152 131 51
149 130 51
147 129 51
146 129 51
146 128 51
145 128 51
145 128 51
144 128 51
144 128 51
144 128 51
145 128 51
145 128 51
145 128 51
145 128 51
145 128 51
146 129 51
146 129 51
146 129 51
146 129 51
147 129 51
147 129 51
148 129 51
148 129 51
148 129 51
148 130 51
149 130 51
149 130 51
149 130 51
149 130 51
150 130 51
150 130 51
150 130 51
150 130 51
150 130 51
151 130 51
151 130 51
151 130 51
151 131 51
151 131 51
151 131 51
151 131 51
151 131 51
151 131 51
151 131 51
151 131 51
151 131 51
151 131 51
151 131 51
151 131 51
152 131 51
151 131 51
152 131 51
152 131 51
151 131 51
151 131 51
151 131 51
151 131 51
151 131 51
151 131 51
151 131 51
151 131 51
151 131 51
151 131 51
151 131 51
151 131 51
152 131 51
152 131 51
152 131 51
152 131 51
152 131 51
152 131 51
152 131 51
152 131 51
152 131 51
152 131 51
152 131 51
153 131 51
153 131 51
153 131 51
153 132 51
154 132 51
154 132 51
155 132 51
155 132 51
155 132 51
156 133 51
157 133 51
157 133 51
158 133 51
159 134 51
160 134 51
162 135 51
170 149 97
192 193 191
208 222 242
212 230 255
176 193 217
163 181 204
161 180 204
160 179 204
159 178 204
158 178 204
157 178 204
157 177 204
156 177 204
156 177 204
155 176 204
155 176 204
154 176 204
154 176 204
154 176 204
154 176 204
153 175 204
153 175 204
153 175 204
153 175 204
153 175 204
153 175 204
153 175 204
153 175 204
152 175 204
152 175 204
152 175 204
152 175 204
152 175 204
152 175 204
152 175 204
152 175 204
153 175 204
153 175 204
153 175 204
153 175 204
153 175 204
153 175 204
153 175 204
153 175 204
153 175 204
153 175 204
153 175 204
153 175 204
153 175 204
153 175 204
153 175 204
153 175 204
153 175 204
153 175 204
153 175 204
153 175 204
153 175 204
153 175 204
153 175 204
153 175 204
153 175 204
153 175 204
153 175 204
153 175 204
153 175 204
152 175 204
152 175 204
152 175 204
152 175 204
152 175 204
152 175 204
152 175 204
151 174 204
151 174 204
151 174 204
151 174 204
150 174 204
150 174 204
149 173 204
149 173 204
149 173 204
148 173 204
148 173 204
148 173 204
147 172 204
147 172 204
147 172 204
146 172 204
146 172 204
146 171 204
145 171 204
145 171 204
145 171 204
144 171 204
144 171 204
144 171 204
145 171 204
145 171 204
146 171 204
146 172 204
148 172 204
149 173 204
152 175 204
171 192 219
190 210 237
205 225 253
208 228 255
208 228 255
208 228 255
208 228 255
208 228 255
208 228 255
207 228 255
207 228 255
207 228 255
207 228 255
207 228 255
207 228 255
207 228 255
207 228 255
207 228 255
207 228 255
207 228 255
207 228 255
207 228 255
207 228 255
207 227 255
207 227 255
207 227 255
207 227 255
207 227 255
206 227 255
206 227 255
206 227 255
206 227 255
206 227 255
206 227 255
206 227 255
206 227 255
206 227 255
206 227 255
206 227 255
206 227 255
206 227 255
206 227 255
206 227 255
206 227 255
206 227 255
206 227 255
206 227 255
205 227 255
205 227 255
205 227 255
205 227 255
205 227 255
205 227 255
205 227 255
205 227 255
205 227 255
205 227 255
205 227 255
205 227 255
205 227 255
205 227 255
205 226 255
205 226 255
205 226 255
205 226 255
205 226 255
205 226 255
193 215 247
121 147 201
60 97 164
62 99 171
62 99 171
62 98 163
62 98 168
62 98 169
62 99 170
62 98 164
63 99 170
63 99 171
62 99 172
62 98 171
62 98 170
63 99 167
61 97 166
62 98 169
61 98 163
61 97 162
62 98 166
62 99 171
62 99 172
61 98 165
62 99 169
63 100 174
62 98 167
62 98 162
62 99 172
62 98 167
63 100 173
62 98 166
62 98 168
62 99 166
61 98 165
61 98 165
62 98 165
62 98 166
62 98 165
62 99 167
62 98 168
62 98 167
61 98 168
61 97 166
61 97 164
62 99 169
62 99 168
62 98 168
62 98 166
62 99 171
62 99 170
62 99 169
62 98 166
62 98 174
62 98 170
62 99 169
62 98 171
63 99 172
62 99 171
62 98 170
63 99 170
61 97 166
62 99 172
63 99 172
62 98 170
62 98 168
112 138 193
189 211 244
205 226 255
205 226 255
205 226 255
205 226 255
205 226 255
205 226 255
205 227 255
205 227 255
205 227 255
205 227 255
205 227 255
205 227 255
205 227 255
205 227 255
205 227 255
205 227 255
205 227 255
205 227 255
205 227 255
205 227 255
206 227 255
206 227 255
206 227 255
206 227 255
206 227 255
206 227 255
206 227 255
206 227 255
206 227 255
206 227 255
206 227 255
206 227 255
206 227 255
206 227 255
206 227 255
206 227 255
206 227 255
206 227 255
206 227 255
207 227 255
207 227 255
207 227 255
207 227 255
207 227 255
207 228 255
207 228 255
207 228 255
207 228 255
207 228 255
207 228 255
207 228 255
207 228 255
207 228 255
207 228 255
207 228 255
207 228 255
207 228 255
207 228 255
208 228 255
208 228 255
208 228 255
208 228 255
208 228 255
208 228 255
203 220 242
188 193 196
170 162 135
153 131 51
149 130 51
148 129 51
146 129 51
145 128 51
145 128 51
145 128 51
144 128 51
144 128 51
144 128 51
145 128 51
145 128 51
145 128 51
145 128 51
146 129 51
146 129 51
147 129 51
147 129 51
147 129 51
148 129 51
148 129 51
148 130 51
149 130 51
149 130 51
149 130 51
150 130 51
150 130 51
150 130 51
151 130 51
151 131 51
151 131 51
151 131 51
152 131 51
152 131 51
152 131 51
152 131 51
152 131 51
153 131 51
153 131 51
153 131 51
153 131 51
153 131 51
153 131 51
153 131 51
153 131 51
153 131 51
153 131 51
153 131 51
153 131 51
153 131 51
153 131 51
153 131 51
153 131 51
153 131 51
153 131 51
153 131 51
153 131 51
153 131 51
153 131 51
153 131 51
153 131 51
153 131 51
153 131 51
153 131 51
153 131 51
153 131 51
153 131 51
152 131 51
152 131 51
152 131 51
152 131 51
152 131 51
152 131 51
152 131 51
152 131 51
152 131 51
153 131 51
153 131 51
153 131 51
153 131 51
153 131 51
153 131 51
153 131 51
154 132 51
154 132 51
154 132 51
154 132 51
155 132 51
155 132 51
156 132 51
156 133 51
157 133 51
157 133 51
158 133 51
159 134 51
160 134 51
161 135 51
163 135 51
176 162 128
161 179 204
160 179 204
159 178 204
158 178 204
157 178 204
157 177 204
156 177 204
156 177 204
155 177 204
155 176 204
155 176 204
154 176 204
154 176 204
154 176 204
154 176 204
154 176 204
154 176 204
153 176 204
153 176 204
153 175 204
153 175 204
153 175 204
153 175 204
153 175 204
153 175 204
153 175 204
153 175 204
153 176 204
153 176 204
154 176 204
154 176 204
154 176 204
154 176 204
154 176 204
154 176 204
154 176 204
154 176 204
154 176 204
154 176 204
154 176 204
154 176 204
155 176 204
155 176 204
155 176 204
155 176 204
155 176 204
155 176 204
155 176 204
155 176 204
155 176 204
155 176 204
155 176 204
155 176 204
155 176 204
155 177 204
155 176 204
155 176 204
155 176 204
155 176 204
155 176 204
155 176 204
155 176 204
155 176 204
155 176 204
154 176 204
154 176 204
154 176 204
154 176 204
154 176 204
153 175 204
153 175 204
153 175 204
153 175 204
152 175 204
152 175 204
151 174 204
151 174 204
151 174 204
150 174 204
150 174 204
149 173 204
149 173 204
149 173 204
148 173 204
148 173 204
147 172 204
147 172 204
146 172 204
146 172 204
145 171 204
145 171 204
145 171 204
145 171 204
145 171 204
145 171 204
145 171 204
145 171 204
146 172 204
147 172 204
148 173 204
150 174 204
157 179 207
178 199 226
199 219 246
208 228 255
208 228 255
208 228 255
208 228 255
208 228 255
208 228 255
208 228 255
208 228 255
207 228 255
207 228 255
207 228 255
207 228 255
207 228 255
207 228 255
207 228 255
207 228 255
207 228 255
207 228 255
207 228 255
207 228 255
207 228 255
207 228 255
207 227 255
207 227 255
207 227 255
207 227 255
207 227 255
206 227 255
206 227 255
206 227 255
206 227 255
206 227 255
206 227 255
206 227 255
206 227 255
206 227 255
206 227 255
206 227 255
206 227 255
206 227 255
206 227 255
206 227 255
206 227 255
206 227 255
206 227 255
206 227 255
206 227 255
206 227 255
205 227 255
205 227 255
205 227 255
205 227 255
205 227 255
205 227 255
205 227 255
205 227 255
205 227 255
205 227 255
205 227 255
205 227 255
196 218 250
141 165 211
72 105 169
62 99 173
62 98 170
62 99 171
62 98 167
62 98 170
62 98 167
62 98 164
61 98 165
63 99 173
62 98 170
63 99 172
62 98 168
62 99 171
62 98 168
62 99 174
61 97 161
63 99 172
62 98 171
62 98 161
62 98 162
62 99 174
62 98 166
61 97 161
62 98 162
62 98 165
62 98 164
62 98 167
63 99 172
62 99 171
62 99 169
63 100 171
62 99 169
63 99 168
63 99 168
63 99 163
62 98 164
62 98 167
62 99 174
62 99 172
62 98 167
62 98 164
62 99 168
62 98 167
62 99 170
62 98 159
62 99 166
63 99 168
62 98 164
62 98 165
62 98 166
61 97 157
62 98 168
62 99 167
62 98 165
62 98 168
62 98 168
62 98 166
62 97 165
61 98 167
63 99 172
62 98 167
62 98 165
62 98 169
62 98 172
61 98 173
62 99 172
65 100 172
150 173 216
198 220 250
205 227 255
205 227 255
205 227 255
205 227 255
205 227 255
205 227 255
205 227 255
205 227 255
205 227 255
205 227 255
205 227 255
205 227 255
206 227 255
206 227 255
206 227 255
206 227 255
206 227 255
206 227 255
206 227 255
206 227 255
206 227 255
206 227 255
206 227 255
206 227 255
206 227 255
206 227 255
206 227 255
206 227 255
206 227 255
206 227 255
206 227 255
206 227 255
206 227 255
207 227 255
207 227 255
207 227 255
207 227 255
207 227 255
207 228 255
207 228 255
207 228 255
207 228 255
207 228 255
207 228 255
207 228 255
207 228 255
207 228 255
207 228 255
207 228 255
207 228 255
207 228 255
207 228 255
208 228 255
208 228 255
208 228 255
208 228 255
208 228 255
208 228 255
208 228 255
208 228 255
197 209 223
182 183 177
157 136 67
150 130 51
148 129 51
147 129 51
146 129 51
145 128 51
145 128 51
145 128 51
145 128 51
145 128 51
145 128 51
145 128 51
145 128 51
146 129 51
146 129 51
147 129 51
147 129 51
148 129 51
148 129 51
149 130 51
149 130 51
149 130 51
150 130 51
150 130 51
151 130 51
151 131 51
151 131 51
152 131 51
152 131 51
153 131 51
153 131 51
153 131 51
153 132 51
154 132 51
154 132 51
154 132 51
154 132 51
154 132 51
154 132 51
155 132 51
155 132 51
155 132 51
155 132 51
155 132 51
155 132 51
155 132 51
155 132 51
155 132 51
155 132 51
155 132 51
155 132 51
155 132 51
155 132 51
155 132 51
155 132 51
155 132 51
155 132 51
155 132 51
155 132 51
155 132 51
155 132 51
154 132 51
154 132 51
154 132 51
154 132 51
154 132 51
154 132 51
154 132 51
154 132 51
154 132 51
154 132 51
154 132 51
154 132 51
153 132 51
153 132 51
153 131 51
153 131 51
153 131 51
153 131 51
153 131 51
153 131 51
153 131 51
153 132 51
153 132 51
153 132 51
154 132 51
154 132 51
154 132 51
154 132 51
154 132 51
154 132 51
155 132 51
155 132 51
155 132 51
156 132 51
156 133 51
157 133 51
157 133 51
158 133 51
159 134 51
160 134 51
161 134 51
159 178 204
158 178 204
158 178 204
157 177 204
157 177 204
156 177 204
156 177 204
155 177 204
155 176 204
155 176 204
155 176 204
155 176 204
154 176 204
154 176 204
154 176 204
154 176 204
154 176 204
154 176 204
154 176 204
154 176 204
154 176 204
154 176 204
154 176 204
154 176 204
154 176 204
154 176 204
154 176 204
154 176 204
154 176 204
155 176 204
155 176 204
155 176 204
155 176 204
155 176 204
155 177 204
155 177 204
156 177 204
156 177 204
156 177 204
156 177 204
156 177 204
156 177 204
156 177 204
156 177 204
157 177 204
157 177 204
157 177 204
157 177 204
157 177 204
157 177 204
157 177 204
157 177 204
157 177 204
157 178 204
157 178 204
157 178 204
157 178 204
157 178 204
157 178 204
157 178 204
157 178 204
157 177 204
157 177 204
157 177 204
157 177 204
157 177 204
157 177 204
156 177 204
156 177 204
156 177 204
156 177 204
155 177 204
155 176 204
155 176 204
154 176 204
154 176 204
154 176 204
153 176 204
153 175 204
152 175 204
152 175 204
151 175 204
151 174 204
151 174 204
150 174 204
149 173 204
149 173 204
148 173 204
148 173 204
147 172 204
147 172 204
146 172 204
146 172 204
145 171 204
145 171 204
145 171 204
145 171 204
145 171 204
145 171 204
145 171 204
146 172 204
147 172 204
149 173 204
152 175 204
170 190 218
191 211 237
206 226 254
208 228 255
208 228 255
208 228 255
208 228 255
208 228 255
208 228 255
208 228 255
208 228 255
208 228 255
207 228 255
207 228 255
207 228 255
207 228 255
207 228 255
207 228 255
207 228 255
207 228 255
207 228 255
207 228 255
207 228 255
207 228 255
207 228 255
207 228 255
207 228 255
207 227 255
207 227 255
207 227 255
207 227 255
207 227 255
206 227 255
206 227 255
206 227 255
206 227 255
206 227 255
206 227 255
206 227 255
206 227 255
206 227 255
206 227 255
206 227 255
206 227 255
206 227 255
206 227 255
206 227 255
206 227 255
206 227 255
206 227 255
206 227 255
206 227 255
206 227 255
206 227 255
205 227 255
205 227 255
205 227 255
205 227 255
205 227 255
193 215 246
85 115 180
63 99 170
62 98 171
61 96 162
61 98 168
62 98 170
62 98 167
62 98 170
62 98 167
63 100 177
62 99 169
62 98 171
62 98 166
62 98 160
62 99 172
62 98 168
62 98 163
62 98 165
62 98 167
62 99 167
62 98 167
62 98 168
63 99 173
62 99 163
62 98 168
62 98 165
62 99 166
62 98 162
61 98 163
62 98 167
62 98 160
62 98 164
63 99 169
62 98 165
62 98 163
63 99 170
62 98 169
62 99 173
64 100 171
62 98 158
61 97 159
62 98 168
62 98 165
62 98 162
63 99 167
61 97 160
63 99 167
62 98 167
62 99 167
62 98 170
62 98 166
63 99 170
62 99 170
61 97 163
62 98 169
61 97 163
62 97 164
63 99 171
62 98 164
62 99 173
62 99 170
62 98 168
62 97 162
61 96 165
62 98 166
61 97 166
62 98 169
62 99 175
62 98 171
61 97 167
62 98 171
96 124 187
182 204 240
205 227 255
205 227 255
205 227 255
205 227 255
205 227 255
206 227 255
206 227 255
206 227 255
206 227 255
206 227 255
206 227 255
206 227 255
206 227 255
206 227 255
206 227 255
206 227 255
206 227 255
206 227 255
206 227 255
206 227 255
206 227 255
206 227 255
206 227 255
206 227 255
206 227 255
206 227 255
206 227 255
207 227 255
207 227 255
207 227 255
207 227 255
207 227 255
207 228 255
207 228 255
207 228 255
207 228 255
207 228 255
207 228 255
207 228 255
207 228 255
207 228 255
207 228 255
207 228 255
207 228 255
207 228 255
207 228 255
207 228 255
208 228 255
208 228 255
208 228 255
208 228 255
208 228 255
208 228 255
208 228 255
208 228 255
208 228 255
208 227 254
196 207 220
169 160 130
152 131 51
149 130 51
147 129 51
146 129 51
145 128 51
145 128 51
145 128 51
145 128 51
145 128 51
145 128 51
145 128 51
146 129 51
146 129 51
147 129 51
147 129 51
148 129 51
148 130 51
149 130 51
149 130 51
150 130 51
150 130 51
151 131 51
151 131 51
152 131 51
152 131 51
153 131 51
153 132 51
154 132 51
154 132 51
154 132 51
155 132 51
155 132 51
155 132 51
156 132 51
156 132 51
156 133 51
156 133 51
156 133 51
157 133 51
157 133 51
157 133 51
157 133 51
157 133 51
157 133 51
157 133 51
157 133 51
157 133 51
157 133 51
157 133 51
157 133 51
157 133 51
157 133 51
157 133 51
157 133 51
157 133 51
157 133 51
157 133 51
157 133 51
157 133 51
157 133 51
156 133 51
156 133 51
156 133 51
156 133 51
156 133 51
156 132 51
156 132 51
156 132 51
155 132 51
155 132 51
155 132 51
155 132 51
155 132 51
155 132 51
155 132 51
155 132 51
154 132 51
154 132 51
154 132 51
154 132 51
154 132 51
154 132 51
154 132 51
154 132 51
154 132 51
154 132 51
154 132 51
154 132 51
154 132 51
154 132 51
154 132 51
154 132 51
155 132 51
155 132 51
155 132 51
155 132 51
155 132 51
156 132 51
156 133 51
156 133 51
157 133 51
158 133 51
158 133 51
159 134 51
158 178 204
157 178 204
157 177 204
156 177 204
156 177 204
156 177 204
156 177 204
155 177 204
155 176 204
155 176 204
155 176 204
155 176 204
155 176 204
155 176 204
155 176 204
155 176 204
155 176 204
155 176 204
155 176 204
155 176 204
155 176 204
155 176 204
155 176 204
155 177 204
155 177 204
155 177 204
156 177 204
156 177 204
156 177 204
156 177 204
156 177 204
156 177 204
156 177 204
157 177 204
157 177 204
157 177 204
157 177 204
157 178 204
158 178 204
158 178 204
158 178 204
158 178 204
158 178 204
158 178 204
159 178 204
159 178 204
159 178 204
159 178 204
159 179 204
159 179 204
159 179 204
159 179 204
159 179 204
159 179 204
159 179 204
160 179 204
159 179 204
159 179 204
160 179 204
159 179 204
160 179 204
160 179 204
159 179 204
159 179 204
159 179 204
159 179 204
159 178 204
159 178 204
159 178 204
158 178 204
158 178 204
158 178 204
158 178 204
157 178 204
157 177 204
157 177 204
156 177 204
156 177 204
155 177 204
155 176 204
155 176 204
154 176 204
153 176 204
153 175 204
153 175 204
152 175 204
151 174 204
151 174 204
150 174 204
149 173 204
149 173 204
148 173 204
148 173 204
147 172 204
147 172 204
146 172 204
146 172 204
145 171 204
145 171 204
145 171 204
145 171 204
145 171 204
146 172 204
147 172 204
149 173 204
151 174 204
160 181 209
189 209 235
206 226 253
208 228 255
208 228 255
208 228 255
208 228 255
208 228 255
208 228 255
208 228 255
208 228 255
208 228 255
208 228 255
208 228 255
208 228 255
207 228 255
207 228 255
207 228 255
207 228 255
207 228 255
207 228 255
207 228 255
207 228 255
207 228 255
207 228 255
207 228 255
207 228 255
207 228 255
207 228 255
207 228 255
207 227 255
207 227 255
207 227 255
207 227 255
206 227 255
206 227 255
206 227 255
206 227 255
206 227 255
206 227 255
206 227 255
206 227 255
206 227 255
206 227 255
206 227 255
206 227 255
206 227 255
206 227 255
206 227 255
206 227 255
206 227 255
206 227 255
206 227 255
206 227 255
206 227 255
205 226 255
157 179 220
62 98 171
61 98 168
62 99 171
61 96 159
62 98 165
62 98 171
61 97 164
61 97 163
62 98 168
62 98 168
62 97 162
62 98 162
62 98 166
63 99 171
62 98 165
61 97 155
63 99 168
62 98 170
61 97 157
62 98 166
62 98 167
63 99 170
61 98 165
62 98 169
62 99 169
62 98 160
61 97 158
62 98 166
63 99 170
62 98 167
62 99 167
63 99 169
63 99 170
62 98 161
62 98 164
63 99 168
62 98 162
62 98 166
62 98 159
62 99 167
62 98 163
61 97 155
62 98 167
62 98 166
62 98 159
62 98 166
62 99 167
62 98 165
62 97 158
62 99 166
61 97 155
63 99 170
61 97 160
62 98 161
62 98 165
62 98 164
62 99 169
62 97 161
63 99 169
62 98 166
62 98 165
62 98 163
62 98 167
62 98 168
62 98 170
61 97 161
62 98 166
62 98 168
62 98 168
62 98 170
63 99 172
63 99 172
62 98 169
67 102 169
154 177 217
202 223 252
206 227 255
206 227 255
206 227 255
206 227 255
206 227 255
206 227 255
206 227 255
206 227 255
206 227 255
206 227 255
206 227 255
206 227 255
206 227 255
206 227 255
206 227 255
206 227 255
206 227 255
206 227 255
206 227 255
206 227 255
207 227 255
207 227 255
207 227 255
207 227 255
207 227 255
207 228 255
207 228 255
207 228 255
207 228 255
207 228 255
207 228 255
207 228 255
207 228 255
207 228 255
207 228 255
207 228 255
207 228 255
207 228 255
207 228 255
207 228 255
208 228 255
208 228 255
208 228 255
208 228 255
208 228 255
208 228 255
208 228 255
208 228 255
208 228 255
208 228 255
208 228 255
208 228 255
206 225 249
189 194 197
164 151 112
151 131 51
149 130 51
147 129 51
146 129 51
145 128 51
145 128 51
145 128 51
145 128 51
145 128 51
146 129 51
146 129 51
147 129 51
147 129 51
148 129 51
148 129 51
149 130 51
149 130 51
150 130 51
151 130 51
151 131 51
152 131 51
152 131 51
153 131 51
153 132 51
154 132 51
155 132 51
155 132 51
156 132 51
156 133 51
156 133 51
157 133 51
157 133 51
157 133 51
158 133 51
158 133 51
158 133 51
158 133 51
159 134 51
159 134 51
159 134 51
159 134 51
159 134 51
159 134 51
159 134 51
159 134 51
160 134 51
159 134 51
159 134 51
159 134 51
160 134 51
159 134 51
159 134 51
159 134 51
159 134 51
159 134 51
159 134 51
159 134 51
159 134 51
159 134 51
159 134 51
159 134 51
158 134 51
158 133 51
158 133 51
158 133 51
158 133 51
158 133 51
157 133 51
157 133 51
157 133 51
157 133 51
157 133 51
157 133 51
156 133 51
156 133 51
156 133 51
156 133 51
156 133 51
156 132 51
156 132 51
155 132 51
155 132 51
155 132 51
155 132 51
155 132 51
155 132 51
155 132 51
155 132 51
155 132 51
155 132 51
155 132 51
155 132 51
155 132 51
155 132 51
155 132 51
155 132 51
155 132 51
155 132 51
155 132 51
156 132 51
156 132 51
156 133 51
156 133 51
157 133 51
157 133 51
158 133 51
157 178 204
157 177 204
157 177 204
156 177 204
156 177 204
156 177 204
156 177 204
156 177 204
156 177 204
155 177 204
155 177 204
155 177 204
155 177 204
155 177 204
155 177 204
155 177 204
156 177 204
156 177 204
156 177 204
156 177 204
156 177 204
156 177 204
156 177 204
156 177 204
156 177 204
157 177 204
157 177 204
157 177 204
157 178 204
157 178 204
158 178 204
158 178 204
158 178 204
158 178 204
158 178 204
159 178 204
159 178 204
159 178 204
159 179 204
159 179 204
160 179 204
160 179 204
160 179 204
160 179 204
160 179 204
160 179 204
161 179 204
161 179 204
161 180 204
161 180 204
161 180 204
161 180 204
161 180 204
162 180 204
162 180 204
162 180 204
162 180 204
162 180 204
162 180 204
162 180 204
162 180 204
162 180 204
162 180 204
162 180 204
162 180 204
162 180 204
161 180 204
161 180 204
161 180 204
161 180 204
161 180 204
160 179 204
160 179 204
160 179 204
160 179 204
159 179 204
159 179 204
159 178 204
158 178 204
158 178 204
157 178 204
157 177 204
156 177 204
156 177 204
155 176 204
155 176 204
154 176 204
153 175 204
153 175 204
152 175 204
151 174 204
151 174 204
150 174 204
149 173 204
149 173 204
148 173 204
147 172 204
147 172 204
146 172 204
146 172 204
145 171 204
145 171 204
145 171 204
145 171 204
146 172 204
147 172 204
148 173 204
151 174 204
158 180 208
187 207 233
205 225 252
208 228 255
208 228 255
208 228 255
208 228 255
208 228 255
208 228 255
208 228 255
208 228 255
208 228 255
208 228 255
208 228 255
208 228 255
208 228 255
208 228 255
207 228 255
207 228 255
207 228 255
207 228 255
207 228 255
207 228 255
207 228 255
207 228 255
207 228 255
207 228 255
207 228 255
207 228 255
207 228 255
207 228 255
207 228 255
207 228 255
207 227 255
207 227 255
207 227 255
207 227 255
207 227 255
206 227 255
206 227 255
206 227 255
206 227 255
206 227 255
206 227 255
206 227 255
206 227 255
206 227 255
206 227 255
206 227 255
206 227 255
206 227 255
206 227 255
194 216 248
112 138 192
61 97 170
61 97 167
60 96 166
61 98 168
62 98 169
62 98 168
63 99 168
61 98 164
61 98 166
62 99 163
62 99 167
63 99 169
62 98 161
62 98 167
63 99 169
62 98 165
61 97 161
61 97 168
62 98 161
62 99 165
62 98 161
62 98 166
62 98 162
62 98 159
62 98 164
62 98 159
63 99 168
62 98 165
62 98 162
63 99 169
62 99 166
62 98 165
62 99 166
62 98 163
63 99 168
63 99 170
61 97 160
63 100 175
63 99 166
62 99 166
62 98 167
62 98 166
62 98 162
62 98 167
62 98 161
62 98 164
62 98 163
62 98 162
62 99 166
62 98 164
62 98 167
62 98 163
61 97 162
63 99 168
62 98 166
62 98 162
62 98 164
62 98 168
61 97 162
62 98 165
62 97 164
61 96 155
63 99 164
63 98 166
62 98 160
62 98 166
62 98 167
62 98 162
61 97 163
61 95 163
61 97 163
62 98 167
62 98 167
62 97 164
61 98 171
61 97 166
110 135 187
200 221 251
206 227 255
206 227 255
206 227 255
206 227 255
206 227 255
206 227 255
206 227 255
206 227 255
206 227 255
206 227 255
206 227 255
206 227 255
206 227 255
206 227 255
207 227 255
207 227 255
207 227 255
207 227 255
207 227 255
207 228 255
207 228 255
207 228 255
207 228 255
207 228 255
207 228 255
207 228 255
207 228 255
207 228 255
207 228 255
207 228 255
207 228 255
207 228 255
207 228 255
207 228 255
207 228 255
208 228 255
208 228 255
208 228 255
208 228 255
208 228 255
208 228 255
208 228 255
208 228 255
208 228 255
208 228 255
208 228 255
208 228 255
208 228 255
208 228 255
206 224 248
190 196 200
159 141 83
151 130 51
148 129 51
147 129 51
146 129 51
145 128 51
145 128 51
145 128 51
145 128 51
146 129 51
146 129 51
147 129 51
147 129 51
148 129 51
149 130 51
149 130 51
150 130 51
151 130 51
151 131 51
152 131 51
153 131 51
153 132 51
154 132 51
155 132 51
155 132 51
156 132 51
156 133 51
157 133 51
157 133 51
158 133 51
158 133 51
159 134 51
159 134 51
159 134 51
160 134 51
160 134 51
160 134 51
160 134 51
161 134 51
161 135 51
161 135 51
161 135 51
162 135 51
162 135 51
162 135 51
162 135 51
162 135 51
162 135 51
162 135 51
162 135 51
162 135 51
162 135 51
162 135 51
162 135 51
162 135 51
162 135 51
161 135 51
161 135 51
161 135 51
161 135 51
161 135 51
161 134 51
161 134 51
160 134 51
160 134 51
160 134 51
160 134 51
160 134 51
160 134 51
159 134 51
159 134 51
159 134 51
159 134 51
159 134 51
158 133 51
158 133 51
158 133 51
158 133 51
158 133 51
157 133 51
157 133 51
157 133 51
157 133 51
157 133 51
157 133 51
156 133 51
156 133 51
156 133 51
156 133 51
156 132 51
156 132 51
156 132 51
156 132 51
155 132 51
155 132 51
155 132 51
155 132 51
155 132 51
155 132 51
155 132 51
156 132 51
156 132 51
156 132 51
156 133 51
156 133 51
156 133 51
157 133 51
157 133 51
157 133 51
157 177 204
157 177 204
157 177 204
156 177 204
156 177 204
156 177 204
156 177 204
156 177 204
156 177 204
156 177 204
156 177 204
156 177 204
156 177 204
156 177 204
156 177 204
156 177 204
156 177 204
157 177 204
157 177 204
157 177 204
157 177 204
157 178 204
157 178 204
158 178 204
158 178 204
158 178 204
158 178 204
158 178 204
159 178 204
159 178 204
159 179 204
159 179 204
160 179 204
160 179 204
160 179 204
160 179 204
160 179 204
161 179 204
161 180 204
161 180 204
161 180 204
162 180 204
162 180 204
162 180 204
162 180 204
162 180 204
163 180 204
163 181 204
163 181 204
163 181 204
163 181 204
163 181 204
164 181 204
164 181 204
164 181 204
164 181 204
164 181 204
164 181 204
164 181 204
164 181 204
164 181 204
164 181 204
164 181 204
164 181 204
164 181 204
164 181 204
164 181 204
164 181 204
164 181 204
164 181 204
164 181 204
163 181 204
163 181 204
163 181 204
163 180 204
162 180 204
162 180 204
162 180 204
161 180 204
161 179 204
160 179 204
160 179 204
159 179 204
159 178 204
158 178 204
158 178 204
157 177 204
156 177 204
156 177 204
155 176 204
154 176 204
154 176 204
153 175 204
152 175 204
151 174 204
150 174 204
150 174 204
149 173 204
148 173 204
147 172 204
147 172 204
146 172 204
146 172 204
145 171 204
145 171 204
145 171 204
146 172 204
147 172 204
148 173 204
150 174 204
158 180 208
186 206 232
208 228 255
208 228 255
208 228 255
208 228 255
208 228 255
208 228 255
208 228 255
208 228 255
208 228 255
208 228 255
208 228 255
208 228 255
208 228 255
208 228 255
208 228 255
208 228 255
208 228 255
208 228 255
207 228 255
207 228 255
207 228 255
207 228 255
207 228 255
207 228 255
207 228 255
207 228 255
207 228 255
207 228 255
207 228 255
207 228 255
207 228 255
207 228 255
207 228 255
207 228 255
207 227 255
207 227 255
207 227 255
207 227 255
207 227 255
207 227 255
206 227 255
206 227 255
206 227 255
206 227 255
206 227 255
206 227 255
206 227 255
180 202 236
73 106 175
61 97 166
62 98 167
61 97 169
61 98 165
62 98 164
61 97 166
62 98 169
62 98 166
60 96 158
61 98 168
62 98 163
62 98 167
63 99 162
62 98 164
62 98 167
61 97 164
62 99 168
62 98 161
62 98 161
62 98 164
62 99 173
62 98 162
63 99 166
62 98 169
62 98 160
62 98 166
61 97 163
63 99 167
62 98 166
61 97 155
62 98 158
62 98 160
61 97 162
62 98 160
62 98 159
62 98 163
62 98 161
62 99 168
62 98 164
61 98 165
63 99 164
63 99 169
62 99 167
62 99 170
62 98 163
62 98 158
62 98 163
62 97 160
62 98 168
62 98 165
61 98 164
61 97 157
62 98 156
62 98 162
62 98 162
61 98 163
63 99 168
62 99 169
62 98 162
62 98 167
61 97 161
61 97 159
62 98 165
62 98 169
62 97 161
62 98 165
62 98 171
62 98 162
62 98 167
62 99 168
62 98 159
62 98 170
61 97 165
62 99 171
62 98 169
61 96 163
61 97 163
61 97 164
79 109 167
164 186 223
206 227 255
206 227 255
206 227 255
206 227 255
206 227 255
206 227 255
206 227 255
207 227 255
207 227 255
207 227 255
207 227 255
207 227 255
207 227 255
207 228 255
207 228 255
207 228 255
207 228 255
207 228 255
207 228 255
207 228 255
207 228 255
207 228 255
207 228 255
207 228 255
207 228 255
207 228 255
207 228 255
207 228 255
207 228 255
208 228 255
208 228 255
208 228 255
208 228 255
208 228 255
208 228 255
208 228 255
208 228 255
208 228 255
208 228 255
208 228 255
208 228 255
208 228 255
208 228 255
208 228 255
208 228 255
208 228 255
206 225 249
186 189 187
157 137 71
151 130 51
148 129 51
147 129 51
146 129 51
145 128 51
145 128 51
146 128 51
146 129 51
146 129 51
147 129 51
147 129 51
148 129 51
149 130 51
150 130 51
150 130 51
151 131 51
152 131 51
153 131 51
153 132 51
154 132 51
155 132 51
156 132 51
156 133 51
157 133 51
157 133 51
158 133 51
159 134 51
159 134 51
160 134 51
160 134 51
161 134 51
161 135 51
161 135 51
162 135 51
162 135 51
163 135 51
163 135 51
163 135 51
163 135 51
164 136 51
164 136 51
164 136 51
164 136 51
164 136 51
164 136 51
164 136 51
164 136 51
164 136 51
164 136 51
164 136 51
164 136 51
164 136 51
164 136 51
164 136 51
164 136 51
164 136 51
164 136 51
163 136 51
163 136 51
163 135 51
163 135 51
163 135 51
163 135 51
163 135 51
163 135 51
162 135 51
162 135 51
162 135 51
162 135 51
161 135 51
161 135 51
161 135 51
161 134 51
160 134 51
160 134 51
160 134 51
160 134 51
160 134 51
159 134 51
159 134 51
159 134 51
159 134 51
158 133 51
158 133 51
158 133 51
158 133 51
158 133 51
157 133 51
157 133 51
157 133 51
157 133 51
157 133 51
157 133 51
156 133 51
156 133 51
156 133 51
156 133 51
156 133 51
156 133 51
156 133 51
156 133 51
156 133 51
156 133 51
156 133 51
156 133 51
156 133 51
156 133 51
157 133 51
157 133 51
157 133 51
157 178 204
157 177 204
157 177 204
157 177 204
157 177 204
157 177 204
157 177 204
157 177 204
157 177 204
157 177 204
157 177 204
157 177 204
157 177 204
157 177 204
157 178 204
157 178 204
157 178 204
158 178 204
158 178 204
158 178 204
158 178 204
158 178 204
159 178 204
159 178 204
159 179 204
159 179 204
160 179 204
160 179 204
160 179 204
160 179 204
160 179 204
161 179 204
161 180 204
161 180 204
162 180 204
162 180 204
162 180 204
162 180 204
163 180 204
163 181 204
163 181 204
163 181 204
164 181 204
164 181 204
164 181 204
164 181 204
165 181 204
165 182 204
165 182 204
165 182 204
165 182 204
166 182 204
166 182 204
166 182 204
166 182 204
166 182 204
166 182 204
166 182 204
167 183 204
167 183 204
167 183 204
167 183 204
167 183 204
167 183 204
167 183 204
167 183 204
166 183 204
166 183 204
166 183 204
166 182 204
166 182 204
166 182 204
166 182 204
165 182 204
165 182 204
165 182 204
165 182 204
164 181 204
164 181 204
164 181 204
163 181 204
163 180 204
162 180 204
162 180 204
161 180 204
161 179 204
160 179 204
159 179 204
159 178 204
158 178 204
157 177 204
156 177 204
156 177 204
155 176 204
154 176 204
153 175 204
152 175 204
152 175 204
150 174 204
150 174 204
149 173 204
148 173 204
147 172 204
147 172 204
146 172 204
146 172 204
146 172 204
146 172 204
146 172 204
147 172 204
148 173 204
151 174 204
161 182 209
189 209 236
208 228 255
208 228 255
208 228 255
208 228 255
208 228 255
208 228 255
208 228 255
208 228 255
208 228 255
208 228 255
208 228 255
208 228 255
208 228 255
208 228 255
208 228 255
208 228 255
208 228 255
208 228 255
208 228 255
208 228 255
208 228 255
207 228 255
207 228 255
207 228 255
207 228 255
207 228 255
207 228 255
207 228 255
207 228 255
207 228 255
207 228 255
207 228 255
207 228 255
207 228 255
207 228 255
207 228 255
207 228 255
207 228 255
207 227 255
207 227 255
207 227 255
207 227 255
207 227 255
207 227 255
165 187 226
72 104 169
61 97 168
61 97 164
62 98 169
61 97 164
62 98 165
61 96 162
61 97 161
62 98 169
62 98 163
62 98 165
61 96 161
62 98 163
61 97 165
62 98 170
61 97 162
62 98 160
62 98 163
62 99 166
61 97 156
61 97 161
62 98 162
61 97 159
62 98 167
62 98 161
61 97 159
62 98 163
62 98 161
62 98 166
62 99 165
62 97 160
62 99 166
62 99 168
61 98 162
62 98 167
62 98 157
62 98 162
62 98 162
62 98 161
61 96 150
62 98 162
62 98 165
63 99 168
62 98 165
62 98 162
62 98 164
63 99 165
62 98 161
62 98 163
62 98 164
62 98 162
61 97 156
62 97 159
62 98 158
62 98 162
62 98 164
61 97 159
62 98 164
62 98 170
62 99 167
61 97 161
61 97 164
62 99 170
62 98 161
62 98 165
63 99 165
63 99 166
62 98 164
62 98 163
61 97 166
61 97 163
61 98 164
62 98 165
62 97 162
61 97 166
62 98 164
61 97 159
61 98 163
62 98 167
61 96 159
62 98 165
65 100 172
151 173 215
207 227 255
207 227 255
207 227 255
207 227 255
207 227 255
207 227 255
207 228 255
207 228 255
207 228 255
207 228 255
207 228 255
207 228 255
207 228 255
207 228 255
207 228 255
207 228 255
207 228 255
207 228 255
207 228 255
207 228 255
207 228 255
207 228 255
207 228 255
208 228 255
208 228 255
208 228 255
208 228 255
208 228 255
208 228 255
208 228 255
208 228 255
208 228 255
208 228 255
208 228 255
208 228 255
208 228 255
208 228 255
208 228 255
208 228 255
208 228 255
208 228 255
208 228 255
208 228 255
208 228 254
191 198 204
161 145 94
151 130 51
149 130 51
147 129 51
146 129 51
146 129 51
146 129 51
146 129 51
146 129 51
147 129 51
147 129 51
148 130 51
149 130 51
150 130 51
151 130 51
151 131 51
152 131 51
153 131 51
154 132 51
155 132 51
155 132 51
156 133 51
157 133 51
158 133 51
158 134 51
159 134 51
160 134 51
161 134 51
161 135 51
162 135 51
162 135 51
163 135 51
163 135 51
163 136 51
164 136 51
165 136 51
165 136 51
165 136 51
165 136 51
166 136 51
166 136 51
166 137 51
166 137 51
166 137 51
166 137 51
167 137 51
167 137 51
167 137 51
167 137 51
167 137 51
167 137 51
167 137 51
167 137 51
167 137 51
166 137 51
166 137 51
166 137 51
166 137 51
166 137 51
166 137 51
166 136 51
166 136 51
165 136 51
165 136 51
165 136 51
165 136 51
165 136 51
164 136 51
164 136 51
164 136 51
164 136 51
163 136 51
163 135 51
163 135 51
163 135 51
162 135 51
162 135 51
162 135 51
162 135 51
161 135 51
161 135 51
161 134 51
161 134 51
160 134 51
160 134 51
160 134 51
159 134 51
159 134 51
159 134 51
159 134 51
159 134 51
158 134 51
158 133 51
158 133 51
158 133 51
158 133 51
157 133 51
157 133 51
157 133 51
157 133 51
157 133 51
157 133 51
157 133 51
157 133 51
157 133 51
157 133 51
157 133 51
157 133 51
157 133 51
157 133 51
157 133 51
157 133 51
157 133 51
157 178 204
157 178 204
157 178 204
157 178 204
157 178 204
157 178 204
157 178 204
157 178 204
157 178 204
157 178 204
158 178 204
158 178 204
158 178 204
158 178 204
158 178 204
158 178 204
158 178 204
159 178 204
159 178 204
159 179 204
159 179 204
160 179 204
160 179 204
160 179 204
160 179 204
161 179 204
161 180 204
161 180 204
161 180 204
162 180 204
162 180 204
162 180 204
163 180 204
163 181 204
163 181 204
163 181 204
164 181 204
164 181 204
164 181 204
165 182 204
165 182 204
165 182 204
165 182 204
166 182 204
166 182 204
166 182 204
167 183 204
167 183 204
167 183 204
167 183 204
167 183 204
168 183 204
168 183 204
168 183 204
168 183 204
168 184 204
169 184 204
169 184 204
169 184 204
169 184 204
169 184 204
169 184 204
169 184 204
169 184 204
169 184 204
169 184 204
169 184 204
169 184 204
169 184 204
169 184 204
169 184 204
169 184 204
168 184 204
168 184 204
168 183 204
168 183 204
167 183 204
167 183 204
167 183 204
166 182 204
166 182 204
165 182 204
165 182 204
165 181 204
164 181 204
164 181 204
163 181 204
162 180 204
162 180 204
161 180 204
160 179 204
159 179 204
159 178 204
157 178 204
157 177 204
156 177 204
155 177 204
154 176 204
153 175 204
152 175 204
151 174 204
151 174 204
150 174 204
149 173 204
148 173 204
147 172 204
147 172 204
146 172 204
146 172 204
146 172 204
146 172 204
147 172 204
149 173 204
152 175 204
164 185 212
193 212 238
209 229 255
209 229 255
209 228 255
208 228 255
208 228 255
208 228 255
208 228 255
208 228 255
208 228 255
208 228 255
208 228 255
208 228 255
208 228 255
208 228 255
208 228 255
208 228 255
208 228 255
208 228 255
208 228 255
208 228 255
208 228 255
208 228 255
208 228 255
208 228 255
207 228 255
207 228 255
207 228 255
207 228 255
207 228 255
207 228 255
207 228 255
207 228 255
207 228 255
207 228 255
207 228 255
207 228 255
207 228 255
207 228 255
207 228 255
207 228 255
201 222 252
133 157 203
61 97 167
61 98 170
61 98 166
61 98 169
62 98 164
62 98 168
61 98 167
61 97 160
60 96 158
61 97 161
61 97 162
62 99 169
61 97 165
62 97 163
62 97 166
61 97 160
63 99 162
61 97 158
62 99 172
61 97 157
61 97 160
61 97 156
62 98 160
62 98 161
64 100 173
61 97 153
61 97 157
61 97 162
62 98 162
62 98 159
62 98 161
63 99 169
62 97 160
62 97 161
61 98 159
62 98 160
62 98 165
62 99 170
62 98 163
62 98 163
61 98 160
61 97 162
62 98 162
61 97 157
62 98 159
62 98 163
62 98 166
62 98 158
62 98 161
61 97 154
62 98 166
61 97 157
62 97 159
62 98 162
63 99 164
62 98 166
62 98 162
63 99 165
61 97 161
62 98 165
61 97 154
62 98 162
63 99 172
62 98 161
62 98 161
62 98 164
62 98 164
63 99 167
61 97 156
62 98 167
62 98 164
62 98 165
62 98 162
61 97 158
61 97 160
62 98 162
62 99 167
61 97 164
62 98 167
62 98 169
60 95 160
61 96 164
61 96 163
61 97 162
154 176 219
205 226 254
207 228 255
207 228 255
207 228 255
207 228 255
207 228 255
207 228 255
207 228 255
207 228 255
207 228 255
207 228 255
207 228 255
207 228 255
207 228 255
207 228 255
207 228 255
207 228 255
208 228 255
208 228 255
208 228 255
208 228 255
208 228 255
208 228 255
208 228 255
208 228 255
208 228 255
208 228 255
208 228 255
208 228 255
208 228 255
208 228 255
208 228 255
208 228 255
208 228 255
208 228 255
208 228 255
208 228 255
209 228 255
209 228 255
209 229 255
209 229 255
198 209 223
167 154 118
152 131 51
149 130 51
147 129 51
146 129 51
146 129 51
146 129 51
146 129 51
147 129 51
147 129 51
148 129 51
149 130 51
150 130 51
151 130 51
151 131 51
152 131 51
153 131 51
154 132 51
155 132 51
156 133 51
157 133 51
158 133 51
159 134 51
159 134 51
160 134 51
161 134 51
162 135 51
162 135 51
163 135 51
163 136 51
164 136 51
165 136 51
165 136 51
166 136 51
166 137 51
166 137 51
167 137 51
167 137 51
168 137 51
168 137 51
168 137 51
168 137 51
168 138 51
169 138 51
169 138 51
169 138 51
169 138 51
169 138 51
169 138 51
169 138 51
169 138 51
169 138 51
169 138 51
169 138 51
169 138 51
169 138 51
169 138 51
169 138 51
169 138 51
168 138 51
168 137 51
168 137 51
168 137 51
168 137 51
167 137 51
167 137 51
167 137 51
167 137 51
167 137 51
166 137 51
166 137 51
166 136 51
165 136 51
165 136 51
165 136 51
165 136 51
164 136 51
164 136 51
164 136 51
163 136 51
163 135 51
163 135 51
163 135 51
162 135 51
162 135 51
162 135 51
162 135 51
161 135 51
161 135 51
161 134 51
160 134 51
160 134 51
160 134 51
160 134 51
159 134 51
159 134 51
159 134 51
159 134 51
158 134 51
158 133 51
158 133 51
158 133 51
158 133 51
158 133 51
158 133 51
157 133 51
157 133 51
157 133 51
157 133 51
157 133 51
157 133 51
157 133 51
157 133 51
157 133 51
157 133 51
158 178 204
158 178 204
158 178 204
158 178 204
158 178 204
158 178 204
158 178 204
158 178 204
158 178 204
158 178 204
158 178 204
159 178 204
159 178 204
159 178 204
159 179 204
159 179 204
160 179 204
160 179 204
160 179 204
160 179 204
161 179 204
161 179 204
161 180 204
161 180 204
162 180 204
162 180 204
162 180 204
163 180 204
163 181 204
163 181 204
163 181 204
164 181 204
164 181 204
164 181 204
165 182 204
165 182 204
165 182 204
166 182 204
166 182 204
166 182 204
167 183 204
167 183 204
167 183 204
168 183 204
168 183 204
168 183 204
168 184 204
169 184 204
169 184 204
169 184 204
169 184 204
170 184 204
170 184 204
170 185 204
170 185 204
170 185 204
171 185 204
171 185 204
171 185 204
171 185 204
171 185 204
171 185 204
171 185 204
171 185 204
171 185 204
171 185 204
171 185 204
172 185 204
172 185 204
171 185 204
171 185 204
171 185 204
171 185 204
171 185 204
171 185 204
171 185 204
170 185 204
170 184 204
169 184 204
169 184 204
169 184 204
168 184 204
168 183 204
168 183 204
167 183 204
166 183 204
166 182 204
165 182 204
165 182 204
164 181 204
163 181 204
162 180 204
162 180 204
161 179 204
160 179 204
159 179 204
158 178 204
157 178 204
156 177 204
155 176 204
154 176 204
153 175 204
152 175 204
151 174 204
150 174 204
149 173 204
148 173 204
148 173 204
147 172 204
147 172 204
146 172 204
146 172 204
147 172 204
148 173 204
150 174 204
153 175 204
176 196 222
205 225 251
209 229 255
209 229 255
209 229 255
209 229 255
209 229 255
209 228 255
208 228 255
208 228 255
208 228 255
208 228 255
208 228 255
208 228 255
208 228 255
208 228 255
208 228 255
208 228 255
208 228 255
208 228 255
208 228 255
208 228 255
208 228 255
208 228 255
208 228 255
208 228 255
208 228 255
208 228 255
208 228 255
208 228 255
207 228 255
207 228 255
207 228 255
207 228 255
207 228 255
207 228 255
207 228 255
207 228 255
207 228 255
200 221 250
134 157 204
62 98 168
61 97 169
61 97 169
62 98 165
60 95 158
61 97 165
60 96 159
60 96 161
62 98 158
60 96 156
61 97 162
61 98 165
61 97 159
62 98 160
62 99 170
62 98 162
62 98 164
61 97 162
62 98 168
62 98 165
62 98 163
62 98 165
62 98 161
62 99 165
62 98 158
62 98 164
62 98 162
63 99 167
62 98 167
61 97 155
62 98 164
61 97 157
63 99 168
62 98 164
61 97 154
62 98 163
61 98 167
63 99 165
62 98 161
63 99 163
61 97 157
61 98 162
61 97 155
62 98 160
62 98 165
62 98 163
61 97 158
62 98 156
62 98 159
61 97 159
62 98 161
62 98 161
61 97 160
63 99 166
62 98 163
61 97 165
62 98 163
62 98 155
62 98 166
63 99 164
61 97 152
61 96 152
63 99 165
62 98 162
61 97 156
61 97 160
62 98 163
62 98 167
62 98 160
63 99 162
61 98 162
63 99 164
62 98 162
62 98 164
62 98 165
62 97 164
62 98 166
61 97 160
62 97 159
62 98 164
60 96 159
61 96 166
61 96 164
62 97 170
61 96 166
60 96 161
124 148 195
200 221 250
207 228 255
207 228 255
207 228 255
207 228 255
207 228 255
207 228 255
207 228 255
207 228 255
207 228 255
208 228 255
208 228 255
208 228 255
208 228 255
208 228 255
208 228 255
208 228 255
208 228 255
208 228 255
208 228 255
208 228 255
208 228 255
208 228 255
208 228 255
208 228 255
208 228 255
208 228 255
208 228 255
208 228 255
208 228 255
208 228 255
208 228 255
209 228 255
209 229 255
209 229 255
209 229 255
209 229 255
209 229 255
203 218 238
177 174 158
154 132 51
150 130 51
148 129 51
147 129 51
146 129 51
146 129 51
147 129 51
147 129 51
148 129 51
149 130 51
149 130 51
150 130 51
151 131 51
152 131 51
153 131 51
154 132 51
155 132 51
156 133 51
157 133 51
158 133 51
159 134 51
160 134 51
161 134 51
162 135 51
162 135 51
163 135 51
164 136 51
165 136 51
165 136 51
166 137 51
166 137 51
167 137 51
168 137 51
168 137 51
168 138 51
169 138 51
169 138 51
169 138 51
170 138 51
170 138 51
170 138 51
171 139 51
171 139 51
171 139 51
171 139 51
171 139 51
171 139 51
171 139 51
172 139 51
171 139 51
171 139 51
171 139 51
171 139 51
171 139 51
171 139 51
171 139 51
171 139 51
171 139 51
171 139 51
171 138 51
171 139 51
170 138 51
170 138 51
170 138 51
170 138 51
169 138 51
169 138 51
169 138 51
169 138 51
169 138 51
168 137 51
168 137 51
168 137 51
167 137 51
167 137 51
167 137 51
166 137 51
166 137 51
166 136 51
165 136 51
165 136 51
165 136 51
164 136 51
164 136 51
164 136 51
164 136 51
163 135 51
163 135 51
163 135 51
162 135 51
162 135 51
162 135 51
161 135 51
161 135 51
161 135 51
161 134 51
160 134 51
160 134 51
160 134 51
160 134 51
159 134 51
159 134 51
159 134 51
159 134 51
159 134 51
158 134 51
158 133 51
158 133 51
158 133 51
158 133 51
158 133 51
158 133 51
158 133 51
158 133 51
158 133 51
158 133 51
158 178 204
158 178 204
158 178 204
158 178 204
158 178 204
159 178 204
159 178 204
159 178 204
159 179 204
159 179 204
159 179 204
160 179 204
160 179 204
160 179 204
160 179 204
160 179 204
161 179 204
161 180 204
161 180 204
162 180 204
162 180 204
162 180 204
162 180 204
163 180 204
163 181 204
163 181 204
164 181 204
164 181 204
164 181 204
165 182 204
165 182 204
165 182 204
166 182 204
166 182 204
166 182 204
167 183 204
167 183 204
167 183 204
168 183 204
168 183 204
168 183 204
169 184 204
169 184 204
169 184 204
170 184 204
170 184 204
170 185 204
171 185 204
171 185 204
171 185 204
171 185 204
172 185 204
172 186 204
172 186 204
172 186 204
172 186 204
173 186 204
173 186 204
173 186 204
173 186 204
173 186 204
174 186 204
174 187 204
174 187 204
174 187 204
174 187 204
174 187 204
174 187 204
174 187 204
174 187 204
174 187 204
174 187 204
174 186 204
174 186 204
173 186 204
173 186 204
173 186 204
173 186 204
172 186 204
172 186 204
172 185 204
171 185 204
171 185 204
170 185 204
170 184 204
169 184 204
169 184 204
168 183 204
168 183 204
167 183 204
166 182 204
166 182 204
164 181 204
164 181 204
163 181 204
162 180 204
161 180 204
160 179 204
159 179 204
158 178 204
157 178 204
156 177 204
155 176 204
154 176 204
153 175 204
152 175 204
151 174 204
150 174 204
149 173 204
148 173 204
148 173 204
147 172 204
147 172 204
147 172 204
147 172 204
149 173 204
151 174 204
158 179 207
189 208 234
209 228 255
209 229 255
209 229 255
209 229 255
209 229 255
209 229 255
209 229 255
209 229 255
209 229 255
209 228 255
209 228 255
208 228 255
208 228 255
208 228 255
208 228 255
208 228 255
208 228 255
208 228 255
208 228 255
208 228 255
208 228 255
208 228 255
208 228 255
208 228 255
208 228 255
208 228 255
208 228 255
208 228 255
208 228 255
208 228 255
208 228 255
208 228 255
208 228 255
208 228 255
207 228 255
202 222 250
106 133 190
62 98 172
61 97 165
59 95 158
60 96 159
61 98 165
62 98 169
62 98 164
61 97 163
62 98 165
62 99 168
61 97 161
61 97 161
62 98 164
61 97 158
62 98 160
62 97 161
60 96 149
62 98 168
61 98 160
62 98 161
62 97 154
63 99 163
62 98 167
62 98 164
62 99 166
64 100 172
62 98 160
63 99 165
62 98 162
62 98 160
61 97 159
62 98 162
61 97 155
61 97 157
61 97 152
61 97 161
63 99 168
62 98 162
62 98 169
63 99 164
63 99 164
63 99 163
62 98 158
61 97 157
62 97 157
62 98 158
63 99 167
61 97 159
62 98 163
61 98 159
62 98 161
63 99 168
62 99 165
62 98 159
62 98 162
61 97 162
62 98 161
63 99 166
62 98 162
61 97 159
63 99 166
64 100 173
62 98 163
62 97 165
62 97 164
62 98 162
63 99 165
61 97 159
62 98 163
62 98 162
62 98 165
61 97 160
62 98 160
62 97 158
62 98 158
60 96 153
63 99 168
61 96 159
62 99 168
61 97 166
61 97 161
63 98 163
61 97 167
60 95 161
62 97 163
61 96 160
60 96 158
62 98 167
107 133 182
204 224 253
207 228 255
208 228 255
208 228 255
208 228 255
208 228 255
208 228 255
208 228 255
208 228 255
208 228 255
208 228 255
208 228 255
208 228 255
208 228 255
208 228 255
208 228 255
208 228 255
208 228 255
208 228 255
208 228 255
208 228 255
208 228 255
208 228 255
208 228 255
208 228 255
208 228 255
209 228 255
209 229 255
209 229 255
209 229 255
209 229 255
209 229 255
209 229 255
209 229 255
209 229 255
209 229 255
184 184 177
157 136 67
151 130 51
149 130 51
147 129 51
147 129 51
147 129 51
147 129 51
148 129 51
148 130 51
149 130 51
150 130 51
151 131 51
152 131 51
153 131 51
154 132 51
155 132 51
156 133 51
157 133 51
158 133 51
159 134 51
160 134 51
161 135 51
162 135 51
163 135 51
164 136 51
165 136 51
166 136 51
166 137 51
167 137 51
167 137 51
168 137 51
169 138 51
169 138 51
170 138 51
170 138 51
171 139 51
171 139 51
172 139 51
172 139 51
172 139 51
173 139 51
173 139 51
173 140 51
173 140 51
173 140 51
174 140 51
174 140 51
174 140 51
174 140 51
174 140 51
174 140 51
174 140 51
174 140 51
174 140 51
174 140 51
174 140 51
174 140 51
173 140 51
173 140 51
173 139 51
173 139 51
173 139 51
173 139 51
172 139 51
172 139 51
172 139 51
172 139 51
171 139 51
171 139 51
171 139 51
171 139 51
170 138 51
170 138 51
170 138 51
169 138 51
169 138 51
169 138 51
168 138 51
168 137 51
168 137 51
167 137 51
167 137 51
167 137 51
166 137 51
166 137 51
166 136 51
165 136 51
165 136 51
165 136 51
164 136 51
164 136 51
164 136 51
163 135 51
163 135 51
163 135 51
162 135 51
162 135 51
162 135 51
162 135 51
161 135 51
161 135 51
161 134 51
160 134 51
160 134 51
160 134 51
160 134 51
160 134 51
159 134 51
159 134 51
159 134 51
159 134 51
159 134 51
159 134 51
159 134 51
158 134 51
158 133 51
158 133 51
158 133 51
159 178 204
159 178 204
159 179 204
159 179 204
159 179 204
159 179 204
160 179 204
160 179 204
160 179 204
160 179 204
160 179 204
161 179 204
161 179 204
161 180 204
161 180 204
162 180 204
162 180 204
162 180 204
162 180 204
163 180 204
163 181 204
163 181 204
164 181 204
164 181 204
164 181 204
165 182 204
165 182 204
165 182 204
166 182 204
166 182 204
166 182 204
167 183 204
167 183 204
168 183 204
168 183 204
168 184 204
169 184 204
169 184 204
169 184 204
170 184 204
170 184 204
170 185 204
171 185 204
171 185 204
171 185 204
172 185 204
172 186 204
172 186 204
173 186 204
173 186 204
173 186 204
174 186 204
174 187 204
174 187 204
174 187 204
175 187 204
175 187 204
175 187 204
175 187 204
175 187 204
175 188 204
176 188 204
176 188 204
176 188 204
176 188 204
176 188 204
176 188 204
176 188 204
176 188 204
176 188 204
176 188 204
176 188 204
176 188 204
176 188 204
176 188 204
176 188 204
176 188 204
175 187 204
175 187 204
175 187 204
174 187 204
174 187 204
174 187 204
173 186 204
173 186 204
172 186 204
172 185 204
171 185 204
171 185 204
170 184 204
169 184 204
168 184 204
168 183 204
167 183 204
166 182 204
165 182 204
164 181 204
163 181 204
162 180 204
161 180 204
160 179 204
159 179 204
158 178 204
157 177 204
156 177 204
155 176 204
153 176 204
152 175 204
151 174 204
150 174 204
149 173 204
149 173 204
148 173 204
147 172 204
147 172 204
147 172 204
148 173 204
150 174 204
152 175 204
165 185 212
202 222 248
209 229 255
209 229 255
209 229 255
209 229 255
209 229 255
209 229 255
209 229 255
209 229 255
209 229 255
209 229 255
209 229 255
209 229 255
209 229 255
209 228 255
208 228 255
208 228 255
208 228 255
208 228 255
208 228 255
208 228 255
208 228 255
208 228 255
208 228 255
208 228 255
208 228 255
208 228 255
208 228 255
208 228 255
208 228 255
208 228 255
208 228 255
208 228 255
198 219 248
108 134 186
62 98 170
60 95 159
61 97 158
62 98 163
61 97 162
60 96 159
61 97 164
62 98 167
61 96 155
62 99 167
61 97 165
61 96 158
62 99 167
62 98 161
62 98 162
61 97 160
61 97 157
61 97 155
62 98 163
61 97 160
61 97 160
61 97 159
62 98 162
63 99 166
62 98 160
62 98 160
62 97 155
61 97 160
62 98 166
62 98 161
63 99 167
62 98 160
61 97 156
62 98 159
61 97 157
62 98 156
61 97 159
61 98 164
62 98 159
62 98 163
63 99 166
62 98 161
62 98 165
62 98 164
62 98 159
62 98 161
62 98 168
62 98 162
62 98 159
62 98 166
62 98 162
62 98 159
62 98 163
61 97 161
62 98 166
62 98 160
61 96 151
61 97 158
62 98 158
62 98 165
62 98 162
61 96 152
62 97 159
62 98 163
62 98 164
63 99 169
61 97 156
62 98 164
61 97 163
62 98 164
61 97 155
61 96 159
62 98 165
62 98 158
61 96 155
62 98 169
62 98 165
61 96 156
61 97 161
61 96 160
63 99 165
61 97 162
61 96 160
61 97 161
61 97 161
62 97 160
61 97 168
60 96 163
61 97 165
61 96 164
111 136 185
205 225 254
208 228 255
208 228 255
208 228 255
208 228 255
208 228 255
208 228 255
208 228 255
208 228 255
208 228 255
208 228 255
208 228 255
208 228 255
208 228 255
208 228 255
208 228 255
208 228 255
208 228 255
208 228 255
209 228 255
209 228 255
209 229 255
209 229 255
209 229 255
209 229 255
209 229 255
209 229 255
209 229 255
209 229 255
209 229 255
209 229 255
209 229 255
209 229 255
197 208 221
165 150 106
152 131 51
150 130 51
148 129 51
147 129 51
147 129 51
147 129 51
148 129 51
149 130 51
149 130 51
150 130 51
151 131 51
153 131 51
153 132 51
154 132 51
156 132 51
157 133 51
158 133 51
159 134 51
160 134 51
161 135 51
162 135 51
163 136 51
164 136 51
165 136 51
166 137 51
167 137 51
168 137 51
169 138 51
169 138 51
170 138 51
171 138 51
171 139 51
172 139 51
172 139 51
173 139 51
173 140 51
174 140 51
174 140 51
174 140 51
175 140 51
175 140 51
175 140 51
176 141 51
176 141 51
176 141 51
176 141 51
176 141 51
176 141 51
176 141 51
176 141 51
176 141 51
176 141 51
176 141 51
176 141 51
176 141 51
176 141 51
176 141 51
176 141 51
176 141 51
175 140 51
175 140 51
175 140 51
175 140 51
175 140 51
174 140 51
174 140 51
174 140 51
174 140 51
173 140 51
173 139 51
173 139 51
172 139 51
172 139 51
172 139 51
171 139 51
171 139 51
171 139 51
170 138 51
170 138 51
170 138 51
169 138 51
169 138 51
169 138 51
168 137 51
168 137 51
168 137 51
167 137 51
167 137 51
167 137 51
166 137 51
166 136 51
165 136 51
165 136 51
165 136 51
164 136 51
164 136 51
164 136 51
163 136 51
163 135 51
163 135 51
162 135 51
162 135 51
162 135 51
162 135 51
161 135 51
161 135 51
161 134 51
161 134 51
160 134 51
160 134 51
160 134 51
160 134 51
160 134 51
159 134 51
159 134 51
159 134 51
159 134 51
159 134 51
159 134 51
160 179 204
160 179 204
160 179 204
160 179 204
160 179 204
160 179 204
160 179 204
161 179 204
161 179 204
161 180 204
161 180 204
161 180 204
162 180 204
162 180 204
162 180 204
163 180 204
163 181 204
163 181 204
164 181 204
164 181 204
164 181 204
165 182 204
165 182 204
165 182 204
166 182 204
166 182 204
166 182 204
167 183 204
167 183 204
167 183 204
168 183 204
168 184 204
169 184 204
169 184 204
169 184 204
170 184 204
170 185 204
171 185 204
171 185 204
171 185 204
172 185 204
172 186 204
172 186 204
173 186 204
173 186 204
173 186 204
174 187 204
174 187 204
174 187 204
175 187 204
175 187 204
175 187 204
176 188 204
176 188 204
176 188 204
176 188 204
177 188 204
177 188 204
177 188 204
175 187 197
171 183 184
168 181 173
164 177 161
166 179 170
158 172 144
161 174 151
157 171 140
155 170 132
149 164 112
150 166 108
154 168 129
151 166 121
156 170 132
157 171 137
157 171 143
157 171 140
164 177 165
167 180 173
167 179 174
174 186 194
177 188 203
177 188 204
176 188 204
176 188 204
175 188 204
175 187 204
174 187 204
174 187 204
173 186 204
173 186 204
172 186 204
171 185 204
171 185 204
170 184 204
169 184 204
168 183 204
167 183 204
166 182 204
165 182 204
164 181 204
163 181 204
162 180 204
161 180 204
160 179 204
159 178 204
158 178 204
156 177 204
155 176 204
154 176 204
153 175 204
152 175 204
151 174 204
150 174 204
149 173 204
148 173 204
148 173 204
148 173 204
148 173 204
149 173 204
151 174 204
155 177 205
185 204 230
207 226 253
209 229 255
209 229 255
209 229 255
209 229 255
209 229 255
209 229 255
209 229 255
209 229 255
209 229 255
209 229 255
209 229 255
209 229 255
209 229 255
209 229 255
209 229 255
209 229 255
209 228 255
209 228 255
208 228 255
208 228 255
208 228 255
208 228 255
208 228 255
208 228 255
208 228 255
208 228 255
208 228 255
208 228 255
208 228 255
198 218 246
123 148 195
61 96 163
61 96 165
61 96 164
61 96 161
61 97 161
62 98 167
61 97 163
62 98 161
62 97 163
61 97 158
62 98 165
62 98 163
62 98 164
61 97 164
62 98 168
62 97 159
62 98 165
61 97 157
61 97 154
62 99 166
61 97 161
61 97 163
62 98 160
61 97 153
61 97 152
63 99 164
62 98 162
63 98 162
63 99 165
63 99 167
62 97 158
61 96 156
62 98 165
62 98 159
63 99 168
62 98 157
61 98 163
62 98 162
62 98 162
61 97 154
62 98 161
62 98 159
62 98 161
62 98 163
62 98 158
62 98 162
62 98 160
62 98 163
62 98 164
61 97 150
61 97 151
62 98 158
62 98 160
62 99 170
63 99 165
61 97 157
61 97 156
62 98 162
63 99 163
62 99 166
61 97 159
62 98 161
62 98 158
61 97 161
62 98 164
61 97 156
62 98 162
62 98 165
61 97 161
62 98 162
61 97 158
61 97 161
62 97 161
62 98 164
62 98 164
61 96 160
62 98 160
62 98 158
62 98 159
61 97 158
60 96 153
61 97 158
61 96 157
62 98 160
61 97 165
61 96 161
61 97 159
61 96 152
60 94 153
61 97 166
61 96 163
60 95 155
95 122 177
205 225 253
208 228 255
208 228 255
208 228 255
208 228 255
208 228 255
208 228 255
208 228 255
208 228 255
208 228 255
208 228 255
208 228 255
209 228 255
209 228 255
209 229 255
209 229 255
209 229 255
209 229 255
209 229 255
209 229 255
209 229 255
209 229 255
209 229 255
209 229 255
209 229 255
209 229 255
209 229 255
209 229 255
209 229 255
209 229 255
208 227 252
186 187 184
155 133 57
151 131 51
149 130 51
148 129 51
148 129 51
148 129 51
148 129 51
149 130 51
150 130 51
151 130 51
152 131 51
153 131 51
154 132 51
155 132 51
156 133 51
158 133 51
159 134 51
160 134 51
161 135 51
162 135 51
163 136 51
164 136 51
165 136 51
166 137 51
167 137 51
168 137 51
169 138 51
170 138 51
171 139 51
171 139 51
172 139 51
173 139 51
173 140 51
174 140 51
175 140 51
175 140 51
176 141 51
176 141 51
176 141 51
177 141 51
177 141 50
172 138 47
169 136 44
161 131 40
163 132 40
162 132 38
157 129 34
158 129 35
158 129 35
156 127 34
152 126 29
152 125 30
153 126 33
154 127 33
155 128 33
156 128 33
159 130 35
160 131 37
166 135 42
169 136 44
173 139 47
176 140 49
177 141 51
177 141 51
177 141 51
177 141 51
176 141 51
176 141 51
176 141 51
175 141 51
175 140 51
175 140 51
175 140 51
174 140 51
174 140 51
173 140 51
173 140 51
173 139 51
172 139 51
172 139 51
172 139 51
171 139 51
171 139 51
170 138 51
170 138 51
170 138 51
169 138 51
169 138 51
169 138 51
168 138 51
168 137 51
167 137 51
167 137 51
167 137 51
166 137 51
166 137 51
166 136 51
165 136 51
165 136 51
165 136 51
164 136 51
164 136 51
164 136 51
163 135 51
163 135 51
163 135 51
162 135 51
162 135 51
162 135 51
162 135 51
161 135 51
161 135 51
161 134 51
161 134 51
160 134 51
160 134 51
160 134 51
160 134 51
160 134 51
160 134 51
160 134 51
160 179 204
160 179 204
160 179 204
161 179 204
161 180 204
161 180 204
161 180 204
161 180 204
162 180 204
162 180 204
162 180 204
163 180 204
163 181 204
163 181 204
163 181 204
164 181 204
164 181 204
164 181 204
165 182 204
165 182 204
165 182 204
166 182 204
166 182 204
167 183 204
167 183 204
167 183 204
168 183 204
168 183 204
168 184 204
169 184 204
169 184 204
170 184 204
170 184 204
170 185 204
171 185 204
171 185 204
172 185 204
172 186 204
172 186 204
173 186 204
173 186 204
174 186 204
174 187 204
174 187 204
175 187 204
175 187 204
175 188 204
176 188 204
176 188 204
176 188 204
177 188 204
177 188 204
177 189 204
175 187 197
164 177 159
159 173 146
156 170 134
145 161 91
139 157 50
130 148 0
131 149 0
128 147 0
124 141 0
128 147 0
125 143 0
124 142 0
122 139 0
121 138 0
119 136 0
123 140 0
120 136 0
126 143 0
121 139 0
117 134 0
123 141 0
118 134 0
128 145 0
119 136 0
127 145 0
129 147 0
131 149 0
139 156 67
146 162 100
149 163 115
162 176 157
164 178 163
174 186 195
176 188 203
176 188 204
176 188 204
175 187 204
174 187 204
174 186 204
173 186 204
172 186 204
171 185 204
170 185 204
169 184 204
168 183 204
168 183 204
166 183 204
165 182 204
164 181 204
163 181 204
162 180 204
161 179 204
160 179 204
158 178 204
157 177 204
156 177 204
154 176 204
153 175 204
152 175 204
151 174 204
150 174 204
149 173 204
148 173 204
148 173 204
148 173 204
149 173 204
150 174 204
153 175 204
164 184 211
200 219 245
209 229 255
209 229 255
209 229 255
209 229 255
209 229 255
209 229 255
209 229 255
209 229 255
209 229 255
209 229 255
209 229 255
209 229 255
209 229 255
209 229 255
209 229 255
209 229 255
209 229 255
209 229 255
209 229 255
209 229 255
209 229 255
209 229 255
209 228 255
209 228 255
208 228 255
208 228 255
208 228 255
206 227 254
124 148 196
61 96 165
60 96 159
61 97 162
62 98 171
60 96 156
60 96 161
59 94 150
62 99 167
60 96 156
62 98 162
63 99 169
62 98 164
61 96 149
63 99 168
61 97 157
61 97 164
62 98 161
63 99 164
62 98 155
60 96 153
62 98 160
62 98 163
62 98 167
63 99 164
61 97 156
61 97 157
63 99 163
61 97 152
62 98 161
62 98 157
61 97 154
62 98 158
63 98 159
62 98 159
63 98 165
63 99 166
62 98 159
61 97 156
62 98 163
60 96 153
62 99 165
62 98 160
63 99 162
62 98 160
61 97 157
62 98 157
62 98 161
62 97 158
62 97 160
62 98 161
61 97 157
62 98 161
62 98 158
62 98 164
63 99 163
62 98 158
62 98 160
62 98 161
62 97 159
63 99 161
61 97 158
62 98 163
61 97 155
62 97 151
61 97 154
61 97 159
61 96 155
62 97 159
62 97 157
62 98 160
61 97 156
62 98 154
62 98 163
60 96 154
61 97 159
62 98 157
62 97 159
62 99 164
61 97 161
62 98 160
62 98 159
61 96 155
61 96 158
62 98 165
61 96 160
63 98 161
61 95 152
62 97 163
61 96 156
60 95 157
62 97 161
60 96 157
61 96 159
60 95 160
116 140 186
206 227 254
208 228 255
208 228 255
208 228 255
208 228 255
209 228 255
209 229 255
209 229 255
209 229 255
209 229 255
209 229 255
209 229 255
209 229 255
209 229 255
209 229 255
209 229 255
209 229 255
209 229 255
209 229 255
209 229 255
209 229 255
209 229 255
209 229 255
209 229 255
209 229 255
209 229 255
209 229 255
209 229 255
201 214 230
167 154 115
153 131 51
150 130 51
149 130 51
148 129 51
148 129 51
148 130 51
149 130 51
150 130 51
151 131 51
152 131 51
153 131 51
154 132 51
156 132 51
157 133 51
158 133 51
159 134 51
161 134 51
162 135 51
163 135 51
164 136 51
165 136 51
166 137 51
167 137 51
168 138 51
169 138 51
170 138 51
171 139 51
172 139 51
173 139 51
174 140 51
174 140 51
175 140 51
176 141 51
176 141 51
176 141 50
172 138 47
167 135 42
157 128 35
153 125 31
147 122 25
139 116 16
129 110 5
132 112 0
126 107 0
124 106 0
119 102 0
121 105 0
122 104 0
121 102 0
121 104 0
125 107 0
123 106 0
112 96 0
120 102 0
127 108 0
127 108 0
124 106 0
127 108 0
128 110 0
127 109 0
132 112 0
132 112 0
133 114 7
141 119 14
146 121 24
148 123 27
161 131 37
165 134 41
171 137 46
177 141 50
177 141 51
177 141 51
177 141 51
176 141 51
176 141 51
175 140 51
175 140 51
175 140 51
174 140 51
174 140 51
174 140 51
173 140 51
173 139 51
172 139 51
172 139 51
172 139 51
171 139 51
171 139 51
170 138 51
170 138 51
170 138 51
169 138 51
169 138 51
168 138 51
168 137 51
168 137 51
167 137 51
167 137 51
167 137 51
166 137 51
166 136 51
165 136 51
165 136 51
165 136 51
164 136 51
164 136 51
164 136 51
163 136 51
163 135 51
163 135 51
163 135 51
162 135 51
162 135 51
162 135 51
162 135 51
161 135 51
161 135 51
161 134 51
161 134 51
160 134 51
160 134 51
160 134 51
161 180 204
161 180 204
161 180 204
161 180 204
162 180 204
162 180 204
162 180 204
162 180 204
163 180 204
163 181 204
163 181 204
164 181 204
164 181 204
164 181 204
164 181 204
165 182 204
165 182 204
166 182 204
166 182 204
166 182 204
167 183 204
167 183 204
167 183 204
168 183 204
168 183 204
168 184 204
169 184 204
169 184 204
170 184 204
170 185 204
171 185 204
171 185 204
171 185 204
172 185 204
172 186 204
173 186 204
173 186 204
173 186 204
174 187 204
174 187 204
175 187 204
175 187 204
176 188 204
176 188 204
176 188 204
177 188 204
177 188 204
177 189 204
176 187 199
166 180 170
155 171 131
150 166 100
139 157 40
132 149 0
134 153 0
132 149 0
128 145 0
122 140 0
125 144 0
119 136 0
114 130 0
120 136 0
107 123 0
114 131 0
101 118 0
107 125 0
107 124 0
107 124 0
109 126 0
110 127 0
114 131 0
110 127 0
107 123 0
113 129 0
110 125 0
107 123 0
111 128 0
114 131 0
112 128 0
109 126 0
109 126 0
116 133 0
120 138 0
119 136 0
128 146 0
126 143 0
130 148 0
135 152 28
146 162 102
157 172 135
166 179 168
172 185 191
176 188 204
176 188 204
175 187 204
174 187 204
173 186 204
172 186 204
171 185 204
170 185 204
169 184 204
168 184 204
167 183 204
166 182 204
165 182 204
163 181 204
162 180 204
161 180 204
160 179 204
158 178 204
157 178 204
156 177 204
155 176 204
153 176 204
152 175 204
151 174 204
150 174 204
149 173 204
149 173 204
149 173 204
149 173 204
150 174 204
152 175 204
158 179 206
195 214 240
210 229 255
210 229 255
210 229 255
210 229 255
210 229 255
209 229 255
209 229 255
209 229 255
209 229 255
209 229 255
209 229 255
209 229 255
209 229 255
209 229 255
209 229 255
209 229 255
209 229 255
209 229 255
209 229 255
209 229 255
209 229 255
209 229 255
209 229 255
209 229 255
209 229 255
209 229 255
134 157 203
59 94 163
61 96 163
61 97 165
62 98 166
61 96 159
60 95 155
62 98 165
61 96 162
62 97 162
60 95 152
62 98 159
60 96 159
62 97 158
61 97 158
62 98 167
62 98 159
62 98 162
62 98 164
61 97 157
62 97 161
62 97 160
61 97 160
62 98 160
61 97 151
62 98 161
62 98 165
63 98 159
62 97 155
61 96 155
61 97 156
61 97 157
61 97 159
61 97 157
61 97 156
62 98 160
62 98 163
61 97 157
62 98 162
63 98 160
62 98 156
61 97 158
61 97 158
61 97 158
62 98 160
61 97 159
62 98 165
62 98 157
61 97 150
62 98 160
60 96 153
60 95 148
62 98 156
62 98 165
62 98 163
63 99 165
62 98 163
62 98 165
62 97 152
61 98 158
62 98 163
61 97 155
61 97 151
61 97 158
62 98 160
62 98 158
62 98 157
61 97 156
63 99 165
62 98 167
62 98 165
63 99 168
61 97 157
61 96 157
63 99 164
61 97 164
61 97 158
62 98 160
61 97 153
61 97 157
62 97 159
62 97 157
62 98 164
62 98 157
60 96 154
61 96 153
61 97 162
61 97 163
60 96 152
61 96 160
62 98 163
61 96 155
62 97 165
61 95 157
60 95 156
61 96 161
61 96 166
126 149 191
208 228 255
209 229 255
209 229 255
209 229 255
209 229 255
209 229 255
209 229 255
209 229 255
209 229 255
209 229 255
209 229 255
209 229 255
209 229 255
209 229 255
209 229 255
209 229 255
209 229 255
209 229 255
209 229 255
209 229 255
209 229 255
209 229 255
210 229 255
210 229 255
210 229 255
210 229 255
191 195 197
156 132 51
152 131 51
150 130 51
149 130 51
149 130 51
149 130 51
149 130 51
150 130 51
151 131 51
152 131 51
153 131 51
155 132 51
156 133 51
157 133 51
158 134 51
160 134 51
161 135 51
162 135 51
164 136 51
165 136 51
166 137 51
167 137 51
168 138 51
169 138 51
170 138 51
171 139 51
172 139 51
173 140 51
174 140 51
175 140 51
176 141 51
177 141 51
173 138 48
168 136 44
156 128 32
144 120 23
134 114 13
130 111 0
122 104 0
120 102 0
124 104 0
114 97 0
120 100 0
115 97 0
117 96 0
111 92 0
111 92 0
114 96 0
121 102 0
116 97 0
113 95 0
110 91 0
109 91 0
110 92 0
114 96 0
111 92 0
112 95 0
103 86 0
106 90 0
114 96 0
115 97 0
108 92 0
119 100 0
121 104 0
125 106 0
120 103 0
122 105 0
131 112 0
130 112 0
132 113 0
132 113 0
140 118 12
151 125 28
159 130 35
167 135 42
175 140 48
177 141 51
177 141 51
177 141 51
176 141 51
176 141 51
176 141 51
175 140 51
175 140 51
174 140 51
174 140 51
173 140 51
173 139 51
173 139 51
172 139 51
172 139 51
171 139 51
171 139 51
171 138 51
170 138 51
170 138 51
169 138 51
169 138 51
168 138 51
168 137 51
168 137 51
167 137 51
167 137 51
167 137 51
166 137 51
166 137 51
165 136 51
165 136 51
165 136 51
165 136 51
164 136 51
164 136 51
163 136 51
163 135 51
163 135 51
163 135 51
162 135 51
162 135 51
162 135 51
162 135 51
162 135 51
161 135 51
161 135 51
161 135 51
162 180 204
162 180 204
162 180 204
162 180 204
163 180 204
163 181 204
163 181 204
163 181 204
164 181 204
164 181 204
164 181 204
165 181 204
165 182 204
165 182 204
166 182 204
166 182 204
166 182 204
167 183 204
167 183 204
167 183 204
168 183 204
168 183 204
169 184 204
169 184 204
169 184 204
170 184 204
170 185 204
171 185 204
171 185 204
171 185 204
172 185 204
172 186 204
173 186 204
173 186 204
174 186 204
174 187 204
174 187 204
175 187 204
175 187 204
176 188 204
176 188 204
177 188 204
177 188 204
177 189 204
177 188 202
169 182 178
155 170 129
148 164 93
138 157 0
136 154 0
130 148 0
129 146 0
125 143 0
118 135 0
120 136 0
108 124 0
115 131 0
105 122 0
108 123 0
103 120 0
106 122 0
100 115 0
110 125 0
104 119 0
104 119 0
107 122 0
106 121 0
106 122 0
107 123 0
103 118 0
112 128 0
107 122 0
108 123 0
110 126 0
107 122 0
106 121 0
110 125 0
116 131 0
112 127 0
111 127 0
112 128 0
111 127 0
112 128 0
113 129 0
103 119 0
117 134 0
116 133 0
117 135 0
122 139 0
129 148 0
130 148 0
128 146 20
140 157 76
153 168 134
167 180 174
176 188 201
176 188 204
175 187 204
174 187 204
173 186 204
172 186 204
171 185 204
170 185 204
169 184 204
168 183 204
167 183 204
165 182 204
164 181 204
163 180 204
161 180 204
160 179 204
159 178 204
157 178 204
156 177 204
155 176 204
153 176 204
152 175 204
151 174 204
150 174 204
149 173 204
149 173 204
149 173 204
150 174 204
151 174 204
154 176 204
180 199 225
209 228 254
210 229 255
210 229 255
210 229 255
210 229 255
210 229 255
210 229 255
210 229 255
210 229 255
210 229 255
209 229 255
209 229 255
209 229 255
209 229 255
209 229 255
209 229 255
209 229 255
209 229 255
209 229 255
209 229 255
209 229 255
209 229 255
209 229 255
209 229 255
134 157 200
61 98 169
61 97 164
60 95 161
60 95 157
61 96 166
60 95 155
61 96 162
60 95 157
61 96 162
62 98 165
60 96 160
61 96 159
62 98 165
61 97 158
61 97 158
61 96 156
62 97 158
62 98 161
63 99 166
61 97 160
62 97 159
62 98 162
62 98 163
62 98 158
61 97 158
62 97 158
61 97 156
62 98 161
61 97 158
62 97 158
61 97 155
61 97 150
62 98 158
62 98 162
62 98 155
61 97 154
61 97 154
62 98 156
62 98 160
62 98 164
61 97 153
61 97 155
62 97 152
62 98 156
61 97 155
62 98 155
61 97 155
61 97 161
61 97 158
63 99 166
61 97 156
62 98 160
61 97 160
62 98 163
62 98 154
62 98 158
61 97 156
62 98 160
61 97 155
62 98 155
62 98 156
62 98 159
62 98 157
62 97 157
61 97 155
60 95 150
62 98 155
62 98 162
62 98 156
61 97 158
61 97 157
62 97 152
61 96 150
62 97 157
61 97 158
61 97 153
61 97 161
62 99 167
61 97 152
61 97 158
62 98 156
61 97 159
63 99 162
61 96 150
62 97 157
62 98 167
62 98 160
62 98 159
62 98 163
61 97 160
62 97 156
62 97 164
61 96 153
62 97 163
63 98 165
60 94 156
61 96 163
61 96 163
155 176 212
209 229 255
209 229 255
209 229 255
209 229 255
209 229 255
209 229 255
209 229 255
209 229 255
209 229 255
209 229 255
209 229 255
209 229 255
209 229 255
209 229 255
210 229 255
210 229 255
210 229 255
210 229 255
210 229 255
210 229 255
210 229 255
210 229 255
210 229 255
208 225 249
180 176 162
154 132 51
151 131 51
150 130 51
149 130 51
149 130 51
149 130 51
150 130 51
151 131 51
152 131 51
153 131 51
155 132 51
156 133 51
157 133 51
159 134 51
160 134 51
161 135 51
163 135 51
164 136 51
165 136 51
167 137 51
168 137 51
169 138 51
170 138 51
171 139 51
172 139 51
173 140 51
174 140 51
175 140 51
176 141 51
175 140 49
165 134 42
156 128 35
144 120 25
130 110 0
132 111 0
121 103 0
119 101 0
123 103 0
117 96 0
118 98 0
121 99 0
119 97 0
115 96 0
113 92 0
109 86 0
108 88 0
104 85 0
109 89 0
111 89 0
108 87 0
110 88 0
105 84 0
110 88 0
108 87 0
108 87 0
101 82 0
101 83 0
101 82 0
111 92 0
103 85 0
107 89 0
102 86 0
99 82 0
95 79 0
106 88 0
112 94 0
102 87 0
103 87 0
108 91 0
114 98 0
119 101 0
122 104 0
126 108 0
126 108 0
133 114 0
134 114 0
138 117 5
146 122 22
154 127 32
170 136 44
177 141 50
177 141 51
177 141 51
177 141 51
176 141 51
176 141 51
175 140 51
175 140 51
174 140 51
174 140 51
173 140 51
173 140 51
173 139 51
172 139 51
172 139 51
171 139 51
171 139 51
170 138 51
170 138 51
170 138 51
169 138 51
169 138 51
169 138 51
168 137 51
168 137 51
167 137 51
167 137 51
167 137 51
166 137 51
166 137 51
165 136 51
165 136 51
165 136 51
164 136 51
164 136 51
164 136 51
164 136 51
163 135 51
163 135 51
163 135 51
163 135 51
162 135 51
162 135 51
162 135 51
162 135 51
162 180 204
163 181 204
163 181 204
163 181 204
163 181 204
164 181 204
164 181 204
164 181 204
165 181 204
165 182 204
165 182 204
165 182 204
166 182 204
166 182 204
167 183 204
167 183 204
167 183 204
168 183 204
168 183 204
168 184 204
169 184 204
169 184 204
170 184 204
170 185 204
170 185 204
171 185 204
171 185 204
172 185 204
172 186 204
173 186 204
173 186 204
173 186 204
174 187 204
174 187 204
175 187 204
175 187 204
176 188 204
176 188 204
177 188 204
177 188 204
177 189 204
176 187 198
168 181 171
154 169 124
138 156 28
136 154 0
129 146 0
130 147 0
123 140 0
121 137 0
112 128 0
113 130 0
109 126 0
107 122 0
99 115 0
99 116 0
107 123 0
101 115 0
98 113 0
96 111 0
106 121 0
104 120 0
99 114 0
101 116 0
104 119 0
104 119 0
103 116 0
105 119 0
107 121 0
108 123 0
99 113 0
108 122 0
110 124 0
102 115 0
101 115 0
105 119 0
104 117 0
102 115 0
101 114 0
108 122 0
111 126 0
109 124 0
107 121 0
111 126 0
110 125 0
110 125 0
111 127 0
112 128 0
116 132 0
113 128 0
117 133 0
119 136 0
123 141 0
123 141 0
133 152 0
130 148 35
149 164 108
164 177 161
174 186 194
176 188 204
175 187 204
174 187 204
173 186 204
172 185 204
171 185 204
170 184 204
168 184 204
167 183 204
166 182 204
164 181 204
163 181 204
161 180 204
160 179 204
159 178 204
157 178 204
156 177 204
155 176 204
153 176 204
152 175 204
151 174 204
150 174 204
150 174 204
150 174 204
150 174 204
151 174 204
154 176 204
171 191 217
205 224 250
210 229 255
210 229 255
210 229 255
210 229 255
210 229 255
210 229 255
210 229 255
210 229 255
210 229 255
210 229 255
210 229 255
210 229 255
210 229 255
210 229 255
209 229 255
209 229 255
209 229 255
209 229 255
209 229 255
209 229 255
209 229 255
169 189 226
59 94 157
60 95 162
61 97 164
61 97 160
61 97 164
61 97 160
61 96 158
62 97 163
62 98 165
62 98 166
62 97 160
62 98 161
61 97 165
61 97 161
60 96 154
62 97 159
61 97 160
63 99 162
62 98 167
60 95 146
62 97 162
62 98 164
63 99 170
61 97 156
62 98 158
60 96 152
61 97 158
61 97 147
62 98 164
62 98 161
62 98 164
61 96 158
62 98 159
61 97 150
62 97 157
62 98 160
62 98 163
62 98 163
63 99 160
60 96 150
61 97 162
61 97 157
62 98 157
61 97 158
62 98 162
63 99 164
61 97 159
62 98 157
62 98 161
62 98 160
62 98 161
62 98 154
62 98 162
61 97 151
62 98 165
62 97 155
61 97 156
62 98 159
62 98 158
62 97 153
62 97 154
62 98 163
62 98 157
62 98 158
62 98 160
61 97 155
62 98 161
62 98 159
63 99 165
62 98 163
62 97 157
64 100 172
61 96 151
61 97 153
61 96 150
62 98 157
61 96 152
60 95 151
63 98 159
62 97 158
62 98 160
61 96 153
62 97 158
61 95 153
61 96 155
61 97 156
60 95 157
62 96 158
62 98 160
61 97 157
61 97 154
62 97 163
61 97 163
61 96 164
61 96 160
61 97 166
60 94 155
60 94 153
61 95 161
60 95 157
172 193 229
209 229 255
209 229 255
209 229 255
209 229 255
209 229 255
209 229 255
209 229 255
210 229 255
210 229 255
210 229 255
210 229 255
210 229 255
210 229 255
210 229 255
210 229 255
210 229 255
210 229 255
210 229 255
210 229 255
210 229 255
210 229 255
203 216 234
167 153 112
154 132 51
151 131 51
150 130 51
150 130 51
150 130 51
150 130 51
151 131 51
152 131 51
153 131 51
155 132 51
156 133 51
157 133 51
159 134 51
160 134 51
162 135 51
163 135 51
164 136 51
166 136 51
167 137 51
168 138 51
170 138 51
171 139 51
172 139 51
173 140 51
174 140 51
175 140 51
176 141 51
174 139 49
165 133 41
148 123 25
134 114 11
131 112 0
128 108 0
121 101 0
122 102 0
114 96 0
113 93 0
117 93 0
116 93 0
110 87 0
117 92 0
104 82 0
107 82 0
110 87 0
107 83 0
105 82 0
110 85 0
102 77 0
109 85 0
101 79 0
106 80 0
99 74 0
108 84 0
107 83 0
107 85 0
95 73 0
110 87 0
107 86 0
108 83 0
101 80 0
102 83 0
106 85 0
103 84 0
101 83 0
101 82 0
103 84 0
111 90 0
101 83 0
102 84 0
106 88 0
107 90 0
96 82 0
107 93 0
106 91 0
115 99 0
119 101 0
122 105 0
126 107 0
130 112 0
134 114 0
138 117 0
138 117 5
153 126 29
166 134 41
177 141 50
177 141 51
177 141 51
177 141 51
176 141 51
176 141 51
175 140 51
175 140 51
174 140 51
174 140 51
174 140 51
173 140 51
173 139 51
172 139 51
172 139 51
171 139 51
171 139 51
170 138 51
170 138 51
170 138 51
169 138 51
169 138 51
168 138 51
168 137 51
168 137 51
167 137 51
167 137 51
166 137 51
166 137 51
166 137 51
166 136 51
165 136 51
165 136 51
165 136 51
164 136 51
164 136 51
164 136 51
163 136 51
163 135 51
163 135 51
163 135 51
162 135 51
163 181 204
163 181 204
164 181 204
164 181 204
164 181 204
165 181 204
165 182 204
165 182 204
165 182 204
166 182 204
166 182 204
166 183 204
167 183 204
167 183 204
168 183 204
168 183 204
168 184 204
169 184 204
169 184 204
169 184 204
170 184 204
170 185 204
171 185 204
171 185 204
172 185 204
172 186 204
172 186 204
173 186 204
173 186 204
174 187 204
174 187 204
175 187 204
175 187 204
176 188 204
176 188 204
176 188 204
177 188 204
178 189 204
178 189 204
170 182 178
153 168 119
142 159 45
132 150 0
134 152 0
127 144 0
123 139 0
124 142 0
110 125 0
106 123 0
112 127 0
97 113 0
95 110 0
95 111 0
104 119 0
101 115 0
100 115 0
103 119 0
104 118 0
104 119 0
101 116 0
99 113 0
94 108 0
100 115 0
104 118 0
98 113 0
101 115 0
97 110 0
106 120 0
97 110 0
96 109 0
109 122 0
102 115 0
99 113 0
108 122 0
101 114 0
103 115 0
108 122 0
105 119 0
103 116 0
112 126 0
101 114 0
111 125 0
112 126 0
106 119 0
102 116 0
109 123 0
111 125 0
111 126 0
109 122 0
117 131 0
113 127 0
114 130 0
118 134 0
118 134 0
121 138 0
119 137 0
124 142 0
129 147 0
133 150 28
149 165 108
165 179 171
176 188 202
176 188 204
175 187 204
174 186 204
172 186 204
171 185 204
170 184 204
169 184 204
167 183 204
166 182 204
164 181 204
163 181 204
161 180 204
160 179 204
159 178 204
157 178 204
156 177 204
155 176 204
153 175 204
152 175 204
151 174 204
150 174 204
150 174 204
150 174 204
151 174 204
153 175 204
160 180 207
199 218 244
210 229 255
210 229 255
210 229 255
210 229 255
210 229 255
210 229 255
210 229 255
210 229 255
210 229 255
210 229 255
210 229 255
210 229 255
210 229 255
210 229 255
210 229 255
210 229 255
210 229 255
210 229 255
210 229 255
195 214 242
72 104 163
61 96 161
62 98 159
60 95 159
61 97 165
62 98 167
61 96 161
61 97 159
62 97 159
62 98 159
61 96 154
61 97 159
61 97 163
62 98 158
63 99 166
62 98 160
62 98 163
61 97 162
62 98 163
61 97 153
61 96 154
62 98 164
61 96 153
61 96 148
61 96 156
62 98 157
62 98 161
61 96 155
61 97 160
61 97 153
62 98 158
63 99 163
61 97 154
62 98 162
63 99 161
61 97 154
61 97 156
61 97 156
60 95 143
61 96 151
62 97 155
61 96 153
62 97 154
62 98 161
62 98 162
62 98 156
61 97 154
61 97 157
62 98 157
61 97 157
62 97 159
63 98 165
62 98 157
60 96 150
60 96 150
62 98 159
63 98 155
62 98 159
62 97 153
61 97 156
61 96 154
62 98 160
61 97 151
62 98 159
61 97 158
62 97 155
62 97 152
61 98 160
61 97 160
61 96 156
61 97 161
61 97 159
60 95 150
62 97 160
61 96 147
61 96 144
62 98 164
61 97 160
62 98 160
62 97 159
62 98 161
61 96 158
62 97 160
62 97 152
63 98 161
62 98 162
62 97 164
62 98 163
61 97 158
62 98 160
60 95 151
62 97 157
62 97 162
62 98 163
62 98 165
61 95 153
61 95 156
61 95 152
61 96 163
62 97 163
59 92 153
72 102 158
185 205 239
210 229 255
210 229 255
210 229 255
210 229 255
210 229 255
210 229 255
210 229 255
210 229 255
210 229 255
210 229 255
210 229 255
210 229 255
210 229 255
210 229 255
210 229 255
210 229 255
210 229 255
210 229 255
210 229 255
202 214 230
161 141 79
153 132 51
151 131 51
150 130 51
150 130 51
150 130 51
151 131 51
152 131 51
153 131 51
154 132 51
156 132 51
157 133 51
159 134 51
160 134 51
161 135 51
163 135 51
164 136 51
166 136 51
167 137 51
169 138 51
170 138 51
171 139 51
172 139 51
174 140 51
175 140 51
176 141 51
177 141 51
161 131 37
151 125 29
135 114 7
127 108 0
121 102 0
118 100 0
118 98 0
114 94 0
115 94 0
114 92 0
110 87 0
115 90 0
108 84 0
111 87 0
110 84 0
107 83 0
104 77 0
103 75 0
109 81 0
105 78 0
105 76 0
111 83 0
100 71 0
101 74 0
101 77 0
103 78 0
100 72 0
96 69 0
104 77 0
101 76 0
102 75 0
102 78 0
95 73 0
104 79 0
104 80 0
91 68 0
100 76 0
95 72 0
100 79 0
97 76 0
104 83 0
98 79 0
107 85 0
96 78 0
94 76 0
94 77 0
99 83 0
98 82 0
106 89 0
97 83 0
96 81 0
103 87 0
118 100 0
113 97 0
112 97 0
122 104 0
130 111 0
136 116 0
132 113 0
143 120 12
152 126 28
170 137 44
178 142 51
177 141 51
177 141 51
177 141 51
176 141 51
176 141 51
175 140 51
175 140 51
174 140 51
174 140 51
173 140 51
173 139 51
172 139 51
172 139 51
172 139 51
171 139 51
171 139 51
170 138 51
170 138 51
169 138 51
169 138 51
169 138 51
168 138 51
168 137 51
168 137 51
167 137 51
167 137 51
166 137 51
166 137 51
166 136 51
165 136 51
165 136 51
165 136 51
165 136 51
164 136 51
164 136 51
164 136 51
163 136 51
163 135 51
164 181 204
164 181 204
164 181 204
165 182 204
165 182 204
165 182 204
166 182 204
166 182 204
166 182 204
167 183 204
167 183 204
167 183 204
168 183 204
168 183 204
168 184 204
169 184 204
169 184 204
170 184 204
170 185 204
170 185 204
171 185 204
171 185 204
172 185 204
172 186 204
173 186 204
173 186 204
173 186 204
174 187 204
174 187 204
175 187 204
175 187 204
176 188 204
176 188 204
177 188 204
177 188 204
178 189 204
176 187 197
159 174 143
144 161 73
136 154 0
134 152 0
133 151 0
124 142 0
119 135 0
115 131 0
116 133 0
107 123 0
97 112 0
88 103 0
94 108 0
88 103 0
95 109 0
90 104 0
101 115 0
94 108 0
104 119 0
95 111 0
107 121 0
92 107 0
104 119 0
102 116 0
104 117 0
102 115 0
94 108 0
99 112 0
95 109 0
106 119 0
100 113 0
107 120 0
99 112 0
105 118 0
100 112 0
101 113 0
96 108 0
102 114 0
103 116 0
97 110 0
99 111 0
104 116 0
100 112 0
102 114 0
96 108 0
100 113 0
98 111 0
104 117 0
100 112 0
108 122 0
110 124 0
102 115 0
107 121 0
109 122 0
108 122 0
108 123 0
107 122 0
115 130 0
116 132 0
121 138 0
118 136 0
120 138 0
124 141 0
125 143 0
133 151 35
156 170 134
171 184 186
176 188 204
175 187 204
174 187 204
173 186 204
172 185 204
170 185 204
169 184 204
167 183 204
166 182 204
164 181 204
163 181 204
162 180 204
160 179 204
158 178 204
157 177 204
155 177 204
154 176 204
153 175 204
152 175 204
151 174 204
151 174 204
151 174 204
151 174 204
153 175 204
157 178 204
195 214 239
210 230 255
210 230 255
210 230 255
210 229 255
210 229 255
210 229 255
210 229 255
210 229 255
210 229 255
210 229 255
210 229 255
210 229 255
210 229 255
210 229 255
210 229 255
210 229 255
210 229 255
200 220 248
94 121 175
59 94 159
61 97 162
61 96 158
61 95 154
60 95 159
61 96 158
61 97 156
62 98 163
61 96 158
61 97 162
61 96 159
60 96 152
63 99 165
62 98 159
61 96 155
60 96 153
62 98 160
62 98 162
62 98 158
61 96 155
61 97 157
61 97 155
61 97 154
61 97 157
61 96 158
62 98 160
62 99 166
62 98 158
62 98 158
61 97 161
62 98 158
61 97 156
61 97 153
63 99 166
62 98 157
62 98 160
62 98 159
62 98 161
62 97 156
63 99 163
61 97 154
60 96 150
62 98 159
62 98 160
62 98 161
62 97 158
61 97 154
62 97 159
62 98 159
62 98 159
62 98 163
61 97 158
63 98 158
61 97 155
63 99 161
63 99 160
61 97 157
62 97 155
61 97 153
62 98 163
62 98 156
61 97 157
62 97 157
61 97 151
61 97 154
62 98 159
61 96 156
62 98 159
61 97 149
60 96 153
61 96 152
62 98 161
62 97 159
62 97 155
61 97 154
62 98 158
61 97 158
62 98 157
61 97 153
60 96 158
62 97 153
62 97 162
61 97 155
62 97 156
60 96 155
61 98 162
62 98 157
62 97 157
62 98 164
61 96 156
61 96 158
62 98 162
61 95 153
62 98 162
61 97 159
61 97 160
60 94 154
61 97 164
60 95 158
60 95 153
60 94 159
60 95 159
85 113 168
203 222 249
210 229 255
210 229 255
210 229 255
210 229 255
210 229 255
210 229 255
210 229 255
210 229 255
210 229 255
210 229 255
210 229 255
210 229 255
210 229 255
210 229 255
210 230 255
210 230 255
210 230 255
197 206 216
159 137 67
153 131 51
151 131 51
151 130 51
151 130 51
151 131 51
152 131 51
153 131 51
154 132 51
155 132 51
157 133 51
158 133 51
160 134 51
161 135 51
163 135 51
164 136 51
166 137 51
167 137 51
169 138 51
170 138 51
171 139 51
173 139 51
174 140 51
175 140 51
176 141 51
171 137 46
156 128 33
133 113 5
125 106 0
121 102 0
123 101 0
129 108 0
116 96 0
108 87 0
111 88 0
112 88 0
108 82 0
105 79 0
115 87 0
105 78 0
108 78 0
108 79 0
104 76 0
106 80 0
108 81 0
108 79 0
102 72 0
98 67 0
102 71 0
100 71 0
101 71 0
100 67 0
103 75 0
93 65 0
97 69 0
103 75 0
102 75 0
99 71 0
104 75 0
100 72 0
102 75 0
101 76 0
102 77 0
107 81 0
97 73 0
101 75 0
99 77 0
93 72 0
103 82 0
96 73 0
98 76 0
94 76 0
96 77 0
97 79 0
95 78 0
100 81 0
93 77 0
93 77 0
101 85 0
90 75 0
104 88 0
104 89 0
102 88 0
110 94 0
120 102 0
123 106 0
128 110 0
132 113 0
138 117 0
138 117 0
144 121 16
162 132 37
175 140 48
178 141 51
177 141 51
177 141 51
176 141 51
176 141 51
175 140 51
175 140 51
174 140 51
174 140 51
174 140 51
173 140 51
173 139 51
172 139 51
172 139 51
171 139 51
171 139 51
170 138 51
170 138 51
170 138 51
169 138 51
169 138 51
168 138 51
168 137 51
168 137 51
167 137 51
167 137 51
167 137 51
166 137 51
166 137 51
166 136 51
165 136 51
165 136 51
165 136 51
164 136 51
164 136 51
164 136 51
165 182 204
165 182 204
165 182 204
166 182 204
166 182 204
166 182 204
167 183 204
167 183 204
167 183 204
168 183 204
168 183 204
168 183 204
169 184 204
169 184 204
169 184 204
170 184 204
170 185 204
171 185 204
171 185 204
171 185 204
172 186 204
172 186 204
173 186 204
173 186 204
174 186 204
174 187 204
175 187 204
175 187 204
175 188 204
176 188 204
176 188 204
177 188 204
177 189 204
178 189 204
173 185 189
159 174 144
139 158 35
137 156 0
134 151 0
129 146 0
132 150 0
124 141 0
116 130 0
100 115 0
105 121 0
103 117 0
92 106 0
86 100 0
98 112 0
94 108 0
98 113 0
82 95 0
94 108 0
101 114 0
98 111 0
102 117 0
90 104 0
97 109 0
96 109 0
101 115 0
104 117 0
86 99 0
102 116 0
104 116 0
96 109 0
107 120 0
94 106 0
99 112 0
96 109 0
98 111 0
99 111 0
101 114 0
100 112 0
98 110 0
102 115 0
98 110 0
99 111 0
93 105 0
98 110 0
102 114 0
93 105 0
107 119 0
106 118 0
105 117 0
103 116 0
101 113 0
104 117 0
101 114 0
103 115 0
100 113 0
106 119 0
111 124 0
107 119 0
112 127 0
105 120 0
110 125 0
117 132 0
115 131 0
114 130 0
114 131 0
123 140 0
126 143 0
127 146 0
130 149 0
147 163 108
168 181 177
176 188 202
176 188 204
174 187 204
173 186 204
171 185 204
170 185 204
169 184 204
167 183 204
166 182 204
164 181 204
163 180 204
161 180 204
159 179 204
158 178 204
156 177 204
155 176 204
154 176 204
153 175 204
152 175 204
151 174 204
151 174 204
152 175 204
153 175 204
156 177 204
191 210 234
211 230 255
211 230 255
211 230 255
211 230 255
211 230 255
210 230 255
210 230 255
210 230 255
210 229 255
210 229 255
210 229 255
210 229 255
210 229 255
210 229 255
210 229 255
210 229 255
127 150 194
60 95 163
61 96 157
61 96 161
61 96 160
60 95 154
61 97 163
59 94 150
61 96 146
61 97 157
61 97 159
60 96 158
59 94 152
61 97 155
61 96 158
61 97 163
61 97 158
61 97 161
61 97 158
61 96 159
61 97 159
61 97 157
61 97 159
60 96 148
63 99 165
61 96 153
61 96 149
62 98 159
61 97 158
62 98 160
61 97 157
61 97 148
63 99 162
61 96 156
63 98 162
62 98 159
61 97 154
61 98 161
61 96 147
62 98 162
61 96 150
62 97 153
62 98 159
61 97 156
60 96 145
62 98 158
62 97 156
61 97 152
61 96 153
61 97 151
60 96 147
62 97 155
61 96 152
61 97 153
62 97 154
62 97 158
62 97 157
61 97 148
62 98 156
63 98 154
62 98 166
61 97 149
61 97 153
63 99 164
62 98 155
63 99 160
61 97 153
62 98 156
62 98 159
62 98 159
62 98 159
62 97 152
62 98 155
63 99 162
62 97 152
62 98 160
61 97 156
62 99 163
62 97 153
62 98 160
60 95 156
61 96 151
62 97 151
62 98 156
61 97 156
62 98 166
61 96 155
61 96 151
61 96 149
62 97 158
62 98 161
62 98 167
61 97 157
62 97 154
62 98 161
61 95 155
61 96 158
62 97 159
61 96 154
61 95 151
60 95 149
60 94 154
60 96 154
59 94 155
59 93 154
125 147 187
210 229 255
210 229 255
210 229 255
210 229 255
210 229 255
210 229 255
210 229 255
210 229 255
210 230 255
210 230 255
211 230 255
211 230 255
211 230 255
211 230 255
211 230 255
211 230 255
191 194 194
157 133 51
153 131 51
152 131 51
151 131 51
151 131 51
152 131 51
153 131 51
154 132 51
155 132 51
156 133 51
158 133 51
159 134 51
161 135 51
163 135 51
164 136 51
166 136 51
167 137 51
169 138 51
170 138 51
172 139 51
173 139 51
174 140 51
175 141 51
176 141 50
163 132 41
148 123 26
133 113 0
127 107 0
128 108 0
119 100 0
116 95 0
121 98 0
112 90 0
112 87 0
110 85 0
108 83 0
113 87 0
112 83 0
110 80 0
103 75 0
99 69 0
102 74 0
108 79 0
104 73 0
100 69 0
101 71 0
98 67 0
101 69 0
104 71 0
96 65 0
103 72 0
104 73 0
102 70 0
97 63 0
98 69 0
101 70 0
99 67 0
102 72 0
106 75 0
103 75 0
101 72 0
98 70 0
97 70 0
105 75 0
94 66 0
101 79 0
103 76 0
102 80 0
95 72 0
103 79 0
95 73 0
102 81 0
96 75 0
101 81 0
89 69 0
101 82 0
96 78 0
104 85 0
91 74 0
98 82 0
87 73 0
93 78 0
85 71 0
99 83 0
105 90 0
102 88 0
104 90 0
117 100 0
122 104 0
124 106 0
128 109 0
136 115 0
137 117 0
139 118 7
155 128 31
173 138 47
178 142 51
177 141 51
177 141 51
176 141 51
176 141 51
176 141 51
175 140 51
175 140 51
174 140 51
174 140 51
173 140 51
173 139 51
172 139 51
172 139 51
171 139 51
171 139 51
171 138 51
170 138 51
170 138 51
169 138 51
169 138 51
169 138 51
168 138 51
168 137 51
168 137 51
167 137 51
167 137 51
166 137 51
166 137 51
166 137 51
166 136 51
165 136 51
165 136 51
165 136 51
166 182 204
166 182 204
166 182 204
166 182 204
167 183 204
167 183 204
167 183 204
168 183 204
168 183 204
168 184 204
169 184 204
169 184 204
169 184 204
170 184 204
170 185 204
171 185 204
171 185 204
172 185 204
172 186 204
172 186 204
173 186 204
173 186 204
174 187 204
174 187 204
175 187 204
165 177 192
144 157 170
125 137 150
104 117 129
83 98 105
67 84 92
62 80 82
70 85 87
81 95 100
100 118 57
121 139 28
132 148 0
127 144 0
125 141 0
120 134 0
111 126 0
109 125 0
98 111 0
95 110 0
84 98 0
91 105 0
89 103 0
92 106 0
81 93 0
92 105 0
89 104 0
86 100 0
89 103 0
88 100 0
95 109 0
100 114 0
98 112 0
95 108 0
108 121 0
98 111 0
93 106 0
97 110 0
107 120 0
97 109 0
100 112 0
95 107 0
99 111 0
102 115 0
101 112 0
97 109 0
93 104 0
100 111 0
97 109 0
103 114 0
97 109 0
101 113 0
100 112 0
97 108 0
98 109 0
100 112 0
98 109 0
102 114 0
96 108 0
104 115 0
101 113 0
100 112 0
101 113 0
97 108 0
103 114 0
102 114 0
103 115 0
105 118 0
103 116 0
107 120 0
104 117 0
107 121 0
108 121 0
112 127 0
111 126 0
118 133 0
119 136 0
125 141 0
123 140 0
122 140 0
129 147 0
131 149 0
143 160 76
166 179 171
176 187 202
176 188 204
174 187 204
173 186 204
171 185 204
170 184 204
168 184 204
167 183 204
165 182 204
164 181 204
162 180 204
160 179 204
159 179 204
157 178 204
156 177 204
155 176 204
153 176 204
153 175 204
152 175 204
152 175 204
152 175 204
153 176 204
157 177 204
189 207 232
211 230 255
211 230 255
211 230 255
211 230 255
211 230 255
211 230 255
211 230 255
211 230 255
211 230 255
211 230 255
211 230 255
211 230 255
210 230 255
210 230 255
174 194 225
59 93 153
60 95 154
61 96 157
60 95 151
61 96 160
61 97 162
60 96 158
62 98 164
62 97 157
61 97 158
61 96 153
61 96 158
61 97 156
61 97 159
62 98 163
60 96 154
61 96 157
60 95 150
60 95 149
62 98 160
61 96 159
61 97 157
61 97 152
61 97 159
61 97 159
61 97 152
62 98 160
61 95 153
63 98 164
60 95 148
62 97 158
61 96 155
62 99 164
62 98 160
62 98 156
62 98 161
62 97 151
61 97 151
61 96 151
62 97 150
61 97 153
62 98 157
62 98 154
63 98 160
61 97 157
62 97 150
61 96 153
61 97 153
61 97 154
61 96 148
62 99 166
63 98 159
62 98 160
62 98 158
61 96 149
63 99 163
61 97 154
62 98 161
62 97 154
61 96 152
63 99 164
62 98 160
61 97 156
61 97 156
61 96 151
61 97 156
61 97 151
61 97 157
61 97 157
62 97 155
63 98 158
61 97 156
62 97 157
62 98 160
62 97 160
61 97 156
62 98 156
62 98 159
62 97 156
62 98 156
61 96 153
62 98 156
61 97 152
62 97 153
61 95 152
61 97 157
61 97 156
62 98 161
62 97 153
61 95 151
61 96 156
62 97 153
59 94 149
61 97 160
61 97 156
62 97 160
62 97 159
61 96 157
61 96 161
61 96 153
61 97 160
61 95 155
60 94 157
62 98 168
58 92 153
60 94 161
173 193 229
210 230 255
210 230 255
211 230 255
211 230 255
211 230 255
211 230 255
211 230 255
211 230 255
211 230 255
211 230 255
211 230 255
211 230 255
211 230 255
211 230 255
188 189 186
157 133 51
153 132 51
152 131 51
152 131 51
152 131 51
153 131 51
154 132 51
155 132 51
156 133 51
158 133 51
159 134 51
161 134 51
162 135 51
164 136 51
165 136 51
167 137 51
168 138 51
170 138 51
171 139 51
173 139 51
174 140 51
176 141 51
176 141 50
167 135 43
141 118 19
132 113 0
128 109 0
127 107 0
117 96 0
123 101 0
115 91 0
115 91 0
105 79 0
112 86 0
109 82 0
108 79 0
108 81 0
107 79 0
107 77 0
101 69 0
100 70 0
102 70 0
105 73 0
100 67 0
102 69 0
98 66 0
97 63 0
94 60 0
100 67 0
98 65 0
101 67 0
99 67 0
100 66 0
100 66 0
94 62 0
102 71 0
98 68 0
95 63 0
95 64 0
96 67 0
99 68 0
94 64 0
99 70 0
98 70 0
105 75 0
96 69 0
95 66 0
103 78 0
97 72 0
98 72 0
99 74 0
92 70 0
96 71 0
99 76 0
104 81 0
99 79 0
99 77 0
94 75 0
96 76 0
96 77 0
87 71 0
93 77 0
82 68 0
92 76 0
84 72 0
92 78 0
74 65 0
102 87 0
102 87 0
105 92 0
117 100 0
117 100 0
125 107 0
132 113 0
136 115 0
125 108 3
103 89 13
87 74 25
75 66 24
71 64 22
69 62 21
88 75 25
109 90 33
124 102 36
149 121 43
166 133 48
175 140 51
174 140 51
174 140 51
173 140 51
173 139 51
172 139 51
172 139 51
172 139 51
171 139 51
171 139 51
170 138 51
170 138 51
170 138 51
169 138 51
169 138 51
168 138 51
168 137 51
168 137 51
167 137 51
167 137 51
167 137 51
166 137 51
166 137 51
166 137 51
166 136 51
166 182 204
167 183 204
167 183 204
167 183 204
167 183 204
168 183 204
168 183 204
168 184 204
169 184 204
169 184 204
170 184 204
170 184 204
170 185 204
171 185 204
171 185 204
172 185 204
172 186 204
172 186 204
173 186 204
173 186 204
174 187 204
173 186 204
153 166 181
131 144 157
78 94 109
40 63 70
39 62 73
37 58 67
37 59 59
35 56 60
38 61 72
39 62 64
39 62 58
37 59 61
33 54 39
38 59 51
95 110 26
118 133 0
119 134 0
110 125 0
96 111 0
100 115 0
88 102 0
78 92 0
82 94 0
91 105 0
82 95 0
80 93 0
91 105 0
88 101 0
93 106 0
97 112 0
88 102 0
92 106 0
91 104 0
90 103 0
97 110 0
99 113 0
90 102 0
94 107 0
102 115 0
110 123 0
99 112 0
102 114 0
99 112 0
99 111 0
96 110 0
102 114 0
99 111 0
99 112 0
92 104 0
97 109 0
97 108 0
99 110 0
94 107 0
100 111 0
96 108 0
105 116 0
92 104 0
97 109 0
93 105 0
98 109 0
101 113 0
100 112 0
94 105 0
98 110 0
100 112 0
105 116 0
90 102 0
96 108 0
97 109 0
97 108 0
100 111 0
109 121 0
102 115 0
104 116 0
101 114 0
104 117 0
111 124 0
107 121 0
114 129 0
116 131 0
122 138 0
120 136 0
123 140 0
123 140 0
126 144 0
131 149 0
147 163 93
164 177 162
176 188 203
176 188 204
174 187 204
173 186 204
171 185 204
170 184 204
168 183 204
167 183 204
165 182 204
163 181 204
162 180 204
160 179 204
158 178 204
157 177 204
156 177 204
154 176 204
153 176 204
153 175 204
152 175 204
153 175 204
154 176 204
157 177 204
184 202 227
211 230 255
211 230 255
211 230 255
211 230 255
211 230 255
211 230 255
211 230 255
211 230 255
211 230 255
211 230 255
211 230 255
211 230 255
205 224 250
72 104 164
60 95 158
58 92 155
59 94 155
60 95 154
60 96 160
61 96 157
60 95 158
62 98 159
61 96 160
61 96 158
61 97 158
60 95 158
60 94 143
61 96 154
62 98 158
61 96 150
61 96 154
61 97 160
61 96 152
61 97 152
61 97 158
61 97 154
61 97 157
61 96 145
61 96 150
60 96 147
62 97 153
62 99 165
62 97 158
62 98 158
62 98 158
63 99 164
61 97 160
62 98 158
61 96 150
61 96 153
61 96 152
61 97 157
61 96 153
61 97 154
62 98 161
60 95 144
62 98 157
62 98 155
61 96 149
63 99 158
62 98 156
62 97 153
62 97 154
61 97 156
62 98 154
61 96 151
60 95 145
61 97 151
62 97 156
60 96 153
61 96 153
62 98 160
61 97 149
61 96 155
62 97 156
62 98 163
61 97 156
61 97 155
62 97 151
61 96 148
62 98 158
62 97 150
61 96 153
61 97 156
61 97 160
61 96 152
62 97 158
61 97 151
62 97 153
63 99 164
61 97 154
62 97 153
62 98 163
63 99 164
61 97 156
62 97 153
62 97 152
61 97 152
60 95 145
60 94 148
61 96 152
62 98 157
61 96 155
62 97 159
61 96 152
60 95 153
61 96 153
60 96 154
60 95 153
61 96 158
62 97 159
62 97 159
60 95 153
61 96 161
60 95 157
62 98 163
60 95 158
62 96 156
60 95 157
59 93 149
80 108 163
203 222 248
211 230 255
211 230 255
211 230 255
211 230 255
211 230 255
211 230 255
211 230 255
211 230 255
211 230 255
211 230 255
211 230 255
211 230 255
191 194 194
156 133 51
154 132 51
153 131 51
152 131 51
153 131 51
153 132 51
154 132 51
156 132 51
157 133 51
158 133 51
160 134 51
161 135 51
163 135 51
165 136 51
166 137 51
168 137 51
170 138 51
171 139 51
173 139 51
174 140 51
175 141 51
176 141 50
164 133 40
142 120 17
131 111 0
127 107 0
125 106 0
121 99 0
120 97 0
119 94 0
112 88 0
111 85 0
115 88 0
111 87 0
110 82 0
103 77 0
107 75 0
107 77 0
102 68 0
98 69 0
106 71 0
100 68 0
97 60 0
99 65 0
100 66 0
101 67 0
99 64 0
94 61 0
95 62 0
96 60 0
91 57 0
96 62 0
99 64 0
97 63 0
98 64 0
100 66 0
97 63 0
96 64 0
96 63 0
102 70 0
98 68 0
99 69 0
96 65 0
97 67 0
100 71 0
92 64 0
95 66 0
98 70 0
91 64 0
103 77 0
102 74 0
100 75 0
99 74 0
105 80 0
96 72 0
98 75 0
95 74 0
98 78 0
100 80 0
93 73 0
95 76 0
84 68 0
91 75 0
79 65 0
80 67 0
83 68 0
89 74 0
86 73 0
73 63 0
89 76 0
88 76 0
95 82 0
105 91 0
111 96 0
125 106 0
97 85 7
36 42 13
35 40 9
37 41 11
35 39 10
38 42 15
37 42 15
37 41 13
39 44 15
37 42 11
37 41 13
41 46 16
82 71 24
125 102 36
150 122 44
173 139 50
174 140 51
173 140 51
173 139 51
172 139 51
172 139 51
172 139 51
171 139 51
171 139 51
170 138 51
170 138 51
170 138 51
169 138 51
169 138 51
168 138 51
168 137 51
168 137 51
167 137 51
167 137 51
167 137 51
166 137 51
166 137 51
167 183 204
167 183 204
168 183 204
168 183 204
168 183 204
169 184 204
169 184 204
169 184 204
170 184 204
170 184 204
170 185 204
171 185 204
171 185 204
172 185 204
172 186 204
172 186 204
173 186 204
173 186 204
174 186 204
166 179 196
122 135 146
62 79 92
38 60 64
38 60 70
38 60 76
37 59 63
37 58 72
36 58 58
35 55 61
36 58 55
35 57 50
35 56 57
37 58 54
37 59 59
34 55 45
35 56 49
36 58 55
98 112 18
106 120 0
92 106 0
86 99 0
83 96 0
69 82 0
75 87 0
80 91 0
83 96 0
82 95 0
90 103 0
87 100 0
94 108 0
90 103 0
92 105 0
92 105 0
95 109 0
103 117 0
95 108 0
94 107 0
95 108 0
108 120 0
96 109 0
106 119 0
101 114 0
95 107 0
99 111 0
94 107 0
98 111 0
100 113 0
101 112 0
101 113 0
100 112 0
102 114 0
97 108 0
98 111 0
100 112 0
91 103 0
98 110 0
98 111 0
95 107 0
97 109 0
94 106 0
96 108 0
95 107 0
97 108 0
89 99 0
96 108 0
96 108 0
100 112 0
102 114 0
91 102 0
104 115 0
97 108 0
98 110 0
98 111 0
101 113 0
104 115 0
105 116 0
104 117 0
102 114 0
107 120 0
109 122 0
110 123 0
107 121 0
118 132 0
110 126 0
114 130 0
123 139 0
124 141 0
122 139 0
130 149 0
130 147 0
138 155 67
167 180 171
177 188 204
175 187 204
174 187 204
172 186 204
170 185 204
169 184 204
167 183 204
166 182 204
164 181 204
162 180 204
161 179 204
159 179 204
158 178 204
156 177 204
155 176 204
154 176 204
153 175 204
153 175 204
153 175 204
154 176 204
157 177 204
184 202 227
211 230 255
211 230 255
211 230 255
211 230 255
211 230 255
211 230 255
211 230 255
211 230 255
211 230 255
211 230 255
211 230 255
135 157 197
59 94 154
60 95 153
59 94 154
59 94 149
61 96 152
60 95 154
60 95 153
61 97 160
60 95 147
62 98 162
61 97 160
61 97 159
60 95 152
61 96 156
61 96 152
60 96 158
61 97 159
61 96 150
61 97 158
62 98 163
62 98 164
61 96 151
62 98 162
61 97 163
62 97 158
61 96 151
62 98 159
61 96 151
61 96 152
61 97 154
61 96 151
62 98 158
62 97 160
61 97 154
62 97 153
61 96 150
62 98 157
61 97 155
62 97 157
62 98 159
61 96 149
63 99 160
63 98 160
61 97 150
61 97 158
61 97 155
61 97 158
62 97 154
62 97 149
60 96 150
62 97 152
62 98 160
62 97 159
62 97 155
62 97 154
61 96 148
62 98 161
61 97 150
61 96 147
62 98 158
61 97 155
61 97 153
62 98 158
62 98 159
61 96 156
62 98 157
61 97 156
61 97 148
62 98 161
62 98 155
61 96 145
61 97 156
62 97 151
61 96 154
62 97 152
61 97 154
62 98 160
62 97 155
62 97 162
61 97 155
62 98 156
61 96 144
61 97 156
61 97 154
61 97 153
62 97 153
62 98 161
62 97 151
61 97 155
61 96 150
62 97 161
61 96 147
62 98 157
61 95 147
60 95 151
60 96 154
60 96 153
62 97 157
62 97 156
61 96 156
60 95 152
59 93 147
60 95 155
60 94 154
59 93 149
61 95 156
61 96 164
60 93 149
123 145 188
211 230 255
211 230 255
211 230 255
211 230 255
211 230 255
211 230 255
211 230 255
211 230 255
211 230 255
211 230 255
211 230 255
181 175 158
157 133 51
154 132 51
153 131 51
153 131 51
153 131 51
154 132 51
155 132 51
156 133 51
158 133 51
159 134 51
161 134 51
162 135 51
164 136 51
166 136 51
167 137 51
169 138 51
170 138 51
172 139 51
174 140 51
175 140 51
176 141 51
167 135 42
149 123 26
132 112 0
127 107 0
126 106 0
123 103 0
118 97 0
122 98 0
112 89 0
117 91 0
112 87 0
115 88 0
107 80 0
110 81 0
110 79 0
101 69 0
107 71 0
108 77 0
102 71 0
101 65 0
97 66 0
103 69 0
106 70 0
102 66 0
95 61 0
98 64 0
100 63 0
96 59 0
93 61 0
95 61 0
98 64 0
95 62 0
95 62 0
100 66 0
97 62 0
95 60 0
96 66 0
98 66 0
94 62 0
98 66 0
93 62 0
101 68 0
94 60 0
98 67 0
96 66 0
93 62 0
99 70 0
100 72 0
92 65 0
100 72 0
97 71 0
99 72 0
93 69 0
104 79 0
105 80 0
96 72 0
100 77 0
97 74 0
97 74 0
104 81 0
98 79 0
89 69 0
82 66 0
80 63 0
88 69 0
79 64 0
75 62 0
78 65 0
81 69 0
82 69 0
90 76 0
88 76 0
95 82 0
97 84 0
103 90 7
35 41 9
34 40 13
33 37 10
34 38 10
35 39 9
37 42 12
37 42 10
36 41 11
35 38 9
35 39 13
37 40 12
34 38 12
37 41 13
38 41 15
39 44 15
71 64 24
122 101 37
158 127 46
174 140 51
173 140 51
173 139 51
172 139 51
172 139 51
171 139 51
171 139 51
171 139 51
170 138 51
170 138 51
170 138 51
169 138 51
169 138 51
169 138 51
168 137 51
168 137 51
168 137 51
167 137 51
167 137 51
168 183 204
168 183 204
168 184 204
169 184 204
169 184 204
169 184 204
170 184 204
170 184 204
170 185 204
171 185 204
171 185 204
171 185 204
172 186 204
172 186 204
173 186 204
173 186 204
171 184 202
139 152 166
97 112 131
37 60 72
37 59 68
35 56 61
38 61 67
36 58 62
37 59 64
35 57 62
37 58 56
37 58 63
36 58 56
33 53 55
35 55 55
36 57 67
35 55 54
36 58 53
35 56 49
35 55 59
34 54 37
63 77 35
82 95 0
85 98 0
64 75 0
72 85 0
67 79 0
81 93 0
86 99 0
75 88 0
92 105 0
91 103 0
98 111 0
98 111 0
103 117 0
101 114 0
98 111 0
96 109 0
100 114 0
99 112 0
92 105 0
106 118 0
102 115 0
96 109 0
101 115 0
108 120 0
99 112 0
104 117 0
97 109 0
105 118 0
99 111 0
100 113 0
102 114 0
100 112 0
107 119 0
95 107 0
106 117 0
91 102 0
98 109 0
101 112 0
97 109 0
99 111 0
95 106 0
99 110 0
97 109 0
96 108 0
97 108 0
97 108 0
93 105 0
98 110 0
96 107 0
92 103 0
103 114 0
102 114 0
94 105 0
98 110 0
100 112 0
99 111 0
104 116 0
105 117 0
99 111 0
106 117 0
109 122 0
105 118 0
109 122 0
107 120 0
114 129 0
113 127 0
117 131 0
117 132 0
118 135 0
121 137 0
119 136 0
126 144 0
129 147 0
135 153 0
148 165 104
174 186 193
176 188 204
175 187 204
173 186 204
171 185 204
170 184 204
168 184 204
166 183 204
165 182 204
163 181 204
162 180 204
160 179 204
159 178 204
157 177 204
156 177 204
155 176 204
154 176 204
153 176 204
154 176 204
155 176 204
158 178 204
192 210 234
212 230 255
212 230 255
212 230 255
212 230 255
211 230 255
211 230 255
211 230 255
211 230 255
211 230 255
173 192 225
60 94 156
59 94 156
61 97 161
60 95 156
61 96 155
59 94 155
61 97 161
61 96 165
60 95 152
61 97 157
62 98 159
61 96 158
60 96 154
59 94 147
60 95 153
62 98 162
60 96 153
61 96 153
61 96 152
61 97 154
61 97 151
61 96 150
62 98 155
62 97 157
62 97 151
62 97 157
62 98 161
61 97 153
61 96 144
59 94 145
61 97 152
62 98 157
63 98 160
60 95 154
62 97 148
61 97 160
61 96 143
60 96 149
62 98 155
61 97 150
61 96 153
61 97 153
61 96 151
62 97 151
61 96 148
62 97 152
61 97 148
59 95 142
61 98 158
61 97 150
62 98 151
62 98 156
61 97 152
62 98 164
61 96 149
60 96 141
61 96 148
61 96 149
60 96 144
61 96 148
60 96 141
61 97 152
61 97 152
61 96 153
62 97 158
61 97 153
61 97 153
62 98 162
61 97 148
61 97 157
60 96 150
62 98 158
61 96 150
60 95 152
62 97 155
61 97 152
62 97 161
61 97 151
60 95 149
62 97 154
62 97 155
62 97 153
62 97 156
62 97 154
61 96 154
62 97 151
60 95 147
61 97 159
60 95 142
62 98 157
62 97 159
61 97 161
61 96 158
60 94 151
61 96 150
61 97 154
61 96 147
61 96 150
61 96 158
61 97 160
61 97 158
61 95 155
60 94 156
60 95 154
60 95 151
62 97 161
60 94 155
59 92 146
58 91 149
59 92 152
182 201 231
211 230 255
211 230 255
211 230 255
211 230 255
211 230 255
212 230 255
212 230 255
212 230 255
212 230 255
186 184 175
158 133 51
155 132 51
154 132 51
153 132 51
154 132 51
155 132 51
156 132 51
157 133 51
158 133 51
160 134 51
162 135 51
163 136 51
165 136 51
167 137 51
168 138 51
170 138 51
171 139 51
173 140 51
175 140 51
176 141 51
175 140 49
149 124 26
135 116 0
131 111 0
127 108 0
127 106 0
125 105 0
120 97 0
117 93 0
116 91 0
110 85 0
115 88 0
113 87 0
105 76 0
106 76 0
109 78 0
100 69 0
105 73 0
102 69 0
103 69 0
98 63 0
93 60 0
97 64 0
93 58 0
92 57 0
95 60 0
99 63 0
98 61 0
97 60 0
97 62 0
95 60 0
98 62 0
95 59 0
95 59 0
97 64 0
98 64 0
97 63 0
95 61 0
97 64 0
96 62 0
95 61 0
96 64 0
100 68 0
91 61 0
110 77 0
89 62 0
101 70 0
99 69 0
99 72 0
94 65 0
100 72 0
100 72 0
99 74 0
97 71 0
103 74 0
104 79 0
105 82 0
93 71 0
93 71 0
97 75 0
89 67 0
94 73 0
99 78 0
98 78 0
95 78 0
91 72 0
85 68 0
82 66 0
85 69 0
80 64 0
74 60 0
70 58 0
63 53 0
65 55 0
75 66 0
83 72 0
60 55 8
33 38 12
30 33 8
34 38 8
35 39 9
34 36 10
33 36 8
36 39 9
36 39 10
33 36 9
36 40 12
37 40 14
37 40 11
38 42 11
37 41 10
36 39 12
37 41 13
37 41 12
38 43 16
88 76 28
141 115 42
174 140 51
173 140 51
173 139 51
172 139 51
172 139 51
171 139 51
171 139 51
171 139 51
170 138 51
170 138 51
170 138 51
169 138 51
169 138 51
169 138 51
168 138 51
168 137 51
168 137 51
168 184 204
169 184 204
169 184 204
169 184 204
170 184 204
170 184 204
170 185 204
171 185 204
171 185 204
171 185 204
172 186 204
172 186 204
173 186 204
173 186 204
171 184 202
134 147 164
85 100 114
41 65 77
38 61 78
37 59 66
37 59 75
36 58 57
34 54 69
38 60 65
37 59 66
34 55 57
36 57 59
34 55 51
36 57 62
34 55 56
35 56 57
34 54 55
33 53 53
32 52 37
35 56 57
32 51 34
32 52 44
44 59 25
65 77 0
74 85 0
71 82 0
66 78 0
77 89 0
68 79 0
78 90 0
78 92 0
85 99 0
92 105 0
99 113 0
87 100 0
100 114 0
102 116 0
100 114 0
108 122 0
101 113 0
101 114 0
93 106 0
96 110 0
106 119 0
103 116 0
95 109 0
100 112 0
102 114 0
103 115 0
101 113 0
101 114 0
102 114 0
105 117 0
101 113 0
101 113 0
100 112 0
105 116 0
102 113 0
98 110 0
95 106 0
101 112 0
93 105 0
100 111 0
94 105 0
90 101 0
88 99 0
95 106 0
95 106 0
93 104 0
102 114 0
91 103 0
95 107 0
93 104 0
96 107 0
96 107 0
97 108 0
97 109 0
94 105 0
97 108 0
102 114 0
104 115 0
105 117 0
103 115 0
106 118 0
100 112 0
111 123 0
114 127 0
107 120 0
114 128 0
112 126 0
114 129 0
122 137 0
121 137 0
122 139 0
122 140 0
125 142 0
125 143 0
133 151 0
137 156 28
164 177 161
176 188 203
175 187 204
174 187 204
172 186 204
171 185 204
169 184 204
167 183 204
166 182 204
164 181 204
162 180 204
161 179 204
159 179 204
158 178 204
156 177 204
155 177 204
154 176 204
154 176 204
154 176 204
156 177 204
159 178 204
187 205 230
212 230 255
212 230 255
212 230 255
212 230 255
212 230 255
212 230 255
212 230 255
207 225 251
77 106 164
59 95 159
61 96 156
58 93 152
59 94 152
60 96 155
60 95 153
61 96 161
61 96 157
60 95 150
60 96 149
61 97 157
61 96 159
61 96 156
61 96 155
61 96 149
60 96 156
62 97 152
62 97 156
61 96 150
60 95 147
61 96 154
61 97 151
61 96 155
61 96 151
62 98 156
61 96 153
62 97 150
62 98 157
62 98 159
61 96 149
60 96 153
61 97 151
62 98 157
61 96 153
61 96 153
61 97 152
61 97 154
62 97 154
60 95 149
62 98 155
62 98 157
60 96 152
62 98 158
60 96 152
62 97 154
61 96 151
61 97 155
61 97 156
62 98 159
62 97 161
61 96 153
61 97 152
62 97 154
61 97 158
63 98 157
60 96 145
62 97 151
61 97 155
62 97 156
63 98 164
62 98 159
61 97 148
61 96 145
62 97 155
62 98 161
61 96 152
62 97 155
61 97 150
61 97 152
62 98 152
63 99 164
62 98 163
61 97 152
62 97 154
61 97 152
62 98 161
61 97 156
61 97 158
62 97 158
61 96 147
61 96 143
60 94 145
63 99 164
61 96 149
60 95 143
62 97 150
62 97 158
62 98 154
62 98 162
60 95 151
61 96 151
60 94 143
61 97 161
60 95 150
60 95 148
61 96 159
61 96 158
61 96 154
61 96 152
62 97 158
62 97 153
59 94 154
62 97 156
58 92 141
61 96 155
60 94 151
60 94 150
61 95 161
61 96 155
60 94 154
75 105 162
208 226 252
212 230 255
212 230 255
212 230 255
212 230 255
212 230 255
212 230 255
212 230 255
193 197 199
159 134 51
155 132 51
154 132 51
154 132 51
154 132 51
155 132 51
156 133 51
158 133 51
159 134 51
161 134 51
162 135 51
164 136 51
166 136 51
167 137 51
169 138 51
171 139 51
172 139 51
174 140 51
175 140 51
176 141 50
163 132 38
141 119 16
133 114 0
124 104 0
125 105 0
124 103 0
120 97 0
120 97 0
114 91 0
112 86 0
117 91 0
111 80 0
111 81 0
107 77 0
105 73 0
107 77 0
101 70 0
103 68 0
105 74 0
101 65 0
100 65 0
101 66 0
103 67 0
99 63 0
97 62 0
91 55 0
95 59 0
92 56 0
93 59 0
98 61 0
94 60 0
97 62 0
97 59 0
93 59 0
96 61 0
96 61 0
101 65 0
94 61 0
98 64 0
97 61 0
94 62 0
98 65 0
98 65 0
98 64 0
100 68 0
101 68 0
96 66 0
96 65 0
101 73 0
100 69 0
97 67 0
100 71 0
97 67 0
95 68 0
104 77 0
95 71 0
99 75 0
102 75 0
93 70 0
88 67 0
97 73 0
94 74 0
94 72 0
104 80 0
98 77 0
95 76 0
88 69 0
98 78 0
77 64 0
75 60 0
82 66 0
76 61 0
78 64 0
61 53 0
68 55 0
61 53 0
73 63 0
59 54 5
32 36 10
30 34 9
35 39 9
36 39 10
34 38 7
34 37 8
34 37 11
36 37 8
36 40 11
35 36 9
34 37 9
36 38 10
36 40 10
36 38 9
36 38 12
37 40 11
36 39 11
36 39 11
37 40 14
39 44 15
79 69 24
138 112 40
173 140 51
173 139 51
173 139 51
172 139 51
172 139 51
171 139 51
171 139 51
171 139 51
170 138 51
170 138 51
170 138 51
169 138 51
169 138 51
169 138 51
168 138 51
169 184 204
169 184 204
170 184 204
170 184 204
170 185 204
171 185 204
171 185 204
171 185 204
172 185 204
172 186 204
172 186 204
173 186 204
173 186 204
154 167 183
84 99 110
38 60 77
35 55 68
36 58 66
38 60 79
37 59 73
36 57 63
35 56 62
31 50 53
35 56 61
34 54 59
34 55 47
35 55 55
35 57 57
33 54 54
31 51 48
35 55 50
35 56 51
33 53 57
33 53 48
33 53 49
33 52 45
32 51 39
44 57 28
65 74 0
58 67 0
59 69 0
70 82 0
72 82 0
74 86 0
93 106 0
84 96 0
92 104 0
89 102 0
98 112 0
99 112 0
99 112 0
96 111 0
95 109 0
102 116 0
104 117 0
106 120 0
99 112 0
99 112 0
105 119 0
100 113 0
100 112 0
100 113 0
101 114 0
102 115 0
102 115 0
101 114 0
103 115 0
100 112 0
95 107 0
104 116 0
98 110 0
99 111 0
100 111 0
100 112 0
96 108 0
97 109 0
98 109 0
98 110 0
97 108 0
98 109 0
93 105 0
97 109 0
90 101 0
91 103 0
98 110 0
96 108 0
94 105 0
96 108 0
93 104 0
92 104 0
98 111 0
100 111 0
97 109 0
98 109 0
103 114 0
100 111 0
105 117 0
102 114 0
103 114 0
104 115 0
96 108 0
106 118 0
111 124 0
106 118 0
113 126 0
117 132 0
115 129 0
118 133 0
121 136 0
117 133 0
123 139 0
122 139 0
127 146 0
130 148 0
134 152 0
147 163 93
174 186 193
176 188 204
175 187 204
173 186 204
171 185 204
170 184 204
168 183 204
166 182 204
164 181 204
163 181 204
161 180 204
160 179 204
158 178 204
157 177 204
156 177 204
155 176 204
155 176 204
155 176 204
156 177 204
161 180 205
200 218 242
212 230 255
212 230 255
212 230 255
212 230 255
212 230 255
212 230 255
157 177 215
58 93 154
61 96 157
59 95 152
60 95 157
60 95 157
61 96 160
60 95 147
60 95 152
60 96 152
61 96 154
62 98 159
62 98 155
61 97 155
62 97 153
61 97 155
60 96 150
61 97 153
62 97 153
61 97 155
59 94 139
60 96 156
61 97 155
61 97 156
62 97 153
62 97 154
61 97 158
62 98 158
61 97 152
62 97 153
61 96 147
61 96 144
60 95 148
61 97 159
62 97 157
63 98 158
61 97 151
60 96 149
62 98 153
61 95 142
61 96 148
60 95 143
60 96 148
60 96 145
60 96 144
62 98 159
61 97 154
62 98 158
62 98 155
62 98 160
61 97 152
62 97 156
61 97 150
62 98 160
61 97 151
61 97 160
62 98 165
61 96 145
61 97 155
62 97 151
61 96 153
63 99 166
63 98 160
61 96 153
61 97 154
62 97 152
62 97 157
61 96 155
62 98 157
61 97 152
61 97 157
61 96 145
61 97 150
61 96 145
61 96 153
60 96 145
62 97 153
61 96 148
62 98 161
62 97 150
61 96 144
62 97 150
60 96 149
61 96 151
61 96 149
61 96 150
62 97 154
61 96 152
62 97 152
60 94 148
62 97 157
61 97 158
61 96 149
61 95 149
62 98 155
60 96 153
61 96 152
61 96 153
60 95 145
61 96 154
61 97 160
61 96 157
61 95 149
61 95 152
61 95 151
61 95 153
60 95 155
60 94 150
61 96 159
60 93 151
58 91 145
58 90 149
59 92 147
141 162 200
212 230 255
212 230 255
212 230 255
212 230 255
212 230 255
212 230 255
200 209 220
160 134 51
156 133 51
155 132 51
155 132 51
155 132 51
156 132 51
157 133 51
158 133 51
160 134 51
161 135 51
163 135 51
165 136 51
166 137 51
168 137 51
170 138 51
171 139 51
173 139 51
175 140 51
176 141 51
172 138 47
146 122 23
131 112 0
133 113 0
129 110 0
124 105 0
125 102 0
122 101 0
115 91 0
116 88 0
116 89 0
110 83 0
110 84 0
106 77 0
110 82 0
103 71 0
110 78 0
103 71 0
99 66 0
97 64 0
97 64 0
101 66 0
98 63 0
100 66 0
93 57 0
93 57 0
96 59 0
99 61 0
98 62 0
94 58 0
95 59 0
93 58 0
97 61 0
98 62 0
96 61 0
101 63 0
98 62 0
100 65 0
100 64 0
101 65 0
98 64 0
103 67 0
98 66 0
97 65 0
100 65 0
101 69 0
102 68 0
99 70 0
102 71 0
106 74 0
100 71 0
103 74 0
102 71 0
104 76 0
102 74 0
93 67 0
100 73 0
103 75 0
96 73 0
108 83 0
109 83 0
104 80 0
103 81 0
93 71 0
103 80 0
102 80 0
95 74 0
90 69 0
98 78 0
90 72 0
82 65 0
84 69 0
88 73 0
76 62 0
78 63 0
68 57 0
52 45 0
56 48 0
71 60 0
45 43 8
30 34 9
31 36 8
34 37 5
33 36 7
33 36 8
34 37 7
33 35 9
32 34 10
32 35 7
31 34 5
33 36 8
35 38 11
32 33 5
35 37 9
37 40 11
37 41 12
37 41 13
36 39 11
39 41 15
38 42 14
38 42 15
37 41 15
81 71 26
149 121 44
173 140 51
173 139 51
172 139 51
172 139 51
172 139 51
171 139 51
171 139 51
171 138 51
170 138 51
170 138 51
170 138 51
169 138 51
169 138 51
170 184 204
170 184 204
170 185 204
171 185 204
171 185 204
171 185 204
172 185 204
172 186 204
172 186 204
173 186 204
173 186 204
162 175 192
86 102 115
39 62 82
36 58 67
36 57 67
34 54 65
36 57 66
35 56 65
35 57 63
36 57 58
34 55 60
33 52 54
34 55 58
35 56 55
35 56 56
36 58 55
32 52 51
36 58 51
36 57 46
32 51 52
35 56 55
33 53 40
31 50 42
33 52 40
29 46 38
28 45 31
26 37 14
48 57 0
44 54 0
64 73 0
70 81 0
76 88 0
84 96 0
76 88 0
84 98 0
93 107 0
96 109 0
87 101 0
97 110 0
100 115 0
103 117 0
100 114 0
104 119 0
103 117 0
107 120 0
100 113 0
109 123 0
103 117 0
98 111 0
96 109 0
101 115 0
106 120 0
102 116 0
102 114 0
108 120 0
100 112 0
102 114 0
95 107 0
96 107 0
95 106 0
103 116 0
103 115 0
103 115 0
100 112 0
99 110 0
100 111 0
101 112 0
97 109 0
96 107 0
100 112 0
97 108 0
96 107 0
99 111 0
94 105 0
94 106 0
98 110 0
100 112 0
100 112 0
99 111 0
97 109 0
99 110 0
90 102 0
100 111 0
95 107 0
96 107 0
101 113 0
102 114 0
100 111 0
110 123 0
108 121 0
107 119 0
100 112 0
109 122 0
107 120 0
111 124 0
114 128 0
120 135 0
115 130 0
119 135 0
123 140 0
124 141 0
127 144 0
130 148 0
134 152 0
132 151 0
140 158 54
169 182 178
177 188 204
175 187 204
174 186 204
172 185 204
170 185 204
169 184 204
167 183 204
165 182 204
163 181 204
162 180 204
160 179 204
159 178 204
158 178 204
122 142 176
125 146 181
155 177 204
156 177 204
157 177 204
163 182 207
204 222 247
212 231 255
212 231 255
212 231 255
212 231 255
199 218 245
63 96 160
59 94 150
58 93 151
61 96 155
59 93 150
59 94 156
58 92 147
61 97 159
60 95 149
59 94 153
60 95 147
62 97 153
60 96 154
60 94 145
61 96 150
60 95 149
60 95 146
60 95 148
61 96 153
62 97 156
61 96 148
62 97 158
62 98 156
60 96 157
60 95 145
61 97 149
61 97 157
62 97 151
61 96 152
63 99 160
61 96 147
61 97 155
61 96 147
62 98 157
62 98 159
61 96 151
61 96 152
60 96 148
61 96 145
61 96 149
62 97 157
61 96 147
61 97 151
62 97 150
61 97 148
61 96 152
61 96 147
62 98 153
61 96 152
62 97 152
61 96 144
61 97 152
62 97 158
60 96 145
62 97 153
62 97 156
61 96 145
63 98 157
62 98 154
62 98 159
63 99 160
62 97 158
61 96 153
62 97 152
61 96 153
62 98 159
61 97 154
61 96 151
62 97 153
62 97 156
61 97 158
62 98 159
61 96 143
60 95 147
62 97 149
61 96 147
61 97 153
62 97 153
60 96 149
61 96 147
61 96 151
62 97 154
61 96 145
61 97 152
60 96 150
61 97 151
61 96 152
61 96 149
63 98 162
61 96 149
62 98 157
61 96 149
61 96 150
61 96 150
61 96 156
61 97 154
60 95 151
61 97 155
62 96 152
60 95 152
61 95 151
60 94 148
60 95 150
61 96 155
59 93 144
61 96 157
61 96 160
61 95 152
59 93 153
60 94 144
58 90 141
61 97 159
59 92 150
74 102 158
202 220 245
212 231 255
212 231 255
212 231 255
212 231 255
200 209 218
162 138 67
157 133 51
156 132 51
155 132 51
126 110 45
131 114 46
157 133 51
159 134 51
160 134 51
162 135 51
164 136 51
165 136 51
167 137 51
169 138 51
170 138 51
172 139 51
173 140 51
175 140 51
177 141 51
167 135 42
139 118 8
135 114 0
131 111 0
130 109 0
128 106 0
119 99 0
119 95 0
118 95 0
114 89 0
121 95 0
112 83 0
111 82 0
110 79 0
111 82 0
108 78 0
104 71 0
106 70 0
101 67 0
100 67 0
102 67 0
93 57 0
101 65 0
97 64 0
94 60 0
98 61 0
98 63 0
96 61 0
93 59 0
98 61 0
95 59 0
98 61 0
97 64 0
91 57 0
97 61 0
101 64 0
101 65 0
99 64 0
103 68 0
97 63 0
96 63 0
98 64 0
103 69 0
103 68 0
98 64 0
102 70 0
96 63 0
104 70 0
99 68 0
105 74 0
106 76 0
103 73 0
102 72 0
101 74 0
104 75 0
101 74 0
103 75 0
105 80 0
99 73 0
98 72 0
101 73 0
101 78 0
98 74 0
102 80 0
101 79 0
96 74 0
99 79 0
98 77 0
98 77 0
91 72 0
100 81 0
91 72 0
92 73 0
81 66 0
91 73 0
79 63 0
69 57 0
57 47 0
58 48 0
55 46 0
41 37 3
31 35 8
29 33 5
32 36 7
35 39 7
33 36 7
33 36 8
33 36 6
33 35 7
33 35 8
33 35 7
34 36 10
34 36 8
36 38 9
34 36 9
35 38 11
33 34 9
36 38 12
34 36 8
36 38 10
36 38 12
36 37 10
35 38 10
37 41 11
38 42 13
93 78 29
163 132 48
173 140 51
173 139 51
172 139 51
172 139 51
172 139 51
171 139 51
171 139 51
170 138 51
170 138 51
170 138 51
170 138 51
170 185 204
170 185 204
171 185 204
171 185 204
171 185 204
172 186 204
172 186 204
173 186 204
173 186 204
172 185 203
107 121 136
46 67 82
37 59 77
37 59 73
37 59 78
34 55 66
34 55 74
35 56 65
35 56 69
34 54 55
35 56 63
35 56 60
34 54 66
35 57 60
33 53 48
33 52 52
35 55 56
33 53 53
32 53 51
32 52 54
32 52 44
33 53 35
32 51 42
31 50 32
32 52 34
31 49 41
26 42 20
38 46 14
56 64 0
58 67 0
68 78 0
69 80 0
84 96 0
85 98 0
80 92 0
85 98 0
87 100 0
98 112 0
97 110 0
98 112 0
100 114 0
105 120 0
100 113 0
102 116 0
102 116 0
104 117 0
101 114 0
109 122 0
106 120 0
106 120 0
109 122 0
103 115 0
105 117 0
107 120 0
108 121 0
104 117 0
106 119 0
104 116 0
107 120 0
104 115 0
102 115 0
99 110 0
103 115 0
100 112 0
101 114 0
105 117 0
100 112 0
102 114 0
101 112 0
97 109 0
102 114 0
101 112 0
97 109 0
97 109 0
95 107 0
98 110 0
97 109 0
100 112 0
93 105 0
98 110 0
92 104 0
99 110 0
95 107 0
102 114 0
98 110 0
104 115 0
103 115 0
105 116 0
98 110 0
106 119 0
101 113 0
104 115 0
112 125 0
107 120 0
116 129 0
117 130 0
112 125 0
116 131 0
116 130 0
116 131 0
120 136 0
125 142 0
126 143 0
125 142 0
128 147 0
131 150 0
129 148 0
136 154 0
154 169 124
176 188 202
176 188 204
174 187 204
172 186 204
171 185 204
169 184 204
167 183 204
166 182 204
164 181 204
162 180 204
161 179 204
159 179 204
115 136 174
47 75 127
72 96 144
146 166 196
156 177 204
158 178 204
167 185 209
209 227 252
213 231 255
213 231 255
213 231 255
130 152 192
59 93 154
59 94 150
60 95 151
60 95 152
61 96 161
61 97 161
59 93 148
60 95 149
61 96 155
60 95 149
60 95 156
61 96 153
62 97 155
61 97 155
61 97 154
60 95 150
62 97 152
61 97 160
61 96 157
60 95 148
62 97 159
62 97 155
61 96 148
62 97 155
61 97 156
61 96 150
61 96 147
61 97 157
61 96 144
61 97 151
62 97 157
61 97 153
62 97 157
62 98 156
61 97 149
62 98 154
60 95 144
61 96 150
62 97 153
62 98 157
62 97 155
62 97 155
62 98 160
61 97 154
61 97 156
62 97 154
61 97 149
61 96 153
61 96 151
62 97 150
62 97 151
61 97 153
60 96 147
61 97 158
62 97 154
61 96 149
61 96 150
61 95 148
62 98 157
62 98 153
60 95 148
62 97 156
61 96 147
62 97 148
62 97 154
61 96 148
61 96 156
61 96 145
61 96 147
61 96 147
62 98 159
61 96 150
62 97 154
61 96 151
61 97 151
61 97 151
61 96 150
60 95 141
61 96 156
61 97 158
62 97 149
62 97 155
61 96 144
61 96 148
62 98 162
61 96 154
62 98 158
60 96 154
61 96 148
61 96 152
60 96 149
62 98 160
61 96 155
61 96 155
61 96 151
61 96 153
61 97 154
59 94 143
61 96 151
60 95 147
61 96 155
61 96 148
60 95 145
60 95 150
62 97 156
60 94 150
60 95 155
61 96 156
61 96 155
59 93 147
60 93 152
59 91 144
61 96 158
57 89 140
131 152 194
213 231 255
213 231 255
213 231 255
208 222 242
168 148 97
158 133 51
156 133 51
138 118 47
82 78 36
47 55 31
108 96 41
159 134 51
161 134 51
162 135 51
164 136 51
166 136 51
167 137 51
169 138 51
171 138 51
172 139 51
174 140 51
176 141 51
176 140 50
158 130 35
136 115 0
135 114 0
133 113 0
126 104 0
126 104 0
122 102 0
119 95 0
120 95 0
123 98 0
122 96 0
115 88 0
112 85 0
112 81 0
118 88 0
111 81 0
101 69 0
102 72 0
106 74 0
98 64 0
106 73 0
100 66 0
98 65 0
96 62 0
98 63 0
102 65 0
97 61 0
96 61 0
101 64 0
94 59 0
98 63 0
96 60 0
96 61 0
91 57 0
99 63 0
95 60 0
102 68 0
95 61 0
101 66 0
99 66 0
94 60 0
97 63 0
101 70 0
97 64 0
95 62 0
103 71 0
102 71 0
103 71 0
105 70 0
106 74 0
105 75 0
99 67 0
99 69 0
106 78 0
103 76 0
97 69 0
99 71 0
109 82 0
103 75 0
108 82 0
107 80 0
108 84 0
104 80 0
97 72 0
102 81 0
109 86 0
96 73 0
95 72 0
95 75 0
97 78 0
101 80 0
94 75 0
97 78 0
103 83 0
80 62 0
90 71 0
82 67 0
68 58 0
68 55 0
41 34 0
45 36 0
43 37 3
27 31 7
31 34 7
32 35 8
32 35 3
33 36 8
33 36 8
33 36 7
36 39 8
31 33 4
35 38 7
33 36 7
37 40 10
35 37 11
33 34 9
35 37 8
36 37 10
34 35 7
34 36 8
35 36 10
36 38 7
36 38 10
36 38 12
36 38 12
37 39 12
38 42 14
36 39 12
129 105 39
169 136 50
173 139 51
173 139 51
172 139 51
172 139 51
171 139 51
171 139 51
171 139 51
170 138 51
170 138 51
171 185 204
171 185 204
171 185 204
172 185 204
172 186 204
172 186 204
173 186 204
173 186 204
156 169 185
78 94 110
39 62 75
37 59 74
36 57 81
38 60 74
34 55 69
35 57 71
34 55 66
35 56 66
35 56 58
35 57 68
31 51 54
33 53 56
34 54 57
34 55 64
31 51 58
31 51 43
35 55 60
34 55 57
32 52 56
33 53 50
32 52 40
31 51 42
34 55 39
30 49 42
30 48 35
32 52 38
25 41 39
44 50 0
51 59 0
55 65 0
73 84 0
69 80 0
77 90 0
81 94 0
86 99 0
101 115 0
95 110 0
95 109 0
98 111 0
103 117 0
110 124 0
99 114 0
102 116 0
103 117 0
105 119 0
99 112 0
102 116 0
107 120 0
100 114 0
105 118 0
99 112 0
104 118 0
110 124 0
101 114 0
105 118 0
110 123 0
108 120 0
99 111 0
104 117 0
112 125 0
102 115 0
103 115 0
109 121 0
102 115 0
101 113 0
101 113 0
97 109 0
97 108 0
101 113 0
105 116 0
100 112 0
97 108 0
97 108 0
100 112 0
96 108 0
94 106 0
96 107 0
100 111 0
99 111 0
101 112 0
99 110 0
98 109 0
99 110 0
98 110 0
97 109 0
100 111 0
100 112 0
107 118 0
103 115 0
110 122 0
103 115 0
104 115 0
105 118 0
108 120 0
107 120 0
111 125 0
113 127 0
118 131 0
116 131 0
113 127 0
121 137 0
116 132 0
121 137 0
124 140 0
129 147 0
128 146 0
129 147 0
132 151 0
135 154 0
150 167 106
175 187 198
176 188 204
174 187 204
173 186 204
171 185 204
169 184 204
168 183 204
166 182 204
164 181 204
163 180 204
161 180 204
151 170 197
53 80 136
47 75 124
58 83 134
131 151 183
157 178 204
159 179 204
177 195 218
212 230 255
213 231 255
201 219 244
64 96 148
59 94 146
60 95 153
60 96 156
60 94 152
60 94 153
60 95 144
59 94 144
61 96 143
60 94 149
59 94 146
62 97 156
59 94 146
60 96 149
61 96 152
62 98 153
60 96 156
60 95 136
61 97 158
61 97 151
62 97 157
61 96 156
60 95 149
60 95 144
61 96 155
60 95 151
62 97 158
62 97 155
62 97 158
60 95 148
62 97 158
60 96 151
62 97 153
61 97 151
61 96 155
62 98 160
61 97 151
61 96 149
61 97 156
61 96 148
62 97 152
62 98 153
61 96 147
62 98 155
62 97 152
61 96 152
62 97 151
63 98 155
61 96 154
62 97 153
61 97 153
61 97 151
61 97 152
62 98 156
61 96 148
62 98 156
60 95 141
62 97 152
61 96 150
60 96 143
62 97 156
61 97 153
61 97 154
62 97 152
61 97 148
62 97 156
62 98 155
59 94 147
62 97 152
62 97 154
61 97 149
61 96 152
61 97 151
61 97 156
60 95 148
61 97 151
61 97 148
61 96 150
61 97 154
60 95 142
62 97 151
62 97 153
61 95 150
62 97 156
61 96 148
61 97 152
61 97 153
62 97 158
61 96 149
61 96 149
61 96 152
62 97 151
61 97 154
62 97 151
60 95 145
60 95 143
61 95 144
62 97 157
60 95 148
59 94 147
61 95 150
61 97 158
61 96 154
60 94 140
59 93 135
61 96 157
60 92 141
59 94 156
58 92 143
60 93 150
62 97 155
61 95 157
58 90 146
59 92 146
59 92 149
65 96 151
201 218 244
213 231 255
212 230 254
177 164 133
159 134 51
157 133 51
132 114 46
53 58 31
47 55 30
52 58 31
151 127 49
161 135 51
163 135 51
164 136 51
166 137 51
168 137 51
169 138 51
171 139 51
173 139 51
174 140 51
176 141 51
174 139 48
155 127 31
136 115 0
133 112 0
132 112 0
128 106 0
124 103 0
130 107 0
121 99 0
112 89 0
117 92 0
112 85 0
118 90 0
114 86 0
116 86 0
108 78 0
107 76 0
101 67 0
109 77 0
109 77 0
101 68 0
100 70 0
103 70 0
98 65 0
94 61 0
96 62 0
98 63 0
98 63 0
95 61 0
97 62 0
96 61 0
99 63 0
98 63 0
99 62 0
95 62 0
101 66 0
97 64 0
100 67 0
99 64 0
102 64 0
101 66 0
102 67 0
96 62 0
100 67 0
100 67 0
104 69 0
100 69 0
103 70 0
102 71 0
107 75 0
98 67 0
104 73 0
105 77 0
107 75 0
105 76 0
112 84 0
102 76 0
101 74 0
109 82 0
111 82 0
107 81 0
104 79 0
108 82 0
102 76 0
100 77 0
111 85 0
104 82 0
95 75 0
100 77 0
107 84 0
99 77 0
96 75 0
96 79 0
100 79 0
94 75 0
92 76 0
93 74 0
79 66 0
87 70 0
79 64 0
72 58 0
62 50 0
47 40 0
49 43 0
27 31 7
30 34 6
31 34 5
30 32 3
35 39 10
34 36 5
35 39 9
35 38 8
33 35 7
33 36 6
34 37 7
30 30 5
33 34 7
32 33 4
33 34 7
34 35 9
31 33 7
33 33 6
32 33 9
34 34 5
36 36 12
35 36 9
34 35 10
35 36 9
38 42 14
37 39 10
37 39 14
61 55 20
150 122 44
173 140 51
173 139 51
172 139 51
172 139 51
172 139 51
171 139 51
171 139 51
171 139 51
171 185 204
172 185 204
172 186 204
172 186 204
173 186 204
173 186 204
173 186 204
123 136 152
44 68 89
37 59 80
36 58 78
37 58 79
34 55 70
34 54 55
37 59 66
34 54 61
34 55 58
35 56 66
34 54 61
35 55 67
34 54 65
33 54 65
32 52 62
35 56 54
32 51 52
32 52 49
33 53 42
33 53 56
35 56 62
34 55 54
35 56 42
34 54 55
31 50 35
32 52 46
31 50 40
31 49 36
30 48 34
40 46 0
54 62 0
71 81 0
68 80 0
80 92 0
85 97 0
92 106 0
95 109 0
102 116 0
95 109 0
103 117 0
104 119 0
102 117 0
103 118 0
104 119 0
110 124 0
103 117 0
103 118 0
104 118 0
104 118 0
104 118 0
113 127 0
110 125 0
107 121 0
104 117 0
111 124 0
102 116 0
111 124 0
107 120 0
103 115 0
106 119 0
109 122 0
105 118 0
105 117 0
108 121 0
103 115 0
108 120 0
104 117 0
108 120 0
104 115 0
107 119 0
106 119 0
108 120 0
102 114 0
96 108 0
97 109 0
96 107 0
101 113 0
102 113 0
97 109 0
97 108 0
96 108 0
101 113 0
101 112 0
100 112 0
97 108 0
98 109 0
101 113 0
101 113 0
101 113 0
106 117 0
100 112 0
106 118 0
105 116 0
109 122 0
107 120 0
107 119 0
108 121 0
111 123 0
111 125 0
115 128 0
117 131 0
116 131 0
120 135 0
120 135 0
119 135 0
122 139 0
118 135 0
129 147 0
126 143 0
132 151 0
131 150 0
135 154 0
145 162 76
175 186 195
176 188 204
175 187 204
173 186 204
171 185 204
170 184 204
168 183 204
166 182 204
165 182 204
163 181 204
162 180 204
112 131 160
48 76 127
47 75 131
46 74 124
113 133 168
158 178 204
161 179 204
189 207 230
213 231 255
153 173 208
59 95 156
59 94 159
59 94 150
60 95 154
59 93 143
60 95 148
61 96 155
58 93 147
60 95 142
61 97 157
59 94 149
61 96 158
60 95 154
62 97 156
60 95 144
60 95 148
62 97 157
61 97 155
61 96 153
61 96 150
61 96 148
59 95 148
60 95 137
62 97 151
61 96 150
61 96 148
61 96 147
61 97 154
62 97 153
61 96 152
60 96 147
62 97 157
62 97 150
61 97 155
61 96 145
61 97 149
61 97 155
61 96 141
62 97 160
61 97 143
62 98 155
61 97 152
62 97 151
61 97 151
62 98 156
61 97 147
62 98 155
61 96 143
61 96 147
61 97 149
60 95 141
60 95 140
62 98 157
61 96 145
60 96 147
62 98 157
61 97 151
61 96 148
62 98 156
63 99 165
62 98 154
61 97 149
61 97 151
61 96 142
62 98 157
61 97 153
62 98 160
62 98 154
61 97 153
61 96 143
61 97 151
61 96 149
60 95 145
61 97 153
62 97 153
61 96 150
60 96 148
61 97 152
61 97 157
61 97 151
60 96 148
60 96 154
60 95 154
61 97 154
61 96 144
60 95 150
61 97 151
60 95 149
61 96 152
62 97 156
61 96 149
61 96 150
61 96 145
61 96 148
62 97 151
61 96 150
61 97 157
61 96 152
61 96 151
61 95 150
62 97 157
60 95 150
60 94 147
60 94 142
61 95 149
62 97 157
60 94 152
61 95 148
61 95 148
60 95 143
61 95 152
59 91 140
59 92 141
59 92 152
57 90 141
56 87 139
148 168 204
213 231 255
190 188 181
160 134 51
158 133 51
117 102 41
45 51 27
47 54 30
48 57 31
113 99 41
162 135 51
163 135 51
164 136 51
166 137 51
168 137 51
170 138 51
171 139 51
173 140 51
175 140 51
176 141 51
173 139 47
147 122 22
134 114 0
133 111 0
130 109 0
125 105 0
127 105 0
126 104 0
121 98 0
125 102 0
117 92 0
119 93 0
117 89 0
116 86 0
112 83 0
113 82 0
105 74 0
110 78 0
112 80 0
106 72 0
102 69 0
107 74 0
103 68 0
104 70 0
102 67 0
104 70 0
93 61 0
103 70 0
97 63 0
100 65 0
101 67 0
102 66 0
97 64 0
96 60 0
96 61 0
98 64 0
96 62 0
102 69 0
101 67 0
104 69 0
103 69 0
105 71 0
101 70 0
104 71 0
99 68 0
106 75 0
110 77 0
106 73 0
104 71 0
104 72 0
100 71 0
102 70 0
108 77 0
103 74 0
107 77 0
110 80 0
115 89 0
107 79 0
105 78 0
106 79 0
113 86 0
109 83 0
109 84 0
111 85 0
111 84 0
103 79 0
104 81 0
110 87 0
112 89 0
107 84 0
96 72 0
104 84 0
102 79 0
99 78 0
104 84 0
94 76 0
94 75 0
97 77 0
86 72 0
80 64 0
82 68 0
83 68 0
57 46 0
53 43 0
44 37 0
26 29 8
29 33 6
32 37 8
29 32 3
32 35 6
32 34 7
35 37 9
32 34 9
32 34 6
33 35 8
32 33 6
34 35 8
35 37 4
32 33 6
33 35 6
35 37 6
34 35 6
35 36 6
35 36 8
34 35 4
34 35 9
34 35 8
32 33 8
35 36 9
35 37 13
36 37 10
36 38 13
38 41 13
41 42 13
119 98 35
172 139 51
173 139 51
173 139 51
172 139 51
172 139 51
172 139 51
171 139 51
172 185 204
172 186 204
172 186 204
173 186 204
173 186 204
165 178 196
99 114 131
36 58 71
38 60 79
34 54 63
35 56 66
34 54 70
35 56 61
34 54 73
33 53 65
34 54 63
35 56 62
32 52 66
33 52 64
32 52 62
36 57 69
34 55 60
32 52 55
36 57 64
34 54 53
31 50 50
33 53 50
34 55 43
31 49 42
33 53 48
34 54 45
31 50 38
33 53 50
32 51 44
31 50 45
27 44 22
38 50 14
49 57 0
71 80 0
66 78 0
71 83 0
101 114 0
90 103 0
88 102 0
96 110 0
97 112 0
102 117 0
97 111 0
105 120 0
112 127 0
107 122 0
102 117 0
106 121 0
106 121 0
104 118 0
108 123 0
112 127 0
110 125 0
108 122 0
107 122 0
97 110 0
104 118 0
107 121 0
106 120 0
110 123 0
110 124 0
106 119 0
104 117 0
104 117 0
108 121 0
104 116 0
100 113 0
106 119 0
109 122 0
100 113 0
105 118 0
105 117 0
106 119 0
103 115 0
102 114 0
101 113 0
102 114 0
100 112 0
99 111 0
102 114 0
100 111 0
104 116 0
96 107 0
99 111 0
103 115 0
107 119 0
96 109 0
101 113 0
102 114 0
103 115 0
102 113 0
104 116 0
105 116 0
97 109 0
106 118 0
104 116 0
108 120 0
111 124 0
105 117 0
113 126 0
110 123 0
113 126 0
115 128 0
114 128 0
115 129 0
116 131 0
119 134 0
121 136 0
124 140 0
123 139 0
127 144 0
124 143 0
131 150 0
129 147 0
134 152 0
135 153 0
140 158 45
169 182 177
176 188 204
175 187 204
173 186 204
172 185 204
170 184 204
168 183 204
166 183 204
165 182 204
163 181 204
161 179 204
75 97 138
47 74 122
47 74 125
44 70 117
116 135 170
159 179 204
162 180 204
188 205 230
60 92 145
58 92 147
57 91 144
59 94 149
59 93 153
59 94 148
61 96 155
61 97 156
61 96 156
62 97 153
60 95 142
61 97 154
60 95 151
60 96 145
61 97 149
60 95 147
61 97 156
60 95 152
62 98 160
61 96 146
60 96 152
62 97 159
62 98 152
61 97 155
61 97 155
61 96 149
59 94 142
61 96 147
61 96 147
61 97 148
60 95 147
61 96 154
62 97 153
60 96 148
60 96 142
59 94 143
62 97 155
62 97 155
62 98 156
61 96 147
61 96 144
62 97 159
61 96 147
61 96 147
61 96 149
61 96 151
61 96 150
61 96 150
61 97 151
62 98 157
62 97 153
62 98 155
62 97 150
60 96 144
62 97 151
62 97 154
60 95 142
61 96 144
61 97 155
61 96 152
61 97 154
61 96 147
61 96 147
62 97 148
62 97 153
62 98 159
62 97 149
61 96 147
62 97 147
62 97 145
60 96 144
61 97 155
62 97 149
61 96 143
61 97 152
61 96 148
61 96 151
61 97 154
61 96 147
62 97 149
61 96 148
61 97 154
61 97 151
60 95 141
60 95 152
62 97 154
60 95 149
61 96 141
62 97 152
61 95 149
60 95 142
62 97 155
61 97 154
61 97 152
61 96 144
62 97 145
61 96 147
61 96 147
60 95 145
60 94 142
61 96 153
61 96 148
60 95 142
60 95 151
61 96 154
61 96 152
60 96 152
61 96 153
60 95 153
60 94 147
60 94 147
62 97 153
58 91 140
59 92 145
59 92 146
59 93 142
59 92 148
68 97 148
191 199 208
163 135 51
159 134 51
115 100 41
46 52 29
46 53 29
47 54 29
77 74 35
157 131 50
163 135 51
165 136 51
166 137 51
168 137 51
170 138 51
171 139 51
173 140 51
175 140 51
176 141 51
171 138 46
141 119 11
136 116 0
134 114 0
127 107 0
123 104 0
126 105 0
125 103 0
124 103 0
114 91 0
118 94 0
119 89 0
115 88 0
116 89 0
117 89 0
113 84 0
111 82 0
109 79 0
104 72 0
110 77 0
106 73 0
102 71 0
110 76 0
106 73 0
99 65 0
103 70 0
108 74 0
104 70 0
103 69 0
104 69 0
101 65 0
100 67 0
109 74 0
103 69 0
102 66 0
105 70 0
101 68 0
99 65 0
100 64 0
99 64 0
104 68 0
99 68 0
109 78 0
103 68 0
105 72 0
105 74 0
105 72 0
98 66 0
103 70 0
109 77 0
104 73 0
107 78 0
104 72 0
106 77 0
102 71 0
100 72 0
109 81 0
109 81 0
102 75 0
116 88 0
110 85 0
109 84 0
107 80 0
109 81 0
110 84 0
103 79 0
111 86 0
103 79 0
108 84 0
105 82 0
108 85 0
116 93 0
107 87 0
99 77 0
97 76 0
103 84 0
97 79 0
96 78 0
99 82 0
98 79 0
96 79 0
83 70 0
82 67 0
73 60 0
50 42 0
48 40 0
31 32 6
29 32 8
32 36 7
34 38 8
32 35 7
35 38 5
34 36 7
35 37 11
33 36 9
34 36 6
35 37 7
34 36 9
34 35 9
34 35 8
35 37 7
34 34 7
34 35 9
31 32 6
35 36 8
34 34 7
34 35 6
33 33 6
36 36 9
31 33 7
34 34 7
33 32 6
34 36 9
37 40 15
36 38 11
37 40 13
95 79 29
163 131 48
173 140 51
173 139 51
172 139 51
172 139 51
172 139 51
172 186 204
173 186 204
173 186 204
173 186 204
166 179 196
82 99 113
38 61 81
35 56 72
34 54 68
35 56 63
33 54 68
33 54 67
34 55 69
33 53 69
33 53 70
34 55 70
34 55 66
34 54 63
34 54 66
33 53 60
34 55 59
33 54 62
32 52 52
32 52 55
33 53 58
33 53 53
34 54 63
33 53 42
35 56 57
32 51 51
34 55 54
31 51 47
30 49 39
32 51 38
31 50 40
28 45 37
38 48 6
53 63 0
60 71 0
65 76 0
80 93 0
98 111 0
89 103 0
101 116 0
102 117 0
105 120 0
100 116 0
100 115 0
108 122 0
105 120 0
110 125 0
111 126 0
110 126 0
114 129 0
110 125 0
111 126 0
113 127 0
109 123 0
110 125 0
113 128 0
108 122 0
108 121 0
111 125 0
109 122 0
111 124 0
111 124 0
115 128 0
108 121 0
113 127 0
111 125 0
107 120 0
107 120 0
101 114 0
103 116 0
100 113 0
100 112 0
105 118 0
106 118 0
110 122 0
106 117 0
106 118 0
100 112 0
103 116 0
101 113 0
108 121 0
100 111 0
103 114 0
107 119 0
102 114 0
102 113 0
111 123 0
107 119 0
99 111 0
101 112 0
102 114 0
97 109 0
107 119 0
101 113 0
104 116 0
110 122 0
108 120 0
103 115 0
113 126 0
110 123 0
113 127 0
111 125 0
112 124 0
116 130 0
119 134 0
117 131 0
114 129 0
117 132 0
120 135 0
123 139 0
121 137 0
121 138 0
126 143 0
130 148 0
127 145 0
132 150 0
134 153 0
136 155 0
141 159 57
172 184 185
176 188 204
175 187 204
173 186 204
172 185 204
170 184 204
168 184 204
167 183 204
165 182 204
163 181 204
127 145 176
48 76 128
47 74 124
45 71 115
43 69 119
111 130 165
160 179 204
117 139 180
58 92 146
59 94 150
59 94 150
58 92 141
60 94 147
61 95 150
60 95 153
60 94 144
60 95 148
60 96 155
60 96 147
61 96 150
61 96 152
60 95 146
60 95 148
61 96 152
59 94 143
61 96 153
62 97 153
61 96 153
61 96 150
61 96 152
61 96 147
62 97 155
61 97 151
61 97 152
61 97 156
61 96 145
60 96 149
60 95 142
60 95 144
60 95 144
61 96 146
62 98 156
61 97 152
62 98 158
61 96 146
61 97 152
60 95 143
62 97 151
61 97 150
61 97 152
61 96 153
61 97 149
61 95 143
61 97 147
61 96 149
61 97 147
61 97 150
62 98 155
60 96 144
61 96 144
61 96 147
61 97 151
62 97 149
60 95 147
61 96 144
61 97 155
62 98 154
61 96 148
61 96 153
62 97 150
62 98 159
61 97 151
60 95 142
62 97 161
61 96 150
61 97 152
61 96 147
60 95 145
62 97 152
62 97 153
62 97 155
61 96 147
61 97 148
62 97 151
60 95 143
61 96 149
60 95 144
62 97 152
62 97 155
61 96 151
61 96 149
61 96 150
60 96 144
60 95 147
61 97 154
60 95 147
61 96 148
60 96 148
60 95 150
61 95 145
61 97 148
61 96 150
61 96 150
61 96 154
61 96 145
61 95 147
61 96 149
62 97 156
61 95 141
62 97 157
60 95 144
60 94 139
60 95 144
61 96 153
62 96 153
60 94 147
62 97 157
62 97 155
60 94 147
61 94 153
61 96 160
59 93 143
57 89 138
58 91 138
58 91 145
59 92 149
132 121 100
160 134 51
115 100 41
43 49 27
46 54 28
48 56 30
48 57 31
140 119 46
163 136 51
165 136 51
167 137 51
168 137 51
170 138 51
172 139 51
173 140 51
175 140 51
177 141 51
174 139 48
141 119 14
135 115 0
133 113 0
128 107 0
130 109 0
127 108 0
122 99 0
125 103 0
118 94 0
122 96 0
121 96 0
123 95 0
115 88 0
117 90 0
117 88 0
114 85 0
109 80 0
117 86 0
112 82 0
110 80 0
108 77 0
109 77 0
107 74 0
105 73 0
104 72 0
105 72 0
102 69 0
105 72 0
103 69 0
103 70 0
105 71 0
98 66 0
108 75 0
104 71 0
102 69 0
102 69 0
100 66 0
98 63 0
105 73 0
106 75 0
105 72 0
106 74 0
109 77 0
108 73 0
108 75 0
106 74 0
101 70 0
104 73 0
103 73 0
104 75 0
108 79 0
99 69 0
111 80 0
107 80 0
108 81 0
108 79 0
105 77 0
105 79 0
110 84 0
111 83 0
111 85 0
109 83 0
111 83 0
112 87 0
107 81 0
102 78 0
105 83 0
113 90 0
112 88 0
104 80 0
105 82 0
104 83 0
104 82 0
104 85 0
105 84 0
105 86 0
99 83 0
97 79 0
92 73 0
100 83 0
93 77 0
93 76 0
69 57 0
67 56 0
67 56 0
47 41 0
40 37 3
31 35 10
33 38 10
32 36 8
34 37 6
32 35 9
35 38 11
33 36 8
35 37 7
33 36 5
31 33 6
35 38 9
34 36 7
35 37 10
34 35 8
32 33 8
33 34 7
33 33 8
33 35 7
33 33 7
32 32 3
35 35 6
33 33 7
35 35 7
35 36 9
32 33 8
34 34 7
36 37 11
36 36 11
36 37 12
38 40 13
75 66 23
161 130 47
173 140 51
173 139 51
173 139 51
172 139 51
173 186 204
173 186 204
173 186 204
155 168 186
56 73 96
38 60 81
34 55 65
36 57 72
35 56 77
33 53 72
33 53 61
33 53 62
32 51 70
33 54 70
32 51 68
32 52 64
32 52 65
34 55 66
35 55 63
35 56 63
32 52 61
36 57 71
35 56 58
34 55 61
34 54 59
34 55 54
34 55 50
34 55 56
35 56 60
32 52 51
34 54 47
34 55 50
32 52 51
33 53 38
31 49 40
26 43 31
40 49 20
58 68 0
77 88 0
79 92 0
78 90 0
98 112 0
96 110 0
96 109 0
100 115 0
99 114 0
105 120 0
109 125 0
105 119 0
100 114 0
111 128 0
112 128 0
106 122 0
111 126 0
107 123 0
110 124 0
103 118 0
110 125 0
116 131 0
109 124 0
113 127 0
109 123 0
112 127 0
106 120 0
113 127 0
112 126 0
112 126 0
116 130 0
109 123 0
110 123 0
109 122 0
110 123 0
106 119 0
114 127 0
109 121 0
105 117 0
107 120 0
111 124 0
107 119 0
108 120 0
109 122 0
105 117 0
106 118 0
108 120 0
111 123 0
101 113 0
103 115 0
109 122 0
103 115 0
105 117 0
104 116 0
100 112 0
109 121 0
109 121 0
102 113 0
104 117 0
106 118 0
106 119 0
109 121 0
111 123 0
111 123 0
112 125 0
113 126 0
111 124 0
111 124 0
114 127 0
105 118 0
118 131 0
117 130 0
118 132 0
114 128 0
122 137 0
121 136 0
121 137 0
124 141 0
126 142 0
126 142 0
123 140 0
125 143 0
133 151 0
130 148 0
136 155 0
137 155 0
144 162 73
174 185 192
176 188 204
175 187 204
173 186 204
172 185 204
170 184 204
168 184 204
167 183 204
165 182 204
164 181 204
87 108 143
45 72 115
45 71 118
44 71 119
42 67 114
126 145 178
78 106 160
58 91 147
58 92 148
61 96 153
59 93 149
59 94 152
60 94 152
60 95 153
59 93 143
61 96 145
60 95 149
60 95 153
60 95 153
60 96 155
60 95 150
61 96 154
60 95 149
60 95 150
61 96 152
61 96 148
60 95 144
62 97 155
61 97 147
62 98 157
62 97 159
61 96 151
60 96 155
61 96 144
60 94 146
62 97 150
61 96 144
61 96 148
61 97 149
61 96 143
60 95 137
60 95 146
63 98 157
62 97 159
60 95 141
62 97 150
62 97 152
61 97 149
59 95 136
61 97 148
61 96 148
62 98 159
62 97 151
61 97 152
61 96 145
60 95 145
61 96 145
62 97 152
62 97 154
61 97 147
62 97 150
61 96 150
61 96 154
62 97 151
61 97 153
60 95 141
60 96 145
62 98 156
60 95 142
61 96 149
61 96 144
61 96 145
61 97 152
61 96 153
63 99 158
61 96 149
61 96 147
61 96 145
61 96 148
61 96 148
60 95 148
60 95 149
61 97 152
61 96 149
61 96 148
61 97 149
60 95 144
60 95 144
62 97 149
62 97 159
60 96 145
60 95 141
61 96 143
61 97 154
61 97 153
61 97 153
60 95 141
60 94 146
62 97 146
61 96 150
60 95 149
61 96 156
62 97 154
60 94 147
60 95 136
60 95 149
62 97 156
60 95 143
61 96 150
61 96 148
61 95 148
61 96 152
61 96 153
61 96 154
60 94 151
59 92 144
62 97 154
61 96 152
59 93 142
59 93 142
60 93 150
60 94 148
59 92 150
58 91 142
58 89 145
70 93 133
126 109 50
46 50 27
44 50 27
46 53 27
47 55 30
88 81 36
164 136 51
165 136 51
167 137 51
169 138 51
170 138 51
172 139 51
173 140 51
175 140 51
177 141 51
173 138 47
143 120 17
135 115 0
132 112 0
133 113 0
131 111 0
129 108 0
130 108 0
127 105 0
123 100 0
122 97 0
121 95 0
121 95 0
121 94 0
120 93 0
113 85 0
115 87 0
111 80 0
111 83 0
112 79 0
113 82 0
109 78 0
112 80 0
109 79 0
109 79 0
106 74 0
109 78 0
105 72 0
104 74 0
107 74 0
99 68 0
106 73 0
103 70 0
105 71 0
108 75 0
109 74 0
106 74 0
98 65 0
103 70 0
104 70 0
106 74 0
107 76 0
106 73 0
105 74 0
101 69 0
110 77 0
102 74 0
108 76 0
108 79 0
110 79 0
111 81 0
108 78 0
109 79 0
105 77 0
110 81 0
113 86 0
110 83 0
114 85 0
103 76 0
112 85 0
107 81 0
111 84 0
110 83 0
111 86 0
114 90 0
108 84 0
110 86 0
109 83 0
110 86 0
107 85 0
108 87 0
113 89 0
111 88 0
108 86 0
109 86 0
98 80 0
112 90 0
105 86 0
106 87 0
106 87 0
98 79 0
96 79 0
91 74 0
88 73 0
84 69 0
72 60 0
72 60 0
58 49 0
29 28 5
32 37 10
33 38 11
33 37 10
33 37 8
34 37 7
36 39 11
34 36 9
34 37 10
34 37 7
35 38 9
35 36 10
34 35 7
35 37 7
35 37 9
34 34 8
34 34 7
32 32 3
35 38 9
33 33 6
34 34 6
33 34 3
35 36 7
32 31 6
33 34 7
36 37 7
36 37 11
33 33 8
33 33 9
37 38 8
35 36 11
38 40 14
50 49 19
151 123 44
173 140 51
173 139 51
173 139 51
173 186 204
173 186 204
156 169 185
41 62 76
34 54 66
34 55 76
35 56 74
34 55 80
35 55 70
33 53 71
33 52 67
32 52 69
33 53 70
33 53 65
33 53 65
34 55 71
32 52 64
35 55 61
36 58 73
34 54 55
35 56 58
34 55 58
33 54 64
35 56 66
35 56 59
34 55 53
36 57 61
35 56 60
35 57 51
35 56 58
34 55 52
33 52 47
34 55 55
32 51 41
33 53 50
37 52 35
55 64 0
64 74 0
68 81 0
82 94 0
83 96 0
92 106 0
81 94 0
96 111 0
100 116 0
108 124 0
105 120 0
102 117 0
106 122 0
111 126 0
108 123 0
114 130 0
111 125 0
109 124 0
116 132 0
111 127 0
115 130 0
115 131 0
114 129 0
114 129 0
109 124 0
109 123 0
116 131 0
115 129 0
114 129 0
115 130 0
103 117 0
107 121 0
108 122 0
112 126 0
109 122 0
112 126 0
107 120 0
115 128 0
112 125 0
114 127 0
110 123 0
119 132 0
105 117 0
114 127 0
105 118 0
107 120 0
112 125 0
112 125 0
103 115 0
110 123 0
105 118 0
105 118 0
105 117 0
110 123 0
110 122 0
111 123 0
106 117 0
109 121 0
102 114 0
107 120 0
108 121 0
110 122 0
110 123 0
106 118 0
111 123 0
112 125 0
106 119 0
116 129 0
112 125 0
121 134 0
113 126 0
113 127 0
118 132 0
119 133 0
121 136 0
120 135 0
119 135 0
123 138 0
121 137 0
127 144 0
129 147 0
129 147 0
128 145 0
129 147 0
131 150 0
133 151 0
134 153 0
133 153 0
147 164 84
174 186 195
176 188 204
175 187 204
173 186 204
172 185 204
170 184 204
168 184 204
167 183 204
165 182 204
151 168 193
52 79 125
44 71 113
45 71 119
44 70 118
49 78 130
57 90 141
59 93 156
57 90 142
58 92 145
58 91 142
59 93 148
60 94 149
60 96 151
61 96 155
60 94 147
61 96 155
59 94 147
61 96 143
60 95 144
59 94 138
62 97 153
61 96 152
61 96 154
60 96 154
60 95 147
60 95 145
61 96 151
60 95 144
59 94 142
62 97 157
59 94 148
60 95 148
62 97 151
60 96 147
62 97 151
60 95 145
61 96 142
60 95 151
60 95 140
61 96 142
61 96 150
61 96 150
61 97 153
60 95 145
61 96 144
60 95 150
62 98 153
62 98 153
62 97 154
62 97 152
61 96 141
61 97 150
61 96 151
61 97 148
61 96 149
61 97 153
62 97 144
61 96 151
60 95 140
61 96 145
61 96 149
59 94 141
61 96 144
60 96 143
59 94 137
60 95 151
62 97 152
61 96 144
60 95 142
60 95 140
61 97 150
62 97 147
61 97 150
61 95 141
60 95 145
61 96 154
61 96 148
60 95 147
62 97 150
61 96 145
61 96 147
60 96 142
62 97 151
62 97 152
62 97 155
60 94 149
61 97 153
61 96 145
60 95 139
61 96 149
61 95 142
62 97 150
61 96 151
61 95 156
61 95 141
61 97 148
60 95 147
60 95 147
61 96 143
60 95 150
60 95 145
59 92 141
61 96 150
60 95 151
61 95 143
61 96 147
60 95 140
60 95 151
61 96 143
60 95 149
60 94 142
59 94 144
60 93 142
58 92 140
59 93 141
60 95 152
61 95 148
61 95 155
57 88 135
60 94 147
58 91 141
59 91 146
59 92 151
58 91 146
57 88 136
50 71 96
43 49 25
43 49 27
46 53 27
48 57 31
152 127 48
165 136 51
167 137 51
168 138 51
170 138 51
172 139 51
173 140 51
175 140 51
176 141 51
176 140 49
145 122 20
134 114 0
132 113 0
132 112 0
132 111 0
131 109 0
131 107 0
127 104 0
126 102 0
126 102 0
121 96 0
125 101 0
121 93 0
120 94 0
120 94 0
118 90 0
120 93 0
108 78 0
118 87 0
116 87 0
116 85 0
115 84 0
112 81 0
108 76 0
107 75 0
109 79 0
111 81 0
108 76 0
105 73 0
108 76 0
108 77 0
106 74 0
102 69 0
106 73 0
109 76 0
101 69 0
107 76 0
109 78 0
111 80 0
105 74 0
105 74 0
110 80 0
111 79 0
111 81 0
110 79 0
108 76 0
111 82 0
105 74 0
110 82 0
110 81 0
111 81 0
111 81 0
113 84 0
111 83 0
111 83 0
112 84 0
117 88 0
113 86 0
112 84 0
114 89 0
111 86 0
114 88 0
111 85 0
115 90 0
116 91 0
114 90 0
114 91 0
114 91 0
115 92 0
115 91 0
114 92 0
104 84 0
112 88 0
107 87 0
109 89 0
111 90 0
107 88 0
103 85 0
98 81 0
100 82 0
101 82 0
97 82 0
101 83 0
92 75 0
85 71 0
81 68 0
70 60 0
53 46 0
45 39 0
34 37 10
34 38 11
32 35 9
32 37 9
32 35 8
35 39 10
35 38 9
32 35 9
35 39 10
33 35 6
36 40 10
35 37 7
34 37 6
35 37 8
33 35 8
33 34 8
33 33 7
35 36 7
33 32 7
33 33 5
34 35 7
34 35 8
35 35 5
34 33 6
35 34 4
34 34 7
34 33 5
34 35 9
34 33 8
33 32 9
36 37 9
39 42 15
60 55 19
153 124 45
173 140 51
173 140 51
174 186 204
148 161 179
38 58 76
35 56 84
36 58 77
33 53 74
33 53 72
34 55 77
35 56 77
34 55 74
35 56 76
32 51 64
33 53 75
33 53 68
32 52 68
34 54 70
31 50 58
34 54 57
32 51 61
34 54 61
35 56 71
36 57 67
34 55 60
36 57 65
35 56 60
35 57 57
34 55 60
34 54 55
33 53 52
38 60 64
33 53 51
36 58 58
34 54 45
35 56 54
33 53 40
41 55 28
61 71 0
73 84 0
67 81 0
74 87 0
87 101 0
94 109 0
97 113 0
95 110 0
110 126 0
104 120 0
108 124 0
113 129 0
105 122 0
107 123 0
110 126 0
110 126 0
114 130 0
111 127 0
111 126 0
110 126 0
110 126 0
110 127 0
112 128 0
119 135 0
116 132 0
115 130 0
115 128 0
112 128 0
116 130 0
114 128 0
111 125 0
109 123 0
110 124 0
113 127 0
110 124 0
113 127 0
109 123 0
112 126 0
116 129 0
113 127 0
114 127 0
111 124 0
110 123 0
112 125 0
110 123 0
111 124 0
102 113 0
105 118 0
100 112 0
108 121 0
105 116 0
108 121 0
113 125 0
109 122 0
109 122 0
111 124 0
110 122 0
105 117 0
111 124 0
108 120 0
105 117 0
108 121 0
110 123 0
108 120 0
111 124 0
107 119 0
113 126 0
117 130 0
109 122 0
118 132 0
114 128 0
114 129 0
120 134 0
121 135 0
119 134 0
123 138 0
117 132 0
127 144 0
122 138 0
125 142 0
126 142 0
126 144 0
128 146 0
129 147 0
134 152 0
132 150 0
136 155 0
133 152 0
137 155 0
148 165 89
177 188 202
176 188 204
175 187 204
173 186 204
171 185 204
170 184 204
168 184 204
167 183 204
165 182 204
116 134 167
47 75 119
47 74 122
44 70 111
54 85 132
59 93 151
58 92 144
58 92 143
59 93 148
59 94 152
58 91 138
59 93 148
60 95 153
60 95 154
59 94 144
60 95 152
61 96 153
60 95 143
60 94 148
61 96 147
61 96 153
59 93 141
60 95 147
61 96 147
60 95 146
60 95 145
61 96 153
62 97 153
59 95 139
59 94 139
59 94 139
61 97 150
60 96 145
61 97 151
60 96 142
61 96 147
61 96 152
62 98 158
61 96 148
61 96 148
61 97 154
60 96 149
60 95 137
61 96 151
62 98 153
61 96 147
61 96 147
62 97 158
62 97 148
62 98 149
62 98 158
61 97 149
61 97 151
61 96 147
62 97 153
61 96 145
60 95 140
61 96 145
61 96 152
62 97 151
62 97 149
60 96 142
60 96 150
61 96 142
61 96 151
61 96 140
61 97 152
60 95 148
61 96 141
61 96 145
61 96 150
61 96 145
60 96 150
61 96 148
62 97 153
61 96 137
61 97 150
61 96 144
61 97 150
61 97 150
60 96 144
61 96 144
61 96 152
60 94 143
62 97 152
61 96 143
61 97 149
61 96 148
61 97 154
62 98 152
61 97 147
62 98 154
61 96 148
61 96 149
61 95 143
61 96 149
61 95 145
60 95 145
60 95 147
62 97 154
62 97 155
60 95 143
61 97 152
62 97 155
61 96 151
60 95 144
62 98 153
60 95 149
60 95 149
60 94 144
61 95 151
59 92 137
60 95 150
59 93 144
61 95 152
61 96 153
59 94 146
59 92 147
59 92 142
58 90 144
58 92 144
60 94 147
58 90 142
58 91 141
59 91 145
55 83 128
45 51 27
45 52 26
47 54 29
109 96 40
165 136 51
167 137 51
168 137 51
170 138 51
171 139 51
173 140 51
175 140 51
176 141 51
177 141 50
148 123 22
138 117 0
138 117 0
133 112 0
132 112 0
128 107 0
127 106 0
128 104 0
129 108 0
122 98 0
124 100 0
118 92 0
119 92 0
120 96 0
121 96 0
122 97 0
116 89 0
119 89 0
117 88 0
110 81 0
117 87 0
111 82 0
116 87 0
110 81 0
110 79 0
112 83 0
112 81 0
111 82 0
115 85 0
111 80 0
108 79 0
112 80 0
109 78 0
111 79 0
108 77 0
106 73 0
107 74 0
109 78 0
107 76 0
115 83 0
112 81 0
106 77 0
116 84 0
104 75 0
110 80 0
110 80 0
117 88 0
111 81 0
113 86 0
109 80 0
113 84 0
112 84 0
115 87 0
112 85 0
120 92 0
109 81 0
114 87 0
112 83 0
115 89 0
117 90 0
116 90 0
115 88 0
116 91 0
113 89 0
115 89 0
114 91 0
119 95 0
117 93 0
117 92 0
109 85 0
111 91 0
117 94 0
109 89 0
109 89 0
112 91 0
109 87 0
113 92 0
108 88 0
110 89 0
112 91 0
102 85 0
103 85 0
94 80 0
105 88 0
98 83 0
95 79 0
82 69 0
69 60 0
64 54 0
56 48 0
38 40 8
31 36 8
34 39 8
35 40 13
38 42 13
33 36 5
35 39 9
36 40 11
33 36 9
35 38 10
33 35 4
34 35 7
34 36 8
33 35 8
32 34 7
35 36 6
34 35 9
34 35 7
34 35 6
34 35 7
34 33 8
33 33 8
34 34 4
33 32 6
33 34 6
33 32 8
33 33 7
35 34 9
33 32 6
34 33 7
35 36 10
34 35 9
37 38 13
43 45 19
150 122 44
174 140 51
156 169 186
51 71 97
35 56 77
34 55 70
36 57 78
33 54 68
35 56 74
36 57 75
32 52 72
33 53 69
34 54 66
35 55 68
32 52 67
32 51 69
32 53 61
34 55 65
33 53 68
33 53 64
32 52 66
34 55 61
33 53 65
34 54 56
33 53 51
37 58 62
35 56 68
33 54 52
34 55 52
34 55 53
33 53 58
34 55 55
34 55 58
35 56 56
35 56 49
34 55 44
34 54 52
52 63 20
64 76 0
61 71 0
89 103 0
84 98 0
86 101 0
95 110 0
95 111 0
104 120 0
105 121 0
106 123 0
109 125 0
111 127 0
111 126 0
114 129 0
114 131 0
113 129 0
112 128 0
114 129 0
112 127 0
116 133 0
119 135 0
113 129 0
115 130 0
116 132 0
117 133 0
109 125 0
118 133 0
118 134 0
119 134 0
119 134 0
120 136 0
112 127 0
116 130 0
119 133 0
117 132 0
113 128 0
115 129 0
117 130 0
112 126 0
108 121 0
115 128 0
115 128 0
111 124 0
113 127 0
117 131 0
107 120 0
113 127 0
108 121 0
117 130 0
109 122 0
111 124 0
113 126 0
114 126 0
110 122 0
116 130 0
107 120 0
115 129 0
115 128 0
116 129 0
120 133 0
105 118 0
106 118 0
115 128 0
115 129 0
116 129 0
111 125 0
117 130 0
115 129 0
115 129 0
115 129 0
115 129 0
117 131 0
115 129 0
124 138 0
126 142 0
118 132 0
120 135 0
126 143 0
125 142 0
124 141 0
124 141 0
126 142 0
129 147 0
132 150 0
127 144 0
132 150 0
132 150 0
134 153 0
138 156 0
139 157 0
158 173 140
177 189 204
176 188 204
174 187 204
173 186 204
171 185 204
170 184 204
168 184 204
167 183 204
159 176 198
69 92 132
45 72 113
45 72 120
57 90 139
58 92 146
59 94 152
59 93 153
58 92 141
59 93 149
59 92 146
61 97 157
60 94 158
60 95 150
59 94 139
60 95 149
61 96 154
60 94 141
60 95 148
60 95 150
61 96 145
61 97 152
61 96 149
61 97 152
60 95 140
61 96 146
60 96 154
59 94 144
61 96 149
61 95 146
62 97 154
62 97 147
61 97 149
62 98 155
61 96 148
61 96 152
61 96 152
61 97 150
61 96 145
61 97 152
61 96 148
62 98 159
61 96 147
60 95 142
61 96 145
61 96 145
61 96 143
61 96 145
60 96 143
62 97 147
61 96 147
60 95 137
60 94 137
61 97 151
61 96 145
60 96 147
61 96 155
61 97 153
60 96 148
61 96 142
60 95 140
61 96 145
62 97 156
62 97 154
61 96 150
62 97 149
61 96 149
62 97 149
61 97 145
60 94 136
61 97 151
62 97 152
62 97 149
62 97 150
62 97 145
60 96 147
61 97 159
61 96 150
60 96 150
61 96 144
62 97 153
61 96 150
61 96 145
61 96 150
61 97 148
60 95 143
61 96 147
61 96 147
62 97 152
60 95 144
61 96 150
60 94 133
60 95 139
62 97 152
60 95 149
61 96 152
60 94 142
60 95 141
61 96 147
60 95 142
61 96 155
61 95 147
59 92 139
61 96 151
62 97 155
61 96 155
60 95 137
60 94 150
61 94 148
60 94 146
59 93 147
60 95 153
59 94 142
62 96 150
60 94 143
60 95 144
60 94 152
61 96 152
59 93 144
59 92 134
58 91 138
58 90 142
60 93 147
57 88 133
58 91 141
56 87 133
46 56 51
47 55 29
61 64 32
161 133 50
167 137 51
168 138 51
170 138 51
171 139 51
173 139 51
175 140 51
176 141 51
177 141 51
159 130 35
138 117 0
136 116 0
132 112 0
132 111 0
130 110 0
129 108 0
130 108 0
129 108 0
128 105 0
124 102 0
127 103 0
122 99 0
122 97 0
126 100 0
122 95 0
123 95 0
120 93 0
113 86 0
122 92 0
114 84 0
117 87 0
114 85 0
111 83 0
109 80 0
115 85 0
108 79 0
114 81 0
117 86 0
117 86 0
109 81 0
110 81 0
109 77 0
113 83 0
110 79 0
107 76 0
108 78 0
112 80 0
114 84 0
112 82 0
120 89 0
111 82 0
110 79 0
109 81 0
114 85 0
112 84 0
105 75 0
117 88 0
113 86 0
116 85 0
114 87 0
112 83 0
108 80 0
111 83 0
112 85 0
112 85 0
112 86 0
115 89 0
112 85 0
116 90 0
116 90 0
121 97 0
117 92 0
113 86 0
120 94 0
119 95 0
116 89 0
114 90 0
112 90 0
111 88 0
115 93 0
118 96 0
117 96 0
121 98 0
117 95 0
117 95 0
113 92 0
111 90 0
110 90 0
108 89 0
106 88 0
104 85 0
95 79 0
107 89 0
100 84 0
91 76 0
97 80 0
81 69 0
86 73 0
82 70 0
70 59 0
64 56 6
32 37 10
37 42 14
35 39 12
38 43 15
34 39 11
36 39 11
36 39 12
34 37 9
34 36 10
35 37 9
35 37 11
34 36 10
34 35 8
34 35 7
33 34 7
31 31 6
32 32 8
35 36 10
32 32 8
33 31 5
35 35 7
33 32 7
33 33 7
31 30 6
33 33 5
33 31 7
33 32 8
32 31 8
32 32 6
34 34 9
33 33 8
34 35 9
35 36 13
50 48 18
159 129 47
59 77 97
36 58 77
35 56 75
33 54 73
35 55 75
32 51 63
35 55 81
35 56 82
32 52 64
34 55 74
33 52 63
31 50 57
32 52 63
32 52 63
33 53 65
32 52 65
32 51 63
35 56 74
35 56 66
35 56 69
34 55 61
36 57 62
34 54 66
37 59 67
33 53 54
34 55 61
35 56 61
37 59 67
37 59 53
34 54 47
34 55 49
37 59 61
35 56 54
38 61 54
30 49 36
63 74 0
76 88 0
81 95 0
88 103 0
91 106 0
99 115 0
99 114 0
102 117 0
97 114 0
106 122 0
109 125 0
107 122 0
114 130 0
115 131 0
119 135 0
114 130 0
118 135 0
115 131 0
120 137 0
116 133 0
114 130 0
114 129 0
119 136 0
120 137 0
115 131 0
117 133 0
111 127 0
118 135 0
122 137 0
120 136 0
122 139 0
114 130 0
117 132 0
119 134 0
115 130 0
117 132 0
119 133 0
116 131 0
117 132 0
111 126 0
112 126 0
118 133 0
114 127 0
111 125 0
115 129 0
114 129 0
108 121 0
116 129 0
112 126 0
116 129 0
115 128 0
114 127 0
115 129 0
117 131 0
112 125 0
112 125 0
112 125 0
112 125 0
115 128 0
115 128 0
112 125 0
114 128 0
115 128 0
116 129 0
117 130 0
117 130 0
118 132 0
119 133 0
117 131 0
116 130 0
112 126 0
119 133 0
122 137 0
114 128 0
112 125 0
119 134 0
119 134 0
123 138 0
125 141 0
128 145 0
125 141 0
124 141 0
125 142 0
129 147 0
127 146 0
129 147 0
130 148 0
128 145 0
135 153 0
136 154 0
137 156 0
140 158 0
164 178 159
177 188 204
176 188 204
174 187 204
173 186 204
171 185 204
170 184 204
168 184 204
167 183 204
123 141 174
49 77 126
50 79 123
57 91 146
58 92 146
58 92 140
58 93 146
57 90 141
60 94 143
58 92 142
60 94 146
59 93 143
60 94 147
61 97 157
59 94 139
60 94 150
61 96 155
59 94 141
62 97 158
58 93 136
59 94 134
61 95 143
60 95 143
61 96 152
61 95 142
62 98 154
61 97 152
60 94 136
61 97 149
60 94 138
60 95 145
60 94 143
61 96 149
62 98 154
61 97 156
62 98 155
61 97 149
61 96 147
59 94 132
61 97 153
62 97 147
62 97 153
61 96 148
62 97 152
60 95 149
61 96 143
62 97 147
61 95 141
61 96 142
61 97 150
61 96 142
61 96 143
63 98 158
62 97 152
61 97 148
60 95 144
61 96 150
61 96 144
61 96 148
60 95 140
61 96 150
61 96 144
60 95 139
61 96 148
61 97 153
62 97 154
61 96 149
61 96 153
60 95 140
60 95 145
61 97 150
60 95 135
61 97 154
60 95 142
60 95 144
60 95 140
61 96 150
61 97 156
61 96 152
62 97 154
62 97 150
61 96 143
61 95 141
61 96 145
61 97 150
61 97 150
61 96 151
61 96 148
60 95 147
60 95 144
60 95 149
62 97 148
60 95 139
60 96 149
60 95 143
61 96 144
61 97 153
60 94 136
62 98 157
60 95 149
61 96 151
60 94 147
61 97 152
61 96 147
58 93 136
59 93 143
60 94 143
61 96 145
60 95 144
61 95 152
60 94 143
60 93 146
60 94 147
60 95 151
58 91 133
62 98 157
59 93 139
59 94 147
59 93 142
59 93 142
57 89 132
57 89 135
59 91 140
59 93 142
56 85 128
48 64 81
48 56 28
122 105 42
167 137 51
168 137 51
170 138 51
171 139 51
173 139 51
174 140 51
176 141 51
177 141 51
169 136 44
140 118 0
136 115 0
135 114 0
133 113 0
133 113 0
131 109 0
132 109 0
128 105 0
131 108 0
130 106 0
124 100 0
124 99 0
125 100 0
125 100 0
123 98 0
126 101 0
120 93 0
118 91 0
117 89 0
123 97 0
118 89 0
117 88 0
118 91 0
116 89 0
117 89 0
114 85 0
116 88 0
114 86 0
116 85 0
113 83 0
116 89 0
114 85 0
115 88 0
114 85 0
113 85 0
117 89 0
117 86 0
116 87 0
112 83 0
112 83 0
116 87 0
115 84 0
120 90 0
116 88 0
121 92 0
111 81 0
114 85 0
118 89 0
114 86 0
118 90 0
114 86 0
123 97 0
115 89 0
113 86 0
118 91 0
117 89 0
113 87 0
109 84 0
117 92 0
112 87 0
114 88 0
118 92 0
120 98 0
112 89 0
117 95 0
113 91 0
119 94 0
108 86 0
113 92 0
118 94 0
119 97 0
119 95 0
118 95 0
118 97 0
115 94 0
120 98 0
110 91 0
117 99 0
114 94 0
108 89 0
108 88 0
105 87 0
102 84 0
108 90 0
103 86 0
104 86 0
87 76 0
93 79 0
85 72 0
73 64 0
74 62 0
61 54 3
35 40 8
36 42 14
35 40 11
38 43 14
37 41 11
35 39 11
37 41 11
36 39 11
36 40 11
35 38 7
36 39 11
33 35 7
34 36 10
33 35 7
33 35 7
33 34 6
32 32 4
34 34 9
34 34 5
34 35 8
31 31 7
33 31 8
33 31 5
34 32 7
31 29 5
33 32 6
33 32 5
31 29 4
32 31 6
34 32 7
34 32 7
33 30 5
34 34 8
36 36 10
64 57 21
36 57 80
33 54 71
35 55 80
34 54 75
34 54 79
34 54 72
32 52 75
30 49 72
33 53 75
34 55 64
33 52 76
32 51 68
36 57 73
33 53 76
32 52 60
35 56 65
33 53 69
34 55 69
34 54 62
32 52 58
34 55 67
34 55 62
37 59 76
34 55 56
35 57 68
34 55 62
36 58 61
39 61 70
36 58 59
35 57 58
37 58 59
38 61 62
35 57 51
38 61 54
49 66 44
83 93 0
80 93 0
87 101 0
80 93 0
91 106 0
109 124 0
99 115 0
100 115 0
112 128 0
111 129 0
108 125 0
109 126 0
112 130 0
114 130 0
116 133 0
108 124 0
118 134 0
116 132 0
116 133 0
117 134 0
118 134 0
111 127 0
114 130 0
120 137 0
120 137 0
119 135 0
111 127 0
124 139 0
118 134 0
118 134 0
120 137 0
113 129 0
115 131 0
116 132 0
119 134 0
120 135 0
122 138 0
117 132 0
117 132 0
117 132 0
119 135 0
120 135 0
115 130 0
119 133 0
114 128 0
116 130 0
114 129 0
116 131 0
119 133 0
115 128 0
115 128 0
121 135 0
118 132 0
115 129 0
119 133 0
116 131 0
113 126 0
115 128 0
115 129 0
117 131 0
118 132 0
116 130 0
119 133 0
117 131 0
119 133 0
116 130 0
118 132 0
119 133 0
120 134 0
122 136 0
117 131 0
124 139 0
120 135 0
121 136 0
122 137 0
124 140 0
128 143 0
126 143 0
123 139 0
128 145 0
128 145 0
130 147 0
127 145 0
130 148 0
128 145 0
131 148 0
132 149 0
134 153 0
132 150 0
136 155 0
136 154 0
135 154 0
147 164 86
175 187 196
177 188 204
175 187 204
174 187 204
172 186 204
171 185 204
169 184 204
168 183 204
161 177 199
62 86 126
52 83 126
57 90 140
58 92 142
59 94 148
58 91 144
59 94 153
59 93 145
60 94 145
58 92 143
59 94 146
57 91 132
59 94 149
61 96 154
60 95 152
60 95 149
60 95 144
60 94 142
61 96 152
60 95 152
60 95 153
59 93 142
61 96 146
60 96 146
60 95 148
62 97 154
61 97 151
61 96 142
61 96 150
61 96 150
62 97 154
60 95 139
61 96 152
59 94 133
61 96 145
60 95 142
61 96 147
61 96 141
61 96 142
61 96 140
61 96 150
61 97 155
61 96 144
60 96 145
60 96 143
60 95 142
62 97 145
61 97 150
61 96 150
60 95 142
61 96 144
61 97 148
61 97 151
62 97 153
61 97 148
60 95 133
60 94 140
60 95 139
61 96 150
61 96 153
60 95 144
61 96 148
60 95 148
62 97 151
62 97 153
60 94 139
61 96 150
60 95 131
60 95 143
62 98 157
62 98 152
61 96 148
60 95 145
62 97 150
62 97 157
61 96 148
63 98 153
60 95 139
60 95 144
62 98 152
60 95 145
62 97 155
61 96 148
60 95 141
60 95 145
61 96 148
62 98 159
61 96 148
61 96 145
61 97 154
60 95 142
61 96 142
61 96 143
59 94 141
60 95 145
61 96 147
60 94 141
61 95 145
62 98 156
61 96 152
61 96 155
62 97 152
61 95 147
61 96 153
62 96 151
60 95 143
60 94 148
60 94 140
59 94 148
61 96 144
60 95 145
61 95 149
60 94 145
59 92 147
60 94 139
59 92 140
59 93 146
59 92 136
59 93 138
60 94 142
59 92 147
59 93 146
58 91 141
59 91 146
56 84 129
66 66 31
162 133 50
168 137 51
169 138 51
171 139 51
172 139 51
174 140 51
175 140 51
177 141 51
176 141 49
144 121 16
137 117 0
134 114 0
134 115 0
133 114 0
134 114 0
129 108 0
129 108 0
127 106 0
129 106 0
132 109 0
129 104 0
127 103 0
120 94 0
123 99 0
125 100 0
127 102 0
123 95 0
125 97 0
127 101 0
114 86 0
118 91 0
117 87 0
120 93 0
120 90 0
118 90 0
117 88 0
123 94 0
119 91 0
122 93 0
126 96 0
119 91 0
117 87 0
117 88 0
117 89 0
119 91 0
115 85 0
115 86 0
111 83 0
118 88 0
118 88 0
121 93 0
120 91 0
119 90 0
110 82 0
118 91 0
118 89 0
119 91 0
122 93 0
114 87 0
120 93 0
122 94 0
118 93 0
118 92 0
120 96 0
120 93 0
119 94 0
120 95 0
119 93 0
119 95 0
117 93 0
117 92 0
115 91 0
120 96 0
120 96 0
118 94 0
121 98 0
120 97 0
113 91 0
116 92 0
113 92 0
118 96 0
116 96 0
120 98 0
114 96 0
117 96 0
115 95 0
116 97 0
116 95 0
114 95 0
109 91 0
110 93 0
106 87 0
108 91 0
117 99 0
101 85 0
106 89 0
100 84 0
83 70 0
93 81 0
94 80 0
87 75 0
86 73 0
50 49 9
34 39 12
34 39 9
39 44 14
38 44 15
33 36 12
39 43 15
36 39 14
36 39 12
38 41 12
35 37 9
36 38 10
35 35 10
34 36 10
36 37 7
35 37 9
35 35 8
34 35 9
33 32 6
34 33 7
35 34 5
33 32 6
35 36 8
33 33 3
31 29 5
34 32 5
35 34 9
33 31 5
33 32 4
34 32 9
33 32 6
33 33 8
33 32 10
35 35 10
35 36 10
37 59 80
32 51 71
33 52 67
32 52 68
33 54 71
32 52 67
32 52 67
32 51 73
34 54 74
34 54 76
31 51 72
33 53 69
35 56 71
31 50 64
34 55 75
35 56 77
34 54 67
36 58 69
35 57 63
36 58 72
34 55 64
34 54 67
37 59 79
37 59 78
36 58 66
37 59 67
38 60 80
38 60 72
36 57 63
38 61 67
39 63 68
39 62 62
37 59 62
37 59 62
67 81 38
83 95 0
87 100 0
100 114 0
95 110 0
97 111 0
96 112 0
108 122 0
104 121 0
114 130 0
111 127 0
105 122 0
114 131 0
110 127 0
115 132 0
120 138 0
118 136 0
127 144 0
119 135 0
115 131 0
114 130 0
117 135 0
125 142 0
119 134 0
118 134 0
117 134 0
119 136 0
124 141 0
120 136 0
122 138 0
124 140 0
121 136 0
126 142 0
124 140 0
119 136 0
120 136 0
121 137 0
117 133 0
121 137 0
119 134 0
119 134 0
118 133 0
125 141 0
121 137 0
120 135 0
117 132 0
118 133 0
120 135 0
117 132 0
116 131 0
122 137 0
116 129 0
121 135 0
112 126 0
119 134 0
120 135 0
124 138 0
123 137 0
115 129 0
117 131 0
114 128 0
119 133 0
117 131 0
121 135 0
117 130 0
122 137 0
119 134 0
122 137 0
120 135 0
115 130 0
120 135 0
118 132 0
118 133 0
122 137 0
126 141 0
123 139 0
123 137 0
125 140 0
124 141 0
128 143 0
128 144 0
129 146 0
126 142 0
133 150 0
133 151 0
133 152 0
131 148 0
132 150 0
135 153 0
132 151 0
135 153 0
137 155 0
136 155 0
137 156 0
157 172 129
178 189 204
176 188 204
175 187 204
174 186 204
172 186 204
171 185 204
169 184 204
168 183 204
122 140 169
55 88 139
60 94 150
59 94 145
58 93 147
59 94 143
58 91 143
59 94 151
59 93 141
60 95 144
59 94 149
60 94 144
58 91 143
60 94 146
60 94 146
60 95 145
59 93 136
60 95 146
59 94 145
60 95 144
60 95 146
62 97 149
61 96 146
60 94 136
61 96 149
61 95 144
60 95 146
61 96 139
61 96 142
61 97 148
61 96 148
60 95 143
60 95 136
60 95 148
62 97 151
61 97 151
60 96 147
60 95 149
61 96 144
60 95 145
60 94 140
61 96 144
60 95 146
61 96 149
59 93 135
61 96 143
60 95 144
61 96 144
61 96 148
61 97 145
62 97 148
62 97 153
60 95 144
60 95 141
60 95 141
61 97 145
61 97 148
60 95 150
61 97 159
62 98 151
61 97 149
61 95 145
60 95 142
62 97 153
60 95 136
60 95 142
61 96 145
61 96 144
61 96 149
61 96 150
60 94 136
60 95 142
60 95 144
62 97 151
61 97 149
62 97 152
61 96 147
61 96 149
62 97 149
61 95 145
61 95 144
62 97 155
61 96 151
61 96 140
61 96 144
61 96 141
60 95 141
60 95 139
61 96 150
61 96 149
61 97 151
62 97 153
61 95 144
61 96 145
60 95 141
61 95 147
61 96 149
60 95 140
62 97 159
61 97 150
60 94 137
60 95 144
61 96 149
61 96 142
60 95 146
60 95 141
61 95 144
60 95 144
61 96 152
60 94 148
60 94 149
61 95 145
59 92 141
61 95 149
60 94 140
60 94 144
60 93 143
60 94 150
60 94 142
59 92 138
60 94 143
56 87 128
59 92 143
58 89 135
54 82 124
120 104 54
168 137 51
169 138 51
171 139 51
172 139 51
173 140 51
175 140 51
176 141 51
178 141 51
157 128 32
137 116 0
138 117 0
138 117 0
135 115 0
134 113 0
133 111 0
130 109 0
133 112 0
129 107 0
126 105 0
128 106 0
128 105 0
128 105 0
126 102 0
125 100 0
125 101 0
121 97 0
126 102 0
123 97 0
122 97 0
122 95 0
121 93 0
120 91 0
121 94 0
119 92 0
120 92 0
117 88 0
115 87 0
125 97 0
122 94 0
120 93 0
123 96 0
119 94 0
117 89 0
115 86 0
119 92 0
122 94 0
119 90 0
117 89 0
122 94 0
120 93 0
118 91 0
122 94 0
114 86 0
120 93 0
120 91 0
116 91 0
121 94 0
120 93 0
121 95 0
119 92 0
118 90 0
114 86 0
125 97 0
121 96 0
118 92 0
122 99 0
121 97 0
117 93 0
114 90 0
118 96 0
121 97 0
119 95 0
122 98 0
127 104 0
122 98 0
120 98 0
123 100 0
121 99 0
120 100 0
118 95 0
116 96 0
121 99 0
119 97 0
121 101 0
125 105 0
116 97 0
117 97 0
120 102 0
118 99 0
111 93 0
116 98 0
116 97 0
112 94 0
114 97 0
107 91 0
104 89 0
98 84 0
101 87 0
89 77 0
86 75 0
87 76 0
82 72 0
55 53 9
37 43 13
37 43 14
37 42 12
37 41 13
38 43 13
38 41 14
34 38 11
38 42 16
38 42 14
35 38 12
35 38 11
36 39 11
35 37 11
38 41 11
34 35 9
35 37 12
36 37 9
32 32 8
35 35 9
33 32 4
35 35 7
31 30 5
32 30 4
34 33 8
32 31 5
31 30 4
34 32 8
33 30 5
33 31 5
31 29 6
33 33 7
34 33 8
35 34 9
34 34 12
35 55 80
33 53 77
34 54 77
34 55 81
33 53 72
31 50 70
31 50 72
33 52 69
34 54 70
31 50 74
33 53 70
34 54 73
34 55 70
30 49 63
33 53 75
34 54 67
36 57 73
34 54 70
34 55 68
36 57 72
37 59 79
37 59 82
36 58 68
36 58 69
36 57 68
39 62 65
39 62 70
36 57 58
37 58 66
38 61 65
38 60 63
40 64 69
37 60 49
35 56 51
87 101 35
86 99 0
105 119 0
98 114 0
103 118 0
108 123 0
104 120 0
105 121 0
111 127 0
113 130 0
107 124 0
112 129 0
109 125 0
121 138 0
118 136 0
117 133 0
118 135 0
111 128 0
118 134 0
124 141 0
123 140 0
126 143 0
123 139 0
122 140 0
125 142 0
121 138 0
120 137 0
120 135 0
124 140 0
119 135 0
126 143 0
121 137 0
127 144 0
123 139 0
120 136 0
126 142 0
124 140 0
124 139 0
122 138 0
123 139 0
117 133 0
124 139 0
116 132 0
120 135 0
122 138 0
121 136 0
119 135 0
122 137 0
122 138 0
111 125 0
121 136 0
118 132 0
119 134 0
124 140 0
120 135 0
121 137 0
124 140 0
121 136 0
120 135 0
114 128 0
119 133 0
119 133 0
118 132 0
123 138 0
124 139 0
121 136 0
128 144 0
123 139 0
120 135 0
123 138 0
124 139 0
126 141 0
127 143 0
128 144 0
122 138 0
122 138 0
127 143 0
127 142 0
128 145 0
123 139 0
127 144 0
130 147 0
128 146 0
131 149 0
126 144 0
132 150 0
134 152 0
128 146 0
128 147 0
134 153 0
132 150 0
135 154 0
136 155 0
139 157 0
139 158 0
172 184 185
177 188 204
176 188 204
174 187 204
173 186 204
172 185 204
170 185 204
169 184 204
133 152 183
60 94 144
59 93 143
56 89 137
57 90 139
57 90 140
59 93 143
59 94 149
58 92 140
58 92 141
60 94 147
60 95 150
59 94 146
60 94 145
60 95 142
61 96 146
60 95 152
61 96 148
60 95 151
61 96 150
61 96 148
61 96 149
61 96 149
59 93 137
62 97 153
60 95 146
61 96 149
60 95 143
60 94 139
61 96 149
59 94 122
62 97 147
62 97 147
61 96 146
60 95 147
63 99 163
60 94 138
61 95 145
61 97 148
61 96 154
61 95 143
61 96 148
61 96 148
61 96 145
60 95 140
61 96 140
61 97 148
61 96 140
60 95 135
60 95 142
60 95 142
61 97 152
60 95 141
61 97 148
61 96 142
61 96 149
61 95 135
60 95 144
62 97 148
62 97 151
61 95 139
61 96 151
60 95 141
61 96 148
61 97 150
62 97 153
60 95 141
62 97 141
60 96 137
61 96 152
59 93 140
60 95 142
61 96 150
61 96 145
60 95 139
61 96 148
61 96 142
60 94 141
60 95 145
61 96 149
60 95 135
60 96 140
61 95 139
61 96 143
60 94 137
62 97 155
60 95 139
61 96 145
61 96 144
60 94 148
60 94 142
61 97 150
60 95 135
61 96 149
60 95 140
59 94 136
61 96 141
61 95 144
60 94 142
60 95 143
61 95 146
60 95 144
61 95 144
61 95 144
60 94 139
60 94 142
60 95 143
61 96 152
60 94 145
59 94 143
61 96 149
60 94 141
60 95 146
60 94 144
60 93 143
59 92 137
60 94 145
60 94 136
61 94 153
59 93 145
59 92 143
58 92 144
58 91 134
58 90 139
56 86 132
136 121 97
169 138 51
170 138 51
172 139 51
173 140 51
174 140 51
176 141 51
177 141 51
172 138 46
138 118 0
137 117 0
138 118 0
136 115 0
136 115 0
133 112 0
132 110 0
132 111 0
133 112 0
127 105 0
130 107 0
131 109 0
129 105 0
129 105 0
127 102 0
125 100 0
128 102 0
125 99 0
126 101 0
126 101 0
126 101 0
125 99 0
120 95 0
119 93 0
123 97 0
128 101 0
120 93 0
118 91 0
121 96 0
123 97 0
122 96 0
121 94 0
117 88 0
120 94 0
120 92 0
123 97 0
122 94 0
121 95 0
121 94 0
122 96 0
121 94 0
118 91 0
121 93 0
123 97 0
120 92 0
123 95 0
119 92 0
122 95 0
120 95 0
125 99 0
123 95 0
119 94 0
119 95 0
124 98 0
121 96 0
120 93 0
119 96 0
123 98 0
122 99 0
118 95 0
120 97 0
119 96 0
118 94 0
124 101 0
123 100 0
123 98 0
120 99 0
121 99 0
125 103 0
120 96 0
121 100 0
123 101 0
120 99 0
119 98 0
119 99 0
122 102 0
120 100 0
124 105 0
117 98 0
112 94 0
115 97 0
114 95 0
115 98 0
116 98 0
116 98 0
103 87 0
108 91 0
106 91 0
104 89 0
103 87 0
100 86 0
103 89 0
97 84 0
103 89 0
86 75 6
33 39 8
39 44 15
38 43 13
40 45 15
40 45 16
38 43 14
33 36 11
36 40 12
37 40 14
35 37 12
36 39 10
34 36 9
36 38 10
35 35 7
35 36 9
35 36 8
35 36 10
36 36 12
34 35 9
35 35 8
34 33 8
31 29 5
32 31 4
34 31 6
31 30 6
34 33 6
32 30 5
32 31 4
33 31 5
33 31 4
32 31 6
35 34 9
33 32 7
34 34 7
32 52 75
33 53 77
34 55 77
35 55 81
33 54 78
33 52 77
34 55 76
35 56 78
30 49 63
31 50 75
34 54 71
33 52 73
33 53 70
31 51 65
35 55 63
36 57 69
34 54 64
37 59 70
35 56 68
37 58 64
35 56 68
37 58 69
36 58 63
35 56 68
38 60 70
37 59 69
38 61 69
37 59 69
36 58 67
39 62 66
37 60 62
37 59 66
41 65 80
42 65 54
98 111 14
101 117 0
110 124 0
101 114 0
101 116 0
106 121 0
109 126 0
110 128 0
105 122 0
111 128 0
110 127 0
117 134 0
122 139 0
117 134 0
118 135 0
121 137 0
117 134 0
119 136 0
124 142 0
123 139 0
119 137 0
126 143 0
123 141 0
124 141 0
124 142 0
118 135 0
121 138 0
121 138 0
123 140 0
123 140 0
129 146 0
124 140 0
123 140 0
126 143 0
124 140 0
123 139 0
124 140 0
124 140 0
126 143 0
125 142 0
124 141 0
116 132 0
129 146 0
127 143 0
129 144 0
120 135 0
123 138 0
123 138 0
121 136 0
125 140 0
124 139 0
117 132 0
124 139 0
124 139 0
122 136 0
125 140 0
123 139 0
122 137 0
123 138 0
125 140 0
125 140 0
118 133 0
122 137 0
125 140 0
123 138 0
126 142 0
121 137 0
126 142 0
123 139 0
130 146 0
123 139 0
125 142 0
128 144 0
126 142 0
131 147 0
126 142 0
129 145 0
127 144 0
127 143 0
129 146 0
129 146 0
133 150 0
132 149 0
130 148 0
128 147 0
131 149 0
133 151 0
133 152 0
130 148 0
138 155 0
136 154 0
136 155 0
133 153 0
136 154 0
139 158 0
153 169 115
178 189 204
177 188 204
175 187 204
174 187 204
173 186 204
171 185 204
170 185 204
108 129 162
56 89 144
57 90 136
58 92 144
58 91 146
59 94 143
59 94 147
60 94 148
59 94 149
57 91 132
60 95 149
59 93 143
61 96 150
60 94 149
59 94 147
62 97 154
59 94 134
59 93 140
60 94 140
61 96 148
59 93 131
60 94 144
60 95 147
61 96 142
60 95 142
61 96 152
61 96 141
61 96 148
62 97 153
60 95 141
62 97 149
61 96 145
60 95 142
62 98 156
61 95 142
60 95 141
60 95 139
62 98 158
61 97 149
59 93 130
60 94 139
62 98 153
60 95 139
61 95 143
60 94 135
59 94 134
62 97 150
60 95 134
61 96 140
61 96 145
61 96 141
61 96 137
61 97 153
60 95 148
61 96 149
61 95 144
61 97 144
60 95 140
61 96 148
61 96 140
61 96 141
61 95 149
62 97 152
61 96 147
61 96 147
62 97 151
62 97 152
61 96 148
60 95 136
61 95 143
61 96 150
60 95 140
60 96 149
60 95 144
60 95 143
61 97 149
61 96 139
61 97 145
61 95 134
61 96 141
62 97 152
61 96 144
61 95 143
61 96 143
61 96 145
62 97 151
62 97 150
61 96 149
61 96 147
62 97 151
61 96 150
61 96 150
59 93 139
61 95 141
62 97 151
62 98 157
60 95 143
60 94 139
60 95 143
60 94 135
60 94 135
60 94 140
59 94 135
61 95 144
60 95 148
60 95 140
59 92 140
60 95 146
58 91 130
59 94 148
61 95 149
60 93 141
61 95 145
60 95 147
59 92 147
59 92 135
59 93 134
59 91 133
58 89 135
59 91 134
59 92 141
59 92 144
59 93 149
56 88 135
56 86 128
103 105 121
170 138 51
171 139 51
173 139 51
174 140 51
175 140 51
177 141 51
178 142 51
153 126 28
137 117 0
136 116 0
135 115 0
137 117 0
134 114 0
135 114 0
132 111 0
130 109 0
131 109 0
133 112 0
130 108 0
129 108 0
123 101 0
128 105 0
130 106 0
128 104 0
130 107 0
127 104 0
126 100 0
125 99 0
122 96 0
121 94 0
120 96 0
121 96 0
122 96 0
122 97 0
126 100 0
122 96 0
123 97 0
123 97 0
124 96 0
118 93 0
122 96 0
126 101 0
120 95 0
122 95 0
125 99 0
122 99 0
118 93 0
123 99 0
119 93 0
123 97 0
124 99 0
123 96 0
123 97 0
123 98 0
125 99 0
122 97 0
123 98 0
120 95 0
122 97 0
123 97 0
125 100 0
128 102 0
122 98 0
121 96 0
123 98 0
123 98 0
121 96 0
115 91 0
118 97 0
125 101 0
117 95 0
120 98 0
123 101 0
124 101 0
122 100 0
121 99 0
125 102 0
119 98 0
123 100 0
123 103 0
122 101 0
126 106 0
126 104 0
117 98 0
124 103 0
121 101 0
126 106 0
117 98 0
118 98 0
116 97 0
115 98 0
121 103 0
119 101 0
116 98 0
108 94 0
114 98 0
109 94 0
110 94 0
108 92 0
97 84 0
104 88 0
103 89 0
94 82 0
37 44 16
38 43 14
39 44 13
38 44 15
39 43 13
38 42 13
39 44 15
37 41 14
38 42 14
37 40 11
38 40 14
36 39 11
35 37 10
34 36 6
36 39 12
32 34 11
36 37 9
36 36 9
35 35 9
35 35 6
34 34 8
32 31 7
34 31 4
31 30 8
32 31 7
32 32 6
32 30 4
33 32 6
33 29 5
33 32 5
32 29 4
32 31 8
34 33 6
34 33 9
34 54 78
32 51 70
33 52 74
32 51 77
33 53 74
30 49 73
33 52 76
35 56 74
33 53 79
32 52 74
33 53 72
32 51 68
34 55 69
32 52 68
35 55 68
35 56 72
36 58 76
35 56 72
33 53 59
32 52 60
36 57 75
34 54 57
36 58 73
38 60 70
38 61 71
38 61 70
39 62 66
37 60 58
37 59 60
39 62 69
38 61 61
39 62 57
38 60 64
58 75 50
105 118 0
106 120 0
106 120 0
106 120 0
112 128 0
106 122 0
113 129 0
116 133 0
117 134 0
118 135 0
116 134 0
121 138 0
123 141 0
122 140 0
119 137 0
127 145 0
126 143 0
124 141 0
119 136 0
114 131 0
122 139 0
126 143 0
122 140 0
124 142 0
125 142 0
123 140 0
124 142 0
122 140 0
120 137 0
123 140 0
125 143 0
126 143 0
126 142 0
125 143 0
128 145 0
123 140 0
128 145 0
122 139 0
129 147 0
124 140 0
124 141 0
126 142 0
126 142 0
130 147 0
125 141 0
126 142 0
125 140 0
125 142 0
125 141 0
129 144 0
130 146 0
125 141 0
123 139 0
124 140 0
118 134 0
129 145 0
121 137 0
123 138 0
127 143 0
123 138 0
127 143 0
123 139 0
126 143 0
128 144 0
121 137 0
128 144 0
127 143 0
128 144 0
124 139 0
125 142 0
127 142 0
127 144 0
128 144 0
126 143 0
127 144 0
131 147 0
126 142 0
131 148 0
129 146 0
130 147 0
133 150 0
129 146 0
131 149 0
130 147 0
134 152 0
134 151 0
133 151 0
134 153 0
136 153 0
134 152 0
135 153 0
137 156 0
137 156 0
138 158 0
137 156 0
139 158 0
173 185 188
177 189 204
176 188 204
175 187 204
174 187 204
172 186 204
171 185 204
77 104 145
58 92 141
59 93 149
58 92 144
58 91 144
59 93 146
59 94 144
59 93 144
61 95 142
60 95 146
59 94 142
60 95 148
59 93 140
59 93 140
59 94 148
60 95 141
60 95 144
59 94 142
59 94 146
60 94 140
59 94 138
61 96 145
60 95 140
60 95 137
61 95 142
60 95 143
59 94 135
61 96 142
61 96 142
61 96 145
61 96 139
60 95 138
61 96 147
61 96 147
61 96 148
61 97 148
60 95 147
61 96 144
60 95 149
60 95 145
61 97 150
60 95 139
62 97 152
60 95 144
60 95 145
61 96 147
59 94 125
61 97 151
60 95 140
61 96 149
60 95 150
61 95 143
61 96 137
60 95 143
62 97 144
60 95 144
61 95 148
61 96 144
61 97 156
62 97 157
61 96 150
61 96 139
61 96 142
61 96 140
60 95 139
59 94 130
60 95 140
61 96 143
60 95 143
60 95 137
60 94 134
60 95 141
62 97 150
60 95 140
61 95 140
61 96 145
61 96 148
61 97 150
61 96 149
60 95 136
60 95 142
61 96 150
61 97 155
61 97 147
60 95 137
60 95 139
61 96 152
61 97 144
61 96 143
60 95 141
61 96 142
60 95 137
60 94 142
61 95 140
61 96 148
62 98 158
60 95 146
61 97 151
61 97 158
60 95 143
61 95 143
60 95 143
59 93 137
61 96 146
60 95 144
61 95 144
60 93 136
60 94 141
61 95 147
60 93 140
60 95 142
60 95 152
59 91 138
59 93 140
59 92 139
60 93 142
59 93 141
60 93 143
60 94 147
58 92 136
58 91 134
58 92 146
58 90 145
59 91 142
57 89 130
67 92 126
170 138 51
172 139 51
174 140 51
175 140 51
176 141 51
177 141 51
174 139 47
139 118 0
139 118 0
136 116 0
137 117 0
136 115 0
132 112 0
135 113 0
134 112 0
131 110 0
134 113 0
133 111 0
128 107 0
130 107 0
132 107 0
130 106 0
131 107 0
128 104 0
127 103 0
130 106 0
128 104 0
130 106 0
127 103 0
125 100 0
128 104 0
123 98 0
124 99 0
127 102 0
124 100 0
126 101 0
124 97 0
125 99 0
127 102 0
125 101 0
125 99 0
125 98 0
127 102 0
126 101 0
123 99 0
127 102 0
120 95 0
123 98 0
122 97 0
122 96 0
125 100 0
125 100 0
128 101 0
126 101 0
124 98 0
125 102 0
125 101 0
124 99 0
124 100 0
125 101 0
126 103 0
122 98 0
127 103 0
123 98 0
124 101 0
126 104 0
129 106 0
127 104 0
125 102 0
120 97 0
121 98 0
125 103 0
132 109 0
124 102 0
124 101 0
126 103 0
124 102 0
128 108 0
123 103 0
125 105 0
118 99 0
122 99 0
119 100 0
127 106 0
122 102 0
125 106 0
128 109 0
126 106 0
121 102 0
126 106 0
125 106 0
119 100 0
118 100 0
118 101 0
115 98 0
112 95 0
116 99 0
103 89 0
113 98 0
101 87 0
111 96 0
98 85 0
100 87 0
59 58 12
38 45 13
40 46 18
39 44 15
39 44 15
39 43 16
40 45 16
38 41 15
36 39 13
37 39 13
38 41 16
40 43 17
36 38 11
35 37 12
34 36 11
34 34 8
32 33 9
34 35 8
36 36 12
31 30 6
33 32 8
34 33 7
32 31 6
35 33 7
33 32 8
35 34 5
34 32 6
35 33 7
32 30 5
32 30 5
32 30 5
32 30 5
34 32 7
32 30 7
32 51 78
31 51 75
33 53 78
33 52 72
32 52 78
31 50 74
33 53 77
33 53 76
31 50 71
32 52 61
34 54 74
34 55 74
35 56 78
35 56 81
34 55 79
35 57 70
32 51 60
36 57 76
34 55 60
36 57 73
38 61 78
34 54 69
36 58 72
37 59 67
37 59 72
41 64 84
37 59 73
40 64 76
41 66 77
39 63 68
41 66 69
40 64 73
41 66 68
75 92 56
109 121 0
107 121 0
110 125 0
109 124 0
114 131 0
114 131 0
114 131 0
117 135 0
113 129 0
115 132 0
121 137 0
117 136 0
116 133 0
121 139 0
124 143 0
121 137 0
124 142 0
122 139 0
126 144 0
121 138 0
121 139 0
128 146 0
121 139 0
127 145 0
119 136 0
126 143 0
127 143 0
124 141 0
126 143 0
125 143 0
127 145 0
126 141 0
125 141 0
122 139 0
125 142 0
127 143 0
127 144 0
121 138 0
127 144 0
124 142 0
127 143 0
127 144 0
124 140 0
126 143 0
125 140 0
128 145 0
128 144 0
128 145 0
126 143 0
126 142 0
128 144 0
128 144 0
121 136 0
121 137 0
131 148 0
126 142 0
130 146 0
131 147 0
123 138 0
127 144 0
124 141 0
124 140 0
129 146 0
128 145 0
127 143 0
130 146 0
127 143 0
127 144 0
130 147 0
124 140 0
129 146 0
127 143 0
123 140 0
131 149 0
132 149 0
129 146 0
128 144 0
131 148 0
131 148 0
133 149 0
132 150 0
132 150 0
130 147 0
131 149 0
132 150 0
135 153 0
133 152 0
135 153 0
132 150 0
136 154 0
134 153 0
136 154 0
134 153 0
138 157 0
137 156 0
139 157 0
158 172 134
178 189 204
177 188 204
176 188 204
174 187 204
173 186 204
150 165 186
57 90 139
57 90 130
57 91 138
58 92 140
59 93 141
59 94 149
60 94 148
60 95 151
57 91 129
60 95 153
60 95 147
59 93 141
60 95 142
58 91 134
60 95 145
59 94 137
61 95 148
60 94 143
60 94 147
62 97 153
60 95 148
61 96 148
60 94 137
61 97 149
59 94 136
60 95 142
61 97 145
60 95 144
60 95 137
60 96 140
59 94 134
61 96 145
61 96 140
60 95 144
61 97 151
60 95 137
60 94 139
61 96 139
61 96 144
61 96 142
61 96 145
61 96 148
61 95 145
61 95 141
60 95 134
61 96 149
61 96 144
61 95 145
60 95 141
60 95 140
61 97 147
61 96 145
59 94 134
60 95 136
62 97 150
62 98 152
61 96 145
60 96 136
60 94 139
61 96 140
61 97 148
60 96 145
60 95 129
61 97 145
60 95 139
61 96 141
61 96 149
59 94 134
62 97 151
61 95 151
61 95 144
62 97 152
60 95 137
61 95 145
61 96 144
61 96 148
62 97 147
60 94 137
61 96 141
61 96 142
60 95 148
61 96 142
61 96 150
60 95 139
60 95 142
60 95 140
62 97 153
62 97 150
61 96 155
61 96 140
60 94 136
61 96 150
59 94 136
60 95 143
61 95 144
61 96 152
60 96 144
59 94 136
61 96 145
60 95 144
60 94 147
60 95 143
61 96 144
61 96 150
61 95 142
60 95 137
60 94 137
60 94 144
60 94 143
60 95 142
61 95 148
60 94 143
60 95 143
59 92 135
60 93 143
59 92 139
58 91 135
59 92 140
60 93 143
59 91 139
59 90 134
59 92 138
59 92 142
59 91 145
58 89 135
55 85 127
163 134 70
173 140 51
174 140 51
176 141 51
177 141 51
178 142 51
157 129 33
140 119 0
139 118 0
139 118 0
137 116 0
135 114 0
135 115 0
137 115 0
134 112 0
131 111 0
135 114 0
135 114 0
131 109 0
130 107 0
132 110 0
133 111 0
131 108 0
132 109 0
130 107 0
128 103 0
128 102 0
131 107 0
125 102 0
128 104 0
125 100 0
129 105 0
128 103 0
130 104 0
119 93 0
128 105 0
125 97 0
125 101 0
126 102 0
126 102 0
130 104 0
124 98 0
127 102 0
127 102 0
130 107 0
125 99 0
128 104 0
128 103 0
127 104 0
126 100 0
125 101 0
127 103 0
131 107 0
127 102 0
124 101 0
132 108 0
128 105 0
133 110 0
125 102 0
122 98 0
130 106 0
126 102 0
126 103 0
128 107 0
125 101 0
126 103 0
124 101 0
131 109 0
124 104 0
128 106 0
125 102 0
128 107 0
125 104 0
129 108 0
128 107 0
125 103 0
130 108 0
125 103 0
123 101 0
123 102 0
124 104 0
127 107 0
124 105 0
127 106 0
122 103 0
126 107 0
126 106 0
120 102 0
123 103 0
123 104 0
122 104 0
124 106 0
123 104 0
123 104 0
118 101 0
119 102 0
122 103 0
113 97 0
110 95 0
112 96 0
109 94 0
110 95 0
107 92 0
78 70 10
39 45 17
39 46 15
42 49 20
39 44 15
39 43 16
39 44 15
39 43 16
37 40 10
37 40 13
39 43 14
38 40 14
36 39 11
36 37 11
34 36 10
37 38 12
35 36 10
33 34 8
34 34 8
34 34 8
32 31 5
34 33 7
33 32 8
33 33 9
34 33 9
32 29 5
35 33 6
34 32 4
32 30 5
33 30 4
32 30 5
33 30 5
32 29 4
34 31 7
35 56 79
36 56 88
33 53 77
34 54 81
32 52 70
31 50 69
34 54 81
33 52 78
34 54 82
33 53 76
33 52 71
33 54 78
36 57 80
34 54 74
34 55 76
35 56 78
36 57 71
37 58 81
39 61 89
37 58 72
36 58 64
36 57 72
37 59 77
37 59 72
38 61 73
39 62 74
38 61 71
39 62 74
40 64 72
42 67 80
41 64 76
41 65 72
39 63 56
96 111 38
121 134 0
121 135 0
114 128 0
112 127 0
108 125 0
117 132 0
115 132 0
118 134 0
112 129 0
118 136 0
121 138 0
123 141 0
127 144 0
123 140 0
124 141 0
126 144 0
128 146 0
124 142 0
123 140 0
127 145 0
130 148 0
126 144 0
126 144 0
121 139 0
126 144 0
123 140 0
125 143 0
129 147 0
127 145 0
129 148 0
123 140 0
127 144 0
126 143 0
124 141 0
128 146 0
129 146 0
130 148 0
130 148 0
130 147 0
129 147 0
121 137 0
128 145 0
125 142 0
126 142 0
130 146 0
129 147 0
128 145 0
128 144 0
128 146 0
131 148 0
126 143 0
128 144 0
129 146 0
127 144 0
129 146 0
122 138 0
131 148 0
127 144 0
126 143 0
128 144 0
131 148 0
128 144 0
130 147 0
134 152 0
129 145 0
130 148 0
131 149 0
132 150 0
130 146 0
132 149 0
130 148 0
132 150 0
131 147 0
133 150 0
128 145 0
131 149 0
130 147 0
133 151 0
131 148 0
132 150 0
132 149 0
132 149 0
129 146 0
134 152 0
128 145 0
136 153 0
133 151 0
137 155 0
136 155 0
136 154 0
134 153 0
137 156 0
135 154 0
136 154 0
139 158 0
139 157 0
146 162 70
179 189 204
177 189 204
176 188 204
175 187 204
174 187 204
134 151 181
55 87 137
57 90 138
58 92 145
59 93 149
59 93 139
60 94 148
60 94 147
58 92 138
58 92 138
60 94 142
60 95 147
59 93 145
58 92 133
59 94 141
61 96 145
59 94 139
60 95 144
59 93 141
61 96 150
60 95 147
59 93 134
60 94 143
60 94 147
61 97 147
60 95 143
59 94 139
60 95 142
60 95 142
60 95 143
61 96 147
61 96 150
61 96 146
60 94 133
59 94 133
60 94 145
61 96 145
61 96 145
60 95 142
59 94 135
61 96 141
61 96 140
61 97 146
60 94 140
60 95 137
60 96 141
60 95 141
61 97 143
60 95 147
60 95 141
60 95 144
61 97 152
61 97 150
61 96 145
61 96 145
60 95 142
59 94 140
59 94 139
60 95 142
62 98 155
60 95 139
60 95 137
61 96 150
60 94 135
61 97 145
60 94 142
61 96 148
60 95 135
60 95 140
60 95 135
61 97 154
60 94 137
61 95 139
59 94 141
59 94 142
62 97 145
61 96 141
61 96 149
60 96 149
61 95 139
61 95 139
60 95 144
61 96 148
60 95 136
62 97 143
60 95 139
60 94 142
62 97 149
60 94 136
61 95 137
62 97 153
60 95 135
60 95 142
59 93 136
59 93 141
60 95 142
61 96 148
61 96 151
60 95 128
61 95 141
60 94 139
61 96 147
60 94 136
60 95 143
59 93 143
59 93 141
59 94 137
61 95 141
61 97 152
60 95 142
60 93 138
61 96 144
60 95 142
60 95 148
60 93 135
60 94 144
60 93 142
59 93 142
59 93 139
60 95 142
60 95 150
59 92 133
60 93 147
59 92 148
57 89 138
56 87 131
59 92 139
135 119 95
174 140 51
175 140 51
176 141 51
177 141 51
178 142 50
144 121 16
138 117 0
138 118 0
137 117 0
137 117 0
138 117 0
137 116 0
134 114 0
136 115 0
133 111 0
133 112 0
131 110 0
134 113 0
131 109 0
130 108 0
132 110 0
130 105 0
132 110 0
132 110 0
131 108 0
129 105 0
130 107 0
129 106 0
131 106 0
131 109 0
130 105 0
127 104 0
129 106 0
128 104 0
132 107 0
129 105 0
128 104 0
129 105 0
129 105 0
127 102 0
129 106 0
128 103 0
128 103 0
131 107 0
124 100 0
131 106 0
131 107 0
128 104 0
129 105 0
129 107 0
126 101 0
127 102 0
128 104 0
129 105 0
129 106 0
128 106 0
126 102 0
125 102 0
123 100 0
129 107 0
124 101 0
126 103 0
133 111 0
129 108 0
125 103 0
129 107 0
128 107 0
126 103 0
129 107 0
127 105 0
126 104 0
130 107 0
129 108 0
128 106 0
128 107 0
126 107 0
126 103 0
127 107 0
124 105 0
125 106 0
123 106 0
122 103 0
122 103 0
125 107 0
119 99 0
123 104 0
129 109 0
126 106 0
123 105 0
122 104 0
121 104 0
124 106 0
122 104 0
119 102 0
116 99 0
121 103 0
122 104 0
121 103 0
120 103 0
116 100 0
113 96 0
113 97 0
91 81 10
41 48 17
42 48 17
43 49 19
40 44 17
39 44 15
42 46 19
39 45 17
39 43 15
38 43 15
37 40 13
36 39 13
37 39 11
37 39 13
36 37 12
36 38 10
34 36 9
35 36 13
35 36 10
36 36 11
34 34 11
35 34 9
35 34 7
32 31 8
36 35 6
33 31 6
32 31 6
32 31 4
33 31 6
32 29 4
33 30 5
32 30 4
34 32 6
31 30 7
35 55 85
32 52 76
33 53 77
32 51 74
34 54 72
32 51 72
33 52 76
34 54 81
34 54 79
35 56 72
33 53 78
34 54 78
33 52 68
32 51 74
33 53 74
32 52 66
35 56 72
34 55 74
35 57 72
37 59 79
36 58 71
38 60 78
39 63 85
36 57 73
37 59 69
39 62 82
37 59 64
39 62 67
40 63 78
42 67 85
41 66 71
42 66 90
40 64 66
107 120 38
115 127 0
117 131 0
122 136 0
117 132 0
122 139 0
119 136 0
124 139 0
123 140 0
117 134 0
126 144 0
118 134 0
128 146 0
119 135 0
127 144 0
121 139 0
125 144 0
126 144 0
129 146 0
127 145 0
124 142 0
126 144 0
131 150 0
125 143 0
126 144 0
125 142 0
127 145 0
129 147 0
127 145 0
128 147 0
128 146 0
131 149 0
126 144 0
128 145 0
133 151 0
130 149 0
129 147 0
128 146 0
131 149 0
128 146 0
128 145 0
131 149 0
129 147 0
126 143 0
130 147 0
129 147 0
129 146 0
130 147 0
131 149 0
130 149 0
129 146 0
126 143 0
128 146 0
127 145 0
127 143 0
131 148 0
131 148 0
132 149 0
128 145 0
130 146 0
124 141 0
132 148 0
131 149 0
130 147 0
127 144 0
129 145 0
131 149 0
129 146 0
131 149 0
129 146 0
133 150 0
129 146 0
131 149 0
133 151 0
132 150 0
129 146 0
130 148 0
134 152 0
134 152 0
135 153 0
132 150 0
135 153 0
135 153 0
133 152 0
131 149 0
134 153 0
134 153 0
136 155 0
134 153 0
135 153 0
137 156 0
134 154 0
137 156 0
138 157 0
138 157 0
137 155 0
138 157 0
137 156 0
173 185 188
178 189 204
177 188 204
176 188 204
175 187 204
111 130 163
57 90 146
58 92 142
57 89 136
58 92 141
58 92 136
59 93 141
60 95 146
60 94 143
59 94 140
58 92 131
60 95 140
58 92 146
59 93 144
60 95 146
59 94 134
60 95 143
59 94 135
61 96 149
61 96 146
61 95 144
60 95 142
59 94 146
60 95 148
61 96 148
61 96 150
60 94 143
59 94 141
60 95 142
61 97 145
59 94 143
60 96 143
61 96 145
60 95 139
60 95 138
62 98 153
61 95 142
61 96 149
61 96 145
62 97 150
61 96 143
61 96 144
60 95 133
60 95 137
61 97 144
59 94 141
60 95 143
61 96 144
59 94 131
59 94 135
60 95 139
62 97 148
60 95 140
60 94 133
61 96 143
62 97 149
60 94 136
60 94 140
60 95 134
60 95 147
61 96 140
62 97 156
60 95 137
61 96 143
61 96 147
61 96 143
58 93 137
59 94 131
61 95 142
61 96 142
61 96 141
62 97 149
60 95 143
62 97 140
62 97 151
60 95 135
62 97 150
60 95 145
62 97 150
61 96 147
62 97 150
59 94 139
60 94 136
61 96 150
60 94 141
60 95 140
61 96 143
60 94 141
61 96 149
61 96 155
59 93 139
60 95 140
61 96 147
62 97 148
61 95 136
61 95 141
59 93 137
61 96 147
61 97 150
61 95 144
59 94 136
60 94 142
60 95 150
61 95 147
61 95 147
61 96 142
60 95 141
61 96 151
60 95 145
61 96 144
60 94 140
61 95 143
61 95 144
59 93 135
59 92 140
58 91 134
58 91 145
59 94 147
58 92 141
60 94 141
60 93 143
58 90 129
57 90 135
59 92 142
56 86 127
58 90 141
58 90 138
115 110 112
175 140 51
176 141 51
177 141 51
178 141 51
171 137 45
139 118 0
138 118 0
138 117 0
136 116 0
138 117 0
138 117 0
136 116 0
136 115 0
133 113 0
136 115 0
134 114 0
132 111 0
134 113 0
132 111 0
133 111 0
134 112 0
135 112 0
133 111 0
132 110 0
130 107 0
131 108 0
131 109 0
128 104 0
132 109 0
133 109 0
131 109 0
133 109 0
130 105 0
132 109 0
130 107 0
127 103 0
130 105 0
130 106 0
130 106 0
133 109 0
129 105 0
128 104 0
128 104 0
128 104 0
128 104 0
130 108 0
129 106 0
131 107 0
129 105 0
127 104 0
130 106 0
130 107 0
133 109 0
133 109 0
130 109 0
129 106 0
125 102 0
132 110 0
128 106 0
130 108 0
131 109 0
127 105 0
130 109 0
128 106 0
129 108 0
129 107 0
129 107 0
127 106 0
128 106 0
130 110 0
130 110 0
131 110 0
128 108 0
129 108 0
133 113 0
128 108 0
129 109 0
129 109 0
129 108 0
130 109 0
130 107 0
128 108 0
129 109 0
129 109 0
131 111 0
126 106 0
126 107 0
126 107 0
125 107 0
121 103 0
123 104 0
121 104 0
125 106 0
129 110 0
122 105 0
121 103 0
118 102 0
122 104 0
118 101 0
119 101 0
121 104 0
126 107 0
109 95 7
42 49 20
40 47 16
41 48 17
42 48 18
41 47 18
40 45 16
40 45 17
38 43 15
40 45 18
39 43 17
36 39 15
37 40 13
39 42 17
36 39 13
37 40 14
36 38 10
36 37 10
36 38 11
35 36 11
36 37 10
32 33 9
36 35 10
33 32 5
32 31 6
34 31 5
32 30 5
32 30 6
32 29 4
31 29 4
33 32 7
33 32 6
32 30 6
33 30 5
31 50 73
33 53 81
33 52 78
34 54 79
32 51 76
34 54 83
32 52 79
32 51 71
33 53 72
35 56 75
34 54 81
34 55 79
34 55 75
33 53 72
34 54 72
36 58 82
34 55 71
33 53 65
36 57 77
35 56 75
37 60 77
38 61 72
39 62 80
38 61 75
39 62 71
38 60 74
39 62 78
39 62 81
43 68 87
42 66 84
42 67 77
42 67 77
44 69 75
127 140 14
122 134 0
123 136 0
121 137 0
128 145 0
120 137 0
129 145 0
126 142 0
130 148 0
125 143 0
122 140 0
124 142 0
124 141 0
129 147 0
130 148 0
129 146 0
127 146 0
124 142 0
129 147 0
129 147 0
131 149 0
128 147 0
127 146 0
128 147 0
131 149 0
129 147 0
130 148 0
127 145 0
129 148 0
126 144 0
131 148 0
133 151 0
127 145 0
131 149 0
131 149 0
131 150 0
131 149 0
130 148 0
131 150 0
133 151 0
129 146 0
132 149 0
133 151 0
127 144 0
130 147 0
132 151 0
133 150 0
129 146 0
130 148 0
126 143 0
132 151 0
129 146 0
131 149 0
130 148 0
129 146 0
133 150 0
127 145 0
132 149 0
128 146 0
129 147 0
129 146 0
134 151 0
129 147 0
131 148 0
128 145 0
130 148 0
128 146 0
133 151 0
132 150 0
134 152 0
130 148 0
131 149 0
133 151 0
127 144 0
133 151 0
131 149 0
134 151 0
133 151 0
132 149 0
132 150 0
133 151 0
135 153 0
134 152 0
132 150 0
136 154 0
135 153 0
134 153 0
136 155 0
133 153 0
136 155 0
135 154 0
138 157 0
137 156 0
137 156 0
138 156 0
139 157 0
139 157 0
141 159 0
165 178 162
178 189 204
177 188 204
176 188 204
175 187 204
91 113 155
56 89 135
56 88 128
57 90 132
58 92 142
59 93 144
59 94 144
57 91 124
59 93 136
60 94 145
59 94 142
61 96 149
60 94 139
59 92 138
58 93 139
60 94 135
61 95 147
62 97 158
60 94 148
61 95 143
60 95 143
59 94 142
61 96 149
60 95 143
60 95 136
60 94 140
61 96 143
59 94 143
60 95 152
60 94 140
61 96 149
60 96 141
61 96 147
60 94 136
61 96 142
61 96 141
61 97 150
60 95 140
61 96 151
60 95 134
60 95 135
60 95 135
59 94 137
60 96 142
60 96 145
60 95 141
61 96 147
60 94 139
60 96 142
60 95 145
61 96 145
61 95 142
61 96 142
60 95 139
62 97 148
61 96 145
60 95 143
61 97 150
61 96 142
61 95 142
61 95 145
61 95 135
61 96 145
60 96 145
61 96 139
62 97 150
61 95 143
61 96 145
60 95 135
61 96 145
59 93 135
60 95 145
61 96 143
60 96 143
61 95 141
60 95 137
61 97 147
60 95 139
62 97 150
60 95 139
61 96 145
62 97 154
59 94 134
60 95 139
62 98 152
60 95 139
60 95 142
61 96 143
60 94 134
60 94 133
60 95 135
60 95 141
59 94 133
61 96 151
62 97 152
59 94 141
60 95 136
60 94 137
62 96 149
61 96 145
61 95 143
60 94 146
60 95 140
61 96 147
58 92 133
60 93 141
59 93 134
60 95 142
60 95 147
60 94 135
60 94 140
60 94 142
61 97 152
61 94 139
58 91 129
59 92 133
59 93 131
58 90 129
59 93 143
60 95 144
59 91 136
57 89 130
59 91 138
59 92 140
57 88 120
58 89 138
55 84 114
80 95 123
175 140 51
176 141 51
177 141 51
178 142 51
161 131 37
139 119 0
137 117 0
138 117 0
138 117 0
136 115 0
136 115 0
137 115 0
138 117 0
135 114 0
133 112 0
133 113 0
134 112 0
134 112 0
136 113 0
135 114 0
136 113 0
133 112 0
133 111 0
131 110 0
132 110 0
132 109 0
131 108 0
132 109 0
133 111 0
130 107 0
132 110 0
134 112 0
129 106 0
133 109 0
132 109 0
133 110 0
133 111 0
131 109 0
131 109 0
134 112 0
132 110 0
132 109 0
129 106 0
131 107 0
129 105 0
130 106 0
131 108 0
130 106 0
131 109 0
131 108 0
132 109 0
134 112 0
128 105 0
130 108 0
126 104 0
128 105 0
133 111 0
130 108 0
131 109 0
133 111 0
127 104 0
130 107 0
128 107 0
129 107 0
129 109 0
132 110 0
131 109 0
132 111 0
132 110 0
132 110 0
132 110 0
127 107 0
128 109 0
130 109 0
129 109 0
129 109 0
132 112 0
132 111 0
127 107 0
130 110 0
132 111 0
130 110 0
123 103 0
129 110 0
130 109 0
129 110 0
128 110 0
127 108 0
127 107 0
129 110 0
131 111 0
127 109 0
127 109 0
122 104 0
124 106 0
124 106 0
120 103 0
123 106 0
124 105 0
123 106 0
127 109 0
125 106 0
115 98 0
43 51 19
42 49 16
40 47 16
42 49 16
40 46 17
41 46 18
39 44 18
40 44 14
39 45 15
41 45 16
34 36 11
39 43 15
38 41 15
37 39 15
37 40 13
35 36 10
37 37 12
36 37 12
36 36 12
36 37 13
35 34 7
35 33 10
34 33 7
34 32 6
33 32 6
33 30 4
32 29 5
32 29 5
33 30 5
33 30 4
32 29 4
33 30 4
33 30 6
30 48 76
33 53 84
32 52 82
32 52 81
33 53 79
33 52 73
33 52 74
32 52 79
33 54 74
32 51 77
32 52 74
33 53 67
35 56 78
34 54 79
33 53 80
36 57 79
38 61 83
33 53 74
38 61 86
36 57 76
37 59 71
38 61 82
40 63 88
38 60 83
40 64 85
38 61 76
40 64 77
42 66 85
40 63 77
45 70 91
43 69 84
43 68 76
53 75 72
121 132 0
121 133 0
121 137 0
128 143 0
124 138 0
122 137 0
126 143 0
124 141 0
126 143 0
131 148 0
131 149 0
125 143 0
129 147 0
127 145 0
124 142 0
127 145 0
128 147 0
130 148 0
128 146 0
129 146 0
134 152 0
130 148 0
134 153 0
132 151 0
129 148 0
131 150 0
133 152 0
128 147 0
129 147 0
134 153 0
132 149 0
135 153 0
134 152 0
136 154 0
133 152 0
132 151 0
134 151 0
129 147 0
128 146 0
131 150 0
134 152 0
134 152 0
130 148 0
134 153 0
131 150 0
132 150 0
124 142 0
132 150 0
131 149 0
131 149 0
130 149 0
133 151 0
132 150 0
132 150 0
132 150 0
131 149 0
131 149 0
130 148 0
132 150 0
132 149 0
133 151 0
133 151 0
132 150 0
134 152 0
135 153 0
129 146 0
138 156 0
135 152 0
134 152 0
131 149 0
133 151 0
134 152 0
129 147 0
134 152 0
135 153 0
133 151 0
135 153 0
135 154 0
131 149 0
136 153 0
133 151 0
135 153 0
137 156 0
134 153 0
136 154 0
138 156 0
134 152 0
134 152 0
137 155 0
136 155 0
137 156 0
135 153 0
138 157 0
137 156 0
137 156 0
139 158 0
138 157 0
140 158 0
161 175 144
178 189 204
178 189 204
177 188 204
174 186 202
59 90 137
57 91 135
57 90 137
57 91 140
58 92 143
58 93 141
60 94 144
59 93 138
59 94 132
57 91 133
59 94 145
60 94 148
59 92 138
60 94 141
60 95 145
59 94 137
60 95 138
60 94 148
61 96 147
61 96 144
60 95 141
60 94 139
60 95 146
60 95 138
61 96 150
58 92 132
61 96 139
60 94 133
61 95 143
60 96 145
61 97 151
60 94 137
60 95 136
61 96 147
62 96 147
60 95 145
60 95 142
61 96 147
61 96 143
60 94 135
61 95 139
60 94 141
61 95 144
59 93 133
61 95 141
61 95 142
61 96 139
60 95 139
60 96 141
59 94 134
60 95 145
61 96 147
62 97 149
60 94 141
61 96 140
61 96 140
60 95 143
60 95 136
60 95 137
61 96 142
59 94 139
60 95 140
61 96 144
60 95 139
61 96 143
61 95 137
60 94 136
60 95 143
59 93 135
60 95 135
60 95 136
60 95 143
62 96 145
62 97 149
60 94 140
60 95 147
60 95 141
60 94 134
62 97 143
60 95 141
60 95 140
60 96 141
60 95 139
60 95 140
62 97 153
60 95 149
60 94 144
60 95 141
61 95 139
61 96 145
61 96 144
60 94 139
60 95 143
60 96 142
60 95 143
59 93 136
59 94 144
61 96 143
61 96 145
60 94 140
60 94 147
61 95 149
59 93 130
61 96 144
60 94 137
62 97 153
60 95 144
60 95 148
60 94 140
59 93 137
60 94 141
59 93 137
60 94 149
59 93 131
60 94 134
58 91 136
61 95 141
59 91 136
57 90 131
58 91 133
59 92 135
57 90 132
58 92 136
56 87 124
57 88 126
58 90 134
57 88 134
59 86 124
174 140 50
177 141 51
178 141 51
179 142 51
159 130 34
140 119 0
140 119 0
140 119 0
139 118 0
138 117 0
136 116 0
137 116 0
138 117 0
136 115 0
136 116 0
137 115 0
136 115 0
136 114 0
136 115 0
134 113 0
135 114 0
135 113 0
134 113 0
135 114 0
133 111 0
134 112 0
136 114 0
135 112 0
134 112 0
134 112 0
133 111 0
134 111 0
131 108 0
131 109 0
133 110 0
134 111 0
134 112 0
132 111 0
131 109 0
132 110 0
133 111 0
134 111 0
132 110 0
134 111 0
132 110 0
133 110 0
134 111 0
134 111 0
136 113 0
133 112 0
134 110 0
134 111 0
131 108 0
135 112 0
131 108 0
131 109 0
131 108 0
134 111 0
133 110 0
133 111 0
131 109 0
133 112 0
131 111 0
131 111 0
132 109 0
133 111 0
131 110 0
130 109 0
130 109 0
132 111 0
133 111 0
132 111 0
134 113 0
132 112 0
132 111 0
128 109 0
130 110 0
128 108 0
130 111 0
133 113 0
129 110 0
130 111 0
131 112 0
129 110 0
132 112 0
131 112 0
132 112 0
129 110 0
127 108 0
128 110 0
131 110 0
130 110 0
131 111 0
125 107 0
127 109 0
124 106 0
124 106 0
124 106 0
124 106 0
122 105 0
125 107 0
124 106 0
121 103 0
53 56 18
42 49 18
44 51 21
40 47 16
40 46 19
40 45 17
38 43 17
41 46 18
40 43 14
41 47 20
37 39 13
39 42 16
38 42 15
38 42 15
38 40 14
35 35 9
35 37 12
37 40 13
34 34 11
35 35 9
34 33 5
33 32 8
32 30 8
33 30 5
32 31 6
34 31 6
30 28 6
35 33 6
32 30 5
33 30 5
33 29 5
33 30 4
33 30 4
32 52 81
32 51 73
34 55 83
33 52 73
31 50 74
32 52 74
33 53 82
33 53 76
33 53 78
33 53 76
33 53 76
35 57 76
33 53 74
35 56 75
33 53 77
37 59 87
34 54 75
36 58 80
36 58 77
39 61 79
37 59 70
39 62 75
39 63 85
39 62 77
39 62 84
42 66 87
41 64 85
43 68 88
42 67 84
42 67 85
42 67 85
43 68 85
78 96 63
133 146 0
132 148 0
131 145 0
128 145 0
128 144 0
133 150 0
128 145 0
129 146 0
130 147 0
131 148 0
130 149 0
132 150 0
133 151 0
130 146 0
129 146 0
130 148 0
134 153 0
133 152 0
132 150 0
133 152 0
135 153 0
131 149 0
132 150 0
134 152 0
135 152 0
131 149 0
134 152 0
133 151 0
131 150 0
135 153 0
129 148 0
130 149 0
133 151 0
135 154 0
134 152 0
133 152 0
135 153 0
132 151 0
133 152 0
132 151 0
134 151 0
135 154 0
135 154 0
133 151 0
132 149 0
133 152 0
135 153 0
132 150 0
135 153 0
134 152 0
134 153 0
134 152 0
131 148 0
135 152 0
133 150 0
136 154 0
134 152 0
132 151 0
135 153 0
133 151 0
136 154 0
134 152 0
135 152 0
136 154 0
133 150 0
134 152 0
134 152 0
135 152 0
135 154 0
132 151 0
134 152 0
133 152 0
134 152 0
134 153 0
134 151 0
135 153 0
132 151 0
131 150 0
137 156 0
135 153 0
137 156 0
133 151 0
134 153 0
135 154 0
137 155 0
136 155 0
136 155 0
135 154 0
139 157 0
137 156 0
134 153 0
139 157 0
138 157 0
138 157 0
137 156 0
138 157 0
138 157 0
140 158 0
157 172 132
179 189 204
178 189 204
177 188 204
157 170 192
56 89 128
57 91 149
57 91 143
57 91 137
56 89 134
58 92 147
60 94 141
57 91 133
59 93 141
58 92 135
61 96 149
60 94 136
59 93 138
59 93 135
58 92 133
60 95 141
60 95 142
60 94 136
59 94 137
61 96 142
60 95 143
59 93 129
61 96 146
61 96 135
59 94 147
60 95 143
61 96 144
58 92 130
61 96 144
59 94 139
59 93 128
61 96 143
61 96 143
61 96 148
60 95 144
59 94 128
60 95 141
61 96 147
58 92 130
62 97 148
61 96 147
60 96 143
60 95 140
61 96 150
59 93 134
61 96 143
61 96 143
60 95 139
60 95 149
60 95 140
59 93 129
60 94 134
61 96 143
59 94 136
61 96 144
60 96 144
60 95 144
60 95 135
59 94 137
61 96 144
60 95 144
62 97 152
60 95 142
62 98 152
62 96 147
60 95 135
61 96 139
60 95 136
60 94 135
60 95 144
60 95 139
62 97 149
61 96 145
60 95 140
59 93 126
59 93 128
61 96 137
61 96 143
59 93 139
60 95 137
62 97 148
60 95 139
60 96 142
60 95 134
61 96 144
60 94 137
60 95 145
60 95 140
60 95 148
60 95 141
61 96 141
60 95 139
59 94 139
62 96 145
60 94 135
60 95 144
60 95 135
61 96 148
61 96 150
60 95 135
62 97 154
61 95 144
60 95 144
59 93 141
60 94 137
61 96 149
58 92 133
61 95 136
60 93 140
59 92 130
60 93 139
60 95 143
58 91 122
61 96 151
61 95 147
59 92 141
58 90 132
60 93 141
58 90 129
58 91 129
59 93 141
60 94 143
57 90 127
58 91 130
58 90 130
59 92 145
56 86 126
54 83 120
161 132 58
177 141 51
178 141 51
179 142 51
157 128 31
139 118 0
140 119 0
139 117 0
139 118 0
139 117 0
135 115 0
137 117 0
136 115 0
138 117 0
136 115 0
136 114 0
138 117 0
137 115 0
136 114 0
136 114 0
133 111 0
135 114 0
137 116 0
135 114 0
136 114 0
136 115 0
134 113 0
136 113 0
136 113 0
135 112 0
135 112 0
136 113 0
137 114 0
136 112 0
134 111 0
135 114 0
137 115 0
136 114 0
135 113 0
136 113 0
134 112 0
134 111 0
135 112 0
135 113 0
134 112 0
133 111 0
133 112 0
133 111 0
135 113 0
135 113 0
133 111 0
134 112 0
133 112 0
133 111 0
134 112 0
136 113 0
133 112 0
134 113 0
133 113 0
136 115 0
133 113 0
133 112 0
133 113 0
133 112 0
134 113 0
131 111 0
137 114 0
134 114 0
131 111 0
129 109 0
133 113 0
133 113 0
132 111 0
133 112 0
136 114 0
132 111 0
136 116 0
133 111 0
135 114 0
127 108 0
136 115 0
128 109 0
134 113 0
133 113 0
133 114 0
132 113 0
130 111 0
134 114 0
132 112 0
130 111 0
130 111 0
128 109 0
133 114 0
132 113 0
126 108 0
130 111 0
132 112 0
125 107 0
130 111 0
128 110 0
129 110 0
130 111 0
127 108 0
81 74 16
43 50 20
43 49 18
44 50 22
42 49 19
40 45 18
41 47 15
41 46 17
40 45 17
38 41 13
40 44 18
39 41 16
40 43 16
37 39 11
35 36 12
36 38 12
37 39 14
38 40 13
37 38 12
35 36 11
38 38 11
33 33 10
34 33 8
34 33 9
34 32 7
34 33 9
31 28 5
33 29 4
34 31 6
31 28 5
32 28 4
33 30 4
32 29 4
33 53 84
33 54 82
32 52 80
31 50 79
33 53 82
32 52 81
33 52 82
33 53 75
31 50 72
34 55 74
32 52 80
36 57 75
35 56 80
36 57 81
35 56 81
36 57 77
36 58 77
38 60 86
36 58 78
38 61 84
39 62 79
39 62 79
39 61 80
39 62 79
40 64 82
41 65 84
41 65 83
42 67 87
43 69 87
43 69 85
44 69 86
44 70 85
94 112 73
135 151 0
128 144 0
132 149 0
132 147 0
132 149 0
129 146 0
133 151 0
131 149 0
131 148 0
128 145 0
132 149 0
133 150 0
134 152 0
134 152 0
132 150 0
132 150 0
133 151 0
134 152 0
132 151 0
134 152 0
136 153 0
134 152 0
133 151 0
135 153 0
133 152 0
135 153 0
136 154 0
133 152 0
134 153 0
130 149 0
136 154 0
133 152 0
136 155 0
136 154 0
134 152 0
135 154 0
134 153 0
134 152 0
135 153 0
136 155 0
136 154 0
136 155 0
135 153 0
133 152 0
137 156 0
132 151 0
137 155 0
137 155 0
134 151 0
134 152 0
135 153 0
135 153 0
133 151 0
137 155 0
132 151 0
138 156 0
135 153 0
135 154 0
134 153 0
133 151 0
135 153 0
136 154 0
136 155 0
136 155 0
135 153 0
135 154 0
137 154 0
134 153 0
134 152 0
135 154 0
138 156 0
134 153 0
137 155 0
134 152 0
135 154 0
138 156 0
134 152 0
134 153 0
136 154 0
138 157 0
138 157 0
135 154 0
139 157 0
135 153 0
136 155 0
138 156 0
135 154 0
137 156 0
139 157 0
138 157 0
138 157 0
137 156 0
138 156 0
138 156 0
137 156 0
139 157 0
139 158 0
140 158 0
158 172 134
179 189 204
178 189 204
177 188 204
155 168 189
56 89 137
58 92 141
59 93 147
59 94 153
58 92 134
58 91 130
59 93 147
59 94 137
60 94 138
60 94 133
57 90 129
60 94 140
60 94 137
59 94 139
61 96 146
59 93 132
59 93 140
58 93 138
60 95 140
60 95 151
59 94 138
60 94 139
59 93 132
60 96 142
58 93 139
60 95 142
60 95 141
60 95 143
59 94 134
59 94 133
60 95 149
60 94 133
59 93 132
60 95 140
59 94 135
60 95 143
60 94 135
60 95 142
60 94 135
60 94 135
60 95 136
60 95 135
60 95 139
60 95 144
60 95 135
60 95 139
60 95 139
61 96 145
61 96 145
61 96 144
60 94 130
61 97 152
59 94 137
59 94 134
61 96 147
60 95 130
60 95 142
61 96 147
61 97 149
61 95 139
60 95 139
60 95 140
59 94 134
61 96 142
61 96 147
60 95 143
61 96 148
61 95 145
62 97 150
60 94 144
61 96 141
60 95 140
60 95 135
61 96 143
62 97 149
59 93 125
60 94 135
61 96 144
60 94 144
61 96 144
61 96 142
60 95 143
60 95 148
60 94 140
62 97 150
60 95 139
60 94 147
60 95 139
60 95 141
62 97 152
59 94 136
61 96 151
60 95 141
61 95 143
61 96 144
61 95 144
61 96 148
60 95 141
60 94 144
59 93 133
59 94 134
60 94 131
60 94 137
58 92 131
59 94 134
58 91 129
59 94 137
59 93 134
60 94 144
59 92 140
59 93 136
60 94 139
59 92 135
61 95 143
59 92 141
60 94 141
60 93 141
57 89 126
60 94 144
58 91 145
59 92 136
59 92 138
57 90 130
59 92 139
58 90 134
60 92 144
56 86 135
56 87 125
146 123 73
177 141 51
178 142 51
179 142 51
158 129 33
141 119 0
138 118 0
136 116 0
138 118 0
138 118 0
137 116 0
137 117 0
137 116 0
136 116 0
138 117 0
137 115 0
139 118 0
137 116 0
133 112 0
136 115 0
136 115 0
137 115 0
137 115 0
136 115 0
137 116 0
136 115 0
138 117 0
135 113 0
137 115 0
137 116 0
135 114 0
136 114 0
136 115 0
136 115 0
135 112 0
136 114 0
134 113 0
132 112 0
135 113 0
138 116 0
135 113 0
136 114 0
135 114 0
134 113 0
135 112 0
137 115 0
135 112 0
136 114 0
135 113 0
135 114 0
134 112 0
136 115 0
137 116 0
133 111 0
134 113 0
135 114 0
134 113 0
136 114 0
133 112 0
136 115 0
134 113 0
133 112 0
133 112 0
134 112 0
135 114 0
136 114 0
135 114 0
134 112 0
135 114 0
134 113 0
134 112 0
131 110 0
133 112 0
135 114 0
135 114 0
136 114 0
135 115 0
131 111 0
132 113 0
134 114 0
134 114 0
133 113 0
132 112 0
133 114 0
134 114 0
129 111 0
133 114 0
129 110 0
135 115 0
132 112 0
131 111 0
128 110 0
134 115 0
132 113 0
131 112 0
132 113 0
130 111 0
134 114 0
135 115 0
133 113 0
134 114 0
130 111 0
132 112 0
86 79 16
43 51 19
43 50 21
42 48 19
43 50 20
41 47 17
40 45 17
42 48 20
41 45 18
40 46 18
40 44 16
40 45 17
39 41 15
36 39 12
38 41 15
37 39 15
38 40 15
37 38 13
32 33 9
34 34 10
33 34 12
34 34 6
34 34 10
34 33 9
32 31 9
33 31 7
32 29 4
33 31 5
30 28 4
35 32 6
32 29 4
31 29 4
32 29 4
31 50 76
33 53 77
33 53 77
32 52 78
33 53 76
31 50 72
33 53 74
35 55 81
36 57 83
33 53 72
32 52 78
35 56 82
34 55 75
36 57 80
36 57 82
37 58 83
37 60 83
35 56 78
36 58 79
37 60 82
37 59 77
40 64 86
39 62 81
41 65 90
40 63 86
42 67 84
43 68 92
42 66 80
43 68 89
43 68 78
42 67 81
46 72 92
107 123 50
134 151 0
134 152 0
132 148 0
136 154 0
133 149 0
133 149 0
133 150 0
135 153 0
137 155 0
133 151 0
133 151 0
134 152 0
132 150 0
136 154 0
136 154 0
135 153 0
136 154 0
135 154 0
133 152 0
135 153 0
135 153 0
133 150 0
134 153 0
136 154 0
133 151 0
132 150 0
135 153 0
133 151 0
137 156 0
136 155 0
135 155 0
135 153 0
135 154 0
138 156 0
135 154 0
132 150 0
135 154 0
136 155 0
136 155 0
134 152 0
135 154 0
136 154 0
136 154 0
137 155 0
136 154 0
135 155 0
136 154 0
135 153 0
137 156 0
137 155 0
134 153 0
136 155 0
136 155 0
135 154 0
133 151 0
135 154 0
135 154 0
136 154 0
137 155 0
137 156 0
135 153 0
134 153 0
136 155 0
137 155 0
137 156 0
137 156 0
136 155 0
137 155 0
136 154 0
138 157 0
139 157 0
136 155 0
137 156 0
134 152 0
137 155 0
136 155 0
135 154 0
137 156 0
136 154 0
139 157 0
138 156 0
137 156 0
135 154 0
138 157 0
137 156 0
136 155 0
138 156 0
137 156 0
138 157 0
138 157 0
139 158 0
138 157 0
138 157 0
135 154 0
141 159 0
139 158 0
139 158 0
139 158 0
163 177 155
179 189 204
178 189 204
177 189 204
140 154 176
58 92 140
56 88 136
57 91 134
58 91 135
57 90 131
57 90 127
57 90 129
56 89 126
58 93 140
60 94 146
59 94 143
60 95 144
60 95 143
59 94 144
59 93 137
59 93 135
60 94 136
59 94 133
59 94 137
60 95 141
58 93 137
59 94 131
60 95 142
61 95 142
60 94 136
61 96 154
58 92 135
60 95 133
61 96 140
59 93 128
61 95 144
60 95 140
59 93 129
60 95 144
61 96 141
60 94 131
61 96 147
61 96 148
60 95 142
60 95 137
59 93 132
59 93 130
60 96 148
60 95 141
59 93 131
61 96 149
60 95 139
60 94 137
60 95 130
61 96 143
61 96 147
61 96 145
59 94 128
61 96 141
63 98 154
60 95 137
61 96 142
61 97 147
60 95 137
61 96 143
60 94 133
60 94 129
61 95 137
60 95 141
60 95 141
60 94 140
60 95 141
60 95 131
61 96 145
60 95 135
61 96 144
61 95 139
61 96 143
60 95 133
60 94 124
61 96 152
60 95 141
60 95 137
60 95 137
60 95 144
61 96 143
61 96 145
60 95 140
60 94 142
60 95 143
60 95 142
58 92 130
60 95 143
60 94 140
61 95 140
60 94 130
60 95 142
59 92 137
61 95 147
60 95 141
59 94 137
60 94 136
60 94 142
59 93 135
60 95 142
59 93 131
60 94 136
60 94 137
62 97 150
60 95 139
60 93 141
59 93 135
59 93 139
59 93 140
60 94 142
59 93 142
60 93 131
59 93 134
60 95 145
59 92 135
58 92 130
59 92 136
60 94 145
59 92 133
59 92 144
57 89 128
59 92 136
60 92 138
59 92 146
58 89 134
57 89 133
58 88 134
55 85 125
145 123 85
177 141 51
178 142 51
179 142 51
169 136 43
139 118 0
139 118 0
139 118 0
139 118 0
139 118 0
137 117 0
137 117 0
139 117 0
138 118 0
138 117 0
137 115 0
139 118 0
136 116 0
136 115 0
138 117 0
140 117 0
135 115 0
138 116 0
138 116 0
136 115 0
136 115 0
139 118 0
136 115 0
138 116 0
138 116 0
137 116 0
137 116 0
138 117 0
137 115 0
134 112 0
137 116 0
136 115 0
136 115 0
134 112 0
138 116 0
138 117 0
136 115 0
135 113 0
136 115 0
136 115 0
136 115 0
134 112 0
133 112 0
132 110 0
136 115 0
136 114 0
136 115 0
134 114 0
137 115 0
136 114 0
137 116 0
134 113 0
135 114 0
136 116 0
136 115 0
138 117 0
137 115 0
136 113 0
136 115 0
137 116 0
136 115 0
135 114 0
137 116 0
136 115 0
136 115 0
133 113 0
137 116 0
131 111 0
136 116 0
135 116 0
134 114 0
134 114 0
135 114 0
136 115 0
137 116 0
134 114 0
134 113 0
133 113 0
132 113 0
135 115 0
133 113 0
134 114 0
132 113 0
134 114 0
131 112 0
133 114 0
134 114 0
136 116 0
135 115 0
134 114 0
136 116 0
131 112 0
133 113 0
135 115 0
134 114 0
136 116 0
137 116 0
135 115 0
106 94 14
43 50 18
44 51 22
43 50 20
42 48 20
41 47 19
41 47 20
40 45 18
40 44 17
40 46 18
39 43 18
39 43 18
37 40 14
39 42 17
39 43 16
37 38 12
35 38 16
37 38 11
37 39 14
33 32 7
35 36 13
33 34 11
35 34 11
33 33 9
34 32 7
34 33 11
32 30 8
33 31 8
33 29 4
32 30 4
33 30 6
31 28 4
31 28 5
33 53 77
33 53 84
33 53 84
31 49 75
33 53 80
33 53 76
31 50 61
34 54 77
33 52 80
36 57 81
34 54 77
36 57 86
34 54 77
35 56 77
36 58 74
36 58 80
37 60 85
35 57 76
37 59 83
40 63 84
38 61 79
39 63 77
41 64 81
42 66 83
40 63 79
41 65 80
44 69 94
43 68 84
44 70 94
43 68 87
45 71 100
45 71 83
112 130 63
138 156 0
139 157 0
138 156 0
137 155 0
135 153 0
137 154 0
137 154 0
136 153 0
135 152 0
135 151 0
135 153 0
133 151 0
135 153 0
136 153 0
136 154 0
134 153 0
136 154 0
137 156 0
137 156 0
134 154 0
139 156 0
134 153 0
136 155 0
135 154 0
136 155 0
136 155 0
137 155 0
133 151 0
137 155 0
135 153 0
136 154 0
135 154 0
136 155 0
137 156 0
134 153 0
134 153 0
137 156 0
135 154 0
135 153 0
136 154 0
135 154 0
138 157 0
134 153 0
137 156 0
137 156 0
136 154 0
138 156 0
136 155 0
136 155 0
138 157 0
137 156 0
139 158 0
136 154 0
137 155 0
136 155 0
138 156 0
135 153 0
136 154 0
137 156 0
138 156 0
136 156 0
137 156 0
137 156 0
138 157 0
137 155 0
138 156 0
137 156 0
137 155 0
139 158 0
137 156 0
138 157 0
136 155 0
138 156 0
138 157 0
136 155 0
138 157 0
137 156 0
137 156 0
138 157 0
137 155 0
137 155 0
137 155 0
139 158 0
137 156 0
139 157 0
137 156 0
137 156 0
139 157 0
136 155 0
139 157 0
139 158 0
139 158 0
138 158 0
138 157 0
139 158 0
140 158 0
139 158 0
139 158 0
175 186 193
179 189 204
178 189 204
177 189 204
121 137 164
54 86 130
55 87 138
57 91 137
57 90 131
59 93 139
59 93 143
59 93 146
59 94 136
59 93 139
60 95 142
58 92 136
59 94 142
59 94 141
59 93 138
58 91 124
60 94 144
59 93 134
59 94 139
60 94 139
59 94 143
60 95 142
59 93 134
60 95 133
60 94 140
60 95 144
59 94 135
60 94 136
60 94 143
61 96 147
60 94 137
59 94 142
60 94 137
59 94 130
60 96 142
60 94 139
60 95 135
58 92 130
61 96 140
60 95 132
60 95 137
60 95 134
59 94 142
57 91 123
59 94 136
60 95 143
59 94 134
61 96 151
62 97 148
59 94 135
59 93 129
59 93 130
60 95 136
60 95 136
60 95 137
60 95 139
61 96 143
59 94 134
60 94 133
60 95 135
61 96 147
60 95 144
59 94 136
60 94 139
60 94 143
60 95 140
60 95 135
60 94 135
61 96 139
61 96 147
60 95 140
60 95 136
61 96 147
61 96 143
60 95 136
61 96 144
62 97 147
61 96 147
61 95 142
59 93 130
60 96 135
61 96 137
59 93 129
58 92 129
62 97 145
59 93 128
61 96 141
60 94 139
60 95 137
61 96 144
59 93 140
62 98 154
59 94 131
59 93 140
61 96 147
59 94 136
61 95 144
59 94 139
60 95 141
60 95 141
59 93 140
58 91 126
60 95 140
58 92 129
59 93 139
59 93 130
60 94 141
60 93 134
60 94 137
59 94 139
59 93 144
60 95 137
59 93 133
59 91 131
58 92 131
59 93 137
59 93 140
58 91 134
61 95 141
58 91 139
59 92 136
59 92 135
57 89 122
58 90 120
58 90 135
58 91 128
58 90 140
55 85 114
54 82 118
112 105 102
177 141 51
178 142 51
179 142 51
177 141 49
142 120 12
141 119 0
139 118 0
139 117 0
139 118 0
139 118 0
138 118 0
138 118 0
136 117 0
138 117 0
138 117 0
138 117 0
137 117 0
140 118 0
138 117 0
138 117 0
137 116 0
139 118 0
137 117 0
138 116 0
137 116 0
137 116 0
138 116 0
136 116 0
137 116 0
137 116 0
139 118 0
138 117 0
136 115 0
137 116 0
137 116 0
139 116 0
137 115 0
136 115 0
135 114 0
139 117 0
138 117 0
137 115 0
136 116 0
139 116 0
137 115 0
138 116 0
136 115 0
136 115 0
136 115 0
138 117 0
135 115 0
138 117 0
137 115 0
136 115 0
135 114 0
136 117 0
141 118 0
136 116 0
138 118 0
137 115 0
138 117 0
136 116 0
134 115 0
137 116 0
139 117 0
138 116 0
135 114 0
134 114 0
136 115 0
132 113 0
137 116 0
135 114 0
135 115 0
135 114 0
137 116 0
136 115 0
137 117 0
136 115 0
135 115 0
135 115 0
137 116 0
138 118 0
137 117 0
137 117 0
137 117 0
139 117 0
138 117 0
136 116 0
135 115 0
134 115 0
137 116 0
134 114 0
136 115 0
137 117 0
136 116 0
135 115 0
135 116 0
136 116 0
135 116 0
136 116 0
137 117 0
138 117 0
111 97 12
43 51 20
44 50 23
45 53 23
44 51 21
45 50 21
41 47 19
42 47 19
40 46 20
41 46 19
41 46 19
38 43 13
40 45 19
40 43 17
39 42 16
34 35 12
38 40 16
36 38 13
36 37 12
37 39 14
35 36 13
35 36 11
35 34 11
35 33 9
33 32 9
32 31 8
34 32 6
33 31 9
32 30 7
34 31 5
31 29 4
32 28 6
35 31 5
32 51 83
33 53 81
33 53 75
32 51 78
32 52 72
33 53 79
35 56 84
34 54 81
34 54 74
33 54 79
34 54 84
36 58 81
36 58 77
38 61 89
37 58 81
37 59 90
36 58 76
40 63 88
37 59 81
40 63 91
37 59 87
41 65 94
41 65 84
38 61 84
41 65 85
42 67 95
42 66 93
45 70 100
43 69 90
45 72 96
45 71 95
47 73 98
117 136 54
138 156 0
138 156 0
139 158 0
138 157 0
137 156 0
136 155 0
138 157 0
138 155 0
136 154 0
134 153 0
137 156 0
138 156 0
137 155 0
137 156 0
137 156 0
139 157 0
137 156 0
139 156 0
138 156 0
136 155 0
136 155 0
137 156 0
137 156 0
137 156 0
138 157 0
137 156 0
139 157 0
137 156 0
135 153 0
136 155 0
136 155 0
136 155 0
135 153 0
138 156 0
137 156 0
136 155 0
139 157 0
137 156 0
136 155 0
138 157 0
138 158 0
136 155 0
138 157 0
137 156 0
138 157 0
138 156 0
140 158 0
136 155 0
138 157 0
136 155 0
139 158 0
138 157 0
138 157 0
137 156 0
138 157 0
136 155 0
137 156 0
137 156 0
139 158 0
138 156 0
138 157 0
138 157 0
137 156 0
139 157 0
139 157 0
137 156 0
140 158 0
140 158 0
138 156 0
139 157 0
137 156 0
137 156 0
138 157 0
138 157 0
139 157 0
139 158 0
138 157 0
139 157 0
138 157 0
138 156 0
139 158 0
138 156 0
137 156 0
139 158 0
137 157 0
138 157 0
139 158 0
140 158 0
139 158 0
136 156 0
138 157 0
137 157 0
139 158 0
138 157 0
138 157 0
140 158 0
139 158 0
166 179 163
179 190 204
178 189 204
178 189 204
177 189 204
112 129 160
55 88 136
56 88 133
57 90 130
58 91 135
58 91 134
58 92 133
59 93 143
59 94 148
59 93 137
60 94 140
58 92 130
58 92 132
59 94 142
60 94 139
59 93 132
60 95 143
58 92 128
58 92 134
60 94 136
61 96 142
59 94 136
57 92 124
60 94 135
61 96 147
62 97 143
60 95 141
60 95 145
60 95 139
61 95 139
60 94 135
61 96 147
59 94 137
61 96 143
60 94 137
61 96 145
60 94 135
61 96 141
62 96 149
60 95 137
59 94 135
61 96 144
61 96 145
61 95 142
59 94 136
60 94 140
61 96 145
60 95 137
60 95 134
60 95 134
59 94 134
60 94 130
61 97 144
60 94 141
61 96 148
59 94 137
61 96 143
60 94 136
62 97 151
61 96 147
59 94 133
61 95 143
58 91 121
61 96 149
59 93 135
61 96 139
60 95 140
59 94 133
60 95 142
60 95 142
61 96 140
61 96 144
61 95 141
59 94 136
60 95 139
60 96 144
61 95 143
60 94 131
61 95 143
61 96 135
59 94 135
60 94 136
62 96 143
61 96 144
61 95 143
59 93 136
59 92 126
60 95 141
61 96 142
61 95 144
60 95 141
60 94 141
60 94 133
60 95 141
60 95 139
58 92 133
60 94 136
59 93 139
60 95 143
60 94 137
59 93 135
59 92 136
60 95 143
59 94 141
60 94 139
59 93 136
60 95 136
60 95 133
59 92 136
60 95 141
59 93 126
59 93 130
60 94 143
59 93 137
59 92 134
60 94 139
59 93 144
58 91 130
59 93 136
60 93 137
59 92 133
58 90 129
58 90 140
60 93 148
58 90 133
58 90 136
57 88 135
56 86 128
57 88 132
104 102 104
177 141 51
178 142 51
178 142 51
179 142 51
164 133 39
140 119 0
139 118 0
139 118 0
138 118 0
138 118 0
139 118 0
141 119 0
140 119 0
138 117 0
139 118 0
138 118 0
140 119 0
138 117 0
138 117 0
138 117 0
138 117 0
139 117 0
139 118 0
137 117 0
140 118 0
138 116 0
139 118 0
138 117 0
138 117 0
137 116 0
140 119 0
137 116 0
138 118 0
139 118 0
140 118 0
139 117 0
138 117 0
139 117 0
138 117 0
140 119 0
139 118 0
138 117 0
140 118 0
138 116 0
138 116 0
137 117 0
139 118 0
137 116 0
139 118 0
139 117 0
137 117 0
137 116 0
138 117 0
138 117 0
139 118 0
133 114 0
135 115 0
138 117 0
138 117 0
137 116 0
137 116 0
138 117 0
137 116 0
137 117 0
138 117 0
136 116 0
139 118 0
136 115 0
135 115 0
136 116 0
136 115 0
135 115 0
139 117 0
137 116 0
137 117 0
136 116 0
138 117 0
138 117 0
137 116 0
139 118 0
136 116 0
136 116 0
137 117 0
137 116 0
139 118 0
136 116 0
137 117 0
138 117 0
137 116 0
139 118 0
138 118 0
137 117 0
138 117 0
137 116 0
138 118 0
139 118 0
136 117 0
137 117 0
139 118 0
138 118 0
139 118 0
140 119 0
121 105 10
47 55 24
45 52 23
43 50 21
43 49 20
44 51 23
41 47 19
42 48 19
42 47 19
42 49 20
40 45 19
38 42 17
37 41 15
40 43 18
39 42 15
39 41 15
38 40 15
36 39 15
37 39 14
35 36 12
35 36 11
35 35 12
34 34 11
34 34 11
33 31 7
31 30 5
34 32 8
33 31 6
33 30 7
32 29 4
32 29 4
32 28 6
31 28 5
34 53 79
33 53 84
34 54 81
32 51 77
32 51 72
34 54 77
34 54 82
34 54 83
33 53 76
34 55 80
33 53 80
33 53 75
33 54 69
37 59 88
34 54 77
37 59 84
37 58 84
39 62 98
39 62 88
39 63 93
40 64 89
43 67 100
39 63 86
41 64 91
41 65 93
43 68 94
43 68 96
42 68 85
44 69 87
43 69 92
44 70 93
45 71 88
126 145 38
140 158 0
139 158 0
140 158 0
138 157 0
138 156 0
139 158 0
139 158 0
139 158 0
138 157 0
139 157 0
139 157 0
139 157 0
140 158 0
138 157 0
137 156 0
140 158 0
139 157 0
138 157 0
136 155 0
138 156 0
138 157 0
138 156 0
140 158 0
137 156 0
138 157 0
139 157 0
138 157 0
139 157 0
139 158 0
139 158 0
137 155 0
139 157 0
139 158 0
139 158 0
137 156 0
139 157 0
136 155 0
138 157 0
139 158 0
139 157 0
138 157 0
136 155 0
139 158 0
138 157 0
140 158 0
137 156 0
137 155 0
138 157 0
139 158 0
136 155 0
138 157 0
139 157 0
138 157 0
139 158 0
139 158 0
139 157 0
139 158 0
139 157 0
139 157 0
138 157 0
139 157 0
139 158 0
139 157 0
137 156 0
139 158 0
139 158 0
140 158 0
139 158 0
138 157 0
139 157 0
139 158 0
139 158 0
136 156 0
138 157 0
138 157 0
139 158 0
139 158 0
139 157 0
140 159 0
139 158 0
139 158 0
139 158 0
139 158 0
140 159 0
139 158 0
138 157 0
140 158 0
139 158 0
138 157 0
138 157 0
138 156 0
139 158 0
139 158 0
140 158 0
139 158 0
141 159 35
163 177 157
179 190 204
179 189 204
178 189 204
178 189 204
177 189 204
85 108 150
54 86 123
56 88 138
58 92 139
58 91 139
55 86 119
57 89 134
59 93 140
59 93 136
57 91 136
59 94 144
59 94 140
57 91 133
58 91 129
60 94 139
59 93 137
59 93 137
59 93 137
59 93 130
59 93 127
59 93 132
60 95 139
59 93 137
58 92 133
59 93 129
60 95 139
59 93 133
60 95 134
60 95 143
60 95 133
60 95 139
60 95 144
61 96 145
62 97 147
58 93 134
58 93 121
60 94 135
62 97 148
59 94 137
59 93 124
59 94 131
60 95 141
59 94 139
60 93 131
62 97 142
58 92 121
59 94 133
60 94 135
61 97 144
61 95 142
60 94 134
60 95 143
60 95 140
61 96 144
60 94 134
60 94 130
59 93 134
61 96 143
59 94 130
60 95 137
59 94 133
61 96 136
61 96 141
62 97 147
61 96 150
61 95 134
59 94 133
60 95 135
59 94 134
60 95 143
59 93 131
60 95 143
60 96 137
61 95 144
60 95 143
61 96 147
59 93 130
60 94 136
59 93 133
60 94 143
60 95 139
61 96 152
60 94 139
61 95 134
60 95 141
60 95 131
60 94 139
60 95 139
60 94 140
62 97 148
60 95 134
60 95 141
61 96 144
59 93 133
59 94 129
59 92 126
58 92 130
60 94 143
59 93 135
59 93 130
58 92 130
61 96 148
59 92 133
59 93 129
60 93 133
59 93 134
60 95 142
61 96 148
60 94 136
60 94 141
61 95 149
58 92 129
60 94 140
58 90 135
59 93 133
58 90 132
59 93 139
58 92 134
58 91 133
59 93 136
58 90 133
58 90 130
57 89 129
58 90 129
58 91 135
57 88 130
57 88 121
55 85 115
56 86 121
94 97 110
177 141 51
178 142 51
178 142 51
179 142 51
179 142 51
167 135 41
140 119 8
140 119 0
140 119 0
138 118 0
139 118 0
139 118 0
139 117 0
137 117 0
139 118 0
139 118 0
138 118 0
139 118 0
138 117 0
138 117 0
139 118 0
140 118 0
139 118 0
139 118 0
138 118 0
139 118 0
139 118 0
138 117 0
137 116 0
139 118 0
138 117 0
138 117 0
139 118 0
137 116 0
139 118 0
139 117 0
138 117 0
139 117 0
138 116 0
138 118 0
139 118 0
138 116 0
138 117 0
138 117 0
138 117 0
139 117 0
139 118 0
139 118 0
138 117 0
138 118 0
137 117 0
139 118 0
139 117 0
138 116 0
138 117 0
139 118 0
137 116 0
138 117 0
137 116 0
137 117 0
140 119 0
137 116 0
139 118 0
137 117 0
138 117 0
137 116 0
138 117 0
138 118 0
139 117 0
138 117 0
138 118 0
140 118 0
138 117 0
138 117 0
138 117 0
140 119 0
140 118 0
139 118 0
138 118 0
139 118 0
136 116 0
137 117 0
139 118 0
137 117 0
138 117 0
139 118 0
138 117 0
139 118 0
140 118 0
138 117 0
139 118 0
138 117 0
138 118 0
139 118 0
138 117 0
138 118 0
140 119 0
138 118 0
138 118 0
140 119 0
139 118 0
139 118 0
124 107 10
45 53 22
43 50 22
45 52 22
44 51 20
43 49 20
41 47 21
43 48 21
43 49 21
42 47 21
43 48 22
39 44 18
37 41 16
39 42 15
40 44 18
39 41 17
38 40 18
38 40 15
37 38 15
36 37 14
35 36 14
34 33 9
36 35 13
35 34 9
32 32 8
35 32 9
34 31 7
30 29 9
30 26 4
32 30 7
32 28 4
30 27 4
33 30 5
36 57 81
33 52 79
31 50 76
31 50 73
35 55 83
33 53 75
34 54 85
33 53 72
33 53 77
35 56 81
34 55 85
35 56 79
36 57 88
36 57 82
35 56 81
36 58 87
38 60 89
39 63 87
38 61 78
39 62 80
40 63 89
40 63 94
41 66 93
42 67 93
42 67 95
43 68 89
44 69 99
44 70 92
45 71 97
46 72 93
47 74 107
46 73 101
148 162 142
161 175 143
156 171 122
149 165 98
143 161 61
139 158 0
138 158 0
140 158 0
140 158 0
139 158 0
139 158 0
140 158 0
138 157 0
139 158 0
138 157 0
138 157 0
139 157 0
137 156 0
138 157 0
139 157 0
138 157 0
139 158 0
138 158 0
139 158 0
138 158 0
137 156 0
139 157 0
138 157 0
139 158 0
138 157 0
139 157 0
139 157 0
139 157 0
139 158 0
138 157 0
140 158 0
139 157 0
138 156 0
136 155 0
138 157 0
139 158 0
138 157 0
139 157 0
139 157 0
139 158 0
139 157 0
139 158 0
138 157 0
139 158 0
139 158 0
139 157 0
139 158 0
137 156 0
138 157 0
138 158 0
139 158 0
139 158 0
137 157 0
140 159 0
141 159 0
137 156 0
140 158 0
139 158 0
138 156 0
138 157 0
138 157 0
140 159 0
137 156 0
138 156 0
139 158 0
140 158 0
139 158 0
139 158 0
141 159 0
140 158 0
139 158 0
140 158 0
140 158 0
137 157 0
139 158 0
140 158 0
140 158 0
139 158 0
138 157 0
140 159 0
139 158 0
140 158 0
139 157 0
139 158 0
139 158 0
140 158 0
140 158 0
141 159 0
138 158 0
146 163 76
162 176 149
178 189 201
179 190 204
179 189 204
178 189 204
178 189 204
178 189 204
177 189 204
87 109 139
55 87 123
56 89 124
57 90 123
59 94 145
56 89 127
58 91 134
60 93 134
59 93 143
58 92 139
60 94 142
58 91 143
57 90 130
60 95 139
59 94 141
59 92 134
59 93 142
59 93 133
59 94 132
61 96 142
58 92 135
59 93 136
61 95 144
59 94 134
59 93 126
59 94 136
59 93 136
59 93 136
60 95 140
58 93 131
60 95 136
60 95 143
61 96 143
60 94 136
61 96 137
60 95 137
60 95 135
61 96 144
60 95 139
60 94 133
60 95 131
60 95 135
60 95 144
60 94 140
58 92 133
62 97 151
58 92 130
60 95 142
58 92 131
60 95 142
61 96 144
60 95 139
59 93 133
61 96 143
59 94 126
60 95 135
60 95 137
59 94 133
60 95 139
59 93 131
61 96 147
60 94 136
61 96 143
60 95 137
60 94 140
61 96 145
61 96 145
60 95 141
60 94 135
60 94 140
59 93 131
61 96 147
61 96 141
60 94 139
61 96 141
59 94 130
61 96 145
60 95 141
60 95 137
61 96 147
60 95 140
60 95 143
60 95 135
60 94 131
61 95 141
60 94 137
61 96 141
60 94 137
60 95 139
61 96 142
59 93 136
60 94 135
61 95 134
59 93 133
60 95 140
61 95 141
60 94 135
61 95 140
59 94 141
60 94 143
60 94 133
59 94 139
61 96 140
60 95 139
60 94 134
61 96 147
59 93 128
59 93 134
58 91 126
60 95 143
57 90 130
59 93 139
59 93 142
61 95 143
59 92 134
57 88 126
59 93 124
58 91 129
59 93 137
58 90 130
59 93 142
57 90 128
56 88 129
57 90 130
58 90 129
56 88 125
57 89 128
56 87 131
57 87 132
98 100 107
177 141 51
178 141 51
178 142 51
178 142 51
179 142 51
179 142 51
176 140 48
159 130 33
149 124 22
140 118 0
140 119 0
138 118 0
138 118 0
138 118 0
139 118 0
141 119 0
138 118 0
139 118 0
139 118 0
140 119 0
138 118 0
139 118 0
139 118 0
139 118 0
139 118 0
139 118 0
139 118 0
138 117 0
139 118 0
139 118 0
139 118 0
140 119 0
139 118 0
139 118 0
140 118 0
139 118 0
140 119 0
138 118 0
138 117 0
139 118 0
140 119 0
140 118 0
139 118 0
138 118 0
140 118 0
138 117 0
138 116 0
139 118 0
138 117 0
139 118 0
139 118 0
139 118 0
138 118 0
137 117 0
137 117 0
138 118 0
139 118 0
139 118 0
137 117 0
139 117 0
138 117 0
138 118 0
139 118 0
139 118 0
137 116 0
140 118 0
139 118 0
139 118 0
138 117 0
138 118 0
139 118 0
137 117 0
137 117 0
139 118 0
138 117 0
140 119 0
139 118 0
139 118 0
139 118 0
138 118 0
137 117 0
137 116 0
139 118 0
138 118 0
138 117 0
139 118 0
139 118 0
140 118 0
137 117 0
140 119 0
138 118 0
139 118 0
140 119 0
140 119 0
139 118 0
137 117 0
139 118 0
140 119 0
141 119 5
149 124 24
152 126 28
159 130 35
153 124 37
47 55 25
44 51 22
43 50 20
46 52 23
44 50 21
44 51 22
42 48 21
43 50 23
41 46 19
42 46 21
38 41 16
40 44 19
40 43 17
38 40 15
39 41 16
38 41 17
36 37 12
36 37 13
33 34 13
36 36 12
35 36 11
34 34 12
36 35 11
34 34 11
34 33 9
34 32 9
35 32 8
34 32 6
33 30 7
34 30 5
30 27 4
35 36 12
44 69 99
32 52 78
32 51 73
32 52 72
35 56 84
32 51 75
34 54 83
33 53 84
34 54 81
36 57 81
35 56 81
35 56 90
34 55 79
35 57 80
37 59 92
39 62 98
38 60 91
40 63 97
40 63 100
39 61 87
41 64 95
40 64 94
40 64 85
41 65 94
42 67 94
42 67 87
42 67 95
44 69 96
46 72 94
45 72 98
46 73 107
46 73 105
171 182 197
179 189 204
179 189 204
179 190 204
179 190 204
176 187 196
174 186 189
170 182 177
165 178 158
166 179 163
160 174 140
156 171 126
153 169 117
152 168 106
148 165 91
146 163 76
144 161 61
142 160 50
139 158 0
138 157 0
141 159 0
140 158 0
139 158 0
140 158 0
139 158 0
138 157 0
139 157 0
137 156 0
138 157 0
139 158 0
139 158 0
139 158 0
140 158 0
138 157 0
141 159 0
138 158 0
139 158 0
138 157 0
139 158 0
139 158 0
139 158 0
139 158 0
138 156 0
140 158 0
139 158 0
139 157 0
140 158 0
139 158 0
139 157 0
139 158 0
139 157 0
138 157 0
140 158 0
138 157 0
139 158 0
141 159 0
138 158 0
140 158 0
139 158 0
140 159 0
138 157 0
140 159 0
138 158 0
138 157 0
140 159 0
139 158 0
138 157 0
140 158 0
137 156 0
139 158 0
138 157 0
139 158 0
139 158 0
140 158 0
140 158 0
139 158 0
140 158 0
139 158 0
140 159 0
139 158 0
140 159 0
139 158 0
137 157 0
138 158 0
140 158 0
140 159 0
139 158 0
140 158 0
140 159 45
146 163 84
151 167 108
162 175 147
169 181 172
177 188 196
179 190 204
179 190 204
179 189 204
179 189 204
178 189 204
178 189 204
178 189 204
178 189 204
177 189 204
79 103 136
54 86 125
57 90 124
58 92 128
58 91 135
55 88 135
58 92 133
58 91 132
57 90 135
58 92 130
60 94 140
59 92 140
59 93 134
57 91 132
60 95 146
60 94 138
59 93 136
60 95 147
60 95 135
60 94 134
60 94 133
60 94 136
61 96 143
59 93 140
60 94 136
59 94 130
59 93 134
59 93 133
62 97 147
61 96 138
61 95 136
60 95 140
59 93 124
60 94 134
61 96 139
59 93 129
60 95 143
59 94 134
60 95 136
60 95 139
59 93 129
61 95 141
61 96 148
61 96 140
60 94 133
61 95 142
61 96 149
61 96 147
57 91 122
59 93 129
59 94 130
60 95 137
60 95 140
61 96 144
60 95 131
60 95 137
60 95 143
60 95 141
60 94 133
59 94 134
60 94 133
58 93 126
60 95 140
61 95 139
59 94 133
59 94 137
60 95 144
60 94 140
60 95 131
59 93 134
59 94 136
60 95 140
61 96 139
61 95 141
61 96 143
60 94 140
60 95 136
61 95 141
59 93 133
60 94 141
60 95 140
58 92 126
60 94 141
59 92 128
60 94 139
59 94 139
60 94 134
59 93 139
60 95 141
60 95 144
60 95 139
60 94 140
61 95 147
61 96 147
60 93 126
62 96 148
60 95 136
58 92 140
59 93 129
58 92 125
60 95 143
60 95 135
61 96 142
59 93 134
59 93 137
58 92 129
60 94 136
61 94 140
60 94 134
61 95 142
59 92 131
60 95 141
59 93 136
59 91 135
60 94 137
58 90 124
59 93 137
60 93 135
59 91 132
59 92 138
59 91 134
58 91 132
57 90 130
58 90 136
58 91 130
57 87 121
57 89 130
56 88 128
57 88 130
78 92 120
177 141 51
178 141 51
178 142 51
178 142 51
178 142 51
179 142 51
179 142 51
179 142 51
179 142 51
175 140 48
164 133 39
160 130 35
154 127 29
148 123 22
140 119 5
139 118 0
140 119 0
139 118 0
141 119 0
140 118 0
140 119 0
139 118 0
139 118 0
139 118 0
139 118 0
140 119 0
140 119 0
139 119 0
139 118 0
140 119 0
139 118 0
140 119 0
139 118 0
138 118 0
139 118 0
139 117 0
140 119 0
139 118 0
138 118 0
139 119 0
140 118 0
139 118 0
138 118 0
139 118 0
140 119 0
139 118 0
140 119 0
139 118 0
141 119 0
139 118 0
140 119 0
139 118 0
140 119 0
140 119 0
139 118 0
140 119 0
138 117 0
139 118 0
139 118 0
139 118 0
139 118 0
139 118 0
139 118 0
139 118 0
140 119 0
138 118 0
140 118 0
141 119 0
139 118 0
138 118 0
138 118 0
139 118 0
139 118 0
140 119 0
139 118 0
138 118 0
138 117 0
140 118 0
139 118 0
138 118 0
140 119 0
139 118 0
139 118 0
138 118 0
137 117 0
142 120 11
142 120 11
144 121 16
146 122 19
149 124 24
155 128 30
161 131 35
162 132 37
163 133 38
165 134 40
170 136 44
170 137 44
178 141 50
179 142 51
179 142 51
179 142 51
179 142 51
168 134 48
48 56 26
46 54 27
45 52 23
46 53 25
44 50 21
42 48 20
40 46 19
41 46 20
43 49 22
38 42 19
42 47 22
39 44 20
39 42 16
38 39 14
38 40 18
37 39 14
37 38 12
37 39 14
37 38 15
37 38 15
35 35 11
32 32 10
35 34 11
32 31 9
31 30 9
33 30 5
34 32 10
35 32 8
31 28 5
32 29 6
30 26 4
44 50 22
47 74 106
34 54 86
32 52 82
32 51 79
33 52 81
33 53 79
35 56 85
35 56 91
33 53 81
32 51 77
34 54 79
35 55 83
34 54 80
35 57 81
38 61 88
39 63 89
37 59 85
39 62 90
41 65 95
41 65 98
42 67 97
41 66 94
41 66 95
41 66 92
43 68 96
41 65 89
44 70 104
44 70 100
43 68 98
47 73 110
46 73 94
46 74 106
174 185 201
178 189 204
178 189 204
178 189 204
178 189 204
178 189 204
178 189 204
178 189 204
179 189 204
179 189 204
179 189 204
179 189 204
179 189 204
179 189 204
179 189 204
179 189 204
179 190 204
179 190 204
178 189 201
176 187 195
174 185 188
174 185 187
170 182 177
170 182 177
168 181 170
166 179 163
166 179 166
166 179 163
162 176 151
160 174 144
162 176 149
163 176 153
157 172 132
156 171 126
158 173 135
157 172 132
156 171 124
157 172 129
153 168 110
154 169 121
154 169 115
154 169 117
154 169 119
151 167 106
154 169 115
152 168 110
149 166 98
152 168 110
148 164 89
150 166 102
151 167 102
147 164 86
145 163 73
147 164 79
147 164 81
145 163 76
148 164 81
146 164 84
144 162 67
145 162 70
151 167 104
146 164 86
149 165 93
148 165 91
150 166 98
150 166 96
147 164 86
147 164 89
150 166 100
149 165 91
147 164 86
154 169 119
152 168 112
152 167 104
153 169 115
151 167 104
153 169 114
157 172 129
162 176 150
160 174 137
161 175 143
164 177 154
163 177 154
164 177 153
170 182 177
171 183 179
172 184 184
178 189 201
179 190 204
179 190 204
179 190 204
179 190 204
179 189 204
179 189 204
178 189 204
178 189 204
178 189 204
178 189 204
178 189 204
178 189 204
178 189 204
177 189 204
177 188 204
76 101 138
54 85 123
55 88 125
56 88 128
57 91 134
57 91 121
59 93 141
57 90 127
57 90 128
58 92 135
59 93 138
58 92 124
59 93 140
60 95 135
57 90 114
58 92 130
58 92 132
59 94 131
59 93 131
59 93 135
59 93 130
59 93 129
61 95 133
60 94 137
60 94 131
61 95 147
59 94 133
61 96 142
60 95 142
58 93 131
60 94 136
61 96 141
61 96 148
61 96 141
59 93 137
59 94 135
59 94 133
60 95 140
59 93 122
61 96 143
60 95 140
59 94 130
60 95 140
59 94 134
60 95 140
60 95 139
60 95 141
58 92 134
60 95 137
60 95 136
61 96 148
60 94 129
60 95 136
60 94 141
60 94 135
61 96 137
60 95 134
58 92 121
58 92 125
61 96 143
59 93 133
60 94 133
59 94 126
60 94 137
59 93 129
59 93 135
60 94 140
61 95 139
59 93 120
59 93 125
59 93 130
59 94 142
60 94 136
59 94 128
60 95 133
60 95 144
60 95 134
59 94 137
60 95 140
59 93 129
60 95 140
60 95 139
61 95 133
60 94 130
59 94 131
60 95 144
59 93 129
61 96 134
60 94 136
58 91 128
58 92 128
61 95 141
60 95 143
60 93 130
60 95 134
58 92 126
61 95 144
60 95 140
58 92 133
60 94 140
61 95 139
59 94 130
59 93 130
59 92 129
60 94 141
59 93 134
58 91 122
58 91 125
59 93 133
60 94 134
59 93 130
60 94 134
60 94 133
58 90 125
58 91 132
59 92 135
60 95 142
59 91 126
58 92 124
60 93 134
59 92 140
59 92 130
59 91 131
58 90 135
57 89 133
55 86 121
57 87 125
55 84 121
56 86 128
80 92 116
177 141 51
177 141 51
177 141 51
178 141 51
178 142 51
178 142 51
178 142 51
178 142 51
178 142 51
179 142 51
179 142 51
179 142 51
179 142 51
179 142 51
179 142 51
177 141 49
175 139 47
170 136 44
168 135 42
167 134 41
165 133 39
163 132 37
161 131 36
159 130 33
158 129 33
158 129 33
157 128 31
157 129 33
152 126 26
154 127 28
152 126 27
151 125 26
150 124 24
149 124 23
150 125 25
149 124 23
149 124 24
150 125 26
146 122 20
148 124 22
150 124 23
147 123 19
144 121 16
146 122 17
151 125 25
149 124 23
150 124 24
151 125 25
147 123 19
148 123 21
146 122 19
145 122 19
152 126 27
149 124 24
150 124 25
150 125 25
150 124 24
151 125 26
150 125 25
153 126 28
152 126 28
158 129 33
152 126 27
151 125 27
156 128 31
154 127 29
156 128 32
157 129 32
154 127 29
160 131 35
156 128 30
158 129 33
163 132 38
163 133 38
162 132 37
165 134 40
165 134 40
170 137 44
170 136 44
172 138 45
170 136 44
169 136 44
175 140 48
178 141 50
178 141 50
179 142 51
179 142 51
179 142 51
179 142 51
179 142 51
179 142 51
179 142 51
179 142 51
179 142 51
179 142 51
178 142 51
178 142 51
178 142 51
178 142 51
178 142 51
178 142 51
178 142 51
175 139 50
46 54 24
46 54 25
45 53 24
46 53 26
45 52 22
43 50 23
42 49 22
42 48 22
42 48 22
42 48 20
43 48 22
40 44 18
39 42 17
37 40 17
39 41 18
38 39 13
38 40 17
36 39 16
37 36 11
37 39 15
33 33 9
37 37 12
34 34 13
35 33 9
34 34 11
34 32 7
34 33 9
33 31 7
33 30 6
33 30 7
34 30 5
46 54 23
48 76 114
32 51 71
32 52 82
33 54 83
33 52 78
31 50 77
34 54 82
32 52 80
35 56 85
37 58 88
35 56 80
36 58 85
34 55 76
33 54 79
37 59 89
37 59 85
40 63 92
40 64 93
38 61 94
39 62 82
40 63 87
43 67 97
41 66 97
41 65 97
44 69 106
44 70 102
45 71 107
43 69 93
45 71 93
47 73 107
46 72 104
47 74 104
178 189 204
178 189 204
178 189 204
178 189 204
178 189 204
178 189 204
178 189 204
178 189 204
178 189 204
178 189 204
178 189 204
178 189 204
178 189 204
178 189 204
178 189 204
178 189 204
178 189 204
178 189 204
178 189 204
178 189 204
178 189 204
178 189 204
178 189 204
178 189 204
178 189 204
178 189 204
178 189 204
178 189 204
178 189 204
178 189 204
178 189 204
178 189 204
178 189 204
178 189 204
178 189 204
178 189 204
178 189 204
178 189 204
178 189 204
179 189 204
179 189 204
179 189 204
179 189 204
179 189 204
179 189 204
179 189 204
179 189 204
179 189 204
179 189 204
179 189 204
179 189 204
179 189 204
179 189 204
179 189 204
179 189 204
179 189 204
179 189 204
179 189 204
179 189 204
179 189 204
179 189 204
179 189 204
179 189 204
179 189 204
179 189 204
179 189 204
179 189 204
179 189 204
179 189 204
179 189 204
179 189 204
179 189 204
179 189 204
179 189 204
179 189 204
179 189 204
179 189 204
179 189 204
179 189 204
178 189 204
179 189 204
178 189 204
178 189 204
178 189 204
178 189 204
178 189 204
178 189 204
178 189 204
178 189 204
178 189 204
178 189 204
178 189 204
178 189 204
178 189 204
178 189 204
178 189 204
178 189 204
177 189 204
177 189 204
177 189 204
177 188 204
177 188 204
177 188 204
70 95 126
56 89 131
56 88 126
55 88 125
55 88 123
57 90 123
56 89 119
57 90 131
57 91 131
57 90 130
57 90 127
58 92 128
58 92 134
58 92 128
58 92 130
59 94 143
57 90 132
58 92 133
57 91 132
57 91 131
58 92 130
61 95 142
58 92 115
60 94 135
60 94 142
60 95 134
59 93 127
59 93 140
60 95 137
60 95 133
61 97 145
60 94 137
60 94 143
60 95 135
59 93 128
59 92 133
60 94 137
59 93 129
60 95 139
60 94 129
58 92 128
59 93 131
60 95 133
61 96 151
59 93 135
61 96 142
60 95 141
61 96 143
60 95 145
60 95 136
60 94 137
59 93 134
60 95 139
60 94 135
60 95 129
60 94 133
60 95 128
60 94 135
60 95 137
61 96 141
60 95 134
60 94 144
59 94 133
59 93 136
59 94 134
61 95 133
58 92 113
61 96 142
61 96 145
60 95 141
60 94 135
61 96 141
60 95 137
59 92 131
61 95 141
60 95 139
60 95 141
61 95 142
61 97 148
61 95 142
62 96 148
61 97 149
60 95 142
59 93 129
60 95 141
60 95 134
60 94 140
59 94 134
61 96 144
60 94 135
60 94 141
60 94 136
60 95 135
62 97 148
60 95 140
59 93 130
61 95 137
60 95 139
61 96 146
59 93 135
60 94 137
58 92 133
61 95 141
59 93 140
59 93 131
59 93 136
59 93 131
59 93 133
58 91 128
58 92 121
60 93 142
59 92 128
60 93 143
58 91 129
59 93 139
60 94 142
58 92 128
58 92 130
60 93 146
57 89 126
58 90 126
57 89 123
56 88 128
57 89 122
57 90 117
55 85 129
57 88 125
54 83 127
56 85 120
64 86 115
177 141 51
177 141 51
177 141 51
177 141 51
177 141 51
177 141 51
178 141 51
178 141 51
178 141 51
178 141 51
178 142 51
178 142 51
178 142 51
178 142 51
178 142 51
178 142 51
178 142 51
178 142 51
178 142 51
178 142 51
178 142 51
178 142 51
179 142 51
178 142 51
179 142 51
179 142 51
179 142 51
179 142 51
179 142 51
179 142 51
179 142 51
179 142 51
179 142 51
179 142 51
179 142 51
179 142 51
179 142 51
179 142 51
179 142 51
179 142 51
179 142 51
179 142 51
179 142 51
179 142 51
179 142 51
179 142 51
179 142 51
179 142 51
179 142 51
179 142 51
179 142 51
179 142 51
179 142 51
179 142 51
179 142 51
179 142 51
179 142 51
179 142 51
179 142 51
179 142 51
179 142 51
179 142 51
179 142 51
179 142 51
178 142 51
178 142 51
178 142 51
178 142 51
178 142 51
178 142 51
178 142 51
178 142 51
178 142 51
178 142 51
178 142 51
178 142 51
178 142 51
178 142 51
178 142 51
178 142 51
178 142 51
178 142 51
178 142 51
178 142 51
178 142 51
178 142 51
178 142 51
178 142 51
178 142 51
178 142 51
178 142 51
178 142 51
178 141 51
178 141 51
178 141 51
178 141 51
178 141 51
178 141 51
178 141 51
178 141 51
178 141 51
178 141 51
178 141 51
47 56 27
46 54 25
48 56 27
46 53 24
46 53 25
43 49 20
44 50 23
41 46 20
42 47 22
42 47 20
38 43 18
38 42 18
38 42 18
40 44 20
39 43 18
36 39 15
36 37 13
35 36 14
37 38 15
35 36 12
37 37 13
37 37 14
35 34 10
35 34 12
34 32 9
35 33 8
34 32 11
33 30 9
33 30 6
33 29 6
33 32 10
47 56 25
48 76 112
34 54 83
32 51 79
33 52 81
34 54 84
32 51 77
33 53 84
34 55 84
36 58 89
35 56 83
36 57 85
35 56 80
36 58 89
36 58 85
36 58 85
37 60 84
37 59 83
37 59 86
38 60 88
40 63 93
40 63 93
43 68 97
41 65 96
42 67 95
42 67 97
43 69 100
39 63 92
44 70 98
45 71 104
45 71 94
45 71 101
48 76 112
175 187 203
177 188 204
177 188 204
177 188 204
177 188 204
177 188 204
177 188 204
177 188 204
177 188 204
177 188 204
177 188 204
177 188 204
177 188 204
177 188 204
177 188 204
177 188 204
177 188 204
177 188 204
177 188 204
177 188 204
177 188 204
177 188 204
177 188 204
177 188 204
177 188 204
177 188 204
177 188 204
177 188 204
177 188 204
177 188 204
177 188 204
177 188 204
177 188 204
177 188 204
177 188 204
177 188 204
177 188 204
177 188 204
177 188 204
177 188 204
177 188 204
177 188 204
177 188 204
177 188 204
177 188 204
177 188 204
177 188 204
177 188 204
177 188 204
177 188 204
177 188 204
177 188 204
177 188 204
177 188 204
177 188 204
177 188 204
177 188 204
177 188 204
177 188 204
177 188 204
177 188 204
177 188 204
177 188 204
177 188 204
177 188 204
177 188 204
177 188 204
177 188 204
177 188 204
177 188 204
177 188 204
177 188 204
177 188 204
177 188 204
177 188 204
177 188 204
177 188 204
177 188 204
177 188 204
177 188 204
177 188 204
177 188 204
177 188 204
177 188 204
177 188 204
177 188 204
177 188 204
177 188 204
177 188 204
177 188 204
177 188 204
177 188 204
177 188 204
177 188 204
177 188 204
177 188 204
177 188 204
177 188 204
177 188 204
177 188 204
177 188 204
177 188 204
177 188 204
68 92 121
54 86 122
57 90 140
57 91 128
59 93 138
56 89 116
56 89 130
59 93 146
57 91 126
57 90 128
56 89 126
59 93 131
59 94 130
59 93 135
58 92 134
60 94 128
59 94 135
60 95 141
59 93 134
59 93 131
60 95 139
59 93 127
60 94 142
59 93 131
60 95 132
58 92 133
59 94 128
60 95 139
59 93 131
61 95 135
60 94 133
59 94 130
60 94 140
60 95 140
59 94 133
60 95 136
60 95 141
59 94 132
59 94 128
61 96 143
59 93 125
59 94 130
61 95 142
60 95 146
60 95 141
60 95 139
58 92 130
62 97 147
61 97 148
59 94 126
60 95 130
61 95 142
61 96 143
60 95 139
58 91 130
59 93 133
60 95 139
60 95 140
60 94 136
59 92 128
61 95 140
60 94 139
59 94 136
60 94 133
60 94 139
59 94 135
60 94 134
59 93 126
60 95 143
61 96 144
60 95 139
59 93 133
59 94 133
60 95 134
60 95 135
60 95 135
62 96 142
61 96 142
60 95 128
60 94 129
60 95 139
60 94 141
60 94 135
61 96 140
60 94 129
61 95 136
59 94 131
60 95 139
60 94 140
59 92 125
60 95 139
57 91 124
59 94 139
60 94 135
59 93 136
61 96 142
59 94 135
58 92 121
59 94 130
60 94 134
60 95 136
60 94 137
59 93 126
60 94 143
60 95 141
60 95 135
60 95 139
59 93 139
57 91 135
58 91 129
60 94 129
60 95 137
58 90 122
58 90 126
60 93 136
58 91 128
59 92 137
59 92 139
58 92 133
57 90 126
58 91 130
59 92 138
58 90 126
55 86 128
56 87 124
56 88 128
57 89 126
56 87 125
55 83 112
61 85 115
177 141 51
177 141 51
177 141 51
177 141 51
177 141 51
177 141 51
177 141 51
177 141 51
177 141 51
177 141 51
177 141 51
177 141 51
177 141 51
177 141 51
177 141 51
177 141 51
177 141 51
177 141 51
177 141 51
177 141 51
177 141 51
177 141 51
177 141 51
177 141 51
177 141 51
177 141 51
177 141 51
177 141 51
177 141 51
177 141 51
177 141 51
177 141 51
177 141 51
177 141 51
177 141 51
177 141 51
177 141 51
177 141 51
177 141 51
177 141 51
177 141 51
177 141 51
177 141 51
177 141 51
177 141 51
177 141 51
177 141 51
177 141 51
177 141 51
177 141 51
177 141 51
177 141 51
177 141 51
177 141 51
177 141 51
177 141 51
177 141 51
177 141 51
177 141 51
177 141 51
177 141 51
177 141 51
177 141 51
177 141 51
177 141 51
177 141 51
177 141 51
177 141 51
177 141 51
177 141 51
177 141 51
177 141 51
177 141 51
177 141 51
177 141 51
177 141 51
177 141 51
177 141 51
177 141 51
177 141 51
177 141 51
177 141 51
177 141 51
177 141 51
177 141 51
177 141 51
177 141 51
177 141 51
177 141 51
177 141 51
177 141 51
177 141 51
177 141 51
177 141 51
177 141 51
177 141 51
177 141 51
177 141 51
177 141 51
177 141 51
177 141 51
177 141 51
175 140 50
47 55 25
47 54 26
47 55 26
46 53 26
45 52 24
44 51 24
44 50 23
44 51 25
43 49 23
42 47 23
43 48 21
40 44 20
39 42 18
39 43 19
38 42 18
36 39 16
39 41 17
38 40 15
35 37 13
35 36 12
36 36 14
35 34 11
35 34 11
35 35 11
35 33 11
35 34 12
34 31 7
32 29 8
31 27 4
32 29 5
36 35 12
48 57 27
47 75 109
36 56 88
31 50 75
33 52 83
33 53 77
35 56 84
33 54 84
33 53 79
36 57 89
35 56 83
35 56 84
36 57 89
36 58 82
39 62 93
37 59 91
38 61 96
39 62 93
38 61 91
37 60 93
41 65 95
40 63 85
42 67 98
39 62 88
42 68 104
44 70 103
45 72 106
43 69 96
44 71 106
47 74 114
46 73 107
47 75 111
48 76 112
172 184 200
176 188 204
176 188 204
176 188 204
176 188 204
176 188 204
176 188 204
176 188 204
176 188 204
176 188 204
176 188 204
176 188 204
176 188 204
176 188 204
176 188 204
176 188 204
176 188 204
176 188 204
176 188 204
176 188 204
176 188 204
176 188 204
176 188 204
176 188 204
176 188 204
176 188 204
175 188 204
176 188 204
175 187 204
175 188 204
175 187 204
175 188 204
175 187 204
175 187 204
175 187 204
175 187 204
175 187 204
175 187 204
175 187 204
175 187 204
175 187 204
175 187 204
175 187 204
175 187 204
175 187 204
175 187 204
175 187 204
175 187 204
175 187 204
175 187 204
175 187 204
175 187 204
175 187 204
175 187 204
175 187 204
175 187 204
175 187 204
175 187 204
175 187 204
175 187 204
175 187 204
175 187 204
175 187 204
175 187 204
175 187 204
175 187 204
175 187 204
175 187 204
175 187 204
175 187 204
175 187 204
175 187 204
175 187 204
175 187 204
175 187 204
175 187 204
175 187 204
175 187 204
175 187 204
175 187 204
175 187 204
175 187 204
175 187 204
175 187 204
175 188 204
175 188 204
176 188 204
176 188 204
176 188 204
176 188 204
176 188 204
176 188 204
176 188 204
176 188 204
176 188 204
176 188 204
176 188 204
176 188 204
176 188 204
176 188 204
177 188 204
177 188 204
177 188 204
66 94 125
54 85 125
56 89 134
54 86 122
55 87 118
58 91 139
58 92 147
59 93 138
57 90 133
57 91 127
59 93 142
56 90 115
60 94 140
58 91 131
58 92 128
58 92 134
60 94 140
60 95 138
59 93 133
60 94 143
57 91 124
58 92 130
59 93 137
59 93 132
59 94 133
60 94 138
59 93 135
60 95 143
59 93 133
61 95 137
59 92 125
61 95 140
59 93 124
60 94 138
62 97 143
60 94 137
60 94 136
61 96 145
59 94 132
59 93 139
60 94 135
58 93 127
59 94 126
61 96 142
60 95 145
60 95 141
60 94 135
60 94 137
60 95 131
60 95 131
60 95 135
61 95 139
60 93 130
61 96 135
60 95 143
61 96 140
60 95 134
60 95 141
60 95 136
61 96 147
60 94 135
60 95 128
59 93 134
61 96 144
59 94 134
60 94 135
61 96 143
60 94 135
59 93 126
59 92 118
60 95 141
59 94 133
59 94 122
59 93 122
59 93 129
60 94 136
59 93 124
61 96 139
60 95 134
59 93 129
61 96 135
60 95 139
59 94 130
61 95 141
62 96 140
60 94 139
59 94 133
57 91 130
60 94 136
57 91 125
59 93 134
59 93 130
60 95 135
59 94 134
59 93 129
59 93 120
60 95 135
58 91 130
59 94 136
61 96 143
59 93 128
59 92 121
59 93 125
59 93 129
60 94 137
60 95 134
59 93 131
59 93 131
59 93 130
59 92 126
59 93 131
58 92 130
58 92 131
59 92 129
58 92 129
57 89 126
59 91 138
58 91 128
59 93 130
57 90 130
60 93 140
57 89 120
55 86 111
56 87 124
57 89 123
56 87 125
55 85 112
54 83 114
54 83 116
63 83 106
177 141 51
177 141 51
177 141 51
176 141 51
176 141 51
176 141 51
176 141 51
176 141 51
176 141 51
176 141 51
176 141 51
176 141 51
176 141 51
176 141 51
176 141 51
176 141 51
176 141 51
175 141 51
175 141 51
175 140 51
175 140 51
175 140 51
175 140 51
175 140 51
175 140 51
175 140 51
175 140 51
175 140 51
175 140 51
175 140 51
175 140 51
175 140 51
175 140 51
175 140 51
175 140 51
175 140 51
175 140 51
175 140 51
175 140 51
175 140 51
175 140 51
175 140 51
175 140 51
175 140 51
175 140 51
175 140 51
175 140 51
175 140 51
175 140 51
175 140 51
175 140 51
175 140 51
175 140 51
175 140 51
175 140 51
175 140 51
175 140 51
175 140 51
175 140 51
175 140 51
175 140 51
175 140 51
175 140 51
175 140 51
175 140 51
175 140 51
175 140 51
175 140 51
175 140 51
175 140 51
175 141 51
175 141 51
175 141 51
175 141 51
175 141 51
175 141 51
176 141 51
176 141 51
176 141 51
176 141 51
176 141 51
176 141 51
176 141 51
176 141 51
176 141 51
176 141 51
176 141 51
176 141 51
176 141 51
176 141 51
176 141 51
176 141 51
176 141 51
176 141 51
176 141 51
176 141 51
176 141 51
176 141 51
176 141 51
176 141 51
176 141 51
176 141 51
171 137 49
47 55 27
46 53 24
45 53 25
47 54 27
44 51 25
44 50 23
44 51 23
43 50 22
42 47 22
43 49 23
42 47 21
40 45 20
40 43 18
39 43 19
39 42 17
38 40 17
34 35 14
40 41 18
38 40 17
35 37 16
34 34 12
36 35 13
34 33 11
33 32 11
35 33 9
35 35 13
33 31 9
30 28 8
34 30 8
31 28 4
33 30 5
48 57 28
48 75 116
33 52 82
31 50 77
32 52 81
32 51 76
32 52 80
33 53 82
33 52 79
36 57 92
34 55 83
36 57 88
35 56 85
36 58 85
34 55 75
39 62 89
40 64 94
39 63 89
42 67 101
40 64 97
40 63 97
40 64 91
42 67 102
41 65 99
43 68 101
43 68 90
43 68 101
44 70 103
46 73 106
46 72 105
47 74 109
46 73 105
48 76 116
170 182 200
176 188 204
175 188 204
175 187 204
175 187 204
175 187 204
175 187 204
175 187 204
175 187 204
175 187 204
175 187 204
175 187 204
175 187 204
175 187 204
175 187 204
175 187 204
175 187 204
175 187 204
175 187 204
175 187 204
174 187 204
174 187 204
174 187 204
174 187 204
174 187 204
174 187 204
174 187 204
174 187 204
174 187 204
174 187 204
174 187 204
174 187 204
174 187 204
174 187 204
174 187 204
174 187 204
174 187 204
174 186 204
173 186 204
174 186 204
173 186 204
173 186 204
173 186 204
173 186 204
173 186 204
173 186 204
173 186 204
173 186 204
173 186 204
173 186 204
173 186 204
173 186 204
173 186 204
173 186 204
173 186 204
173 186 204
173 186 204
173 186 204
173 186 204
173 186 204
173 186 204
173 186 204
173 186 204
173 186 204
173 186 204
173 186 204
173 186 204
173 186 204
173 186 204
173 186 204
173 186 204
173 186 204
173 186 204
173 186 204
173 186 204
173 186 204
173 186 204
173 186 204
173 186 204
174 187 204
174 186 204
174 187 204
174 187 204
174 187 204
174 187 204
174 187 204
174 187 204
174 187 204
174 187 204
175 187 204
175 187 204
175 187 204
175 187 204
175 187 204
175 187 204
175 187 204
176 188 204
176 188 204
176 188 204
176 188 204
176 188 204
176 188 204
177 188 204
68 95 127
54 86 130
57 89 127
57 90 129
56 89 128
57 91 128
57 90 130
58 91 132
57 90 119
59 93 132
59 93 135
58 91 130
58 92 134
58 92 133
59 94 132
58 92 128
59 92 140
58 93 133
60 94 136
60 95 142
58 91 128
59 94 133
58 92 121
59 92 136
59 94 138
57 90 127
59 94 125
60 94 131
57 91 127
61 95 142
61 95 140
60 94 138
58 93 128
59 94 128
60 94 139
59 93 125
59 93 128
59 93 126
59 93 128
61 96 141
59 94 138
60 94 131
60 95 130
58 92 135
60 95 133
57 91 124
61 95 145
59 93 131
60 94 131
60 94 134
59 93 130
59 93 129
59 94 134
60 94 139
61 95 137
60 94 131
58 92 120
59 94 129
61 96 142
61 96 139
59 93 129
60 95 134
61 95 137
60 94 137
60 95 135
61 95 143
60 94 126
58 92 124
60 94 142
59 93 130
60 94 133
60 94 136
60 95 131
61 95 142
60 94 135
58 92 125
61 96 136
60 95 134
59 93 131
60 94 141
58 92 134
60 95 140
57 91 118
60 95 137
61 95 142
59 94 137
61 96 136
60 94 139
60 95 137
60 95 129
59 94 137
59 93 133
61 95 136
59 93 137
59 93 137
60 94 131
58 91 128
61 95 136
60 95 143
59 92 126
59 93 125
59 93 131
59 93 134
61 96 142
59 92 137
59 94 131
59 93 129
58 91 131
59 92 129
60 94 135
61 95 143
59 93 137
58 90 126
60 93 135
57 90 124
60 94 143
60 93 136
57 90 114
58 91 130
59 93 134
58 91 120
59 92 128
58 90 123
58 90 129
58 89 131
57 89 125
58 90 128
57 86 123
55 85 116
67 84 107
177 141 51
176 141 51
176 141 51
176 141 51
176 141 51
176 141 51
176 141 51
175 140 51
175 140 51
175 140 51
175 140 51
175 140 51
175 140 51
175 140 51
174 140 51
174 140 51
174 140 51
174 140 51
174 140 51
174 140 51
174 140 51
174 140 51
174 140 51
174 140 51
173 140 51
173 140 51
173 140 51
173 140 51
173 140 51
173 140 51
173 140 51
173 140 51
173 140 51
173 140 51
173 140 51
173 140 51
173 139 51
173 139 51
173 139 51
173 139 51
173 139 51
173 139 51
173 139 51
173 139 51
173 139 51
173 139 51
173 139 51
173 139 51
173 139 51
173 140 51
173 139 51
173 140 51
173 140 51
173 140 51
173 140 51
173 140 51
173 140 51
173 140 51
173 140 51
173 140 51
173 140 51
173 140 51
173 140 51
173 140 51
174 140 51
174 140 51
174 140 51
174 140 51
174 140 51
174 140 51
174 140 51
174 140 51
174 140 51
174 140 51
174 140 51
174 140 51
174 140 51
174 140 51
174 140 51
174 140 51
174 140 51
174 140 51
175 140 51
175 140 51
175 140 51
175 140 51
175 140 51
175 140 51
175 140 51
175 140 51
175 140 51
175 140 51
175 140 51
175 140 51
175 140 51
175 140 51
175 140 51
175 140 51
175 140 51
175 140 51
175 141 51
176 141 51
171 137 50
48 56 27
48 56 27
47 55 27
46 54 27
46 53 26
43 49 23
45 52 25
43 49 24
45 50 23
42 47 21
44 49 23
41 45 20
39 44 20
39 43 17
39 42 18
39 42 17
39 41 18
35 37 15
33 33 11
35 36 14
35 35 13
34 34 12
36 36 13
35 34 12
33 32 12
34 32 9
33 32 10
33 30 7
33 31 9
32 29 7
34 30 5
46 55 24
44 70 96
31 50 76
31 51 80
34 54 83
32 51 83
33 53 82
34 54 81
32 51 77
35 56 86
34 55 85
36 58 87
35 55 85
34 54 85
35 57 90
38 61 88
40 63 100
38 60 93
39 62 97
39 62 95
41 65 100
42 68 102
41 66 93
42 67 102
44 70 110
42 67 100
45 71 103
45 71 109
45 72 112
47 74 114
47 75 111
48 76 116
47 74 104
169 182 201
175 187 204
175 187 204
175 187 204
175 187 204
174 187 204
174 187 204
174 187 204
174 187 204
174 187 204
174 187 204
174 187 204
174 187 204
174 187 204
174 187 204
174 187 204
174 186 204
174 186 204
173 186 204
173 186 204
173 186 204
173 186 204
173 186 204
173 186 204
173 186 204
173 186 204
173 186 204
173 186 204
173 186 204
173 186 204
173 186 204
172 186 204
172 186 204
172 186 204
172 186 204
172 186 204
172 186 204
172 186 204
172 186 204
172 185 204
172 185 204
172 185 204
172 185 204
172 185 204
171 185 204
171 185 204
171 185 204
171 185 204
171 185 204
171 185 204
171 185 204
171 185 204
171 185 204
171 185 204
171 185 204
171 185 204
171 185 204
171 185 204
171 185 204
171 185 204
171 185 204
171 185 204
171 185 204
171 185 204
171 185 204
171 185 204
171 185 204
171 185 204
171 185 204
171 185 204
171 185 204
171 185 204
171 185 204
171 185 204
171 185 204
171 185 204
172 185 204
172 185 204
172 185 204
172 186 204
172 186 204
172 186 204
172 186 204
172 186 204
172 186 204
173 186 204
173 186 204
173 186 204
173 186 204
173 186 204
174 186 204
174 187 204
174 187 204
174 187 204
174 187 204
175 187 204
175 187 204
175 187 204
175 187 204
176 188 204
176 188 204
176 188 204
176 188 204
81 104 137
55 87 124
56 89 127
55 87 109
58 92 138
57 90 123
56 89 132
56 89 125
57 91 131
59 93 137
56 89 125
57 90 130
58 92 131
58 92 138
58 92 129
58 92 131
58 91 124
58 91 129
59 93 130
60 94 135
60 94 139
59 93 126
60 95 139
58 92 124
59 94 139
58 91 127
61 95 134
59 93 126
58 92 128
61 95 137
60 95 137
60 95 142
59 94 137
60 95 138
58 92 121
60 94 130
60 94 132
59 93 129
61 96 143
59 93 127
61 95 141
60 94 138
59 93 125
60 94 136
59 93 128
58 91 129
60 94 136
60 94 126
61 95 133
60 95 141
60 95 133
61 95 142
59 93 124
60 94 134
58 92 130
59 94 120
61 96 137
61 96 136
60 94 139
58 93 130
60 94 139
59 93 122
59 93 134
60 94 137
59 93 125
60 94 141
61 95 141
60 94 139
58 93 133
61 95 141
61 96 133
60 95 134
58 93 121
60 94 134
60 95 140
60 95 137
60 95 137
60 94 134
60 94 128
60 94 134
59 94 128
60 95 137
60 94 136
59 92 130
59 93 128
59 93 130
60 94 139
57 90 129
60 95 136
59 93 128
60 94 135
61 96 143
59 93 136
59 93 125
59 93 135
59 92 133
59 93 130
59 92 126
60 94 137
60 95 136
61 96 140
58 91 131
60 93 133
59 93 134
59 93 130
58 91 137
60 94 136
59 93 120
59 92 129
59 93 129
59 93 131
58 91 134
58 91 131
59 93 142
57 90 126
57 89 120
59 93 133
57 89 124
58 91 122
57 88 126
58 90 132
55 86 114
56 88 126
58 90 121
57 88 118
56 87 128
58 90 130
57 87 128
53 81 103
83 93 115
176 141 51
176 141 51
176 141 51
176 141 51
175 141 51
175 140 51
175 140 51
175 140 51
174 140 51
174 140 51
174 140 51
174 140 51
174 140 51
173 140 51
173 140 51
173 139 51
173 139 51
173 139 51
172 139 51
172 139 51
172 139 51
172 139 51
172 139 51
172 139 51
172 139 51
172 139 51
172 139 51
172 139 51
171 139 51
171 139 51
171 139 51
171 139 51
171 139 51
171 139 51
171 139 51
171 139 51
171 139 51
171 139 51
171 139 51
171 139 51
171 139 51
171 139 51
171 139 51
171 139 51
171 139 51
171 139 51
171 139 51
171 139 51
171 139 51
171 139 51
171 139 51
171 139 51
171 139 51
171 139 51
171 139 51
171 139 51
171 139 51
171 139 51
171 139 51
172 139 51
172 139 51
172 139 51
172 139 51
172 139 51
172 139 51
172 139 51
172 139 51
172 139 51
172 139 51
172 139 51
172 139 51
172 139 51
173 139 51
173 139 51
173 139 51
173 139 51
173 139 51
173 139 51
173 140 51
173 139 51
173 140 51
173 140 51
173 140 51
173 140 51
173 140 51
174 140 51
174 140 51
174 140 51
174 140 51
174 140 51
174 140 51
174 140 51
174 140 51
174 140 51
174 140 51
174 140 51
174 140 51
175 140 51
175 140 51
175 140 51
175 140 51
175 140 51
171 137 50
48 57 30
47 55 26
47 55 27
46 54 27
46 53 27
45 52 25
45 52 26
42 47 21
42 47 21
43 48 22
40 46 22
42 46 21
41 46 22
40 43 18
37 39 17
38 40 18
35 37 14
36 38 14
37 38 14
37 38 15
36 36 13
36 36 14
35 33 10
34 33 12
32 31 10
32 31 9
35 32 7
33 31 9
32 29 6
33 30 7
33 30 8
44 49 23
38 60 91
32 51 76
32 52 84
32 51 78
33 53 82
32 52 79
33 53 80
33 53 82
34 55 82
34 55 88
36 57 78
35 57 91
36 58 88
36 58 90
36 57 85
37 60 93
38 61 92
40 64 92
41 65 94
40 64 97
42 67 104
38 60 88
42 67 108
43 68 102
44 70 107
43 68 105
44 71 107
45 72 106
46 72 113
47 74 110
48 75 115
46 74 110
163 176 195
174 187 204
174 187 204
174 187 204
174 187 204
174 187 204
174 187 204
173 186 204
173 186 204
173 186 204
173 186 204
173 186 204
173 186 204
173 186 204
173 186 204
173 186 204
173 186 204
172 186 204
172 186 204
172 186 204
172 186 204
172 186 204
172 186 204
172 185 204
172 185 204
172 185 204
171 185 204
171 185 204
171 185 204
171 185 204
171 185 204
171 185 204
171 185 204
171 185 204
171 185 204
170 185 204
170 185 204
170 185 204
170 185 204
170 185 204
170 185 204
170 185 204
170 184 204
170 184 204
170 184 204
170 184 204
169 184 204
170 184 204
169 184 204
169 184 204
169 184 204
169 184 204
169 184 204
169 184 204
169 184 204
169 184 204
169 184 204
169 184 204
169 184 204
169 184 204
169 184 204
169 184 204
169 184 204
169 184 204
169 184 204
169 184 204
169 184 204
169 184 204
169 184 204
169 184 204
169 184 204
169 184 204
170 184 204
169 184 204
170 184 204
170 184 204
170 184 204
170 184 204
170 185 204
170 185 204
170 185 204
171 185 204
171 185 204
171 185 204
171 185 204
171 185 204
172 185 204
172 185 204
172 186 204
172 186 204
172 186 204
173 186 204
173 186 204
173 186 204
174 187 204
174 187 204
174 187 204
175 187 204
175 187 204
175 187 204
176 188 204
176 188 204
176 188 204
83 104 136
56 88 128
55 87 124
56 89 124
55 87 121
56 89 129
58 92 129
58 91 132
57 90 121
57 91 125
56 89 124
58 92 133
59 92 121
57 90 121
59 92 127
58 92 127
58 92 136
58 92 132
59 92 134
59 94 136
59 93 125
60 93 141
59 92 129
58 91 125
58 92 126
59 94 132
60 94 140
59 94 140
59 93 135
58 92 124
60 94 126
60 95 136
60 94 135
60 95 136
59 93 126
59 93 130
60 94 131
59 94 136
60 94 134
60 95 136
59 93 133
59 93 126
61 95 143
60 95 137
59 93 128
60 94 136
60 95 137
60 94 133
60 94 134
60 95 131
60 93 139
59 93 126
60 95 137
60 95 135
60 94 133
59 94 135
59 93 134
60 94 134
59 94 133
59 93 130
60 95 136
60 95 129
60 94 133
62 96 143
59 93 126
61 95 141
59 93 133
59 94 130
59 93 133
60 94 142
59 94 131
60 94 140
61 95 133
59 94 136
61 96 145
59 93 131
59 94 139
61 95 135
60 95 139
58 93 126
60 94 135
58 92 130
59 93 133
60 94 131
59 94 133
59 93 128
60 95 144
58 92 124
60 95 136
61 95 136
60 94 135
58 93 122
60 95 143
60 94 126
60 94 147
58 92 128
59 94 131
60 95 143
59 93 128
60 94 137
58 91 126
59 93 133
58 92 125
59 92 131
60 93 140
60 94 134
58 92 129
60 94 134
59 92 126
60 94 141
60 94 140
58 91 128
58 91 117
59 92 133
59 92 142
59 93 128
59 93 142
57 89 121
59 91 129
58 91 122
60 93 134
56 88 110
58 91 126
55 85 119
58 91 129
59 92 131
57 88 128
58 91 129
54 81 107
81 91 111
176 141 51
176 141 51
176 141 51
175 140 51
175 140 51
175 140 51
174 140 51
174 140 51
174 140 51
173 140 51
173 140 51
173 139 51
173 139 51
172 139 51
172 139 51
172 139 51
172 139 51
171 139 51
171 139 51
171 139 51
171 139 51
171 138 51
170 138 51
170 138 51
170 138 51
170 138 51
170 138 51
170 138 51
170 138 51
169 138 51
169 138 51
169 138 51
169 138 51
169 138 51
169 138 51
169 138 51
169 138 51
169 138 51
169 138 51
169 138 51
169 138 51
169 138 51
169 138 51
169 138 51
169 138 51
169 138 51
169 138 51
169 138 51
169 138 51
169 138 51
169 138 51
169 138 51
169 138 51
169 138 51
170 138 51
170 138 51
170 138 51
170 138 51
170 138 51
170 138 51
170 138 51
170 138 51
170 138 51
170 138 51
170 138 51
170 138 51
170 138 51
171 138 51
171 139 51
171 139 51
171 139 51
171 139 51
171 139 51
171 139 51
171 139 51
171 139 51
171 139 51
172 139 51
172 139 51
172 139 51
172 139 51
172 139 51
172 139 51
172 139 51
172 139 51
172 139 51
173 139 51
173 139 51
173 139 51
173 139 51
173 139 51
173 140 51
173 140 51
173 140 51
173 140 51
173 140 51
174 140 51
174 140 51
174 140 51
174 140 51
174 140 51
174 140 51
161 130 48
48 57 27
48 56 28
46 54 26
47 55 29
46 53 26
44 50 25
45 52 25
43 49 22
43 49 21
42 47 23
42 47 22
41 45 21
39 43 19
40 45 22
42 45 21
39 42 18
36 38 14
35 37 15
38 41 17
39 40 17
35 34 11
37 38 17
34 33 11
36 35 13
35 33 9
36 36 16
31 30 9
30 29 7
33 31 9
32 28 7
31 28 6
35 36 14
32 51 76
33 52 79
30 49 74
33 53 78
33 53 79
34 55 82
33 53 85
32 52 82
33 54 86
32 51 82
36 59 88
34 55 83
35 56 88
38 60 95
37 59 94
40 63 103
40 64 100
40 64 101
36 58 89
42 66 99
40 64 104
41 65 100
42 67 106
42 67 103
45 70 114
44 70 102
45 71 110
45 72 114
46 73 113
47 74 115
47 75 117
48 76 116
159 173 193
174 186 204
173 186 204
173 186 204
173 186 204
173 186 204
173 186 204
173 186 204
173 186 204
172 186 204
172 186 204
172 186 204
172 186 204
172 186 204
172 185 204
172 185 204
171 185 204
171 185 204
171 185 204
171 185 204
171 185 204
171 185 204
171 185 204
171 185 204
170 185 204
170 185 204
170 185 204
170 184 204
170 184 204
170 184 204
170 184 204
169 184 204
169 184 204
169 184 204
169 184 204
169 184 204
169 184 204
169 184 204
169 184 204
168 184 204
168 184 204
168 184 204
168 183 204
168 183 204
168 183 204
168 183 204
168 183 204
168 183 204
168 183 204
168 183 204
167 183 204
167 183 204
167 183 204
167 183 204
167 183 204
167 183 204
167 183 204
167 183 204
167 183 204
167 183 204
167 183 204
167 183 204
167 183 204
167 183 204
167 183 204
167 183 204
167 183 204
167 183 204
167 183 204
167 183 204
167 183 204
167 183 204
168 183 204
168 183 204
168 183 204
168 183 204
168 183 204
168 184 204
168 184 204
169 184 204
169 184 204
169 184 204
169 184 204
169 184 204
170 184 204
170 184 204
170 185 204
171 185 204
171 185 204
171 185 204
171 185 204
172 186 204
172 186 204
173 186 204
173 186 204
173 186 204
174 187 204
174 187 204
175 187 204
175 187 204
175 188 204
176 188 204
176 188 204
102 122 148
53 83 119
54 86 110
55 87 125
56 89 120
57 91 133
58 92 136
58 92 135
57 90 133
57 91 129
58 92 127
58 92 121
57 91 130
58 92 127
57 91 123
59 93 131
59 92 134
59 93 137
59 94 130
58 92 133
60 95 133
57 91 129
60 94 140
58 92 126
58 92 128
59 94 137
59 94 133
58 92 126
58 92 131
60 94 133
60 94 133
57 91 120
59 93 132
60 94 127
61 95 141
59 94 136
59 93 126
59 94 135
60 95 134
59 93 123
60 95 143
61 96 143
61 95 141
59 94 134
60 94 136
59 94 130
60 94 134
59 94 134
60 94 130
60 95 136
60 94 133
61 95 137
60 94 134
60 94 134
59 93 128
60 95 141
60 95 141
57 91 117
61 95 140
59 93 131
61 96 143
61 95 141
60 93 135
61 96 135
60 95 136
59 92 130
61 95 142
59 93 130
60 95 136
58 92 131
60 94 137
58 92 122
60 94 134
60 95 140
59 93 126
58 93 128
58 92 128
60 94 136
61 95 139
59 94 139
59 93 130
59 92 124
59 92 136
60 93 129
60 94 130
59 92 133
59 94 131
60 94 137
60 94 134
59 94 130
60 94 145
61 96 141
61 95 152
61 95 137
60 94 128
59 93 131
59 93 126
59 94 140
60 94 139
61 96 147
59 94 135
60 94 136
59 93 129
58 90 129
60 95 137
59 93 131
59 93 131
59 94 133
60 93 137
58 92 128
59 92 130
59 93 131
59 93 131
58 92 130
58 92 129
58 91 122
59 92 131
60 94 137
58 91 130
57 89 125
57 90 122
58 90 130
58 91 129
57 89 124
58 91 130
58 90 124
56 86 115
53 83 105
55 83 120
112 106 100
176 141 51
176 141 51
175 141 51
175 140 51
175 140 51
174 140 51
174 140 51
173 140 51
173 139 51
173 139 51
172 139 51
172 139 51
172 139 51
171 139 51
171 139 51
171 138 51
170 138 51
170 138 51
170 138 51
169 138 51
169 138 51
169 138 51
169 138 51
169 138 51
168 138 51
168 138 51
168 137 51
168 137 51
168 137 51
168 137 51
168 137 51
168 137 51
167 137 51
167 137 51
167 137 51
167 137 51
167 137 51
167 137 51
167 137 51
167 137 51
167 137 51
167 137 51
167 137 51
167 137 51
167 137 51
167 137 51
167 137 51
167 137 51
167 137 51
167 137 51
167 137 51
167 137 51
167 137 51
168 137 51
168 137 51
168 137 51
168 137 51
168 137 51
168 137 51
168 137 51
168 137 51
168 138 51
168 138 51
169 138 51
169 138 51
169 138 51
169 138 51
169 138 51
169 138 51
169 138 51
169 138 51
169 138 51
170 138 51
170 138 51
170 138 51
170 138 51
170 138 51
170 138 51
170 138 51
171 139 51
171 139 51
171 139 51
171 139 51
171 139 51
171 139 51
171 139 51
171 139 51
172 139 51
172 139 51
172 139 51
172 139 51
172 139 51
172 139 51
172 139 51
173 139 51
173 139 51
173 139 51
173 139 51
173 140 51
173 140 51
173 140 51
174 140 51
157 128 48
49 57 30
48 56 28
47 55 29
46 53 25
46 54 26
44 50 23
45 51 25
45 51 25
42 48 23
41 46 22
44 48 22
39 43 19
40 45 22
40 43 20
39 42 19
39 44 21
38 40 16
35 36 13
35 34 11
36 36 15
36 38 17
34 34 13
34 33 13
33 32 9
33 31 10
33 30 9
32 30 9
33 31 7
33 30 7
35 32 9
32 28 5
33 30 7
32 52 81
34 55 81
33 53 80
33 53 81
33 53 82
33 53 82
34 55 90
34 54 85
35 56 89
36 57 90
36 57 94
36 57 89
35 55 86
38 61 96
37 60 94
40 64 98
39 62 98
39 62 95
42 67 104
42 66 107
40 64 97
43 68 108
43 68 105
45 71 108
43 68 108
43 69 104
45 72 109
45 72 115
48 75 119
49 77 126
47 75 116
47 74 119
153 166 188
173 186 204
173 186 204
173 186 204
172 186 204
172 186 204
172 186 204
172 186 204
172 185 204
172 185 204
172 185 204
171 185 204
171 185 204
171 185 204
171 185 204
171 185 204
170 185 204
170 185 204
170 185 204
170 184 204
170 184 204
170 184 204
169 184 204
169 184 204
169 184 204
169 184 204
169 184 204
169 184 204
169 184 204
168 184 204
168 183 204
168 183 204
168 183 204
168 183 204
167 183 204
168 183 204
167 183 204
167 183 204
167 183 204
167 183 204
167 183 204
167 183 204
166 183 204
166 182 204
166 182 204
166 182 204
166 182 204
166 182 204
166 182 204
166 182 204
166 182 204
166 182 204
165 182 204
165 182 204
165 182 204
165 182 204
165 182 204
165 182 204
165 182 204
165 182 204
165 182 204
165 182 204
165 182 204
165 182 204
165 182 204
165 182 204
165 182 204
165 182 204
165 182 204
165 182 204
166 182 204
166 182 204
166 182 204
166 182 204
166 182 204
166 182 204
166 183 204
167 183 204
167 183 204
167 183 204
167 183 204
167 183 204
168 183 204
168 183 204
168 184 204
169 184 204
169 184 204
169 184 204
170 184 204
170 185 204
171 185 204
171 185 204
171 185 204
172 185 204
172 186 204
173 186 204
173 186 204
174 187 204
174 187 204
175 187 204
175 187 204
176 188 204
176 188 204
110 128 154
57 91 135
52 82 115
56 89 131
56 89 130
55 87 120
56 90 124
56 89 113
58 91 120
57 91 133
57 90 127
58 91 125
56 90 122
58 92 126
58 92 136
59 92 137
60 94 135
58 91 123
58 92 130
58 93 125
57 91 126
58 91 125
59 93 133
59 93 130
59 93 126
60 94 131
60 94 132
60 94 127
59 92 129
59 93 121
59 93 121
59 93 133
60 94 131
59 94 135
59 94 134
59 93 128
59 93 133
59 93 130
58 92 124
59 93 131
60 95 132
61 95 148
59 93 126
60 95 148
59 93 124
60 95 137
59 93 130
59 93 131
60 94 128
59 93 126
59 94 122
60 94 136
58 92 128
59 93 133
59 93 127
60 95 130
60 94 135
60 95 136
60 94 139
61 96 137
59 93 128
60 95 137
58 91 128
59 93 126
58 92 131
59 93 129
59 93 129
60 95 141
60 95 147
60 93 128
60 94 131
60 94 134
59 93 129
60 95 134
59 92 124
60 94 143
59 94 131
60 95 126
61 96 141
60 94 126
59 94 137
59 93 130
59 94 131
60 94 133
57 91 116
60 94 139
60 94 134
57 90 114
60 94 141
59 93 131
60 94 137
59 92 125
61 96 145
62 96 147
59 93 133
59 93 128
60 94 135
60 95 131
59 93 128
59 92 128
57 90 115
60 93 135
58 91 120
59 92 130
58 92 126
59 94 135
59 93 135
58 92 129
59 93 129
58 92 128
60 94 136
59 92 125
59 93 137
59 92 126
58 91 125
59 92 125
57 90 121
58 90 121
58 91 122
58 90 125
58 89 117
57 89 119
59 93 139
58 90 132
56 88 127
58 90 129
57 87 120
56 87 125
54 82 104
107 104 95
176 141 51
176 141 51
175 140 51
175 140 51
174 140 51
174 140 51
173 140 51
173 139 51
172 139 51
172 139 51
171 139 51
171 139 51
171 138 51
170 138 51
170 138 51
169 138 51
169 138 51
169 138 51
168 138 51
168 137 51
168 137 51
167 137 51
167 137 51
167 137 51
167 137 51
167 137 51
166 137 51
166 137 51
166 137 51
166 137 51
166 136 51
166 136 51
166 136 51
165 136 51
165 136 51
165 136 51
165 136 51
165 136 51
165 136 51
165 136 51
165 136 51
165 136 51
165 136 51
165 136 51
165 136 51
165 136 51
165 136 51
165 136 51
165 136 51
165 136 51
165 136 51
165 136 51
166 136 51
166 136 51
166 136 51
166 137 51
166 137 51
166 137 51
166 137 51
166 137 51
166 137 51
167 137 51
167 137 51
167 137 51
167 137 51
167 137 51
167 137 51
167 137 51
168 137 51
168 137 51
168 137 51
168 137 51
168 137 51
168 138 51
168 138 51
169 138 51
169 138 51
169 138 51
169 138 51
169 138 51
170 138 51
170 138 51
170 138 51
170 138 51
170 138 51
170 138 51
170 138 51
171 138 51
171 139 51
171 139 51
171 139 51
171 139 51
171 139 51
172 139 51
172 139 51
172 139 51
172 139 51
172 139 51
172 139 51
173 139 51
173 139 51
173 139 51
152 124 46
49 58 31
47 55 29
46 54 28
46 54 27
44 51 25
46 53 28
45 51 25
43 50 24
41 47 23
42 47 22
43 48 23
40 45 21
41 46 22
40 44 21
38 41 18
39 41 18
38 41 19
38 40 17
37 38 17
35 37 17
38 39 17
36 37 15
37 37 14
36 36 14
35 34 14
31 29 10
35 34 10
35 33 12
34 32 9
34 31 9
35 32 8
29 26 4
31 51 79
33 53 81
34 54 78
33 53 82
35 56 86
33 53 87
34 54 89
33 52 82
36 57 91
35 57 95
35 57 86
38 60 91
37 59 95
37 60 95
37 59 91
40 63 104
38 61 97
40 63 101
41 65 108
39 62 96
41 65 104
41 66 108
44 70 110
42 66 97
42 67 103
44 69 108
45 72 117
45 71 110
47 74 116
46 73 111
48 76 122
48 76 120
148 162 186
172 186 204
172 186 204
172 186 204
172 185 204
172 185 204
171 185 204
171 185 204
171 185 204
171 185 204
171 185 204
170 185 204
170 185 204
170 184 204
170 184 204
170 184 204
169 184 204
169 184 204
169 184 204
169 184 204
169 184 204
168 184 204
168 184 204
168 183 204
168 183 204
168 183 204
168 183 204
167 183 204
167 183 204
167 183 204
167 183 204
167 183 204
166 183 204
166 182 204
166 182 204
166 182 204
166 182 204
166 182 204
165 182 204
165 182 204
165 182 204
165 182 204
165 182 204
165 182 204
164 181 204
164 181 204
164 181 204
164 181 204
164 181 204
164 181 204
164 181 204
164 181 204
164 181 204
164 181 204
163 181 204
163 181 204
163 181 204
163 181 204
163 181 204
163 181 204
163 181 204
163 181 204
163 181 204
163 181 204
163 181 204
163 181 204
163 181 204
163 181 204
164 181 204
164 181 204
164 181 204
164 181 204
164 181 204
164 181 204
164 181 204
164 181 204
165 182 204
165 182 204
165 182 204
166 182 204
166 182 204
166 182 204
166 182 204
167 183 204
167 183 204
167 183 204
168 183 204
168 184 204
169 184 204
169 184 204
170 184 204
170 185 204
171 185 204
171 185 204
172 185 204
172 186 204
173 186 204
173 186 204
174 187 204
175 187 204
175 187 204
176 188 204
176 188 204
120 137 156
54 85 113
54 85 124
56 89 127
57 91 127
56 89 126
58 92 135
57 90 125
59 92 129
58 92 128
57 90 124
57 90 126
58 91 129
56 89 115
59 93 125
57 91 130
58 92 129
58 91 126
58 92 121
59 93 137
58 92 121
55 88 114
57 91 125
58 92 126
60 94 135
59 93 133
59 94 138
60 95 133
60 94 130
58 91 128
59 93 128
60 94 135
60 94 128
60 94 132
59 93 126
59 92 132
60 95 136
59 93 130
58 92 123
60 94 124
60 94 133
60 94 135
60 94 131
59 93 122
60 95 142
60 95 138
60 94 140
58 92 127
60 95 139
59 94 129
58 91 118
61 96 147
58 91 128
60 94 136
61 96 141
59 93 128
59 93 120
59 94 133
59 93 131
59 93 134
59 94 130
60 94 133
60 94 139
62 97 144
60 94 136
61 95 140
59 94 137
60 95 131
60 94 134
59 93 126
59 94 133
59 92 130
59 93 130
61 95 137
59 93 128
59 93 120
60 94 139
59 93 131
59 93 131
59 93 131
59 93 136
60 95 126
60 95 144
60 93 131
59 93 135
58 92 118
60 95 139
61 96 143
60 94 135
61 96 141
58 92 128
60 95 135
59 92 122
60 95 134
60 94 136
60 94 131
60 94 135
60 94 133
59 92 126
59 92 124
60 94 133
58 91 130
60 95 139
59 92 135
59 94 134
59 92 135
58 91 124
58 92 129
58 91 125
59 92 117
58 91 122
56 88 117
60 93 139
58 91 121
55 86 113
58 91 129
58 91 126
59 92 131
57 90 118
58 91 130
57 88 124
58 91 131
55 85 113
55 85 114
57 88 133
57 87 117
55 86 124
55 85 114
55 84 120
114 106 88
176 141 51
176 141 51
175 140 51
174 140 51
174 140 51
173 140 51
173 139 51
172 139 51
172 139 51
171 139 51
171 138 51
170 138 51
170 138 51
169 138 51
169 138 51
168 137 51
168 137 51
167 137 51
167 137 51
167 137 51
166 137 51
166 137 51
166 136 51
165 136 51
165 136 51
165 136 51
165 136 51
165 136 51
164 136 51
164 136 51
164 136 51
164 136 51
164 136 51
164 136 51
164 136 51
163 136 51
163 136 51
163 135 51
163 135 51
163 135 51
163 135 51
163 135 51
163 135 51
163 135 51
163 135 51
163 135 51
163 136 51
163 136 51
163 136 51
164 136 51
164 136 51
164 136 51
164 136 51
164 136 51
164 136 51
164 136 51
164 136 51
164 136 51
164 136 51
165 136 51
165 136 51
165 136 51
165 136 51
165 136 51
165 136 51
165 136 51
166 136 51
166 137 51
166 137 51
166 137 51
166 137 51
167 137 51
167 137 51
167 137 51
167 137 51
167 137 51
168 137 51
168 137 51
168 137 51
168 137 51
168 138 51
168 138 51
169 138 51
169 138 51
169 138 51
169 138 51
169 138 51
170 138 51
170 138 51
170 138 51
170 138 51
170 138 51
171 138 51
171 139 51
171 139 51
171 139 51
171 139 51
172 139 51
172 139 51
172 139 51
172 139 51
172 139 51
144 119 45
48 56 28
47 56 29
47 55 29
47 55 28
47 54 27
45 52 26
43 49 23
44 50 25
45 52 27
42 47 24
43 48 24
41 47 23
40 43 20
39 42 18
41 46 22
39 41 19
39 43 21
37 39 17
36 38 17
38 39 17
34 34 14
35 35 15
35 34 12
33 33 12
33 33 13
33 31 9
32 31 9
32 29 7
32 30 9
32 29 7
32 30 9
32 29 7
31 51 80
30 48 72
31 51 76
35 56 89
31 51 72
34 55 84
36 57 87
35 56 89
35 56 87
36 57 88
36 58 95
36 58 90
38 60 99
38 61 98
38 61 93
39 62 103
39 62 100
42 67 106
40 64 98
41 65 102
39 63 106
42 67 102
44 71 112
45 71 108
43 69 109
46 72 119
46 73 119
45 71 117
46 73 121
48 75 124
48 76 122
48 76 118
127 143 170
172 185 204
171 185 204
171 185 204
171 185 204
171 185 204
171 185 204
170 185 204
170 185 204
170 184 204
170 184 204
170 184 204
169 184 204
169 184 204
169 184 204
169 184 204
168 184 204
168 184 204
168 183 204
168 183 204
168 183 204
167 183 204
167 183 204
167 183 204
167 183 204
166 183 204
166 182 204
166 182 204
166 182 204
166 182 204
165 182 204
165 182 204
165 182 204
165 182 204
165 182 204
164 181 204
164 181 204
164 181 204
164 181 204
164 181 204
163 181 204
163 181 204
163 181 204
163 181 204
163 181 204
163 180 204
163 180 204
162 180 204
162 180 204
162 180 204
162 180 204
162 180 204
162 180 204
162 180 204
162 180 204
162 180 204
161 180 204
161 180 204
161 180 204
161 180 204
161 180 204
161 180 204
161 180 204
161 180 204
161 180 204
161 180 204
162 180 204
162 180 204
162 180 204
162 180 204
162 180 204
162 180 204
162 180 204
162 180 204
163 181 204
163 181 204
163 181 204
163 181 204
164 181 204
164 181 204
164 181 204
165 182 204
165 182 204
165 182 204
166 182 204
166 182 204
167 183 204
167 183 204
168 183 204
168 184 204
169 184 204
169 184 204
170 184 204
170 185 204
171 185 204
172 185 204
172 186 204
173 186 204
174 187 204
174 187 204
175 187 204
176 188 204
176 188 204
131 147 164
52 83 116
55 87 125
54 85 115
55 87 115
56 89 124
57 90 126
57 90 128
58 91 127
57 91 134
59 93 135
58 92 127
59 93 132
58 91 130
58 92 134
61 95 137
60 94 133
59 92 128
57 90 122
59 92 132
59 93 132
57 90 123
57 91 125
58 91 128
58 91 120
59 93 130
58 92 131
59 93 125
59 93 135
60 94 133
58 91 117
60 94 133
59 92 127
59 93 120
58 92 124
58 92 124
58 92 126
59 93 128
61 96 136
60 95 139
58 91 122
57 90 123
59 93 128
60 95 137
59 93 128
58 92 121
59 93 128
59 92 130
60 95 136
60 95 140
60 94 129
59 93 129
59 93 126
59 93 115
59 93 128
60 95 130
60 95 141
59 94 134
60 95 133
59 92 124
59 93 126
59 94 141
61 96 137
60 94 131
59 93 126
59 94 131
58 92 125
59 94 131
58 91 125
60 95 128
56 90 126
59 93 131
61 96 141
59 93 128
59 93 130
61 95 139
61 95 141
58 92 126
60 94 137
59 93 136
60 94 140
61 95 136
60 94 133
59 93 130
57 89 117
59 93 133
58 92 133
60 95 137
61 96 148
59 93 125
58 92 126
60 95 131
59 92 117
62 97 147
60 94 130
59 93 125
60 94 133
60 93 133
60 95 134
60 94 126
56 89 113
57 90 114
57 90 124
59 93 124
58 91 120
59 92 139
57 90 118
59 93 126
59 93 133
58 90 124
59 92 134
57 90 124
58 91 126
58 91 125
57 89 111
59 92 129
59 93 129
56 87 114
57 89 117
58 91 129
58 89 125
58 90 124
57 88 116
58 89 125
56 86 110
54 84 107
56 86 119
56 86 114
53 81 112
130 113 65
176 141 51
176 141 51
175 140 51
174 140 51
174 140 51
173 139 51
172 139 51
172 139 51
171 139 51
170 138 51
170 138 51
169 138 51
169 138 51
168 137 51
168 137 51
167 137 51
167 137 51
166 137 51
166 137 51
165 136 51
165 136 51
165 136 51
164 136 51
164 136 51
164 136 51
163 136 51
163 135 51
163 135 51
163 135 51
162 135 51
162 135 51
162 135 51
162 135 51
162 135 51
162 135 51
162 135 51
162 135 51
161 135 51
161 135 51
161 135 51
161 135 51
161 135 51
161 135 51
161 135 51
161 135 51
161 135 51
161 135 51
162 135 51
162 135 51
162 135 51
162 135 51
162 135 51
162 135 51
162 135 51
162 135 51
162 135 51
162 135 51
163 135 51
163 135 51
163 135 51
163 135 51
163 135 51
163 136 51
164 136 51
164 136 51
164 136 51
164 136 51
164 136 51
164 136 51
165 136 51
165 136 51
165 136 51
165 136 51
166 136 51
166 136 51
166 137 51
166 137 51
166 137 51
167 137 51
167 137 51
167 137 51
167 137 51
168 137 51
168 137 51
168 137 51
168 137 51
168 138 51
169 138 51
169 138 51
169 138 51
169 138 51
170 138 51
170 138 51
170 138 51
170 138 51
170 138 51
171 138 51
171 139 51
171 139 51
171 139 51
171 139 51
172 139 51
132 111 43
49 57 29
48 56 29
49 56 30
47 54 27
46 53 26
45 52 28
45 52 26
44 50 25
41 46 22
41 47 23
43 49 25
41 45 22
40 43 19
39 42 20
40 43 21
38 40 19
38 40 19
37 39 17
38 39 17
36 37 17
36 37 16
36 36 13
35 36 16
36 34 12
34 32 11
33 34 14
34 31 10
33 30 7
35 33 10
34 32 11
34 31 9
34 31 9
31 50 73
32 52 74
32 52 80
34 54 81
35 56 89
33 54 87
34 54 89
34 54 83
36 58 96
34 54 88
35 57 90
37 59 94
37 59 98
37 60 98
37 59 98
38 61 101
39 63 100
36 58 90
38 60 94
40 63 102
40 64 104
40 64 99
41 66 96
42 67 108
45 71 116
45 72 118
45 71 110
46 73 116
47 74 127
47 74 117
48 76 123
48 76 119
116 133 161
171 185 204
171 185 204
171 185 204
170 185 204
170 185 204
170 184 204
170 184 204
169 184 204
169 184 204
169 184 204
169 184 204
168 184 204
168 184 204
168 183 204
168 183 204
167 183 204
167 183 204
167 183 204
167 183 204
166 183 204
166 182 204
166 182 204
166 182 204
165 182 204
165 182 204
165 182 204
165 182 204
164 181 204
164 181 204
164 181 204
164 181 204
164 181 204
163 181 204
163 181 204
163 181 204
163 180 204
163 180 204
162 180 204
162 180 204
162 180 204
162 180 204
161 180 204
161 180 204
161 180 204
161 180 204
161 179 204
161 179 204
160 179 204
160 179 204
160 179 204
160 179 204
160 179 204
160 179 204
160 179 204
160 179 204
160 179 204
160 179 204
159 179 204
160 179 204
160 179 204
160 179 204
160 179 204
160 179 204
160 179 204
160 179 204
160 179 204
160 179 204
160 179 204
160 179 204
160 179 204
160 179 204
161 179 204
161 180 204
161 180 204
161 180 204
162 180 204
162 180 204
162 180 204
163 180 204
163 181 204
163 181 204
164 181 204
164 181 204
165 182 204
165 182 204
166 182 204
166 182 204
167 183 204
167 183 204
168 183 204
169 184 204
169 184 204
170 184 204
171 185 204
171 185 204
172 186 204
173 186 204
174 186 204
174 187 204
175 187 204
176 188 204
177 188 204
142 156 180
53 84 111
55 87 132
57 91 129
54 86 119
58 92 129
56 89 125
56 89 122
57 90 127
58 92 132
56 88 114
59 92 133
57 91 123
59 92 132
58 91 128
58 92 122
57 90 117
58 92 126
60 94 131
58 92 130
58 92 130
59 94 126
59 92 128
59 93 130
59 94 134
59 92 130
60 94 132
59 94 133
59 93 128
58 91 120
58 91 128
60 95 133
58 92 120
59 93 122
59 92 130
58 92 126
60 94 135
60 94 128
60 94 130
58 92 124
59 92 125
59 94 130
60 94 137
60 95 133
58 93 128
59 93 126
59 92 128
60 93 126
59 94 128
60 95 135
59 93 131
58 91 124
58 92 118
59 94 134
59 93 128
59 93 129
59 93 130
61 95 137
59 93 122
59 93 133
60 94 140
59 94 134
61 96 141
59 94 133
59 94 131
59 93 125
59 94 131
58 93 129
60 95 136
59 94 139
59 92 126
59 93 140
59 94 125
58 92 125
60 94 135
59 93 128
60 94 134
58 92 113
61 95 136
60 95 134
60 94 131
59 94 130
59 93 134
59 92 130
59 93 128
59 93 131
60 94 128
59 93 137
59 94 128
58 91 125
59 93 131
60 94 128
60 94 129
60 94 136
59 93 126
58 93 125
60 94 134
60 94 125
59 93 129
60 94 139
59 93 130
59 93 128
60 94 130
58 91 125
59 93 122
57 90 121
59 92 133
58 91 128
58 91 128
58 90 126
59 92 131
59 93 131
58 91 129
59 93 129
57 88 121
58 91 124
59 92 131
57 91 124
57 89 118
57 89 116
59 91 125
56 88 128
57 88 116
59 93 135
56 86 114
57 88 124
56 86 114
56 86 124
53 81 101
143 123 83
177 141 51
176 141 51
175 140 51
174 140 51
173 140 51
173 139 51
172 139 51
171 139 51
171 138 51
170 138 51
169 138 51
169 138 51
168 137 51
167 137 51
167 137 51
166 137 51
166 136 51
165 136 51
165 136 51
164 136 51
164 136 51
163 135 51
163 135 51
163 135 51
162 135 51
162 135 51
162 135 51
161 135 51
161 135 51
161 135 51
161 134 51
160 134 51
160 134 51
160 134 51
160 134 51
160 134 51
160 134 51
160 134 51
160 134 51
160 134 51
159 134 51
159 134 51
160 134 51
160 134 51
160 134 51
160 134 51
160 134 51
160 134 51
160 134 51
160 134 51
160 134 51
160 134 51
160 134 51
160 134 51
160 134 51
161 134 51
161 134 51
161 135 51
161 135 51
161 135 51
162 135 51
162 135 51
162 135 51
162 135 51
162 135 51
163 135 51
163 135 51
163 135 51
163 135 51
163 136 51
164 136 51
164 136 51
164 136 51
164 136 51
165 136 51
165 136 51
165 136 51
165 136 51
165 136 51
166 136 51
166 137 51
166 137 51
166 137 51
167 137 51
167 137 51
167 137 51
167 137 51
168 137 51
168 137 51
168 137 51
169 138 51
169 138 51
169 138 51
169 138 51
169 138 51
170 138 51
170 138 51
170 138 51
170 138 51
171 138 51
171 139 51
171 139 51
125 106 42
48 57 30
48 56 31
48 56 30
46 54 28
46 53 28
45 52 27
43 49 25
44 50 25
43 50 25
41 47 23
40 45 22
42 48 24
40 45 22
42 47 23
40 43 21
40 44 22
39 42 19
39 42 18
37 38 17
34 36 15
34 34 14
35 36 16
33 34 12
35 33 11
34 33 11
35 33 12
32 30 11
32 28 7
33 32 11
33 32 12
33 31 9
32 28 5
32 51 80
34 54 80
30 49 76
33 53 81
34 55 85
32 52 83
34 55 88
34 53 83
34 55 84
36 57 91
34 54 84
33 54 82
37 60 99
36 58 89
37 59 95
39 63 103
39 62 102
39 63 101
37 60 96
41 65 107
43 68 115
40 64 101
42 68 106
42 67 110
46 73 120
46 72 116
45 72 116
47 75 124
45 72 115
46 74 119
46 74 119
49 77 131
97 116 153
171 185 204
170 185 204
170 184 204
170 184 204
169 184 204
169 184 204
169 184 204
169 184 204
168 184 204
168 183 204
168 183 204
168 183 204
167 183 204
167 183 204
167 183 204
166 183 204
166 182 204
166 182 204
166 182 204
165 182 204
165 182 204
165 182 204
165 182 204
164 181 204
164 181 204
164 181 204
163 181 204
163 181 204
163 181 204
163 181 204
162 180 204
162 180 204
162 180 204
162 180 204
161 180 204
161 180 204
161 180 204
161 179 204
161 179 204
160 179 204
160 179 204
160 179 204
160 179 204
160 179 204
159 179 204
159 179 204
159 178 204
159 178 204
159 178 204
159 178 204
158 178 204
158 178 204
158 178 204
158 178 204
158 178 204
158 178 204
158 178 204
158 178 204
158 178 204
158 178 204
158 178 204
158 178 204
158 178 204
158 178 204
158 178 204
158 178 204
158 178 204
158 178 204
158 178 204
159 178 204
159 178 204
159 179 204
159 179 204
160 179 204
160 179 204
160 179 204
160 179 204
161 180 204
161 180 204
162 180 204
162 180 204
163 180 204
163 181 204
164 181 204
164 181 204
165 182 204
165 182 204
166 182 204
167 183 204
167 183 204
168 183 204
169 184 204
169 184 204
170 185 204
171 185 204
172 185 204
173 186 204
173 186 204
174 187 204
175 187 204
176 188 204
177 188 204
165 176 192
53 84 115
55 87 125
56 88 122
57 90 122
56 89 126
57 90 132
56 89 125
58 92 132
58 91 129
56 89 124
58 92 134
57 90 121
58 92 132
58 93 134
59 92 127
58 92 132
59 92 130
59 93 129
58 93 121
58 91 127
58 92 128
59 93 136
59 93 124
59 93 135
59 94 126
59 94 129
58 91 118
59 93 120
58 92 121
58 92 128
59 93 135
59 93 122
60 94 133
60 94 139
59 93 131
59 94 133
58 92 126
60 95 133
60 94 130
60 94 131
59 93 131
61 96 140
60 94 138
59 93 129
60 94 124
58 92 128
59 93 124
58 92 121
60 95 131
60 94 129
59 93 126
58 92 125
61 96 139
58 92 121
59 93 130
59 92 126
57 91 121
59 92 130
60 94 124
61 96 145
60 94 130
58 92 120
59 93 130
60 94 122
59 92 126
58 93 129
61 95 142
60 94 136
60 95 128
60 94 133
58 92 124
58 93 129
60 94 142
60 94 133
61 96 141
59 93 130
61 96 139
57 91 122
60 95 135
60 95 136
58 91 118
58 91 131
58 91 122
59 93 134
60 94 135
59 93 125
58 92 118
60 94 129
59 94 124
59 93 126
60 94 128
59 93 129
60 94 133
59 92 129
59 93 129
58 92 124
57 90 116
58 92 121
58 91 128
60 93 137
61 95 140
58 92 129
59 93 134
60 94 142
59 93 134
57 89 120
58 92 126
60 94 137
58 92 122
58 91 129
58 91 134
60 93 133
58 91 126
58 91 126
58 91 129
57 89 126
57 90 130
58 90 128
59 91 131
56 87 107
58 91 131
57 88 121
56 87 116
56 86 110
57 88 119
56 87 116
55 85 111
54 83 104
165 133 56
177 141 51
176 141 51
175 140 51
174 140 51
173 140 51
173 139 51
172 139 51
171 139 51
170 138 51
169 138 51
169 138 51
168 137 51
167 137 51
167 137 51
166 137 51
165 136 51
165 136 51
164 136 51
164 136 51
163 135 51
163 135 51
162 135 51
162 135 51
161 135 51
161 135 51
160 134 51
160 134 51
160 134 51
160 134 51
159 134 51
159 134 51
159 134 51
159 134 51
159 134 51
158 133 51
158 133 51
158 133 51
158 133 51
158 133 51
158 133 51
158 133 51
158 133 51
158 133 51
158 133 51
158 133 51
158 133 51
158 133 51
158 133 51
158 133 51
158 133 51
158 133 51
158 133 51
158 134 51
159 134 51
159 134 51
159 134 51
159 134 51
159 134 51
159 134 51
160 134 51
160 134 51
160 134 51
160 134 51
161 134 51
161 134 51
161 135 51
161 135 51
161 135 51
162 135 51
162 135 51
162 135 51
162 135 51
163 135 51
163 135 51
163 135 51
163 136 51
164 136 51
164 136 51
164 136 51
165 136 51
165 136 51
165 136 51
166 136 51
166 136 51
166 137 51
166 137 51
167 137 51
167 137 51
167 137 51
167 137 51
168 137 51
168 137 51
168 137 51
168 138 51
169 138 51
169 138 51
169 138 51
169 138 51
170 138 51
170 138 51
170 138 51
171 138 51
102 90 39
49 57 30
49 57 31
47 54 28
47 55 28
46 54 29
46 53 28
46 52 26
44 50 26
42 49 24
43 48 25
43 49 25
42 47 23
40 44 22
40 44 23
39 43 21
41 44 23
37 39 18
38 39 17
36 38 17
36 38 17
37 38 17
36 36 15
34 35 16
37 37 16
37 36 14
33 32 11
32 30 9
34 32 10
33 30 9
34 31 10
33 30 9
31 29 9
32 52 78
33 53 80
33 52 85
34 54 81
32 52 80
34 54 85
32 52 76
33 53 82
36 58 92
32 53 80
35 55 88
37 60 98
36 58 93
34 55 90
37 59 95
36 58 91
39 62 106
38 62 106
39 63 102
41 66 106
41 65 106
41 65 106
42 67 107
43 68 105
43 69 113
43 69 115
44 70 113
47 74 125
47 74 120
47 74 121
47 75 121
48 77 124
77 99 143
170 184 204
170 184 204
169 184 204
169 184 204
169 184 204
169 184 204
168 184 204
168 183 204
168 183 204
167 183 204
167 183 204
167 183 204
166 183 204
166 182 204
166 182 204
166 182 204
165 182 204
165 182 204
165 182 204
164 181 204
164 181 204
164 181 204
164 181 204
163 181 204
163 181 204
163 180 204
162 180 204
162 180 204
162 180 204
161 180 204
161 180 204
161 180 204
161 179 204
160 179 204
160 179 204
160 179 204
160 179 204
159 179 204
159 179 204
159 178 204
159 178 204
158 178 204
158 178 204
158 178 204
158 178 204
158 178 204
157 178 204
157 177 204
157 177 204
157 177 204
157 177 204
157 177 204
156 177 204
156 177 204
156 177 204
156 177 204
156 177 204
156 177 204
156 177 204
156 177 204
156 177 204
156 177 204
156 177 204
156 177 204
156 177 204
156 177 204
157 177 204
157 177 204
157 177 204
157 177 204
157 178 204
158 178 204
158 178 204
158 178 204
158 178 204
159 178 204
159 179 204
159 179 204
160 179 204
160 179 204
161 180 204
162 180 204
162 180 204
163 180 204
163 181 204
164 181 204
165 181 204
165 182 204
166 182 204
167 183 204
167 183 204
168 184 204
169 184 204
170 184 204
171 185 204
172 185 204
172 186 204
173 186 204
174 187 204
175 187 204
176 188 204
177 188 204
177 188 203
63 93 123
53 84 106
56 88 118
56 89 123
57 89 120
57 90 119
56 89 113
58 91 128
59 93 136
57 89 117
57 90 116
58 92 129
57 89 118
56 89 118
58 91 119
58 92 126
59 93 130
59 93 132
58 92 128
57 91 118
59 94 135
58 91 124
60 95 137
59 93 130
58 92 130
59 94 131
58 92 124
59 93 122
59 93 135
58 91 124
59 93 127
58 92 129
60 94 131
57 91 121
58 92 128
60 94 133
59 94 124
59 93 134
58 91 122
60 94 136
60 95 139
60 95 129
60 94 134
59 94 129
61 95 139
59 93 133
58 91 124
59 94 133
59 93 130
59 92 120
58 92 124
59 93 126
57 91 126
59 93 126
59 93 131
59 93 125
59 93 128
61 95 142
60 93 131
59 93 131
60 94 133
61 95 136
59 93 122
61 96 134
60 94 133
60 94 133
60 94 134
60 94 139
59 92 129
59 93 134
60 94 133
59 93 129
58 91 128
61 95 134
58 91 118
60 95 130
59 93 126
59 92 124
58 91 121
59 93 126
60 94 129
58 92 125
59 93 117
57 90 117
61 95 137
60 95 141
61 95 139
59 93 133
59 92 124
59 93 130
58 92 122
59 92 122
58 91 128
58 91 118
59 92 122
59 93 126
58 91 128
58 91 120
59 92 128
58 91 124
57 90 118
58 91 124
61 95 136
60 94 131
60 94 134
60 93 142
58 90 117
56 88 113
60 93 141
57 89 120
59 93 130
55 86 121
58 92 121
59 92 133
56 87 115
58 91 126
58 90 126
59 93 126
59 91 126
58 90 130
58 89 130
57 89 123
56 88 116
56 86 124
56 87 120
54 83 102
55 85 112
55 81 106
176 140 50
177 141 51
176 141 51
175 140 51
174 140 51
173 140 51
172 139 51
172 139 51
171 139 51
170 138 51
169 138 51
168 138 51
167 137 51
167 137 51
166 137 51
165 136 51
165 136 51
164 136 51
163 135 51
163 135 51
162 135 51
162 135 51
161 135 51
161 134 51
160 134 51
160 134 51
159 134 51
159 134 51
158 134 51
158 133 51
158 133 51
158 133 51
157 133 51
157 133 51
157 133 51
157 133 51
157 133 51
156 133 51
156 133 51
156 133 51
156 133 51
156 133 51
156 133 51
156 133 51
156 133 51
156 133 51
156 133 51
156 133 51
156 133 51
156 133 51
156 133 51
157 133 51
157 133 51
157 133 51
157 133 51
157 133 51
157 133 51
158 133 51
158 133 51
158 133 51
158 133 51
158 133 51
158 134 51
159 134 51
159 134 51
159 134 51
160 134 51
160 134 51
160 134 51
160 134 51
161 134 51
161 135 51
161 135 51
161 135 51
162 135 51
162 135 51
162 135 51
163 135 51
163 135 51
163 135 51
164 136 51
164 136 51
164 136 51
164 136 51
165 136 51
165 136 51
165 136 51
166 136 51
166 137 51
166 137 51
167 137 51
167 137 51
167 137 51
167 137 51
168 137 51
168 137 51
168 138 51
169 138 51
169 138 51
169 138 51
169 138 51
170 138 51
170 138 51
78 74 35
49 57 31
47 55 29
48 56 30
47 55 31
46 53 27
46 53 29
44 51 26
44 51 26
44 49 25
41 45 22
40 45 23
43 48 24
40 44 22
40 45 21
38 42 21
40 43 20
40 43 19
37 39 18
39 42 20
37 38 17
34 37 18
35 36 16
35 35 16
37 38 17
35 33 12
34 33 13
34 32 9
31 29 8
32 30 9
33 31 10
32 30 8
32 29 8
33 53 82
33 53 84
32 52 78
32 51 76
35 57 86
34 55 86
37 58 85
36 58 93
38 60 101
37 59 95
34 56 89
37 59 96
36 58 92
37 59 94
39 62 101
35 57 92
40 64 102
39 63 103
40 64 103
41 66 110
42 67 107
41 66 103
42 67 109
43 69 114
44 70 116
44 70 115
46 74 121
46 73 119
45 72 117
46 73 114
48 76 131
48 76 126
48 76 126
167 182 202
169 184 204
169 184 204
169 184 204
168 184 204
168 183 204
168 183 204
167 183 204
167 183 204
167 183 204
166 183 204
166 182 204
166 182 204
165 182 204
165 182 204
165 182 204
164 181 204
164 181 204
164 181 204
163 181 204
163 181 204
163 181 204
162 180 204
162 180 204
162 180 204
162 180 204
161 180 204
161 180 204
161 179 204
160 179 204
160 179 204
160 179 204
159 179 204
159 179 204
159 178 204
158 178 204
158 178 204
158 178 204
158 178 204
157 178 204
157 177 204
157 177 204
157 177 204
156 177 204
156 177 204
156 177 204
156 177 204
156 177 204
155 177 204
155 176 204
155 176 204
155 176 204
155 176 204
155 176 204
155 176 204
155 176 204
154 176 204
154 176 204
154 176 204
154 176 204
154 176 204
155 176 204
155 176 204
155 176 204
155 176 204
155 176 204
155 176 204
155 176 204
155 177 204
156 177 204
156 177 204
156 177 204
157 177 204
157 177 204
157 177 204
158 178 204
158 178 204
158 178 204
159 178 204
159 179 204
160 179 204
161 179 204
161 180 204
162 180 204
162 180 204
163 181 204
164 181 204
165 182 204
165 182 204
166 182 204
167 183 204
168 183 204
169 184 204
170 184 204
171 185 204
172 185 204
173 186 204
174 186 204
175 187 204
176 188 204
176 188 204
177 189 204
178 189 204
101 120 147
54 85 117
55 87 115
55 86 117
55 88 117
56 89 123
56 88 125
57 91 118
57 91 123
58 91 127
57 90 123
57 91 128
56 89 118
58 92 129
60 95 137
59 93 130
58 92 130
58 92 125
57 91 122
58 91 128
58 92 117
58 92 133
58 92 125
58 91 118
59 93 121
59 92 129
57 91 114
60 94 133
58 92 123
58 92 124
61 95 134
59 93 129
58 92 118
60 94 125
58 92 129
58 91 122
58 93 117
59 93 124
60 94 129
60 94 131
58 91 126
61 96 135
59 93 124
59 94 128
58 92 126
59 94 133
59 93 135
58 92 129
60 94 131
59 93 135
57 91 120
59 94 129
58 92 121
58 92 133
59 93 126
58 92 128
60 94 129
61 96 131
60 94 135
58 91 120
59 92 130
60 95 133
60 93 133
59 93 128
58 91 117
58 92 124
59 92 128
60 95 130
59 93 135
61 95 135
58 92 134
59 92 131
59 93 131
56 90 117
60 94 134
60 94 129
60 95 142
59 93 134
59 93 126
60 94 133
59 93 133
57 91 122
58 91 128
59 93 130
59 93 129
60 93 131
58 92 126
57 91 120
58 92 120
58 91 124
58 92 128
59 93 133
59 93 121
60 94 134
57 90 111
60 94 126
59 93 130
58 92 122
57 91 117
60 92 126
58 92 120
58 91 130
58 91 121
59 94 128
58 91 134
58 90 113
59 93 124
59 93 137
59 93 137
58 90 125
57 90 116
59 91 124
58 92 129
58 92 125
57 90 120
57 90 125
56 88 113
58 91 137
58 90 128
58 90 127
56 87 119
58 90 124
55 85 109
55 85 116
55 85 116
55 84 113
57 86 120
87 94 105
179 142 51
177 141 51
177 141 51
176 141 51
175 140 51
174 140 51
173 139 51
172 139 51
171 138 51
170 138 51
169 138 51
168 137 51
167 137 51
166 137 51
165 136 51
165 136 51
164 136 51
163 135 51
162 135 51
162 135 51
161 135 51
160 134 51
160 134 51
159 134 51
159 134 51
158 134 51
158 133 51
158 133 51
157 133 51
157 133 51
156 133 51
156 133 51
156 132 51
156 132 51
155 132 51
155 132 51
155 132 51
155 132 51
155 132 51
155 132 51
155 132 51
155 132 51
154 132 51
154 132 51
154 132 51
154 132 51
155 132 51
155 132 51
155 132 51
155 132 51
155 132 51
155 132 51
155 132 51
155 132 51
155 132 51
156 132 51
156 132 51
156 133 51
156 133 51
156 133 51
157 133 51
157 133 51
157 133 51
157 133 51
158 133 51
158 133 51
158 133 51
159 134 51
159 134 51
159 134 51
159 134 51
160 134 51
160 134 51
160 134 51
161 134 51
161 134 51
161 135 51
161 135 51
162 135 51
162 135 51
162 135 51
163 135 51
163 135 51
163 136 51
164 136 51
164 136 51
164 136 51
165 136 51
165 136 51
165 136 51
166 136 51
166 137 51
166 137 51
167 137 51
167 137 51
167 137 51
168 137 51
168 137 51
168 138 51
169 138 51
169 138 51
169 138 51
168 137 50
49 58 31
49 57 33
47 55 30
46 54 27
46 54 29
46 53 27
45 52 28
43 50 25
44 51 26
45 51 27
41 46 23
43 49 26
41 46 23
41 46 23
43 48 25
37 40 19
38 41 20
39 43 21
37 39 19
37 40 20
35 36 15
36 35 15
34 34 14
37 37 15
33 32 12
32 32 13
33 31 10
34 32 11
34 34 14
33 30 8
34 32 11
33 31 10
34 31 9
34 54 83
34 54 86
34 54 85
33 52 82
32 52 81
33 53 78
35 56 90
33 54 87
36 57 91
34 54 86
34 55 95
38 61 102
36 57 89
38 60 99
39 62 99
37 59 100
40 64 106
41 67 115
38 61 101
40 64 107
42 68 109
40 65 109
42 67 113
43 68 112
45 71 122
43 69 115
45 72 119
46 73 123
46 74 122
48 75 122
48 76 129
47 75 125
49 78 131
147 163 188
169 184 204
168 184 204
168 183 204
168 183 204
167 183 204
167 183 204
167 183 204
166 182 204
166 182 204
166 182 204
165 182 204
165 182 204
165 182 204
164 181 204
164 181 204
164 181 204
163 181 204
163 181 204
163 180 204
162 180 204
162 180 204
161 180 204
161 180 204
161 179 204
160 179 204
160 179 204
160 179 204
159 179 204
159 179 204
159 178 204
158 178 204
158 178 204
158 178 204
157 178 204
157 178 204
157 177 204
157 177 204
156 177 204
156 177 204
156 177 204
155 177 204
155 176 204
155 176 204
155 176 204
154 176 204
154 176 204
154 176 204
154 176 204
154 176 204
154 176 204
153 176 204
153 175 204
153 175 204
153 175 204
153 175 204
153 175 204
153 175 204
153 175 204
153 175 204
153 175 204
153 175 204
153 175 204
153 175 204
153 176 204
153 176 204
154 176 204
154 176 204
154 176 204
154 176 204
155 176 204
155 176 204
155 176 204
156 177 204
156 177 204
156 177 204
157 177 204
157 178 204
158 178 204
158 178 204
159 179 204
160 179 204
160 179 204
161 180 204
162 180 204
163 180 204
163 181 204
164 181 204
165 182 204
166 182 204
167 183 204
168 183 204
169 184 204
170 184 204
171 185 204
172 185 204
173 186 204
174 187 204
175 187 204
176 188 204
177 188 204
178 189 204
179 190 204
106 124 135
54 85 115
52 83 110
54 86 112
57 90 132
56 89 117
56 88 124
57 90 128
58 91 125
55 88 122
57 90 123
59 92 128
58 91 124
56 89 124
57 90 114
57 90 116
56 89 127
56 90 126
59 93 130
58 91 124
59 94 131
59 93 125
59 94 126
59 93 132
57 90 131
59 93 126
56 89 117
59 92 129
58 92 114
58 92 124
60 94 134
60 94 132
59 93 128
60 95 135
60 95 136
59 94 132
59 93 128
58 91 115
59 92 126
58 92 127
57 91 120
57 90 115
59 93 130
58 91 124
60 94 126
60 95 137
59 93 131
58 91 114
60 94 126
59 93 122
59 93 135
57 90 120
59 93 122
58 92 133
58 92 122
60 94 135
59 92 122
59 93 135
58 92 121
60 94 131
59 92 124
59 94 128
58 92 121
58 91 115
59 93 125
57 91 122
59 93 131
58 92 115
58 92 128
60 95 136
59 94 134
58 92 117
60 94 139
58 92 126
58 91 114
58 91 126
57 90 121
60 94 130
58 92 121
58 91 122
59 93 125
59 93 128
59 93 126
59 93 126
59 93 128
59 93 129
60 94 129
57 90 121
59 92 129
59 92 122
59 92 125
57 91 120
58 92 126
60 94 131
59 93 133
59 93 125
58 91 125
59 92 117
60 93 118
57 91 118
59 92 124
61 95 134
56 89 114
57 89 113
60 93 137
59 92 133
59 92 133
58 90 129
57 90 118
58 91 128
59 93 131
58 91 117
60 94 137
60 93 129
60 94 133
58 90 125
59 92 128
59 92 123
55 86 117
56 87 114
59 92 133
56 86 121
59 90 121
57 89 122
56 87 121
54 82 103
54 83 109
110 104 77
179 142 51
178 142 51
177 141 51
176 141 51
175 140 51
174 140 51
173 139 51
172 139 51
171 138 51
170 138 51
169 138 51
168 137 51
167 137 51
166 137 51
165 136 51
164 136 51
163 135 51
162 135 51
162 135 51
161 135 51
160 134 51
160 134 51
159 134 51
158 133 51
158 133 51
157 133 51
157 133 51
156 133 51
156 133 51
156 132 51
155 132 51
155 132 51
154 132 51
154 132 51
154 132 51
154 132 51
154 132 51
153 132 51
153 131 51
153 131 51
153 131 51
153 131 51
153 131 51
153 131 51
153 131 51
153 131 51
153 131 51
153 131 51
153 131 51
153 131 51
153 131 51
154 132 51
154 132 51
154 132 51
154 132 51
154 132 51
154 132 51
154 132 51
155 132 51
155 132 51
155 132 51
155 132 51
156 132 51
156 133 51
156 133 51
157 133 51
157 133 51
157 133 51
157 133 51
158 133 51
158 133 51
158 134 51
159 134 51
159 134 51
159 134 51
160 134 51
160 134 51
161 134 51
161 134 51
161 135 51
161 135 51
162 135 51
162 135 51
163 135 51
163 135 51
163 135 51
164 136 51
164 136 51
164 136 51
165 136 51
165 136 51
165 136 51
166 136 51
166 137 51
166 137 51
167 137 51
167 137 51
167 137 51
168 137 51
168 137 51
168 138 51
169 138 51
153 126 48
49 58 32
48 57 30
47 56 31
46 53 29
45 53 29
45 52 27
44 51 27
45 52 28
43 49 26
42 47 23
41 46 22
41 46 23
41 45 23
39 43 21
37 40 18
41 46 23
39 42 19
38 42 19
36 38 18
37 39 18
37 37 16
37 39 18
36 36 15
35 34 13
37 38 17
32 30 10
34 34 14
34 33 14
34 33 11
33 30 8
34 32 10
32 31 13
35 33 11
33 52 82
34 55 83
32 52 86
31 51 79
34 54 85
36 58 93
36 57 90
34 55 86
33 53 85
38 61 97
36 58 96
36 59 94
37 59 94
38 61 98
37 59 96
36 58 88
38 61 100
39 63 105
38 61 95
40 64 105
43 68 113
40 65 104
43 69 113
42 67 112
44 71 119
44 70 117
45 71 111
44 70 119
46 74 115
47 74 124
48 76 127
48 76 124
49 79 134
140 156 184
168 184 204
168 183 204
168 183 204
167 183 204
167 183 204
166 183 204
166 182 204
166 182 204
165 182 204
165 182 204
165 182 204
164 181 204
164 181 204
164 181 204
163 181 204
163 181 204
162 180 204
162 180 204
162 180 204
161 180 204
161 180 204
161 179 204
160 179 204
160 179 204
159 179 204
159 179 204
159 178 204
158 178 204
158 178 204
158 178 204
157 178 204
157 177 204
157 177 204
156 177 204
156 177 204
156 177 204
155 177 204
155 176 204
155 176 204
154 176 204
154 176 204
154 176 204
154 176 204
153 175 204
153 175 204
153 175 204
153 175 204
153 175 204
152 175 204
152 175 204
152 175 204
152 175 204
152 175 204
152 175 204
152 175 204
151 175 204
151 175 204
151 175 204
152 175 204
151 175 204
152 175 204
152 175 204
152 175 204
152 175 204
152 175 204
152 175 204
152 175 204
153 175 204
153 175 204
153 175 204
154 176 204
154 176 204
154 176 204
155 176 204
155 177 204
156 177 204
156 177 204
157 177 204
158 178 204
158 178 204
159 178 204
160 179 204
160 179 204
161 180 204
162 180 204
163 181 204
164 181 204
165 182 204
166 182 204
167 183 204
168 183 204
169 184 204
170 184 204
171 185 204
172 185 204
173 186 204
174 187 204
175 187 204
176 188 204
177 189 204
179 189 204
166 179 161
114 134 72
51 81 112
53 84 119
55 87 118
55 87 121
55 86 112
57 90 121
56 89 126
56 88 114
55 88 112
56 89 112
59 92 131
56 90 127
56 89 118
58 92 124
58 92 126
59 92 131
55 88 110
58 91 120
59 93 136
56 88 112
59 93 125
60 94 134
59 93 122
59 93 130
59 93 134
58 92 124
59 93 122
59 93 125
60 94 129
58 91 121
59 92 128
57 91 114
59 93 128
60 94 139
60 94 133
58 90 117
58 92 128
59 93 125
60 94 125
59 93 126
61 96 145
59 93 125
60 94 130
58 92 117
59 93 129
59 93 126
59 93 122
58 92 128
59 93 130
58 92 128
59 92 121
59 93 129
58 92 120
58 92 122
57 90 121
60 94 129
60 94 136
60 95 135
60 94 128
59 93 129
59 93 131
59 93 129
59 94 134
57 91 113
59 93 139
59 92 122
59 93 126
59 93 128
60 94 131
58 91 115
59 93 130
59 93 124
59 93 134
58 92 125
61 95 140
60 95 142
60 94 134
56 88 113
58 92 120
58 92 117
58 91 129
58 92 125
59 93 131
59 92 118
58 92 117
58 91 121
59 92 129
59 93 137
59 93 125
60 94 128
58 91 120
59 93 124
59 92 131
58 92 131
59 93 135
58 91 118
58 92 121
58 92 124
58 91 120
58 91 128
59 92 124
58 91 125
58 90 117
58 92 115
58 91 126
58 92 118
58 91 118
59 93 129
58 91 125
57 91 122
59 92 121
58 91 124
55 85 108
57 90 113
57 89 125
57 90 122
58 90 122
58 91 134
58 90 127
55 87 118
58 89 117
56 87 113
55 85 99
54 84 107
54 83 104
53 80 106
107 102 68
170 136 43
179 142 51
177 141 51
176 141 51
175 140 51
174 140 51
173 139 51
172 139 51
171 139 51
170 138 51
169 138 51
168 137 51
167 137 51
166 136 51
165 136 51
164 136 51
163 135 51
162 135 51
161 135 51
160 134 51
160 134 51
159 134 51
158 133 51
158 133 51
157 133 51
156 133 51
156 133 51
155 132 51
155 132 51
154 132 51
154 132 51
154 132 51
153 131 51
153 131 51
153 131 51
153 131 51
152 131 51
152 131 51
152 131 51
152 131 51
152 131 51
152 131 51
152 131 51
151 131 51
151 131 51
152 131 51
152 131 51
152 131 51
152 131 51
152 131 51
152 131 51
152 131 51
152 131 51
152 131 51
153 131 51
153 131 51
153 131 51
153 131 51
153 132 51
154 132 51
154 132 51
154 132 51
154 132 51
155 132 51
155 132 51
155 132 51
156 132 51
156 133 51
156 133 51
157 133 51
157 133 51
157 133 51
158 133 51
158 133 51
158 133 51
159 134 51
159 134 51
159 134 51
160 134 51
160 134 51
161 134 51
161 135 51
161 135 51
162 135 51
162 135 51
162 135 51
163 135 51
163 135 51
164 136 51
164 136 51
164 136 51
165 136 51
165 136 51
165 136 51
166 136 51
166 137 51
167 137 51
167 137 51
167 137 51
168 137 51
168 137 51
168 138 51
135 113 44
49 59 34
47 56 31
48 56 31
46 54 30
45 52 29
46 53 30
45 51 27
44 50 26
41 46 23
43 50 27
44 50 26
42 48 24
41 46 22
42 46 23
38 41 19
40 44 22
39 41 20
38 41 21
38 40 18
40 43 21
39 40 19
36 37 16
36 36 16
35 36 15
35 35 14
35 35 15
32 31 12
35 34 15
33 31 11
33 30 8
33 32 11
34 34 15
33 32 11
36 57 91
33 54 88
32 51 81
34 54 80
35 56 90
33 54 89
35 57 92
36 57 99
34 56 90
35 56 87
36 57 94
34 56 88
36 57 92
39 63 107
38 61 102
38 61 103
39 62 104
40 64 106
41 65 110
41 66 109
41 66 106
42 67 109
43 69 118
43 68 110
43 69 117
44 71 120
45 72 117
45 72 126
46 73 123
47 74 126
47 74 125
47 76 131
48 77 129
103 122 160
168 183 204
167 183 204
167 183 204
167 183 204
166 183 204
166 182 204
166 182 204
165 182 204
165 182 204
164 181 204
164 181 204
164 181 204
163 181 204
163 181 204
162 180 204
162 180 204
162 180 204
161 180 204
161 180 204
160 179 204
160 179 204
160 179 204
159 179 204
159 178 204
159 178 204
158 178 204
158 178 204
157 178 204
157 177 204
157 177 204
156 177 204
156 177 204
155 177 204
155 176 204
155 176 204
154 176 204
154 176 204
154 176 204
154 176 204
153 175 204
153 175 204
153 175 204
152 175 204
152 175 204
152 175 204
152 175 204
151 175 204
151 174 204
151 174 204
151 174 204
151 174 204
151 174 204
150 174 204
150 174 204
150 174 204
150 174 204
150 174 204
150 174 204
150 174 204
150 174 204
150 174 204
150 174 204
151 174 204
151 174 204
151 174 204
151 174 204
151 174 204
152 175 204
152 175 204
152 175 204
153 175 204
153 175 204
153 176 204
154 176 204
154 176 204
155 176 204
156 177 204
156 177 204
157 177 204
158 178 204
158 178 204
159 179 204
160 179 204
161 179 204
162 180 204
163 180 204
163 181 204
165 181 204
166 182 204
167 183 204
168 183 204
169 184 204
170 184 204
171 185 204
172 186 204
173 186 204
174 187 204
176 188 204
177 188 204
178 189 204
179 189 203
144 162 67
119 139 53
54 85 112
55 87 123
56 89 119
56 89 114
55 88 116
54 86 114
56 88 118
57 90 129
58 91 120
59 93 130
56 89 107
58 91 124
59 92 131
57 90 122
59 93 129
58 91 116
57 90 123
57 91 130
59 93 127
58 92 129
60 94 131
58 92 126
58 91 118
57 90 118
58 92 120
58 92 130
57 91 114
57 91 126
59 93 131
56 88 115
59 94 129
57 90 120
58 91 124
59 93 118
60 94 124
59 94 128
60 93 135
58 92 121
59 93 124
59 93 124
59 92 118
58 92 122
59 92 126
61 95 137
59 92 122
59 94 130
58 93 125
59 94 128
57 91 117
59 94 136
58 92 135
59 93 137
58 92 126
60 93 133
59 92 125
60 95 136
58 92 120
59 93 122
59 92 121
58 92 130
59 93 125
59 93 131
59 93 126
59 93 133
59 92 134
60 95 133
58 91 113
60 94 134
58 92 124
60 94 128
59 94 136
58 92 128
58 91 118
59 93 129
61 95 135
58 91 120
58 92 115
58 92 126
59 93 131
59 93 130
59 93 124
58 92 121
58 92 120
59 94 129
59 93 125
60 94 133
60 94 129
60 93 125
58 91 118
58 92 126
59 93 133
57 91 125
59 93 133
60 93 136
58 92 120
60 94 133
58 91 113
58 91 114
57 89 114
58 92 118
59 93 125
57 90 111
58 91 118
58 91 115
57 88 120
59 93 134
57 90 121
59 93 129
59 93 126
59 93 129
57 90 122
57 89 117
57 88 110
57 89 118
58 92 130
59 92 129
56 87 121
56 88 121
58 89 121
57 88 125
56 88 115
56 87 111
55 84 108
52 79 99
52 79 105
53 80 104
130 114 36
143 121 16
177 141 49
178 142 51
177 141 51
176 141 51
175 140 51
173 140 51
172 139 51
171 139 51
170 138 51
169 138 51
168 137 51
167 137 51
166 136 51
164 136 51
163 136 51
163 135 51
162 135 51
161 134 51
160 134 51
159 134 51
158 133 51
158 133 51
157 133 51
156 133 51
156 132 51
155 132 51
154 132 51
154 132 51
153 132 51
153 131 51
153 131 51
152 131 51
152 131 51
152 131 51
151 131 51
151 131 51
151 131 51
151 130 51
150 130 51
150 130 51
150 130 51
150 130 51
150 130 51
150 130 51
150 130 51
150 130 51
150 130 51
150 130 51
150 130 51
151 130 51
151 130 51
151 131 51
151 131 51
151 131 51
151 131 51
152 131 51
152 131 51
152 131 51
152 131 51
153 131 51
153 131 51
153 131 51
153 132 51
154 132 51
154 132 51
155 132 51
155 132 51
155 132 51
156 132 51
156 133 51
156 133 51
157 133 51
157 133 51
157 133 51
158 133 51
158 133 51
158 134 51
159 134 51
159 134 51
160 134 51
160 134 51
160 134 51
161 135 51
161 135 51
162 135 51
162 135 51
163 135 51
163 135 51
163 135 51
164 136 51
164 136 51
164 136 51
165 136 51
165 136 51
166 136 51
166 137 51
166 137 51
167 137 51
167 137 51
168 137 51
168 137 51
116 100 41
49 58 32
48 57 32
48 56 32
46 54 28
47 55 31
44 51 26
46 53 29
46 53 30
43 50 27
44 51 28
44 50 28
42 47 25
42 47 24
42 46 24
38 41 20
38 41 20
39 42 21
39 41 20
37 40 18
36 38 17
38 39 19
37 39 18
36 37 16
36 36 15
35 35 15
36 38 18
34 34 14
35 35 16
35 35 15
35 33 11
34 33 14
35 35 14
33 31 10
33 53 85
34 54 86
35 57 91
34 54 88
32 51 82
33 53 78
35 56 90
31 50 72
36 58 95
34 55 91
34 55 89
36 57 97
38 61 102
34 56 89
37 60 98
39 62 104
38 62 102
38 61 97
37 60 101
39 63 107
40 65 107
43 68 114
43 68 114
43 69 117
45 71 122
45 71 121
44 70 117
46 72 120
45 72 121
47 75 126
46 74 123
49 78 135
49 78 132
97 117 159
168 183 204
167 183 204
167 183 204
166 182 204
166 182 204
166 182 204
165 182 204
165 182 204
164 181 204
164 181 204
164 181 204
163 181 204
163 180 204
162 180 204
162 180 204
161 180 204
161 180 204
161 179 204
160 179 204
160 179 204
159 179 204
159 178 204
159 178 204
158 178 204
158 178 204
157 178 204
157 177 204
156 177 204
156 177 204
156 177 204
155 177 204
155 176 204
154 176 204
154 176 204
154 176 204
153 176 204
153 175 204
153 175 204
152 175 204
152 175 204
152 175 204
151 175 204
151 174 204
151 174 204
151 174 204
150 174 204
150 174 204
150 174 204
150 174 204
150 174 204
149 173 204
149 173 204
149 173 204
149 173 204
149 173 204
149 173 204
149 173 204
149 173 204
149 173 204
149 173 204
149 173 204
149 173 204
149 173 204
150 174 204
150 174 204
150 174 204
150 174 204
151 174 204
151 174 204
151 174 204
152 175 204
152 175 204
153 175 204
153 175 204
154 176 204
154 176 204
155 176 204
156 177 204
156 177 204
157 177 204
158 178 204
159 178 204
160 179 204
160 179 204
161 180 204
162 180 204
163 181 204
164 181 204
166 182 204
167 183 204
168 183 204
169 184 204
170 185 204
171 185 204
173 186 204
174 187 204
175 187 204
176 188 204
177 189 204
179 189 204
161 175 146
139 158 0
137 156 0
64 92 110
54 86 113
55 86 122
52 83 98
55 87 120
55 87 111
56 89 118
56 88 114
57 90 120
58 93 127
56 90 118
56 88 104
58 92 130
57 90 122
56 89 110
57 90 111
56 88 123
57 91 119
58 92 123
59 94 129
56 89 123
58 91 123
58 92 116
57 91 131
58 92 121
60 93 129
58 92 131
58 92 117
58 92 122
58 93 128
58 91 126
59 93 133
57 90 110
59 94 130
58 92 128
60 94 135
57 90 121
60 94 131
58 92 128
58 91 121
59 94 130
59 92 122
58 92 117
60 94 130
60 94 130
59 93 125
59 94 130
58 92 124
60 95 140
60 95 139
59 94 133
57 91 117
59 93 134
58 91 128
59 93 126
59 93 124
57 91 113
58 91 124
60 94 131
58 91 134
60 95 137
59 93 126
58 92 117
59 93 121
59 93 122
59 93 131
59 92 124
58 91 125
58 92 118
59 93 128
59 94 130
60 94 131
59 93 128
59 93 128
61 96 135
59 92 121
59 94 125
58 92 124
61 95 129
59 93 129
59 92 131
59 92 129
59 93 126
59 93 124
60 94 126
58 91 129
57 90 113
58 92 129
59 93 131
60 94 131
58 91 117
58 92 124
58 91 121
59 93 126
59 92 128
58 92 120
58 92 124
59 93 126
57 89 118
59 93 135
58 91 121
59 93 128
57 90 118
59 93 134
58 91 124
59 92 121
58 91 124
57 89 122
57 89 124
58 90 118
57 89 107
58 91 122
56 88 125
58 89 124
55 86 104
56 88 118
57 89 117
58 90 120
56 88 113
54 85 114
54 84 107
57 89 120
55 85 113
56 87 116
51 79 96
58 85 106
137 116 18
140 119 0
161 131 35
179 142 51
178 141 51
176 141 51
175 140 51
174 140 51
173 139 51
171 139 51
170 138 51
169 138 51
168 137 51
167 137 51
166 136 51
164 136 51
163 136 51
162 135 51
161 135 51
160 134 51
160 134 51
159 134 51
158 133 51
157 133 51
156 133 51
156 132 51
155 132 51
154 132 51
154 132 51
153 131 51
153 131 51
152 131 51
152 131 51
151 131 51
151 131 51
151 130 51
150 130 51
150 130 51
150 130 51
150 130 51
149 130 51
149 130 51
149 130 51
149 130 51
149 130 51
149 130 51
149 130 51
149 130 51
149 130 51
149 130 51
149 130 51
149 130 51
149 130 51
150 130 51
150 130 51
150 130 51
150 130 51
150 130 51
151 130 51
151 131 51
151 131 51
151 131 51
152 131 51
152 131 51
152 131 51
153 131 51
153 131 51
153 132 51
154 132 51
154 132 51
154 132 51
155 132 51
155 132 51
156 132 51
156 133 51
156 133 51
157 133 51
157 133 51
158 133 51
158 133 51
158 134 51
159 134 51
159 134 51
160 134 51
160 134 51
161 134 51
161 135 51
161 135 51
162 135 51
162 135 51
163 135 51
163 135 51
164 136 51
164 136 51
164 136 51
165 136 51
165 136 51
166 136 51
166 137 51
166 137 51
167 137 51
167 137 51
168 137 51
89 82 38
49 58 33
49 57 33
49 57 32
47 55 32
47 54 29
45 53 29
45 52 29
45 51 28
42 47 25
43 48 25
41 45 23
42 46 23
41 45 23
42 47 24
39 42 22
39 43 22
37 40 20
39 42 21
37 39 19
37 39 19
37 38 18
37 38 16
37 37 16
35 34 12
37 37 15
36 36 16
35 34 14
36 36 14
34 34 15
35 35 15
34 33 13
36 35 13
35 35 14
35 56 90
35 56 88
33 54 86
33 54 83
35 57 89
32 53 85
32 52 85
35 56 87
35 56 92
36 58 99
37 59 91
35 56 89
35 57 93
38 62 104
36 58 96
39 63 105
38 62 102
36 58 95
38 61 100
42 66 108
42 68 119
42 67 114
42 67 111
43 68 117
44 70 121
44 70 120
45 72 120
45 71 118
45 72 119
47 75 125
48 76 134
47 76 130
49 78 134
51 79 134
165 181 203
167 183 204
166 183 204
166 182 204
166 182 204
165 182 204
165 182 204
164 181 204
164 181 204
163 181 204
163 181 204
163 180 204
162 180 204
162 180 204
161 180 204
161 179 204
160 179 204
160 179 204
159 179 204
159 179 204
159 178 204
158 178 204
158 178 204
157 178 204
157 177 204
156 177 204
156 177 204
156 177 204
155 176 204
155 176 204
154 176 204
154 176 204
154 176 204
153 175 204
153 175 204
152 175 204
152 175 204
152 175 204
151 174 204
151 174 204
151 174 204
150 174 204
150 174 204
150 174 204
150 174 204
149 173 204
149 173 204
149 173 204
149 173 204
148 173 204
148 173 204
148 173 204
148 173 204
148 173 204
148 173 204
148 173 204
148 173 204
148 173 204
148 173 204
148 173 204
148 173 204
148 173 204
148 173 204
149 173 204
149 173 204
149 173 204
149 173 204
150 174 204
150 174 204
150 174 204
151 174 204
151 174 204
152 175 204
153 175 204
153 175 204
154 176 204
154 176 204
155 176 204
156 177 204
157 177 204
158 178 204
158 178 204
159 179 204
160 179 204
161 180 204
162 180 204
163 181 204
165 182 204
166 182 204
167 183 204
168 183 204
169 184 204
170 185 204
172 185 204
173 186 204
174 187 204
176 188 204
177 188 204
178 189 204
172 183 182
140 159 20
139 157 0
135 154 0
83 106 101
52 82 114
53 84 117
56 89 118
56 89 117
57 89 119
57 91 132
56 89 116
57 91 122
56 89 119
60 93 138
56 88 113
57 90 122
59 92 120
54 87 115
57 91 126
57 91 115
57 91 119
57 90 113
58 92 128
58 92 119
58 91 127
57 90 121
59 93 124
57 91 119
58 92 124
58 92 128
59 93 130
59 93 133
58 92 123
58 91 121
57 90 115
58 92 127
58 92 117
58 91 111
59 93 126
59 93 130
60 95 136
58 91 124
58 92 127
58 92 115
59 93 128
59 93 133
58 92 124
58 92 115
57 90 121
59 94 128
57 91 118
57 91 121
59 93 126
60 94 133
59 92 133
58 92 122
60 95 135
58 92 128
60 94 135
59 93 133
59 92 120
60 95 128
59 94 130
58 92 125
59 93 130
59 93 131
58 91 117
57 90 120
58 92 118
58 92 130
59 93 128
57 91 122
58 92 121
59 93 128
60 94 131
60 94 134
60 94 134
59 92 133
58 92 122
58 92 124
61 96 143
59 93 130
59 93 122
59 93 125
58 92 117
60 94 126
59 94 129
61 96 143
60 94 131
59 93 133
57 90 114
60 94 137
58 91 118
59 92 117
60 94 133
58 91 125
57 90 121
58 91 118
59 93 128
57 89 122
59 92 125
59 93 130
58 91 124
58 91 117
58 91 120
57 90 124
55 87 111
57 89 121
56 87 120
59 92 124
58 91 130
57 90 113
56 88 108
57 89 114
58 90 129
57 88 122
54 83 105
58 90 128
54 85 111
55 86 114
56 87 114
56 87 116
55 86 113
53 83 101
57 89 120
54 83 107
56 86 109
55 85 112
90 92 70
137 116 0
140 118 0
139 118 5
172 137 45
178 142 51
177 141 51
176 141 51
174 140 51
173 140 51
172 139 51
171 138 51
169 138 51
168 137 51
167 137 51
166 136 51
165 136 51
163 136 51
162 135 51
161 135 51
160 134 51
159 134 51
158 134 51
158 133 51
157 133 51
156 133 51
155 132 51
154 132 51
154 132 51
153 131 51
152 131 51
152 131 51
151 131 51
151 131 51
150 130 51
150 130 51
150 130 51
149 130 51
149 130 51
149 130 51
149 130 51
148 130 51
148 130 51
148 129 51
148 129 51
148 129 51
148 129 51
148 129 51
148 129 51
148 129 51
148 129 51
148 129 51
148 129 51
148 130 51
148 130 51
149 130 51
149 130 51
149 130 51
149 130 51
150 130 51
150 130 51
150 130 51
150 130 51
151 130 51
151 131 51
151 131 51
152 131 51
152 131 51
152 131 51
153 131 51
153 131 51
154 132 51
154 132 51
154 132 51
155 132 51
155 132 51
156 132 51
156 133 51
156 133 51
157 133 51
157 133 51
158 133 51
158 133 51
159 134 51
159 134 51
160 134 51
160 134 51
160 134 51
161 134 51
161 135 51
162 135 51
162 135 51
163 135 51
163 135 51
163 136 51
164 136 51
164 136 51
165 136 51
165 136 51
166 136 51
166 137 51
166 137 51
167 137 51
164 135 50
49 58 33
49 58 33
49 58 33
46 54 30
46 54 30
45 53 29
45 51 29
45 52 29
45 52 28
44 50 27
43 49 27
44 50 28
41 45 25
42 46 24
41 45 23
40 44 23
42 46 24
39 43 22
37 40 19
38 39 19
38 40 19
36 36 15
36 37 17
34 33 14
35 35 15
36 36 16
32 31 12
35 34 14
34 34 13
34 32 11
34 34 14
33 32 12
34 33 13
34 34 13
35 56 88
37 60 99
35 57 90
35 56 89
34 55 89
34 55 86
36 59 95
35 56 93
35 55 95
37 59 96
37 59 99
37 60 101
37 60 100
36 58 94
37 60 98
39 63 104
40 64 106
40 64 112
40 64 107
40 65 107
42 67 110
41 66 111
42 68 112
44 70 116
44 71 119
44 70 120
46 74 125
45 72 121
45 72 123
46 74 126
47 75 130
47 76 130
48 77 129
49 78 138
145 161 189
167 183 204
166 182 204
166 182 204
165 182 204
165 182 204
164 181 204
164 181 204
163 181 204
163 181 204
163 180 204
162 180 204
162 180 204
161 180 204
161 179 204
160 179 204
160 179 204
159 179 204
159 178 204
158 178 204
158 178 204
157 178 204
157 177 204
157 177 204
156 177 204
156 177 204
155 177 204
155 176 204
154 176 204
154 176 204
154 176 204
153 175 204
153 175 204
152 175 204
152 175 204
152 175 204
151 174 204
151 174 204
150 174 204
150 174 204
150 174 204
149 173 204
149 173 204
149 173 204
149 173 204
148 173 204
148 173 204
148 173 204
148 173 204
148 172 204
147 172 204
147 172 204
147 172 204
147 172 204
147 172 204
147 172 204
147 172 204
147 172 204
147 172 204
147 172 204
147 172 204
147 172 204
148 172 204
148 173 204
148 173 204
148 173 204
149 173 204
149 173 204
149 173 204
150 174 204
150 174 204
151 174 204
151 175 204
152 175 204
153 175 204
153 176 204
154 176 204
155 176 204
156 177 204
157 177 204
157 178 204
158 178 204
159 179 204
160 179 204
161 180 204
163 180 204
164 181 204
165 182 204
166 182 204
167 183 204
168 184 204
170 184 204
171 185 204
172 186 204
174 187 204
175 187 204
176 188 204
178 189 204
179 190 204
148 165 89
139 158 0
137 156 0
133 150 0
107 125 69
53 83 113
53 85 105
55 87 116
56 88 110
57 89 135
55 87 110
54 86 106
55 87 108
55 88 114
56 88 118
57 90 119
56 89 110
57 91 123
58 92 130
57 90 129
58 92 127
56 89 116
58 92 123
57 90 117
57 90 114
58 92 122
58 91 122
58 92 126
59 93 125
58 91 122
58 91 124
58 92 126
58 92 124
59 92 122
57 91 125
60 95 138
59 93 130
58 92 125
58 92 121
59 93 128
59 93 126
59 92 126
59 93 133
60 94 134
56 89 114
60 94 131
59 93 126
61 95 134
58 92 124
57 90 113
59 93 131
58 91 117
58 90 115
58 92 125
58 92 120
58 92 120
59 93 124
60 95 139
57 91 118
60 94 135
58 91 124
58 91 121
58 91 122
58 92 129
59 92 118
58 92 124
59 93 128
59 93 124
58 91 122
58 92 128
56 89 111
60 94 140
60 95 134
59 93 128
59 93 134
58 92 118
59 93 126
60 94 129
59 93 114
59 93 128
58 91 113
58 91 129
60 95 130
58 91 124
59 92 129
59 92 125
58 91 126
59 93 121
57 90 117
59 92 128
59 93 125
58 91 118
59 93 129
56 88 117
58 91 117
60 94 130
59 92 129
59 93 128
58 91 133
59 93 125
58 90 124
58 92 117
60 94 135
58 91 113
59 93 129
59 92 129
57 89 118
58 91 124
57 90 115
58 91 122
58 91 128
54 84 100
58 90 128
58 90 121
57 88 117
56 88 113
57 89 110
55 86 111
56 87 116
58 91 121
57 89 120
56 87 113
55 86 110
56 86 120
58 90 126
53 82 104
55 85 115
54 84 104
52 78 98
113 103 44
136 116 0
138 117 0
139 118 0
148 124 23
179 142 50
178 142 51
177 141 51
175 140 51
174 140 51
172 139 51
171 139 51
170 138 51
169 138 51
167 137 51
166 137 51
165 136 51
164 136 51
163 135 51
161 135 51
160 134 51
159 134 51
158 134 51
157 133 51
157 133 51
156 132 51
155 132 51
154 132 51
153 131 51
153 131 51
152 131 51
151 131 51
151 131 51
150 130 51
150 130 51
149 130 51
149 130 51
149 130 51
148 130 51
148 129 51
148 129 51
148 129 51
147 129 51
147 129 51
147 129 51
147 129 51
147 129 51
147 129 51
147 129 51
147 129 51
147 129 51
147 129 51
147 129 51
147 129 51
147 129 51
148 129 51
148 129 51
148 129 51
148 130 51
149 130 51
149 130 51
149 130 51
149 130 51
150 130 51
150 130 51
150 130 51
151 130 51
151 131 51
152 131 51
152 131 51
152 131 51
153 131 51
153 131 51
154 132 51
154 132 51
154 132 51
155 132 51
155 132 51
156 132 51
156 133 51
157 133 51
157 133 51
158 133 51
158 133 51
158 134 51
159 134 51
159 134 51
160 134 51
160 134 51
161 134 51
161 135 51
162 135 51
162 135 51
163 135 51
163 135 51
164 136 51
164 136 51
164 136 51
165 136 51
165 136 51
166 136 51
166 137 51
167 137 51
148 123 47
49 58 34
48 56 32
49 57 32
48 57 33
46 55 31
46 54 29
46 53 31
45 51 28
44 51 28
44 51 28
42 48 25
42 47 25
41 46 24
41 46 24
41 45 23
40 44 23
41 44 23
39 42 21
40 43 22
38 40 19
37 39 19
39 42 22
35 35 16
34 35 16
37 38 18
36 37 17
34 34 16
35 34 13
35 35 15
35 35 15
34 34 15
35 35 14
34 34 14
37 39 18
35 56 91
37 60 101
35 57 89
34 55 86
35 57 92
34 55 87
36 58 91
34 55 88
36 58 98
35 56 90
37 60 99
37 59 102
34 55 88
36 57 94
35 57 92
40 63 107
40 64 108
39 63 108
41 66 113
42 67 112
40 64 110
42 68 116
43 69 118
41 66 114
43 70 114
44 71 122
44 70 124
43 69 120
48 76 134
46 74 129
47 76 127
47 75 128
48 76 132
49 78 135
124 141 175
166 182 204
166 182 204
165 182 204
165 182 204
165 181 204
164 181 204
164 181 204
163 181 204
163 180 204
162 180 204
162 180 204
161 180 204
161 179 204
160 179 204
160 179 204
159 179 204
159 178 204
158 178 204
158 178 204
157 178 204
157 177 204
156 177 204
156 177 204
156 177 204
155 176 204
155 176 204
154 176 204
154 176 204
153 175 204
153 175 204
152 175 204
152 175 204
152 175 204
151 174 204
151 174 204
150 174 204
150 174 204
150 174 204
149 173 204
149 173 204
149 173 204
148 173 204
148 173 204
148 173 204
147 172 204
147 172 204
147 172 204
147 172 204
147 172 204
147 172 204
146 172 204
146 172 204
146 172 204
146 172 204
146 172 204
146 172 204
146 172 204
146 172 204
146 172 204
146 172 204
147 172 204
147 172 204
147 172 204
147 172 204
148 173 204
148 173 204
148 173 204
149 173 204
149 173 204
150 174 204
150 174 204
151 174 204
152 175 204
152 175 204
153 175 204
154 176 204
155 176 204
156 177 204
156 177 204
157 178 204
158 178 204
160 179 204
161 179 204
162 180 204
163 181 204
164 181 204
165 182 204
166 183 204
168 183 204
169 184 204
170 185 204
172 186 204
173 186 204
175 187 204
176 188 204
177 189 204
179 189 204
158 173 137
138 158 0
139 157 0
137 155 0
132 147 0
102 118 58
53 84 112
54 85 106
56 89 118
54 86 110
56 89 127
56 89 117
58 91 120
55 87 111
57 91 122
57 89 123
56 89 115
56 89 118
54 85 114
57 90 124
58 92 112
55 88 113
57 90 127
59 93 123
57 90 118
58 92 119
57 90 117
59 93 132
56 89 111
58 91 123
59 93 127
58 92 121
57 91 117
59 93 128
58 92 122
58 92 117
58 92 117
57 91 111
60 94 137
60 95 128
59 93 125
58 92 115
59 93 124
57 89 120
61 95 137
59 93 130
58 92 125
58 91 117
56 89 115
60 94 121
57 90 111
57 91 118
59 93 130
58 92 128
56 90 115
59 93 125
60 94 130
58 92 121
57 91 120
58 92 122
58 91 124
60 94 129
58 92 131
60 94 131
59 93 126
58 92 125
58 92 121
59 93 118
59 93 125
57 90 117
57 91 125
58 92 120
60 94 136
56 90 108
59 93 133
59 93 120
60 94 134
59 93 128
59 93 125
60 94 133
58 92 121
58 92 124
58 91 122
58 92 121
59 94 130
58 91 120
59 93 128
58 91 126
58 91 126
59 93 129
58 91 122
57 90 122
59 93 125
59 93 129
57 90 111
59 93 124
59 92 129
57 90 115
57 90 118
57 90 125
57 90 113
57 90 114
57 90 121
59 92 126
58 91 118
58 90 122
58 92 124
58 91 129
58 91 124
59 93 124
59 92 128
57 90 118
56 88 111
56 89 125
57 89 121
57 89 120
58 91 126
56 87 111
58 91 129
58 90 124
55 86 111
56 87 118
56 87 120
53 83 110
57 88 117
56 86 116
56 85 113
55 85 108
55 84 104
53 81 109
96 86 23
130 111 0
138 117 0
138 117 0
139 118 0
155 127 30
179 142 51
177 141 51
176 141 51
175 140 51
173 140 51
172 139 51
170 138 51
169 138 51
168 137 51
167 137 51
165 136 51
164 136 51
163 135 51
162 135 51
161 134 51
160 134 51
158 134 51
157 133 51
157 133 51
156 132 51
155 132 51
154 132 51
153 131 51
152 131 51
152 131 51
151 131 51
150 130 51
150 130 51
149 130 51
149 130 51
148 130 51
148 129 51
148 129 51
147 129 51
147 129 51
147 129 51
147 129 51
146 129 51
146 129 51
146 129 51
146 129 51
146 129 51
146 129 51
146 129 51
146 129 51
146 129 51
146 129 51
146 129 51
147 129 51
147 129 51
147 129 51
147 129 51
147 129 51
148 129 51
148 129 51
148 130 51
149 130 51
149 130 51
149 130 51
150 130 51
150 130 51
150 130 51
151 130 51
151 131 51
152 131 51
152 131 51
152 131 51
153 131 51
153 131 51
154 132 51
154 132 51
155 132 51
155 132 51
156 132 51
156 133 51
156 133 51
157 133 51
157 133 51
158 133 51
158 134 51
159 134 51
159 134 51
160 134 51
160 134 51
161 134 51
161 135 51
162 135 51
162 135 51
163 135 51
163 135 51
164 136 51
164 136 51
165 136 51
165 136 51
165 136 51
166 137 51
166 137 51
112 98 41
48 57 33
49 58 32
48 56 32
47 56 32
46 54 30
47 54 30
47 55 32
44 52 29
46 52 29
43 49 26
43 50 28
42 47 26
42 47 25
41 46 25
39 44 24
39 43 22
38 42 21
39 42 21
40 44 23
38 40 19
40 43 21
36 38 18
39 40 19
35 36 17
35 36 16
35 36 17
34 34 15
37 37 17
34 33 12
35 35 13
37 37 16
35 35 13
35 34 13
38 41 21
38 61 95
38 60 98
35 57 92
37 59 97
37 59 99
36 57 92
36 58 96
35 57 96
36 58 94
37 59 99
37 60 100
38 61 102
36 58 98
38 61 100
38 61 103
37 59 99
38 61 100
40 65 110
38 62 107
41 66 115
41 65 111
43 69 116
43 68 115
42 68 115
43 69 120
44 71 121
44 71 123
47 75 129
46 73 126
45 72 128
46 74 126
48 77 135
48 76 133
49 78 136
98 118 157
166 182 204
166 182 204
165 182 204
165 182 204
164 181 204
164 181 204
163 181 204
163 181 204
162 180 204
162 180 204
161 180 204
161 180 204
160 179 204
160 179 204
159 179 204
159 178 204
158 178 204
158 178 204
157 178 204
157 177 204
156 177 204
156 177 204
155 177 204
155 176 204
155 176 204
154 176 204
154 176 204
153 175 204
153 175 204
152 175 204
152 175 204
151 174 204
151 174 204
150 174 204
150 174 204
150 174 204
149 173 204
149 173 204
149 173 204
148 173 204
148 173 204
148 173 204
147 172 204
147 172 204
147 172 204
146 172 204
146 172 204
146 172 204
146 172 204
146 172 204
146 172 204
146 171 204
145 171 204
145 171 204
145 171 204
145 171 204
145 171 204
146 171 204
146 172 204
146 172 204
146 172 204
146 172 204
147 172 204
147 172 204
147 172 204
148 173 204
148 173 204
148 173 204
149 173 204
150 174 204
150 174 204
151 174 204
152 175 204
152 175 204
153 175 204
154 176 204
155 176 204
156 177 204
157 177 204
158 178 204
159 178 204
160 179 204
161 180 204
162 180 204
163 181 204
165 182 204
166 182 204
167 183 204
169 184 204
170 184 204
171 185 204
173 186 204
174 187 204
176 188 204
177 188 204
178 189 204
166 179 163
140 159 20
139 157 0
137 156 0
131 148 0
122 137 25
57 80 77
50 79 102
55 87 116
51 82 104
55 87 117
56 89 117
56 88 118
57 90 114
56 89 119
55 87 112
56 90 119
56 88 115
58 92 125
58 91 119
57 90 120
58 91 130
58 91 118
57 90 123
58 91 115
59 93 134
57 91 116
58 91 126
57 90 126
60 94 121
58 92 128
58 92 121
59 92 114
57 89 118
58 91 123
59 93 121
60 94 133
57 91 115
58 91 118
59 93 124
58 92 124
58 92 117
57 90 118
58 92 120
59 93 125
57 91 121
57 91 120
59 92 118
59 93 122
58 91 123
59 92 122
59 93 121
58 92 121
60 94 135
59 92 117
60 94 126
59 93 124
58 92 122
59 93 124
58 91 114
58 92 118
59 93 126
58 92 121
58 93 128
59 93 136
59 92 125
58 92 125
59 94 131
58 92 118
60 93 130
58 92 117
57 90 124
59 93 128
58 92 117
57 91 114
59 94 131
58 91 121
59 93 124
58 92 120
58 92 121
58 92 128
59 93 121
59 92 125
58 92 118
58 92 117
59 92 120
58 92 124
58 91 120
60 94 125
56 88 115
60 93 129
58 92 125
58 91 118
56 88 113
57 90 114
58 91 115
57 89 111
58 91 128
60 94 133
60 94 135
56 88 117
56 88 108
58 91 120
57 89 121
56 89 108
59 93 124
59 92 118
56 88 116
58 90 124
57 90 113
58 91 122
57 89 118
56 88 117
57 90 120
58 92 121
57 88 117
56 87 111
58 91 122
56 88 113
55 85 113
57 89 121
55 85 114
56 86 108
55 85 110
56 86 114
57 88 111
55 85 105
52 81 104
54 83 110
53 79 92
52 78 94
57 59 17
126 108 6
134 114 0
138 117 0
139 118 0
139 118 0
167 135 41
178 142 51
177 141 51
175 141 51
174 140 51
173 139 51
171 139 51
170 138 51
168 138 51
167 137 51
166 137 51
165 136 51
163 135 51
162 135 51
161 135 51
160 134 51
159 134 51
158 133 51
157 133 51
156 132 51
155 132 51
154 132 51
153 131 51
152 131 51
152 131 51
151 131 51
150 130 51
150 130 51
149 130 51
149 130 51
148 129 51
148 129 51
147 129 51
147 129 51
147 129 51
146 129 51
146 129 51
146 129 51
146 129 51
146 129 51
146 128 51
145 128 51
145 128 51
145 128 51
145 128 51
146 128 51
146 129 51
146 129 51
146 129 51
146 129 51
146 129 51
146 129 51
147 129 51
147 129 51
147 129 51
148 129 51
148 129 51
148 130 51
149 130 51
149 130 51
149 130 51
150 130 51
150 130 51
150 130 51
151 131 51
151 131 51
152 131 51
152 131 51
153 131 51
153 131 51
154 132 51
154 132 51
155 132 51
155 132 51
156 132 51
156 133 51
156 133 51
157 133 51
157 133 51
158 133 51
158 134 51
159 134 51
159 134 51
160 134 51
160 134 51
161 135 51
161 135 51
162 135 51
162 135 51
163 135 51
163 136 51
164 136 51
164 136 51
165 136 51
165 136 51
166 136 51
166 137 51
86 80 38
49 58 34
48 57 33
49 57 33
47 55 31
46 54 30
44 51 28
46 53 30
43 49 26
45 52 29
45 51 28
44 51 29
42 47 26
41 47 26
42 47 24
40 44 23
39 43 23
39 42 21
38 41 21
36 39 20
37 40 21
37 38 19
38 39 18
36 39 18
33 33 13
33 34 15
35 36 16
36 38 18
36 37 18
34 35 16
35 35 15
33 34 14
38 40 18
37 38 18
35 37 17
67 86 119
39 62 97
37 59 93
38 61 97
36 59 94
36 58 94
35 57 89
36 58 92
35 57 84
34 55 91
36 58 95
36 58 96
37 59 100
37 61 96
38 61 106
40 64 105
40 64 110
40 64 109
39 63 108
39 64 109
42 68 121
44 70 119
42 67 116
43 68 117
44 70 123
44 71 122
46 73 129
46 73 127
46 73 126
45 72 129
48 76 134
47 76 133
48 76 132
48 77 138
54 82 144
165 181 203
166 182 204
165 182 204
165 182 204
164 181 204
164 181 204
163 181 204
163 180 204
162 180 204
162 180 204
161 180 204
161 179 204
160 179 204
160 179 204
159 179 204
159 178 204
158 178 204
158 178 204
157 177 204
157 177 204
156 177 204
156 177 204
155 176 204
155 176 204
154 176 204
154 176 204
153 175 204
153 175 204
152 175 204
152 175 204
151 174 204
151 174 204
150 174 204
150 174 204
150 174 204
149 173 204
149 173 204
148 173 204
148 173 204
148 173 204
147 172 204
147 172 204
147 172 204
146 172 204
146 172 204
146 172 204
146 172 204
146 171 204
145 171 204
145 171 204
145 171 204
145 171 204
145 171 204
145 171 204
145 171 204
145 171 204
145 171 204
145 171 204
145 171 204
145 171 204
146 172 204
146 172 204
146 172 204
147 172 204
147 172 204
147 172 204
148 173 204
148 173 204
149 173 204
149 174 204
150 174 204
151 174 204
152 175 204
152 175 204
153 175 204
154 176 204
155 176 204
156 177 204
157 177 204
158 178 204
159 179 204
160 179 204
161 180 204
163 180 204
164 181 204
165 182 204
167 183 204
168 183 204
169 184 204
171 185 204
172 186 204
174 187 204
175 187 204
177 188 204
178 189 204
176 187 195
139 158 40
139 157 0
139 157 0
133 150 0
127 142 0
94 109 53
44 69 95
45 73 83
52 82 105
53 85 106
56 88 123
56 89 122
55 87 112
55 87 117
55 87 119
56 89 122
57 90 120
55 86 115
58 91 116
57 91 121
57 90 113
58 92 119
56 89 115
57 91 121
54 86 105
56 88 102
58 91 122
59 92 122
57 90 118
58 91 115
58 91 121
59 92 127
58 91 124
56 89 121
58 92 118
59 92 130
58 92 117
56 89 117
57 90 111
58 92 124
58 92 125
58 91 124
59 93 116
57 90 113
58 92 128
57 90 117
56 89 107
58 92 118
59 92 122
59 92 134
59 92 130
59 93 130
60 94 133
57 91 114
60 94 131
59 93 130
58 92 125
59 92 117
58 91 122
58 92 125
59 93 130
58 91 120
60 94 130
59 92 126
59 93 126
58 92 115
58 91 115
59 92 128
58 91 111
58 91 121
58 92 121
58 92 118
59 93 125
59 92 131
58 92 128
59 93 125
59 93 130
60 95 130
59 93 126
59 92 124
58 92 124
59 93 130
58 92 124
59 93 124
58 91 111
57 91 108
57 90 114
58 91 115
58 91 124
59 93 125
58 92 122
59 92 120
58 91 126
58 91 124
59 93 129
59 92 130
59 92 129
59 92 125
58 91 126
58 91 122
58 91 121
58 92 120
58 91 113
58 90 121
58 92 125
58 91 125
58 90 124
57 91 122
58 91 120
57 89 116
56 88 107
57 90 118
57 89 121
57 89 120
58 91 121
57 89 117
58 90 118
58 91 129
56 88 120
57 90 121
57 90 121
57 90 115
56 87 116
57 89 110
57 89 114
56 88 110
55 85 110
56 85 107
55 85 114
52 79 94
46 65 64
42 48 18
96 86 15
131 112 0
134 114 0
137 117 0
137 117 0
143 120 13
177 140 49
178 142 51
177 141 51
175 140 51
174 140 51
172 139 51
171 139 51
169 138 51
168 137 51
167 137 51
165 136 51
164 136 51
163 135 51
161 135 51
160 134 51
159 134 51
158 133 51
157 133 51
156 133 51
155 132 51
154 132 51
153 131 51
152 131 51
152 131 51
151 131 51
150 130 51
149 130 51
149 130 51
148 130 51
148 129 51
147 129 51
147 129 51
147 129 51
146 129 51
146 129 51
146 129 51
145 128 51
145 128 51
145 128 51
145 128 51
145 128 51
145 128 51
145 128 51
145 128 51
145 128 51
145 128 51
145 128 51
145 128 51
146 128 51
146 129 51
146 129 51
146 129 51
146 129 51
147 129 51
147 129 51
147 129 51
148 129 51
148 129 51
148 130 51
149 130 51
149 130 51
150 130 51
150 130 51
150 130 51
151 131 51
151 131 51
152 131 51
152 131 51
153 131 51
153 131 51
154 132 51
154 132 51
155 132 51
155 132 51
156 132 51
156 133 51
157 133 51
157 133 51
158 133 51
158 133 51
159 134 51
159 134 51
160 134 51
160 134 51
161 134 51
161 135 51
162 135 51
162 135 51
163 135 51
163 135 51
164 136 51
164 136 51
165 136 51
165 136 51
166 136 51
162 134 50
54 61 35
48 58 33
47 55 31
47 55 32
47 55 31
46 53 29
46 54 31
45 53 29
45 51 28
42 48 26
44 49 27
43 49 27
41 45 24
41 44 22
39 42 21
40 45 24
38 40 20
40 43 22
39 42 21
37 39 18
37 39 20
38 40 20
37 39 20
37 38 18
36 38 18
38 40 19
35 36 16
37 38 18
35 37 18
36 37 16
36 37 17
36 38 17
38 40 18
39 42 20
66 59 25
154 165 178
65 82 112
39 62 103
36 58 94
40 63 105
38 61 96
38 62 104
35 56 96
36 58 95
36 58 95
37 60 100
37 60 100
37 60 98
36 59 100
38 62 109
40 64 112
40 64 110
40 64 110
43 68 118
38 62 106
40 65 112
39 62 109
43 69 117
42 67 115
44 70 120
43 69 120
45 72 127
46 73 125
47 76 132
47 75 132
48 77 134
48 77 135
49 77 139
48 76 134
48 77 138
133 150 182
166 182 204
165 182 204
165 182 204
164 181 204
164 181 204
163 181 204
163 180 204
162 180 204
162 180 204
161 180 204
160 179 204
160 179 204
159 179 204
159 178 204
158 178 204
158 178 204
157 178 204
157 177 204
156 177 204
156 177 204
155 177 204
155 176 204
154 176 204
154 176 204
153 175 204
153 175 204
152 175 204
152 175 204
151 174 204
151 174 204
150 174 204
150 174 204
150 174 204
149 173 204
149 173 204
148 173 204
148 173 204
148 172 204
147 172 204
147 172 204
147 172 204
146 172 204
146 172 204
146 172 204
145 171 204
145 171 204
145 171 204
145 171 204
145 171 204
145 171 204
145 171 204
145 171 204
145 171 204
145 171 204
145 171 204
145 171 204
145 171 204
145 171 204
145 171 204
145 171 204
146 172 204
146 172 204
146 172 204
147 172 204
147 172 204
148 173 204
148 173 204
149 173 204
150 174 204
150 174 204
151 174 204
152 175 204
153 175 204
154 176 204
154 176 204
155 177 204
156 177 204
157 178 204
159 178 204
160 179 204
161 180 204
162 180 204
163 181 204
165 182 204
166 182 204
167 183 204
169 184 204
170 185 204
172 185 204
173 186 204
175 187 204
176 188 204
178 189 204
178 189 200
144 162 67
139 158 0
136 155 0
135 153 0
132 149 0
118 132 25
51 75 85
43 68 85
42 67 83
52 82 104
54 85 120
57 89 117
54 85 112
54 85 107
55 87 118
57 89 120
58 92 128
57 90 115
58 91 117
55 87 115
58 91 128
55 87 103
56 89 116
57 90 121
59 92 122
57 90 121
58 91 125
59 93 126
57 91 117
58 91 118
59 93 124
59 93 122
59 92 132
58 92 119
58 91 129
58 91 126
57 91 124
59 92 120
57 91 114
59 93 131
59 93 128
58 92 130
60 95 131
58 92 122
58 91 118
60 94 132
59 94 125
60 94 134
59 93 125
57 90 114
58 92 126
59 92 120
58 91 118
58 91 125
60 95 133
59 93 125
59 92 124
58 91 122
57 90 118
60 94 128
60 94 129
59 93 126
59 93 129
58 91 118
59 93 131
58 92 114
58 91 124
60 94 136
58 91 122
57 90 117
59 93 131
58 91 122
57 90 115
59 93 122
59 93 124
59 93 130
59 92 117
60 93 131
59 93 122
57 91 121
58 92 120
58 91 117
58 93 124
58 92 117
59 92 117
59 93 129
58 91 124
58 91 113
59 93 124
57 90 118
59 92 126
56 89 113
57 91 115
58 90 115
57 90 118
56 89 99
60 94 136
57 90 108
59 93 121
59 92 128
56 89 114
57 90 118
59 92 128
57 89 110
56 89 115
59 93 122
59 93 130
57 90 125
58 91 122
59 92 118
58 92 120
58 92 116
57 90 121
59 93 125
59 92 129
59 92 130
57 89 122
57 88 120
57 89 111
57 88 114
58 91 130
58 91 122
53 83 107
56 87 111
58 91 135
58 89 125
55 84 110
55 85 107
52 79 98
53 82 101
53 81 99
39 47 30
43 49 22
49 54 19
116 100 5
132 113 0
134 115 0
139 118 0
139 118 0
146 122 20
176 140 48
178 141 51
176 141 51
175 140 51
173 140 51
172 139 51
170 138 51
169 138 51
167 137 51
166 137 51
165 136 51
163 136 51
162 135 51
161 135 51
160 134 51
159 134 51
157 133 51
156 133 51
155 132 51
154 132 51
153 132 51
153 131 51
152 131 51
151 131 51
150 130 51
150 130 51
149 130 51
148 130 51
148 129 51
147 129 51
147 129 51
146 129 51
146 129 51
146 129 51
145 128 51
145 128 51
145 128 51
145 128 51
145 128 51
145 128 51
145 128 51
145 128 51
145 128 51
145 128 51
145 128 51
145 128 51
145 128 51
145 128 51
145 128 51
146 128 51
146 129 51
146 129 51
146 129 51
147 129 51
147 129 51
147 129 51
148 129 51
148 129 51
148 130 51
149 130 51
149 130 51
150 130 51
150 130 51
150 130 51
151 131 51
151 131 51
152 131 51
152 131 51
153 131 51
153 131 51
154 132 51
154 132 51
155 132 51
155 132 51
156 132 51
156 133 51
157 133 51
157 133 51
158 133 51
158 134 51
159 134 51
159 134 51
160 134 51
160 134 51
161 135 51
162 135 51
162 135 51
163 135 51
163 135 51
164 136 51
164 136 51
165 136 51
165 136 51
166 136 51
141 118 46
49 58 34
48 56 33
48 56 32
46 54 31
47 56 32
44 51 29
45 52 28
45 52 29
43 49 27
42 50 28
42 48 27
42 48 26
44 49 27
41 46 25
41 45 24
40 44 23
40 44 23
38 40 20
39 44 24
39 43 22
38 41 20
40 43 22
37 39 19
38 39 17
34 36 17
35 36 16
36 38 19
35 36 17
36 37 17
37 38 18
37 38 16
37 39 18
39 42 21
58 56 26
156 125 44
149 166 98
148 161 169
46 68 107
40 64 106
39 63 105
38 61 101
38 62 104
38 60 102
36 57 91
37 60 101
34 56 91
37 60 100
38 61 105
39 63 108
35 57 97
40 65 109
39 64 109
38 61 103
39 64 111
41 66 114
42 68 118
43 68 117
41 66 114
42 67 116
42 67 115
46 74 131
44 70 123
44 70 117
46 72 124
45 73 129
47 75 132
47 75 134
48 76 135
48 77 135
49 78 136
115 133 171
166 182 204
165 182 204
165 182 204
164 181 204
164 181 204
163 181 204
163 180 204
162 180 204
161 180 204
161 180 204
160 179 204
160 179 204
159 179 204
159 178 204
158 178 204
158 178 204
157 178 204
157 177 204
156 177 204
156 177 204
155 176 204
155 176 204
154 176 204
154 176 204
153 175 204
152 175 204
152 175 204
152 175 204
151 174 204
151 174 204
150 174 204
150 174 204
149 173 204
149 173 204
148 173 204
148 173 204
148 173 204
147 172 204
147 172 204
147 172 204
146 172 204
146 172 204
146 172 204
145 171 204
145 171 204
145 171 204
145 171 204
145 171 204
145 171 204
144 171 204
144 171 204
144 171 204
144 171 204
144 171 204
144 171 204
145 171 204
145 171 204
145 171 204
145 171 204
145 171 204
146 172 204
146 172 204
147 172 204
147 172 204
147 172 204
148 173 204
149 173 204
149 173 204
150 174 204
151 174 204
151 174 204
152 175 204
153 175 204
154 176 204
155 176 204
156 177 204
157 177 204
158 178 204
159 179 204
160 179 204
162 180 204
163 181 204
164 181 204
166 182 204
167 183 204
168 184 204
170 184 204
171 185 204
173 186 204
174 187 204
176 188 204
178 189 204
179 189 203
151 167 106
139 158 0
135 153 0
135 152 0
133 149 0
129 146 0
82 98 65
42 67 78
41 66 85
39 62 73
49 77 93
54 85 120
54 86 114
54 85 118
54 85 107
54 86 106
58 90 128
54 85 110
58 91 124
54 86 107
53 85 105
55 88 113
55 87 113
54 86 111
58 91 129
55 88 116
58 91 117
57 89 116
58 91 118
58 91 131
59 92 127
55 87 108
56 89 113
57 90 120
58 91 120
57 89 114
58 91 131
58 92 123
57 90 114
58 91 124
58 92 116
58 91 111
57 90 115
58 92 115
56 89 99
58 91 124
59 93 118
57 91 121
57 90 120
58 92 121
59 93 125
58 93 125
58 91 107
59 92 122
59 93 124
59 94 118
59 93 131
57 90 118
58 91 122
57 91 114
59 93 130
58 92 124
58 91 118
58 91 118
58 92 125
58 92 126
57 90 120
58 91 120
59 92 130
59 92 122
59 93 129
57 91 124
58 91 120
60 94 131
57 90 114
59 93 122
58 92 118
56 89 114
60 93 125
60 93 125
58 92 129
57 90 115
60 93 126
58 92 125
59 93 117
58 92 120
59 93 125
57 91 117
58 91 117
59 93 131
57 90 111
57 90 121
58 91 122
58 91 114
56 89 118
60 94 130
58 91 122
56 89 118
59 92 126
58 92 125
57 90 115
57 90 113
56 89 108
57 89 113
57 90 111
58 91 126
58 92 121
57 91 117
58 90 121
55 88 114
57 89 115
57 90 122
59 92 122
57 89 117
58 91 122
57 89 114
57 88 121
56 88 107
57 89 121
57 90 113
56 88 111
55 87 111
55 86 110
56 88 125
55 85 104
55 86 111
54 84 99
53 82 101
54 85 105
55 83 109
51 78 98
49 71 77
38 42 14
41 47 17
42 49 19
88 79 18
121 104 0
131 112 0
137 116 0
138 118 0
140 119 0
151 125 25
178 141 49
178 141 51
176 141 51
175 140 51
173 139 51
172 139 51
170 138 51
169 138 51
167 137 51
166 136 51
164 136 51
163 135 51
162 135 51
161 134 51
159 134 51
158 133 51
157 133 51
156 133 51
155 132 51
154 132 51
153 131 51
152 131 51
151 131 51
151 130 51
150 130 51
149 130 51
149 130 51
148 129 51
147 129 51
147 129 51
147 129 51
146 129 51
146 129 51
145 128 51
145 128 51
145 128 51
145 128 51
145 128 51
144 128 51
144 128 51
144 128 51
144 128 51
144 128 51
144 128 51
145 128 51
145 128 51
145 128 51
145 128 51
145 128 51
145 128 51
146 129 51
146 129 51
146 129 51
147 129 51
147 129 51
147 129 51
148 129 51
148 129 51
148 130 51
149 130 51
149 130 51
150 130 51
150 130 51
151 130 51
151 131 51
152 131 51
152 131 51
153 131 51
153 131 51
154 132 51
154 132 51
155 132 51
155 132 51
156 132 51
156 133 51
157 133 51
157 133 51
158 133 51
158 133 51
159 134 51
159 134 51
160 134 51
160 134 51
161 135 51
161 135 51
162 135 51
163 135 51
163 135 51
164 136 51
164 136 51
165 136 51
165 136 51
166 136 51
118 102 43
49 58 33
47 56 32
48 55 32
47 55 32
46 54 31
45 53 30
46 53 30
45 51 29
44 51 29
42 50 28
44 49 28
42 48 27
43 49 27
41 47 25
42 47 26
40 44 24
40 45 24
39 43 23
38 42 23
36 39 21
39 43 22
38 42 22
35 37 18
37 39 18
39 42 22
35 37 18
37 39 19
37 38 18
37 40 20
37 41 21
38 42 21
37 40 19
49 51 25
154 124 42
149 124 23
139 158 0
142 160 50
141 154 156
57 78 115
37 59 100
37 60 98
38 61 105
38 61 102
38 61 101
38 61 104
36 59 102
36 58 93
38 60 101
41 66 111
38 62 103
39 64 110
40 65 113
40 64 111
41 66 113
38 61 102
43 68 120
43 69 119
43 69 119
43 69 117
42 68 119
42 68 118
43 69 119
45 72 127
45 73 128
45 72 124
46 74 129
48 76 132
48 76 135
47 76 135
48 77 138
75 98 150
166 182 204
165 182 204
165 182 204
164 181 204
164 181 204
163 181 204
163 180 204
162 180 204
161 180 204
161 180 204
160 179 204
160 179 204
159 179 204
159 178 204
158 178 204
158 178 204
157 178 204
157 177 204
156 177 204
156 177 204
155 176 204
154 176 204
154 176 204
153 176 204
153 175 204
152 175 204
152 175 204
151 174 204
151 174 204
150 174 204
150 174 204
150 174 204
149 173 204
149 173 204
148 173 204
148 173 204
147 172 204
147 172 204
147 172 204
146 172 204
146 172 204
146 172 204
146 171 204
145 171 204
145 171 204
145 171 204
145 171 204
145 171 204
144 171 204
144 171 204
144 171 204
144 171 204
144 171 204
144 171 204
145 171 204
145 171 204
145 171 204
145 171 204
145 171 204
146 171 204
146 172 204
146 172 204
147 172 204
147 172 204
148 173 204
148 173 204
149 173 204
150 174 204
150 174 204
151 174 204
152 175 204
153 175 204
154 176 204
155 176 204
156 177 204
157 177 204
158 178 204
159 178 204
160 179 204
161 180 204
163 181 204
164 181 204
165 182 204
167 183 204
168 183 204
170 184 204
171 185 204
173 186 204
174 187 204
176 188 204
177 189 204
179 189 203
155 170 122
140 158 0
138 156 0
137 155 0
135 152 0
122 135 0
111 126 40
48 71 88
41 65 80
40 63 79
39 62 76
40 63 70
54 86 115
52 83 99
53 84 91
57 89 126
52 83 104
57 90 107
54 86 108
57 90 121
55 88 114
55 88 115
56 88 124
55 87 97
59 93 130
58 91 123
55 86 102
57 90 116
58 92 128
58 91 129
58 91 130
57 90 114
55 87 105
56 89 111
58 92 132
59 93 129
59 92 121
58 91 119
58 91 115
57 90 117
56 88 110
56 90 117
57 89 123
58 91 121
60 93 130
59 93 121
56 89 115
57 90 117
57 90 122
56 89 122
58 91 124
57 90 117
58 90 121
57 91 125
58 91 121
59 92 124
58 92 114
57 90 113
58 91 120
58 91 118
58 92 116
57 91 115
59 93 124
58 92 120
60 94 129
57 89 114
58 92 125
59 93 126
58 92 122
57 90 121
57 91 117
59 93 131
57 91 115
60 94 128
59 92 124
59 92 121
58 91 118
57 91 128
58 92 129
57 90 120
57 90 117
57 91 105
57 91 120
57 89 121
59 93 136
58 91 124
58 91 117
59 93 126
58 91 117
58 91 124
58 91 117
61 94 135
60 94 130
59 92 122
57 90 117
57 91 114
58 92 115
58 92 122
59 93 124
58 90 128
58 91 111
58 91 114
59 93 122
56 89 115
55 87 103
55 87 105
58 91 128
57 90 122
58 90 124
58 91 126
57 90 121
58 91 126
57 89 117
57 89 118
56 88 120
56 88 107
56 88 115
58 90 129
56 88 108
56 87 117
57 89 105
55 86 110
57 89 124
58 91 116
55 86 100
57 89 124
56 88 111
51 78 86
53 82 97
54 83 104
51 79 92
53 82 99
41 54 55
40 43 14
39 43 14
41 48 18
47 53 20
110 95 7
126 107 0
131 112 0
136 116 0
138 118 0
141 119 0
155 128 30
179 142 51
177 141 51
176 141 51
174 140 51
173 139 51
171 139 51
170 138 51
168 138 51
167 137 51
165 136 51
164 136 51
163 135 51
161 135 51
160 134 51
159 134 51
158 133 51
157 133 51
156 132 51
155 132 51
154 132 51
153 131 51
152 131 51
151 131 51
150 130 51
150 130 51
149 130 51
148 130 51
148 129 51
147 129 51
147 129 51
146 129 51
146 129 51
146 128 51
145 128 51
145 128 51
145 128 51
145 128 51
145 128 51
144 128 51
144 128 51
144 128 51
144 128 51
144 128 51
144 128 51
145 128 51
145 128 51
145 128 51
145 128 51
145 128 51
146 128 51
146 129 51
146 129 51
146 129 51
147 129 51
147 129 51
147 129 51
148 129 51
148 130 51
149 130 51
149 130 51
150 130 51
150 130 51
150 130 51
151 131 51
151 131 51
152 131 51
152 131 51
153 131 51
153 132 51
154 132 51
154 132 51
155 132 51
156 132 51
156 133 51
157 133 51
157 133 51
158 133 51
158 133 51
159 134 51
159 134 51
160 134 51
160 134 51
161 135 51
161 135 51
162 135 51
163 135 51
163 135 51
164 136 51
164 136 51
165 136 51
165 136 51
166 136 51
75 73 37
48 58 34
49 57 34
47 56 32
46 54 31
46 55 32
47 55 32
46 54 31
45 52 30
44 51 28
44 51 29
43 49 27
43 48 26
42 48 27
42 47 25
40 45 24
40 44 24
40 44 23
40 44 23
37 40 20
38 41 22
39 42 22
37 39 20
37 40 20
38 40 19
40 44 22
36 38 19
37 39 19
37 38 18
36 36 16
38 41 19
41 45 21
50 48 21
145 119 35
143 121 15
140 119 0
140 158 0
139 158 0
141 159 35
144 159 135
72 88 117
40 65 104
38 60 97
39 62 104
39 62 102
38 62 104
38 61 100
39 63 110
39 63 106
39 62 105
39 63 108
39 62 108
38 61 104
39 63 107
40 65 112
40 63 112
42 67 119
42 67 119
42 67 114
42 68 119
45 71 124
43 69 119
44 70 120
46 73 128
44 71 124
46 74 130
47 75 133
46 74 133
46 74 130
48 77 140
49 78 140
49 78 142
156 172 198
165 182 204
165 182 204
164 181 204
164 181 204
163 181 204
163 180 204
162 180 204
162 180 204
161 180 204
160 179 204
160 179 204
159 179 204
159 178 204
158 178 204
158 178 204
157 178 204
157 177 204
156 177 204
156 177 204
155 176 204
154 176 204
154 176 204
153 176 204
153 175 204
152 175 204
152 175 204
151 174 204
151 174 204
150 174 204
150 174 204
149 173 204
149 173 204
149 173 204
148 173 204
148 173 204
147 172 204
147 172 204
147 172 204
146 172 204
146 172 204
146 172 204
146 171 204
145 171 204
145 171 204
145 171 204
145 171 204
145 171 204
145 171 204
144 171 204
144 171 204
144 171 204
145 171 204
145 171 204
145 171 204
145 171 204
145 171 204
145 171 204
146 172 204
146 172 204
146 172 204
147 172 204
147 172 204
148 173 204
148 173 204
149 173 204
150 174 204
150 174 204
151 174 204
152 175 204
153 175 204
154 176 204
155 176 204
156 177 204
157 177 204
158 178 204
159 178 204
160 179 204
161 180 204
163 180 204
164 181 204
165 182 204
167 183 204
168 183 204
170 184 204
171 185 204
173 186 204
174 187 204
176 188 204
177 189 204
179 189 204
154 170 121
141 158 0
139 157 0
137 156 0
133 151 0
128 144 0
118 130 0
65 82 64
44 70 94
39 63 71
38 60 70
36 58 60
82 96 33
62 91 102
51 81 105
54 86 111
53 84 116
56 88 116
55 87 119
55 87 103
56 88 128
54 86 109
55 87 113
55 87 110
56 89 118
56 88 117
58 92 120
57 90 116
56 88 121
55 88 111
56 89 114
57 91 114
57 90 114
57 90 120
57 90 103
56 89 114
57 90 122
57 89 118
55 88 110
57 90 112
55 88 108
57 89 114
57 91 117
57 90 117
58 91 118
57 90 118
58 92 125
59 93 120
57 90 123
58 91 121
58 91 121
58 91 123
58 92 125
58 92 122
57 90 118
58 91 118
60 95 133
58 91 114
58 92 111
58 91 118
59 94 121
58 92 128
58 91 118
59 93 130
58 91 113
59 93 129
56 89 114
56 89 120
59 93 120
58 91 115
58 92 124
58 92 126
60 95 130
58 91 120
56 88 121
59 93 121
57 91 120
55 88 108
58 92 126
59 93 126
58 92 115
57 90 120
58 91 122
58 91 115
59 93 124
56 89 110
58 92 122
57 90 115
58 92 124
59 92 126
57 91 117
58 91 122
58 91 118
56 89 114
58 91 118
58 92 122
60 93 125
56 88 108
57 91 102
58 91 122
57 91 120
58 92 124
58 91 115
56 89 110
58 91 117
57 90 110
58 91 122
56 89 117
59 92 120
56 87 113
57 90 125
56 89 118
56 88 113
56 89 107
59 92 129
56 88 111
58 90 129
57 89 113
56 87 117
57 89 120
58 90 122
58 90 121
55 86 104
58 91 124
54 84 110
56 86 119
53 82 99
55 85 97
56 86 102
52 81 97
54 84 104
55 85 114
55 79 83
85 73 4
36 40 13
39 43 15
41 46 18
43 50 18
72 68 17
118 101 0
132 113 0
133 114 0
137 117 0
138 118 0
139 118 0
156 128 31
179 142 51
177 141 51
176 141 51
174 140 51
173 139 51
171 139 51
170 138 51
168 137 51
167 137 51
165 136 51
164 136 51
163 135 51
161 135 51
160 134 51
159 134 51
158 133 51
157 133 51
156 132 51
155 132 51
154 132 51
153 131 51
152 131 51
151 131 51
150 130 51
150 130 51
149 130 51
148 130 51
148 129 51
147 129 51
147 129 51
146 129 51
146 129 51
146 128 51
145 128 51
145 128 51
145 128 51
145 128 51
145 128 51
145 128 51
144 128 51
144 128 51
144 128 51
145 128 51
145 128 51
145 128 51
145 128 51
145 128 51
145 128 51
146 128 51
146 129 51
146 129 51
146 129 51
147 129 51
147 129 51
147 129 51
148 129 51
148 129 51
149 130 51
149 130 51
149 130 51
150 130 51
150 130 51
151 131 51
151 131 51
152 131 51
152 131 51
153 131 51
153 132 51
154 132 51
154 132 51
155 132 51
156 132 51
156 133 51
157 133 51
157 133 51
158 133 51
158 133 51
159 134 51
159 134 51
160 134 51
160 134 51
161 135 51
162 135 51
162 135 51
163 135 51
163 135 51
164 136 51
164 136 51
165 136 51
165 136 51
161 133 50
48 57 34
48 58 34
48 57 33
46 54 32
47 55 32
45 53 31
45 53 31
47 54 31
45 51 29
45 52 29
43 49 28
44 50 28
43 49 28
42 49 27
41 45 24
40 44 23
41 45 23
41 46 25
41 45 24
40 43 23
38 41 20
39 42 21
39 42 21
39 41 21
39 42 21
36 39 20
40 43 22
39 42 21
39 43 22
38 41 21
40 43 21
59 56 25
138 114 31
141 119 7
140 119 0
140 119 0
138 157 0
141 159 0
139 158 0
139 158 0
135 151 107
79 96 118
41 66 106
39 62 104
38 62 101
38 62 101
36 59 102
38 60 101
38 60 100
38 61 106
40 63 107
36 59 103
41 67 117
40 64 111
40 64 114
40 65 114
42 67 116
41 66 113
44 70 120
41 66 115
42 67 114
42 67 113
44 71 125
43 69 118
46 74 133
47 75 133
45 72 124
46 74 131
48 76 137
47 76 136
49 78 141
49 79 142
134 152 184
166 182 204
165 182 204
164 181 204
164 181 204
163 181 204
163 181 204
162 180 204
162 180 204
161 180 204
161 179 204
160 179 204
160 179 204
159 178 204
158 178 204
158 178 204
157 178 204
157 177 204
156 177 204
156 177 204
155 176 204
155 176 204
154 176 204
154 176 204
153 175 204
152 175 204
152 175 204
151 175 204
151 174 204
150 174 204
150 174 204
150 174 204
149 173 204
149 173 204
148 173 204
148 173 204
148 172 204
147 172 204
147 172 204
147 172 204
146 172 204
146 172 204
146 172 204
145 171 204
145 171 204
145 171 204
145 171 204
145 171 204
145 171 204
145 171 204
145 171 204
145 171 204
145 171 204
145 171 204
145 171 204
145 171 204
146 171 204
146 172 204
146 172 204
146 172 204
147 172 204
147 172 204
148 173 204
148 173 204
149 173 204
150 174 204
150 174 204
151 174 204
152 175 204
153 175 204
154 176 204
155 176 204
155 177 204
157 177 204
158 178 204
159 178 204
160 179 204
161 180 204
162 180 204
164 181 204
165 182 204
167 183 204
168 183 204
170 184 204
171 185 204
173 186 204
174 187 204
176 188 204
177 188 204
179 189 204
156 171 127
140 158 0
139 157 0
137 155 0
136 154 0
126 142 0
122 136 0
87 103 56
42 67 85
40 63 78
39 63 70
36 57 64
69 85 23
106 122 0
95 116 86
53 84 99
49 78 93
57 90 124
54 85 106
54 86 113
55 87 107
56 88 115
55 88 112
56 88 120
55 87 105
58 91 129
57 90 119
54 87 100
57 90 128
55 88 119
57 89 114
58 91 124
57 90 117
59 92 123
57 91 115
57 91 114
56 89 117
57 91 116
57 90 118
56 89 120
57 89 124
57 90 120
59 93 125
57 90 121
58 90 117
59 93 124
57 91 124
57 91 118
58 92 125
56 89 114
56 89 114
57 90 124
59 93 124
57 90 121
58 92 117
59 93 136
59 92 117
57 89 120
58 91 121
57 90 121
57 90 118
55 88 100
57 91 115
59 92 135
58 92 118
59 93 128
58 91 111
59 93 124
58 91 118
58 91 121
57 90 114
58 91 121
59 93 122
59 94 130
57 91 118
59 92 115
58 91 118
59 93 130
59 93 125
55 88 103
58 92 121
57 91 121
56 89 105
57 90 113
57 91 125
60 94 131
57 90 120
57 91 121
58 91 122
58 91 128
57 90 110
57 90 115
57 90 103
58 91 122
58 91 122
58 91 114
58 90 122
58 92 113
58 92 126
57 90 120
57 89 118
56 89 114
59 92 131
58 92 118
59 93 120
57 89 111
58 90 113
57 90 120
56 89 117
57 89 120
59 92 128
58 92 125
58 91 113
55 87 104
57 89 121
56 89 107
58 90 124
57 89 113
56 88 115
58 91 118
56 88 100
54 85 105
54 85 104
57 89 122
57 89 111
54 84 105
56 86 114
54 85 107
52 80 92
53 82 110
55 86 107
53 81 102
52 80 90
93 92 68
109 91 0
70 61 8
36 40 10
39 43 14
41 47 17
43 49 19
93 82 12
125 107 0
125 108 0
134 115 0
137 117 0
140 118 0
139 118 0
158 129 33
179 142 51
177 141 51
176 141 51
174 140 51
173 139 51
171 139 51
170 138 51
168 137 51
167 137 51
165 136 51
164 136 51
163 135 51
161 135 51
160 134 51
159 134 51
158 133 51
157 133 51
156 132 51
155 132 51
154 132 51
153 131 51
152 131 51
151 131 51
150 130 51
150 130 51
149 130 51
148 130 51
148 129 51
147 129 51
147 129 51
146 129 51
146 129 51
146 129 51
146 128 51
145 128 51
145 128 51
145 128 51
145 128 51
145 128 51
145 128 51
145 128 51
145 128 51
145 128 51
145 128 51
145 128 51
145 128 51
145 128 51
146 129 51
146 129 51
146 129 51
147 129 51
147 129 51
147 129 51
148 129 51
148 129 51
148 130 51
149 130 51
149 130 51
150 130 51
150 130 51
151 130 51
151 131 51
151 131 51
152 131 51
152 131 51
153 131 51
153 132 51
154 132 51
155 132 51
155 132 51
156 132 51
156 133 51
157 133 51
157 133 51
158 133 51
158 134 51
159 134 51
160 134 51
160 134 51
161 134 51
161 135 51
162 135 51
162 135 51
163 135 51
163 136 51
164 136 51
165 136 51
165 136 51
166 136 51
134 113 45
48 58 34
49 58 34
46 54 31
46 54 32
46 54 31
47 56 33
45 52 30
43 50 28
43 50 28
44 50 29
44 51 29
44 50 28
42 48 27
41 47 26
44 49 27
40 44 24
40 44 23
41 45 23
37 40 20
39 42 21
39 42 22
40 44 22
40 44 23
36 39 20
37 40 20
38 41 22
39 41 19
41 45 22
41 45 23
38 40 17
78 70 29
138 115 26
140 119 0
139 118 0
139 118 0
140 118 0
139 158 0
138 157 0
139 158 0
140 159 0
139 158 0
143 160 72
101 117 125
42 66 109
41 66 105
40 64 109
41 67 111
39 63 104
37 60 101
39 63 110
39 63 105
40 65 113
40 64 109
40 64 108
39 63 106
41 66 116
42 68 119
42 68 119
43 69 121
44 69 121
44 70 122
43 69 122
43 69 121
46 74 131
45 71 125
47 75 136
46 74 131
46 73 130
48 76 136
49 78 141
47 75 135
48 77 139
99 119 164
166 182 204
165 182 204
165 182 204
164 181 204
164 181 204
163 181 204
163 180 204
162 180 204
161 180 204
161 180 204
160 179 204
160 179 204
159 179 204
159 178 204
158 178 204
158 178 204
157 177 204
156 177 204
156 177 204
155 177 204
155 176 204
154 176 204
154 176 204
153 175 204
153 175 204
152 175 204
152 175 204
151 174 204
151 174 204
150 174 204
150 174 204
149 173 204
149 173 204
149 173 204
148 173 204
148 173 204
147 172 204
147 172 204
147 172 204
147 172 204
146 172 204
146 172 204
146 172 204
146 172 204
146 171 204
145 171 204
145 171 204
145 171 204
145 171 204
145 171 204
145 171 204
145 171 204
146 171 204
146 172 204
146 172 204
146 172 204
146 172 204
147 172 204
147 172 204
148 173 204
148 173 204
149 173 204
149 173 204
150 174 204
151 174 204
151 174 204
152 175 204
153 175 204
154 176 204
155 176 204
156 177 204
157 177 204
158 178 204
159 178 204
160 179 204
161 180 204
163 180 204
164 181 204
165 182 204
167 183 204
168 183 204
170 184 204
171 185 204
173 186 204
174 187 204
176 188 204
177 188 204
179 189 203
153 169 117
140 159 0
138 157 0
135 154 0
135 151 0
132 148 0
121 134 0
112 125 20
55 77 82
41 65 81
37 60 70
38 60 73
77 92 36
101 117 0
118 135 0
153 175 31
62 90 102
53 83 104
55 86 117
56 88 118
52 83 91
54 86 91
54 87 100
57 90 113
56 88 115
55 87 104
57 89 125
57 90 113
57 90 121
58 92 126
57 90 118
57 91 124
59 93 129
58 91 120
55 87 115
58 91 119
56 88 104
57 91 115
56 88 107
55 88 107
58 91 120
55 88 108
58 92 128
58 91 123
57 90 117
58 92 124
57 91 121
58 91 120
58 91 114
57 90 115
58 92 124
57 90 108
58 92 121
58 91 122
57 90 118
58 92 126
57 91 122
59 93 129
58 92 121
59 93 115
56 89 107
59 92 125
56 89 113
59 93 122
57 91 118
56 88 122
56 89 117
57 90 117
58 91 120
59 93 124
58 92 125
57 90 117
56 89 102
56 89 114
59 94 131
55 87 113
59 92 125
57 90 110
58 91 120
60 94 135
57 90 120
57 90 121
59 93 121
59 93 120
57 90 120
58 91 117
58 92 125
56 89 110
58 91 117
57 89 113
57 90 118
57 90 117
58 92 126
56 88 114
58 91 121
57 89 115
58 91 120
58 91 128
57 90 111
57 90 125
58 92 130
56 88 118
57 90 113
57 89 110
58 92 122
55 86 102
58 91 125
56 88 121
57 90 114
58 92 120
58 91 125
58 91 118
56 88 102
57 90 122
56 88 115
57 89 118
56 89 115
56 88 114
56 88 120
58 90 115
55 86 107
55 85 97
56 87 116
58 91 120
56 87 116
55 86 110
54 85 96
55 86 114
55 86 107
54 84 97
56 87 124
56 85 104
50 76 83
59 83 94
142 152 31
118 100 0
102 84 0
65 56 7
35 39 11
38 43 14
41 47 17
53 55 17
105 92 3
120 103 0
128 109 0
133 114 0
138 117 0
139 118 0
140 119 0
157 129 32
179 142 50
177 141 51
176 141 51
174 140 51
173 139 51
171 139 51
170 138 51
168 137 51
167 137 51
165 136 51
164 136 51
163 135 51
161 135 51
160 134 51
159 134 51
158 133 51
157 133 51
156 132 51
155 132 51
154 132 51
153 131 51
152 131 51
151 131 51
151 130 51
150 130 51
149 130 51
149 130 51
148 129 51
148 129 51
147 129 51
147 129 51
146 129 51
146 129 51
146 129 51
146 129 51
146 128 51
145 128 51
145 128 51
145 128 51
145 128 51
145 128 51
145 128 51
145 128 51
146 128 51
146 129 51
146 129 51
146 129 51
146 129 51
147 129 51
147 129 51
147 129 51
147 129 51
148 129 51
148 129 51
149 130 51
149 130 51
149 130 51
150 130 51
150 130 51
151 130 51
151 131 51
152 131 51
152 131 51
153 131 51
153 131 51
154 132 51
154 132 51
155 132 51
155 132 51
156 133 51
156 133 51
157 133 51
158 133 51
158 133 51
159 134 51
159 134 51
160 134 51
160 134 51
161 135 51
161 135 51
162 135 51
163 135 51
163 135 51
164 136 51
164 136 51
165 136 51
165 136 51
166 137 51
102 91 41
48 57 34
48 57 33
47 56 33
47 55 33
48 55 32
46 54 31
45 51 28
44 51 29
43 49 28
43 50 29
45 53 30
43 49 27
43 49 27
42 47 26
40 44 23
40 44 23
42 47 26
40 43 23
41 46 24
39 43 22
39 41 21
42 48 26
38 42 22
40 43 21
39 42 20
40 44 23
41 45 24
38 42 21
41 45 23
89 77 28
137 116 15
138 118 0
140 119 0
140 119 0
139 118 0
140 119 0
140 158 0
139 158 0
138 156 0
139 158 0
139 158 0
139 158 0
138 157 11
110 127 109
41 66 102
43 69 116
39 62 104
41 66 115
40 64 104
42 67 112
41 65 112
38 62 101
39 64 109
39 63 106
39 62 106
42 67 117
41 66 114
41 66 116
44 70 121
42 68 116
43 70 123
44 69 120
45 72 125
45 73 128
45 72 124
46 73 129
46 74 133
48 76 137
48 76 136
48 76 137
49 78 141
48 77 139
70 94 150
165 182 204
166 182 204
165 182 204
165 182 204
164 181 204
163 181 204
163 181 204
162 180 204
162 180 204
161 180 204
161 179 204
160 179 204
160 179 204
159 178 204
158 178 204
158 178 204
157 178 204
157 177 204
156 177 204
156 177 204
155 176 204
155 176 204
154 176 204
154 176 204
153 175 204
153 175 204
152 175 204
152 175 204
151 174 204
151 174 204
150 174 204
150 174 204
149 173 204
149 173 204
149 173 204
148 173 204
148 173 204
148 172 204
147 172 204
147 172 204
147 172 204
147 172 204
146 172 204
146 172 204
146 172 204
146 172 204
146 172 204
146 172 204
146 172 204
146 172 204
146 172 204
146 172 204
146 172 204
146 172 204
147 172 204
147 172 204
147 172 204
148 173 204
148 173 204
149 173 204
149 173 204
150 174 204
150 174 204
151 174 204
152 175 204
152 175 204
153 175 204
154 176 204
155 176 204
156 177 204
157 177 204
158 178 204
159 179 204
160 179 204
162 180 204
163 181 204
164 181 204
166 182 204
167 183 204
168 184 204
170 184 204
171 185 204
173 186 204
174 187 204
176 188 204
178 189 204
179 189 203
150 167 104
139 158 0
140 158 0
136 154 0
136 153 0
130 146 0
128 143 0
117 132 0
77 95 59
42 67 70
39 62 73
37 59 74
68 82 34
103 118 0
114 130 0
145 165 0
165 189 0
111 133 73
51 82 83
54 86 105
55 88 109
54 85 104
53 85 104
55 86 108
56 88 115
55 88 116
54 86 103
57 91 116
55 87 102
57 90 108
56 88 118
56 89 112
57 91 120
58 90 121
57 90 118
58 92 127
58 92 117
57 90 117
56 89 116
55 87 107
57 91 111
56 90 108
58 91 125
58 92 125
57 90 113
58 91 120
59 93 124
58 91 124
58 92 121
57 89 114
57 91 114
58 91 124
55 88 113
58 91 122
58 91 117
56 89 120
59 93 125
57 89 115
56 89 113
57 89 114
58 91 111
58 92 113
56 89 108
56 89 113
55 88 108
58 92 124
58 92 105
59 93 129
59 92 117
56 89 108
57 90 103
58 91 114
57 89 105
58 91 121
58 92 115
58 92 122
58 92 117
57 89 115
57 91 114
59 93 125
60 94 128
57 90 121
59 92 120
58 92 115
58 92 114
56 90 108
58 91 120
59 93 121
58 92 110
57 90 122
58 91 125
56 89 110
57 90 115
57 89 111
57 90 113
57 90 120
57 90 117
59 92 115
57 90 110
56 89 113
58 91 117
59 92 133
57 90 114
57 90 115
53 84 102
56 89 105
58 92 125
58 90 113
57 90 118
57 90 122
56 89 113
57 89 117
59 92 118
58 92 110
56 88 113
57 90 124
57 89 110
53 84 99
55 86 107
56 88 110
57 89 114
57 88 120
55 86 99
54 85 101
55 85 102
58 89 113
55 87 95
56 87 117
57 89 122
55 86 105
52 80 92
54 85 104
51 78 89
54 82 107
120 141 65
167 189 0
147 152 0
109 90 0
92 75 0
51 44 7
37 40 11
40 46 17
41 47 18
81 73 14
115 99 0
121 104 0
132 112 0
134 114 0
138 117 0
139 118 0
139 118 0
153 127 28
179 142 50
177 141 51
176 141 51
174 140 51
173 139 51
171 139 51
170 138 51
168 138 51
167 137 51
166 136 51
164 136 51
163 135 51
162 135 51
160 134 51
159 134 51
158 133 51
157 133 51
156 133 51
155 132 51
154 132 51
153 131 51
153 131 51
152 131 51
151 131 51
150 130 51
150 130 51
149 130 51
149 130 51
148 129 51
148 129 51
147 129 51
147 129 51
147 129 51
146 129 51
146 129 51
146 129 51
146 129 51
146 129 51
146 129 51
146 129 51
146 129 51
146 129 51
146 129 51
146 129 51
146 129 51
147 129 51
147 129 51
147 129 51
147 129 51
148 129 51
148 129 51
148 130 51
149 130 51
149 130 51
149 130 51
150 130 51
150 130 51
151 130 51
151 131 51
152 131 51
152 131 51
153 131 51
153 131 51
154 132 51
154 132 51
155 132 51
155 132 51
156 132 51
156 133 51
157 133 51
157 133 51
158 133 51
158 134 51
159 134 51
160 134 51
160 134 51
161 134 51
161 135 51
162 135 51
162 135 51
163 135 51
163 136 51
164 136 51
165 136 51
165 136 51
166 136 51
165 136 50
59 64 36
48 57 34
47 56 33
47 56 33
47 54 31
48 57 34
46 53 31
46 53 31
45 52 29
44 51 29
43 49 28
43 50 29
44 50 28
43 50 28
42 47 26
42 47 26
41 47 26
40 44 23
39 44 23
42 46 24
41 45 24
41 45 24
41 45 25
40 44 23
39 42 22
39 42 22
42 47 24
43 49 26
52 53 26
114 97 25
140 119 10
140 119 0
139 118 0
139 118 0
139 118 0
138 118 0
138 117 0
139 157 0
138 157 0
138 157 0
140 159 0
138 157 0
140 158 0
140 158 0
140 159 0
122 139 112
68 86 111
41 66 109
41 66 110
41 66 107
39 62 103
41 65 111
42 68 117
40 65 109
41 65 111
40 65 109
41 65 113
42 68 118
40 64 111
42 68 117
42 68 120
42 67 118
45 71 126
45 72 128
44 71 127
45 71 126
46 73 130
45 73 131
46 73 131
47 75 134
47 75 132
48 76 137
48 76 136
49 78 142
150 166 193
166 182 204
166 182 204
165 182 204
164 181 204
164 181 204
163 181 204
163 181 204
162 180 204
162 180 204
161 180 204
161 179 204
160 179 204
159 179 204
159 178 204
158 178 204
158 178 204
157 178 204
157 177 204
156 177 204
156 177 204
155 176 204
154 176 204
154 176 204
153 176 204
153 175 204
153 175 204
152 175 204
152 175 204
151 174 204
151 174 204
150 174 204
150 174 204
150 174 204
149 173 204
149 173 204
148 173 204
148 173 204
148 173 204
148 173 204
147 172 204
147 172 204
147 172 204
147 172 204
147 172 204
147 172 204
147 172 204
147 172 204
147 172 204
147 172 204
147 172 204
147 172 204
147 172 204
147 172 204
148 173 204
148 173 204
148 173 204
149 173 204
149 173 204
150 174 204
150 174 204
151 174 204
151 175 204
152 175 204
153 175 204
154 176 204
155 176 204
156 177 204
157 177 204
157 178 204
159 178 204
160 179 204
161 179 204
162 180 204
163 181 204
165 182 204
166 182 204
167 183 204
169 184 204
170 185 204
171 185 204
173 186 204
175 187 204
176 188 204
178 189 204
175 186 192
147 164 86
140 158 0
138 156 0
134 153 0
131 148 0
131 147 0
125 142 0
112 126 0
87 100 25
44 66 64
40 62 74
37 58 64
57 70 33
81 94 0
108 123 0
132 151 0
169 191 0
165 187 0
155 178 25
55 84 104
52 82 107
55 87 101
52 83 99
55 87 105
55 87 107
55 87 119
55 86 113
53 84 103
53 85 105
56 88 109
54 86 97
55 87 106
55 87 108
55 88 101
55 88 105
57 90 115
57 90 113
57 90 122
58 91 102
57 89 109
56 88 107
58 91 120
57 90 120
56 88 110
56 88 107
59 92 126
56 89 104
56 89 103
58 91 123
58 91 114
56 89 113
59 92 122
55 87 112
57 91 125
57 90 120
59 93 126
57 90 113
59 92 122
58 91 117
58 91 118
57 91 108
57 91 117
57 89 124
57 90 114
57 90 115
58 91 117
58 91 111
58 92 121
60 94 126
56 90 111
58 91 111
57 90 118
58 90 113
59 93 124
58 91 115
60 93 131
58 91 122
58 91 117
57 90 115
58 91 114
58 92 124
56 88 111
57 90 121
57 90 111
57 90 120
57 90 117
55 88 103
58 91 117
57 90 124
56 88 103
57 90 117
57 89 114
59 92 126
59 92 118
58 92 115
56 88 108
60 94 133
58 92 126
57 90 118
56 89 114
58 92 124
58 91 120
57 90 105
56 88 110
57 89 110
55 87 107
58 91 122
58 90 115
57 89 111
58 90 128
57 90 114
57 89 121
56 87 103
56 88 116
54 85 102
58 91 121
55 87 117
57 89 118
59 92 122
56 88 107
56 89 114
58 91 117
55 86 107
54 85 90
57 90 110
55 86 107
56 87 108
55 86 99
56 87 105
55 87 108
54 84 85
53 82 101
52 81 96
53 81 96
57 82 91
155 175 40
166 187 0
168 189 0
133 126 0
107 87 0
89 70 0
71 60 5
36 40 12
39 45 17
40 47 17
100 86 6
110 95 0
121 104 0
130 111 0
134 113 0
138 117 0
139 118 0
139 118 0
148 123 21
174 139 47
178 142 51
176 141 51
175 140 51
173 139 51
172 139 51
170 138 51
169 138 51
167 137 51
166 137 51
164 136 51
163 135 51
162 135 51
161 134 51
160 134 51
159 134 51
157 133 51
157 133 51
155 132 51
155 132 51
154 132 51
153 131 51
152 131 51
151 131 51
151 131 51
150 130 51
150 130 51
149 130 51
149 130 51
148 130 51
148 129 51
148 129 51
147 129 51
147 129 51
147 129 51
147 129 51
147 129 51
147 129 51
147 129 51
147 129 51
147 129 51
147 129 51
147 129 51
147 129 51
147 129 51
147 129 51
148 129 51
148 129 51
148 129 51
148 130 51
149 130 51
149 130 51
149 130 51
150 130 51
150 130 51
151 130 51
151 131 51
152 131 51
152 131 51
153 131 51
153 131 51
154 132 51
154 132 51
155 132 51
155 132 51
156 132 51
156 133 51
157 133 51
157 133 51
158 133 51
158 133 51
159 134 51
159 134 51
160 134 51
161 134 51
161 135 51
162 135 51
162 135 51
163 135 51
163 136 51
164 136 51
164 136 51
165 136 51
166 136 51
166 137 51
155 128 49
48 57 34
48 57 34
48 57 34
48 57 33
48 56 33
46 54 31
47 55 32
46 55 32
45 52 30
44 50 28
41 47 25
44 51 29
44 50 28
42 47 26
43 48 26
43 48 26
41 46 25
39 44 23
42 47 26
38 42 21
39 42 22
42 47 26
39 43 22
39 44 23
40 45 22
38 42 19
40 45 23
68 65 27
136 115 21
140 119 0
139 118 0
140 119 0
138 118 0
139 118 0
140 119 0
139 118 0
138 118 0
137 156 0
140 158 0
139 158 0
138 157 0
139 157 0
139 158 0
140 159 0
141 159 0
139 158 0
142 160 59
116 131 132
47 72 120
42 67 112
42 67 114
41 67 112
41 65 105
41 65 111
40 65 112
41 66 112
42 67 116
42 67 119
41 66 114
42 67 118
42 68 120
43 69 120
43 68 120
43 69 122
44 72 126
44 70 125
46 73 129
45 72 129
47 74 132
47 76 136
48 77 137
46 74 130
48 77 137
48 78 141
135 152 184
167 183 204
166 182 204
166 182 204
165 182 204
164 181 204
164 181 204
163 181 204
163 181 204
162 180 204
162 180 204
161 180 204
160 179 204
160 179 204
159 179 204
159 178 204
158 178 204
158 178 204
157 178 204
157 177 204
156 177 204
156 177 204
155 176 204
155 176 204
154 176 204
154 176 204
153 175 204
153 175 204
152 175 204
152 175 204
151 174 204
151 174 204
151 174 204
150 174 204
150 174 204
150 174 204
149 173 204
149 173 204
149 173 204
148 173 204
148 173 204
148 173 204
148 173 204
148 173 204
148 173 204
148 173 204
148 172 204
148 173 204
148 173 204
148 173 204
148 173 204
148 173 204
148 173 204
149 173 204
149 173 204
149 173 204
150 174 204
150 174 204
150 174 204
151 174 204
152 175 204
152 175 204
153 175 204
154 176 204
154 176 204
155 177 204
156 177 204
157 177 204
158 178 204
159 179 204
160 179 204
161 180 204
163 180 204
164 181 204
165 182 204
166 182 204
168 183 204
169 184 204
170 185 204
172 186 204
173 186 204
175 187 204
177 188 204
178 189 204
171 183 177
142 160 50
140 158 0
140 158 0
140 158 0
133 151 0
128 146 0
120 136 0
121 138 0
109 124 0
75 91 55
37 59 68
39 58 54
69 81 18
87 99 0
105 120 0
122 140 0
162 185 0
166 189 0
165 189 0
164 185 0
111 135 69
53 84 110
51 82 99
54 86 106
55 88 106
54 86 103
55 86 110
54 86 102
51 80 99
55 86 111
56 88 110
55 87 105
56 88 111
56 88 107
55 86 108
56 89 112
54 86 101
54 86 113
55 87 98
57 90 126
58 91 119
57 90 111
57 90 100
57 91 120
58 91 120
56 90 109
56 89 108
57 89 118
57 90 121
58 90 118
56 89 105
57 90 113
57 90 116
57 91 106
57 90 122
58 92 117
57 90 113
57 91 120
56 89 111
57 90 115
57 90 114
57 90 106
57 90 111
58 91 120
58 91 124
57 90 111
59 93 128
56 88 110
59 93 126
59 92 122
57 90 115
57 91 102
56 89 114
58 91 129
56 90 103
57 90 113
59 93 131
57 90 118
57 91 114
58 91 117
59 92 124
58 92 122
56 88 107
57 89 108
57 90 115
57 90 120
58 91 121
58 92 118
58 91 118
59 92 124
60 94 124
58 91 120
58 91 121
57 90 115
58 92 118
57 89 118
55 87 111
58 91 120
58 91 124
59 92 122
59 92 121
59 93 122
59 92 121
57 90 110
56 89 114
56 89 117
56 89 114
56 88 108
57 90 110
55 88 105
58 92 118
55 87 99
58 91 118
58 91 120
57 90 113
56 88 105
55 86 102
56 88 113
55 85 105
56 88 114
56 87 110
55 86 102
58 91 122
55 86 108
55 86 104
55 87 107
57 89 102
53 83 99
55 85 102
55 86 110
55 85 116
54 85 104
52 80 101
54 82 106
53 81 96
112 132 67
168 187 0
161 182 0
166 185 0
158 174 0
124 110 0
100 81 0
83 68 0
60 49 0
40 42 12
39 44 15
70 63 11
99 85 0
115 99 0
120 103 0
128 109 0
132 114 0
136 116 0
138 118 0
139 118 0
144 121 16
172 138 45
178 142 51
177 141 51
175 140 51
174 140 51
172 139 51
170 138 51
169 138 51
168 137 51
166 137 51
165 136 51
164 136 51
163 135 51
161 135 51
160 134 51
159 134 51
158 133 51
157 133 51
156 133 51
155 132 51
155 132 51
154 132 51
153 131 51
152 131 51
152 131 51
151 131 51
150 130 51
150 130 51
150 130 51
149 130 51
149 130 51
149 130 51
148 130 51
148 129 51
148 129 51
148 129 51
148 129 51
148 129 51
148 129 51
148 129 51
148 129 51
148 129 51
148 129 51
148 129 51
148 129 51
148 130 51
149 130 51
149 130 51
149 130 51
150 130 51
150 130 51
150 130 51
151 130 51
151 131 51
151 131 51
152 131 51
152 131 51
153 131 51
153 131 51
154 132 51
154 132 51
155 132 51
155 132 51
156 132 51
156 133 51
157 133 51
157 133 51
158 133 51
158 133 51
159 134 51
159 134 51
160 134 51
161 134 51
161 135 51
162 135 51
162 135 51
163 135 51
163 136 51
164 136 51
164 136 51
165 136 51
166 136 51
166 137 51
167 137 51
140 118 46
49 59 35
48 57 34
49 57 33
47 56 33
46 54 32
47 54 32
46 54 31
45 52 30
45 53 30
45 52 29
44 50 28
44 50 29
44 50 28
43 49 28
44 51 28
42 48 27
41 46 25
42 48 27
41 44 23
41 45 24
41 45 24
41 46 23
44 50 27
41 46 24
43 48 24
49 51 24
109 92 30
142 119 18
139 119 0
139 118 0
138 118 0
139 118 0
139 118 0
138 117 0
140 119 0
140 119 0
139 118 0
139 157 0
139 158 0
138 157 0
139 158 0
139 158 0
139 158 0
139 158 0
140 158 0
140 158 0
140 158 0
139 158 0
142 157 111
99 113 135
41 66 107
43 68 114
41 65 112
42 67 114
43 68 116
41 65 112
43 68 117
43 68 119
42 68 118
44 70 123
42 67 117
42 68 113
45 72 127
45 73 129
45 71 125
45 72 129
46 74 133
48 76 137
46 74 132
45 72 130
47 75 134
47 74 134
48 76 136
49 78 140
115 133 171
167 183 204
167 183 204
166 182 204
166 182 204
165 182 204
164 181 204
164 181 204
163 181 204
163 181 204
162 180 204
162 180 204
161 180 204
161 179 204
160 179 204
159 179 204
159 178 204
158 178 204
158 178 204
157 178 204
157 177 204
156 177 204
156 177 204
155 177 204
155 176 204
154 176 204
154 176 204
153 176 204
153 175 204
153 175 204
152 175 204
152 175 204
151 174 204
151 174 204
151 174 204
150 174 204
150 174 204
150 174 204
150 174 204
149 173 204
149 173 204
149 173 204
149 173 204
149 173 204
149 173 204
149 173 204
149 173 204
149 173 204
149 173 204
149 173 204
149 173 204
149 173 204
150 174 204
150 174 204
150 174 204
151 174 204
151 174 204
151 175 204
152 175 204
153 175 204
153 175 204
154 176 204
155 176 204
155 177 204
156 177 204
157 177 204
158 178 204
159 178 204
160 179 204
161 180 204
162 180 204
163 181 204
164 181 204
166 182 204
167 183 204
168 184 204
170 184 204
171 185 204
173 186 204
174 187 204
176 188 204
177 188 204
179 189 204
162 176 150
139 158 20
139 157 0
138 157 0
135 153 0
134 152 0
130 147 0
126 143 0
118 133 0
108 124 0
92 106 0
58 74 39
54 68 27
82 94 0
84 97 0
97 112 0
110 125 0
162 184 0
159 182 0
162 184 0
166 190 0
161 184 0
157 179 16
66 95 109
51 81 96
53 85 106
53 84 98
50 80 85
55 87 111
54 86 103
54 86 100
55 88 108
57 89 111
56 89 114
54 86 113
55 87 116
56 88 105
56 89 117
55 87 105
55 87 97
56 89 109
57 90 119
59 92 128
58 91 121
58 91 123
55 87 104
57 91 117
57 91 115
57 90 122
57 89 121
57 90 114
58 92 114
58 91 121
56 89 117
57 90 113
57 90 114
57 89 124
56 89 102
58 91 118
57 91 111
58 92 114
57 90 117
56 88 107
56 89 113
59 92 120
59 93 121
58 91 126
57 90 110
60 94 131
58 91 120
58 92 117
58 91 115
59 93 126
58 92 129
57 90 111
58 91 124
59 93 130
58 92 118
56 90 102
56 88 115
58 91 117
57 90 121
59 92 128
55 88 94
57 90 111
58 92 124
57 90 110
57 90 120
58 91 120
56 89 113
58 91 117
56 89 99
57 91 126
58 92 117
56 89 115
56 89 103
59 93 130
58 91 118
58 91 115
58 91 115
57 90 110
55 86 100
56 88 111
59 92 128
58 91 118
57 90 120
58 90 120
57 90 120
56 88 110
56 89 108
57 90 111
57 90 108
56 89 107
59 92 129
56 88 105
59 92 120
58 92 122
55 87 104
55 86 111
54 85 95
57 90 110
55 87 92
56 88 102
56 88 113
56 89 114
56 88 113
54 84 94
54 85 110
55 85 99
55 87 113
54 84 90
55 86 99
55 86 103
54 84 99
51 78 87
52 80 92
58 84 85
157 177 40
161 180 0
157 175 0
164 182 0
164 183 0
154 168 0
113 93 0
98 79 0
83 67 0
72 58 0
55 49 7
64 60 12
86 73 0
99 85 0
112 98 0
123 106 0
130 111 0
133 114 0
138 117 0
139 118 0
139 118 0
140 119 7
163 132 37
179 142 51
177 141 51
176 141 51
174 140 51
172 139 51
171 139 51
170 138 51
168 138 51
167 137 51
166 136 51
164 136 51
163 135 51
162 135 51
161 135 51
160 134 51
159 134 51
158 133 51
157 133 51
156 133 51
155 132 51
154 132 51
154 132 51
153 131 51
152 131 51
152 131 51
151 131 51
151 131 51
151 130 51
150 130 51
150 130 51
150 130 51
149 130 51
149 130 51
149 130 51
149 130 51
149 130 51
149 130 51
149 130 51
149 130 51
149 130 51
149 130 51
149 130 51
149 130 51
149 130 51
150 130 51
150 130 51
150 130 51
150 130 51
151 130 51
151 131 51
151 131 51
152 131 51
152 131 51
153 131 51
153 131 51
153 132 51
154 132 51
154 132 51
155 132 51
155 132 51
156 132 51
156 133 51
157 133 51
157 133 51
158 133 51
158 134 51
159 134 51
159 134 51
160 134 51
161 134 51
161 135 51
162 135 51
162 135 51
163 135 51
163 136 51
164 136 51
165 136 51
165 136 51
166 136 51
166 137 51
167 137 51
167 137 51
110 96 41
48 57 34
48 57 34
46 55 32
48 56 33
46 55 32
46 54 31
47 55 31
46 53 31
44 50 28
44 50 28
42 48 26
45 52 30
42 49 27
42 48 26
44 51 29
42 46 25
42 47 26
43 49 27
42 47 25
41 46 24
41 46 24
43 48 26
44 50 27
41 46 22
103 87 32
142 117 26
139 118 0
139 118 0
139 118 0
139 118 0
140 119 0
139 118 0
139 118 0
140 119 0
138 118 0
139 118 0
137 117 0
139 158 0
138 157 0
139 158 0
139 158 0
139 157 0
139 158 0
139 157 0
138 157 0
140 158 0
139 158 0
139 158 0
140 158 0
143 161 57
125 140 135
76 94 127
45 72 118
44 70 116
42 67 112
44 70 120
42 68 115
43 69 115
43 68 118
42 68 118
42 68 114
43 69 119
45 72 127
44 71 125
44 71 126
46 73 132
47 74 132
46 74 130
45 73 130
48 76 134
48 76 137
46 74 133
48 77 138
49 78 139
99 119 162
168 183 204
167 183 204
167 183 204
166 182 204
166 182 204
165 182 204
165 182 204
164 181 204
164 181 204
163 181 204
162 180 204
162 180 204
161 180 204
161 179 204
160 179 204
160 179 204
159 179 204
159 178 204
158 178 204
158 178 204
157 177 204
157 177 204
156 177 204
156 177 204
155 176 204
155 176 204
154 176 204
154 176 204
153 176 204
153 175 204
153 175 204
152 175 204
152 175 204
152 175 204
151 175 204
151 174 204
151 174 204
151 174 204
150 174 204
150 174 204
150 174 204
150 174 204
150 174 204
150 174 204
150 174 204
150 174 204
150 174 204
150 174 204
150 174 204
151 174 204
151 174 204
151 174 204
151 174 204
152 175 204
152 175 204
153 175 204
153 175 204
154 176 204
154 176 204
155 176 204
155 177 204
156 177 204
157 177 204
158 178 204
159 178 204
160 179 204
161 180 204
162 180 204
163 181 204
164 181 204
165 182 204
166 183 204
168 183 204
169 184 204
170 185 204
172 185 204
173 186 204
175 187 204
176 188 204
178 189 204
176 187 196
153 169 112
140 159 0
140 159 0
136 155 0
139 157 0
133 152 0
125 141 0
119 135 0
116 132 0
102 117 0
79 92 0
71 84 0
72 83 0
73 83 0
83 96 0
90 104 0
110 126 0
151 173 0
163 185 0
160 183 0
158 180 0
159 182 0
157 180 0
162 184 0
119 140 66
52 83 93
51 81 95
54 86 108
54 86 110
54 87 105
54 86 108
56 89 105
56 89 106
54 85 104
53 85 94
54 85 109
56 88 105
57 89 117
56 88 113
54 86 111
56 88 106
57 90 110
54 86 101
56 88 97
57 90 111
57 90 113
57 90 118
58 92 125
58 91 120
57 90 115
57 89 114
56 89 107
56 88 107
55 88 100
58 91 121
59 92 115
57 91 118
56 89 115
58 92 114
57 91 125
56 88 107
57 89 120
56 88 99
58 91 118
57 91 113
55 88 99
56 88 110
57 89 115
57 91 120
57 91 121
56 88 105
58 91 115
57 90 107
57 90 110
58 91 128
56 89 110
56 89 120
57 91 114
56 89 107
58 91 114
59 93 118
56 89 110
58 91 120
56 89 111
55 88 100
56 89 108
58 92 124
57 90 111
56 89 107
55 87 102
59 92 129
57 90 118
58 92 124
58 91 120
59 92 115
57 91 114
57 90 115
58 91 114
58 91 113
57 90 115
57 89 103
56 88 111
58 91 117
58 91 125
59 93 130
56 89 110
56 88 121
54 86 97
57 89 117
57 89 108
59 92 125
57 90 117
56 88 102
58 92 115
57 90 120
54 85 92
59 92 129
56 88 110
57 90 110
57 89 117
54 85 103
58 89 122
54 85 97
57 89 107
57 90 115
58 92 122
56 86 104
57 89 122
54 84 104
55 86 99
53 84 105
56 87 101
55 86 107
55 86 104
54 83 95
52 81 92
51 76 91
121 141 65
163 183 0
159 176 0
165 186 0
161 180 0
164 181 0
157 175 0
148 155 0
109 89 0
97 79 0
88 71 0
76 61 0
63 52 0
80 68 0
91 78 0
108 92 0
110 95 0
120 103 0
124 106 0
136 115 0
138 117 0
136 116 0
137 117 0
141 119 0
157 129 32
177 141 49
178 141 51
176 141 51
175 140 51
173 140 51
172 139 51
170 138 51
169 138 51
168 137 51
167 137 51
165 136 51
164 136 51
163 135 51
162 135 51
161 134 51
160 134 51
159 134 51
158 133 51
157 133 51
156 133 51
155 132 51
155 132 51
154 132 51
153 132 51
153 131 51
153 131 51
152 131 51
152 131 51
151 131 51
151 131 51
151 130 51
151 130 51
150 130 51
150 130 51
150 130 51
150 130 51
150 130 51
150 130 51
150 130 51
150 130 51
150 130 51
150 130 51
150 130 51
151 130 51
151 131 51
151 131 51
151 131 51
152 131 51
152 131 51
152 131 51
153 131 51
153 131 51
153 132 51
154 132 51
154 132 51
155 132 51
155 132 51
156 132 51
156 133 51
157 133 51
157 133 51
158 133 51
158 133 51
159 134 51
159 134 51
160 134 51
160 134 51
161 134 51
161 135 51
162 135 51
162 135 51
163 135 51
164 136 51
164 136 51
165 136 51
165 136 51
166 136 51
166 137 51
167 137 51
167 137 51
168 137 51
106 93 41
48 57 34
48 56 33
48 57 33
47 57 34
47 56 33
47 54 32
45 53 31
45 52 30
46 53 30
44 51 29
43 50 29
45 52 30
42 48 27
45 51 28
43 49 26
42 47 26
43 48 26
42 47 26
42 48 26
42 47 26
43 48 25
42 48 25
81 73 31
139 114 35
144 121 16
138 118 0
140 119 0
139 118 0
139 118 0
139 118 0
139 118 0
140 119 0
139 118 0
138 117 0
138 118 0
139 118 0
139 118 0
139 157 0
139 158 0
137 156 0
139 157 0
138 157 0
139 157 0
139 158 0
136 155 0
138 158 0
139 158 0
138 157 0
140 159 0
139 158 0
140 159 20
157 172 131
154 165 177
75 93 129
45 71 118
44 71 120
43 69 115
43 69 113
44 70 122
44 70 117
44 70 124
45 72 126
45 72 123
45 72 127
44 70 123
45 72 125
44 70 124
47 75 132
45 72 125
46 74 132
47 75 134
47 76 135
48 77 139
49 78 141
109 127 167
169 184 204
168 183 204
168 183 204
167 183 204
167 183 204
166 182 204
165 182 204
165 182 204
164 181 204
164 181 204
163 181 204
163 180 204
162 180 204
162 180 204
161 180 204
161 179 204
160 179 204
160 179 204
159 179 204
158 178 204
158 178 204
158 178 204
157 178 204
157 177 204
156 177 204
156 177 204
155 177 204
155 176 204
155 176 204
154 176 204
154 176 204
153 176 204
153 175 204
153 175 204
153 175 204
152 175 204
152 175 204
152 175 204
152 175 204
152 175 204
151 175 204
151 174 204
151 174 204
151 174 204
151 174 204
151 174 204
151 174 204
152 175 204
152 175 204
152 175 204
152 175 204
153 175 204
153 175 204
153 175 204
154 176 204
154 176 204
155 176 204
155 177 204
156 177 204
157 177 204
157 178 204
158 178 204
159 179 204
160 179 204
161 179 204
162 180 204
163 181 204
164 181 204
165 182 204
166 182 204
167 183 204
169 184 204
170 184 204
171 185 204
173 186 204
174 187 204
175 187 204
177 188 204
178 189 204
168 181 172
145 163 73
138 157 0
139 157 0
136 155 0
134 151 0
135 154 0
122 138 0
126 142 0
107 123 0
105 120 0
90 104 0
89 102 0
79 92 0
69 81 0
65 79 0
89 103 0
113 128 0
143 163 0
159 181 0
167 188 0
161 184 0
165 187 0
160 182 0
162 184 0
160 182 0
151 173 18
74 100 91
54 86 99
53 84 96
53 84 90
53 84 107
55 86 107
53 85 96
56 88 107
55 88 111
56 89 115
57 89 119
59 92 129
56 88 117
56 89 111
58 91 125
58 90 121
56 89 108
56 88 111
57 90 116
56 88 113
57 90 111
57 90 115
56 88 107
57 91 121
56 89 108
56 88 114
58 92 122
55 87 102
57 90 114
58 91 124
57 90 110
56 88 105
57 91 113
57 90 117
55 87 102
56 88 107
57 89 108
55 88 113
57 89 111
56 88 108
57 90 114
57 90 124
57 90 110
58 91 113
55 87 102
58 92 121
55 87 100
57 89 103
57 90 118
56 88 115
57 91 121
57 91 113
57 89 115
58 91 122
58 91 107
57 89 111
58 92 124
55 87 105
58 92 122
58 91 125
57 90 117
57 90 114
59 93 124
56 90 108
56 89 110
58 91 122
60 94 133
55 87 108
56 89 114
58 92 117
57 90 102
58 91 113
57 90 113
56 89 114
57 91 118
57 90 113
55 87 107
56 88 105
56 88 108
56 89 110
55 88 111
57 89 115
56 89 110
56 88 108
56 88 102
55 87 97
56 88 110
59 92 126
58 91 117
56 88 103
54 87 120
56 88 111
55 85 104
53 84 94
55 87 110
56 88 97
56 87 113
55 87 99
53 82 92
55 86 111
56 88 111
56 87 105
55 85 105
53 83 97
54 84 107
56 86 110
52 81 90
54 84 88
52 80 90
53 83 111
51 79 87
83 105 83
152 170 25
164 183 0
159 176 0
160 177 0
163 183 0
160 175 0
158 176 0
164 183 0
142 144 0
108 87 0
92 74 0
86 69 0
76 62 0
81 67 0
85 72 0
90 78 0
104 89 0
117 101 0
120 103 0
134 114 0
133 113 0
132 113 0
138 117 0
139 118 0
138 118 0
144 121 16
174 139 46
178 142 51
177 141 51
176 141 51
174 140 51
173 139 51
171 139 51
170 138 51
169 138 51
167 137 51
166 137 51
165 136 51
164 136 51
163 135 51
162 135 51
161 134 51
160 134 51
159 134 51
158 133 51
157 133 51
157 133 51
156 133 51
155 132 51
155 132 51
154 132 51
154 132 51
153 132 51
153 131 51
153 131 51
152 131 51
152 131 51
152 131 51
152 131 51
151 131 51
151 131 51
151 131 51
151 131 51
151 131 51
151 131 51
152 131 51
152 131 51
152 131 51
152 131 51
152 131 51
152 131 51
153 131 51
153 131 51
153 131 51
153 132 51
154 132 51
154 132 51
154 132 51
155 132 51
155 132 51
156 132 51
156 133 51
157 133 51
157 133 51
158 133 51
158 133 51
159 134 51
159 134 51
159 134 51
160 134 51
161 134 51
161 135 51
162 135 51
162 135 51
163 135 51
163 135 51
164 136 51
164 136 51
165 136 51
165 136 51
166 137 51
166 137 51
167 137 51
168 137 51
168 137 51
169 138 51
116 100 42
46 55 33
48 57 33
48 56 33
47 55 32
46 54 31
46 53 30
46 55 32
46 54 30
45 52 29
44 51 29
45 52 30
44 50 28
43 48 25
43 49 28
43 50 27
44 50 27
45 52 29
45 53 28
44 49 25
44 51 27
80 72 32
153 123 43
161 131 36
139 118 0
138 118 0
140 119 0
139 118 0
140 119 0
138 118 0
137 117 0
137 117 0
140 119 0
140 119 0
137 117 0
138 117 0
136 117 0
138 117 0
138 157 0
136 155 0
138 156 0
136 155 0
138 157 0
139 158 0
139 157 0
139 158 0
139 158 0
138 157 0
139 158 0
139 158 0
139 158 0
139 158 0
139 158 0
143 161 54
159 172 145
141 152 174
90 107 138
45 72 121
45 72 118
44 70 117
43 70 120
44 70 115
44 71 122
45 72 125
44 70 118
45 72 123
45 72 121
47 74 132
46 74 132
47 74 130
46 73 129
48 77 134
48 77 134
48 77 137
49 78 141
120 137 172
170 184 204
169 184 204
168 184 204
168 183 204
167 183 204
167 183 204
166 182 204
166 182 204
165 182 204
165 182 204
164 181 204
164 181 204
163 181 204
163 180 204
162 180 204
162 180 204
161 180 204
161 179 204
160 179 204
159 179 204
159 179 204
159 178 204
158 178 204
158 178 204
157 178 204
157 177 204
156 177 204
156 177 204
156 177 204
155 177 204
155 176 204
155 176 204
154 176 204
154 176 204
154 176 204
154 176 204
153 176 204
153 175 204
153 175 204
153 175 204
153 175 204
153 175 204
153 175 204
153 175 204
153 175 204
153 175 204
153 175 204
153 175 204
153 176 204
154 176 204
154 176 204
154 176 204
155 176 204
155 176 204
156 177 204
156 177 204
157 177 204
157 178 204
158 178 204
159 178 204
159 179 204
160 179 204
161 180 204
162 180 204
163 181 204
164 181 204
165 182 204
166 182 204
167 183 204
168 184 204
170 184 204
171 185 204
172 186 204
174 186 204
175 187 204
176 188 204
178 189 204
177 188 197
159 173 134
141 159 20
139 157 0
138 156 0
135 154 0
133 151 0
131 150 0
131 148 0
115 131 0
116 130 0
102 116 0
92 105 0
86 99 0
78 90 0
79 91 0
85 98 0
90 103 0
110 124 0
143 162 0
160 182 0
158 180 0
156 178 0
155 176 0
158 181 0
158 179 0
161 183 0
157 178 0
153 174 0
138 160 48
53 84 100
50 80 98
55 87 119
53 85 105
54 85 109
53 83 108
53 85 96
55 87 111
54 86 108
54 86 99
54 85 106
55 87 111
54 86 105
56 89 109
56 89 112
54 86 102
58 92 122
54 87 95
56 88 117
56 89 101
55 87 110
56 88 117
54 85 103
58 91 112
56 90 107
57 91 113
56 89 104
55 88 103
56 88 108
57 90 107
55 87 111
58 91 122
56 89 117
57 91 121
55 87 110
57 89 114
57 90 110
58 91 122
55 87 97
58 91 113
57 89 108
58 91 114
55 88 102
58 91 118
58 91 117
57 90 107
58 92 115
57 90 111
57 90 115
55 88 105
55 87 97
56 89 110
58 92 118
57 90 111
58 91 120
58 92 126
58 91 115
57 90 117
58 90 117
56 90 102
58 91 118
58 91 118
54 85 92
56 89 108
58 92 120
58 91 122
58 91 121
57 89 113
58 91 114
55 87 102
57 90 115
57 90 103
56 89 97
57 90 113
56 88 103
56 89 105
58 91 121
57 89 110
57 90 117
56 88 110
56 89 111
56 88 110
55 87 99
56 89 113
57 90 120
57 89 115
57 90 114
55 87 99
57 89 114
57 90 114
57 89 107
55 87 103
57 91 120
55 85 108
57 90 110
56 88 114
55 86 102
55 86 100
55 86 108
53 84 90
55 86 100
54 85 111
56 87 107
54 84 95
51 78 85
53 82 100
52 81 72
52 80 89
53 81 101
51 78 83
131 148 26
162 179 0
158 174 0
158 177 0
152 167 0
152 168 0
154 168 0
153 168 0
159 175 0
161 179 0
137 132 0
112 90 0
100 79 0
86 69 0
78 65 0
69 55 0
85 72 0
90 77 0
103 89 0
114 98 0
117 101 0
132 113 0
127 109 0
134 114 0
135 115 0
138 117 0
138 118 0
138 118 0
156 128 31
177 141 49
178 141 51
176 141 51
175 140 51
173 140 51
172 139 51
171 139 51
170 138 51
168 138 51
167 137 51
166 137 51
165 136 51
164 136 51
163 135 51
162 135 51
161 135 51
160 134 51
159 134 51
159 134 51
158 133 51
157 133 51
157 133 51
156 133 51
156 132 51
155 132 51
155 132 51
154 132 51
154 132 51
154 132 51
153 132 51
153 132 51
153 131 51
153 131 51
153 131 51
153 131 51
153 131 51
153 131 51
153 131 51
153 131 51
153 131 51
153 131 51
153 132 51
154 132 51
154 132 51
154 132 51
154 132 51
155 132 51
155 132 51
155 132 51
156 132 51
156 133 51
156 133 51
157 133 51
157 133 51
158 133 51
158 133 51
159 134 51
159 134 51
160 134 51
160 134 51
160 134 51
161 135 51
162 135 51
162 135 51
162 135 51
163 135 51
164 136 51
164 136 51
165 136 51
165 136 51
166 136 51
166 137 51
167 137 51
167 137 51
168 137 51
168 138 51
169 138 51
169 138 51
121 103 43
48 57 34
47 56 33
48 57 34
47 55 32
47 55 32
47 55 31
45 52 29
47 54 30
46 54 31
45 52 29
44 51 28
43 49 27
45 52 28
44 50 27
43 49 27
45 52 29
46 53 28
44 51 27
91 80 34
144 116 43
168 135 42
144 121 15
141 119 0
140 119 0
139 118 0
139 118 0
139 118 0
139 118 0
138 117 0
139 118 0
139 118 0
140 119 0
139 119 0
137 117 0
139 118 0
137 117 0
136 117 0
138 157 0
137 156 0
137 156 0
136 154 0
137 156 0
137 156 0
139 158 0
138 156 0
139 157 0
139 157 0
140 158 0
139 158 0
141 159 0
138 157 0
139 158 0
138 158 0
139 158 0
148 165 89
170 182 173
165 176 194
136 148 173
71 91 133
43 70 122
46 73 128
43 69 112
45 72 124
46 73 126
45 72 123
44 71 120
45 72 123
46 75 134
47 75 132
48 76 132
47 76 132
49 77 138
47 76 137
48 77 137
160 174 195
170 185 204
170 184 204
169 184 204
169 184 204
168 184 204
168 183 204
167 183 204
167 183 204
166 182 204
166 182 204
165 182 204
165 182 204
164 181 204
164 181 204
163 181 204
163 180 204
162 180 204
162 180 204
161 180 204
161 179 204
160 179 204
160 179 204
159 179 204
159 178 204
158 178 204
158 178 204
158 178 204
157 178 204
157 177 204
157 177 204
156 177 204
156 177 204
156 177 204
156 177 204
155 176 204
155 176 204
155 176 204
155 176 204
155 176 204
154 176 204
154 176 204
154 176 204
154 176 204
154 176 204
155 176 204
155 176 204
155 176 204
155 176 204
155 177 204
156 177 204
156 177 204
156 177 204
157 177 204
157 178 204
158 178 204
158 178 204
159 178 204
159 179 204
160 179 204
161 179 204
161 180 204
162 180 204
163 181 204
164 181 204
165 182 204
166 182 204
167 183 204
168 184 204
170 184 204
171 185 204
172 186 204
173 186 204
175 187 204
176 188 204
177 189 204
179 189 204
168 180 167
143 161 54
139 158 0
138 157 0
136 155 0
134 151 0
137 156 0
131 148 0
125 141 0
115 131 0
111 128 0
102 116 0
91 105 0
85 98 0
95 108 0
83 96 0
86 99 0
102 116 0
103 117 0
132 149 0
155 177 0
165 186 0
158 179 0
156 178 0
153 175 0
155 175 0
159 182 0
153 173 0
158 180 0
162 184 0
156 178 0
98 122 83
55 88 109
52 83 102
52 83 111
55 87 104
53 84 100
52 82 96
54 85 101
54 85 103
53 84 99
54 86 107
55 88 110
55 88 106
53 85 102
54 86 108
55 87 108
55 87 109
56 89 110
56 88 108
54 86 114
57 89 118
54 86 104
55 87 101
57 90 114
55 87 106
58 90 113
55 87 111
57 90 110
56 89 109
57 90 114
56 88 107
56 88 107
56 88 110
58 92 121
56 89 113
56 89 105
56 89 112
56 89 117
58 91 117
57 90 120
58 90 111
55 88 99
57 90 107
55 87 105
56 88 102
56 88 102
57 90 114
56 88 108
55 87 103
58 91 124
58 91 115
59 93 122
56 89 108
55 88 97
55 87 102
58 91 113
57 88 111
56 89 103
57 90 108
57 90 114
56 88 100
56 88 102
56 88 110
57 90 118
55 87 107
56 88 107
57 90 111
59 92 124
57 90 110
58 91 125
59 92 121
57 89 111
57 89 107
58 91 110
58 91 121
57 89 111
58 90 121
56 89 107
56 88 103
57 89 120
58 91 125
59 92 115
57 90 107
56 88 108
56 88 120
55 87 104
55 86 113
57 89 111
57 89 111
59 92 126
58 90 122
55 88 100
53 83 90
54 85 92
54 86 97
55 87 102
57 90 118
55 86 95
56 88 111
55 87 92
55 86 105
53 83 95
54 84 105
53 82 97
54 84 104
55 85 108
54 85 100
53 81 99
49 75 87
84 104 83
157 173 0
151 167 0
153 171 0
157 173 0
156 170 0
158 177 0
158 175 0
154 170 0
152 168 0
157 171 0
154 170 0
132 131 0
101 80 0
92 73 0
85 68 0
80 65 0
83 69 0
82 68 0
96 80 0
101 87 0
110 94 0
113 98 0
124 106 0
122 105 0
134 113 0
134 114 0
136 116 0
139 118 0
139 118 0
146 122 19
166 134 40
179 142 51
177 141 51
176 141 51
175 140 51
173 140 51
172 139 51
171 139 51
170 138 51
168 138 51
167 137 51
166 137 51
165 136 51
164 136 51
163 135 51
162 135 51
162 135 51
161 134 51
160 134 51
159 134 51
159 134 51
158 133 51
157 133 51
157 133 51
157 133 51
156 133 51
156 133 51
156 132 51
155 132 51
155 132 51
155 132 51
155 132 51
154 132 51
154 132 51
154 132 51
154 132 51
154 132 51
155 132 51
155 132 51
155 132 51
155 132 51
155 132 51
155 132 51
155 132 51
156 132 51
156 133 51
156 133 51
157 133 51
157 133 51
157 133 51
158 133 51
158 133 51
158 134 51
159 134 51
159 134 51
160 134 51
160 134 51
161 134 51
161 135 51
162 135 51
162 135 51
163 135 51
163 135 51
164 136 51
164 136 51
165 136 51
165 136 51
166 136 51
166 137 51
167 137 51
167 137 51
168 137 51
168 138 51
169 138 51
169 138 51
170 138 51
170 138 51
151 124 47
48 57 33
47 56 33
48 56 32
48 56 32
47 55 32
45 53 30
46 54 31
46 54 31
46 54 30
45 53 30
44 52 29
46 53 28
46 53 29
44 51 28
45 52 28
74 70 32
121 101 39
168 134 49
170 137 44
148 123 20
140 119 0
140 119 0
140 119 0
137 117 0
138 117 0
138 118 0
139 118 0
139 118 0
139 118 0
139 118 0
138 118 0
137 117 0
139 118 0
138 118 0
139 118 0
136 117 0
138 118 0
138 157 0
138 156 0
137 156 0
136 155 0
139 158 0
137 156 0
135 154 0
140 158 0
137 156 0
138 157 0
139 157 0
140 159 0
140 158 0
139 158 0
139 157 0
138 158 0
140 158 0
140 158 0
139 158 0
151 167 108
172 184 180
179 189 204
157 169 189
124 138 162
78 97 136
47 75 129
46 74 123
44 72 118
46 73 125
46 74 125
45 73 120
47 75 131
49 77 133
47 76 134
47 75 135
51 79 137
122 138 172
172 186 204
171 185 204
171 185 204
170 185 204
170 184 204
169 184 204
169 184 204
168 184 204
168 183 204
167 183 204
167 183 204
166 182 204
166 182 204
165 182 204
165 182 204
164 181 204
164 181 204
163 181 204
163 181 204
162 180 204
162 180 204
161 180 204
161 180 204
161 179 204
160 179 204
160 179 204
159 179 204
159 178 204
159 178 204
158 178 204
158 178 204
158 178 204
157 178 204
157 178 204
157 177 204
157 177 204
157 177 204
156 177 204
156 177 204
156 177 204
156 177 204
156 177 204
156 177 204
156 177 204
156 177 204
156 177 204
157 177 204
157 177 204
157 177 204
157 177 204
158 178 204
158 178 204
158 178 204
159 178 204
159 179 204
160 179 204
160 179 204
161 180 204
162 180 204
162 180 204
163 181 204
164 181 204
165 182 204
166 182 204
167 183 204
168 183 204
169 184 204
170 184 204
171 185 204
172 186 204
173 186 204
174 187 204
176 188 204
177 188 204
178 189 204
172 183 180
149 165 89
139 157 0
138 157 0
140 158 0
138 155 0
136 155 0
132 150 0
125 142 0
121 138 0
123 139 0
110 126 0
103 118 0
88 102 0
84 99 0
81 94 0
85 99 0
96 110 0
105 119 0
106 121 0
136 153 0
159 180 0
150 171 0
155 176 0
156 177 0
155 177 0
158 178 0
149 170 0
156 178 0
153 173 0
146 166 0
158 180 0
156 177 0
147 168 27
60 86 89
52 83 102
54 85 111
54 86 106
50 80 90
55 86 100
54 86 112
54 85 106
54 86 100
55 86 107
55 87 108
56 89 112
57 90 113
54 86 93
57 89 115
58 90 122
56 88 116
53 85 92
54 86 103
55 87 108
58 91 124
56 89 112
54 86 106
56 89 115
56 89 110
56 88 113
56 89 114
55 87 102
54 87 92
58 91 121
59 93 122
55 88 102
55 88 102
56 88 97
54 85 105
56 89 113
55 86 102
58 92 120
55 87 96
54 86 107
56 89 113
57 90 113
57 90 117
56 89 103
57 89 114
57 89 117
58 92 118
56 89 113
56 89 115
56 89 107
59 92 125
56 89 107
57 89 118
56 88 111
55 88 102
57 91 125
56 89 107
56 88 111
55 88 102
59 93 115
56 89 115
57 89 110
57 90 114
57 90 115
57 89 120
57 91 111
57 90 99
57 90 118
56 88 107
57 90 122
57 90 114
59 92 120
56 89 110
55 87 102
57 89 113
57 90 113
57 89 113
55 87 97
57 90 108
58 91 117
57 90 111
56 87 108
56 88 97
54 86 94
55 86 100
59 92 114
54 85 102
57 90 118
55 86 97
56 87 108
57 89 99
55 87 102
56 87 114
55 86 107
56 87 110
55 87 111
55 85 97
53 84 110
54 84 100
54 84 104
56 88 111
53 82 96
54 84 101
52 81 94
53 84 88
51 79 90
52 81 87
63 87 79
142 156 31
158 177 0
154 167 0
151 165 0
156 173 0
146 158 0
152 165 0
154 169 0
154 169 0
162 178 0
156 168 0
158 175 0
150 165 0
128 123 0
103 81 0
96 74 0
82 65 0
89 72 0
91 75 0
83 69 0
97 82 0
102 88 0
100 87 0
111 96 0
123 106 0
125 108 0
130 111 0
135 115 0
136 116 0
139 118 0
137 116 0
138 117 0
149 124 25
171 137 44
178 142 51
177 141 51
176 141 51
174 140 51
173 140 51
172 139 51
171 139 51
170 138 51
169 138 51
168 137 51
166 137 51
166 136 51
165 136 51
164 136 51
163 135 51
162 135 51
161 135 51
161 135 51
160 134 51
160 134 51
159 134 51
159 134 51
158 133 51
158 133 51
158 133 51
157 133 51
157 133 51
157 133 51
157 133 51
156 133 51
156 133 51
156 133 51
156 133 51
156 133 51
156 133 51
156 133 51
156 133 51
157 133 51
157 133 51
157 133 51
157 133 51
157 133 51
157 133 51
158 133 51
158 133 51
158 133 51
159 134 51
159 134 51
159 134 51
160 134 51
160 134 51
161 134 51
161 135 51
162 135 51
162 135 51
162 135 51
163 135 51
163 135 51
164 136 51
164 136 51
165 136 51
165 136 51
166 136 51
166 137 51
167 137 51
167 137 51
168 137 51
168 138 51
169 138 51
169 138 51
170 138 51
170 138 51
171 139 51
171 139 51
172 139 51
125 106 43
47 56 33
49 58 34
48 57 33
47 54 30
46 54 30
47 56 32
47 55 32
46 54 30
47 54 30
45 53 29
47 55 30
90 80 34
118 98 39
157 126 46
179 142 50
173 139 46
150 124 25
140 118 0
139 118 0
138 118 0
141 119 0
139 118 0
139 118 0
138 118 0
140 119 0
139 118 0
139 118 0
136 116 0
139 118 0
140 119 0
138 117 0
137 117 0
137 117 0
138 117 0
138 117 0
138 118 0
136 154 0
138 156 0
138 157 0
137 156 0
137 155 0
137 156 0
139 157 0
140 158 0
139 158 0
140 158 0
138 156 0
138 157 0
138 156 0
138 157 0
139 158 0
137 156 0
139 157 0
140 158 0
140 158 0
139 158 0
139 158 0
153 168 108
173 184 183
180 190 204
179 190 204
171 182 199
153 165 186
130 144 172
109 125 157
86 105 144
76 96 135
58 82 134
75 96 143
91 109 146
114 131 166
157 171 193
173 186 204
173 186 204
172 186 204
172 186 204
171 185 204
171 185 204
170 185 204
170 184 204
169 184 204
169 184 204
168 184 204
168 183 204
167 183 204
167 183 204
166 182 204
166 182 204
165 182 204
165 182 204
165 181 204
164 181 204
164 181 204
163 181 204
163 181 204
162 180 204
162 180 204
162 180 204
161 180 204
161 179 204
161 179 204
160 179 204
160 179 204
160 179 204
159 179 204
159 179 204
159 178 204
159 178 204
158 178 204
158 178 204
158 178 204
158 178 204
158 178 204
158 178 204
158 178 204
158 178 204
158 178 204
158 178 204
158 178 204
159 178 204
159 178 204
159 178 204
159 179 204
160 179 204
160 179 204
160 179 204
161 180 204
161 180 204
162 180 204
162 180 204
163 181 204
164 181 204
165 182 204
166 182 204
166 182 204
167 183 204
168 183 204
169 184 204
170 184 204
171 185 204
172 186 204
173 186 204
174 187 204
176 188 204
177 188 204
178 189 204
177 188 198
152 168 108
140 159 28
139 158 0
138 156 0
137 154 0
137 155 0
135 153 0
127 142 0
117 134 0
117 135 0
115 132 0
106 123 0
98 113 0
89 104 0
80 94 0
86 100 0
83 96 0
92 105 0
97 111 0
94 109 0
129 147 0
148 168 0
151 170 0
159 180 0
148 169 0
153 173 0
144 165 0
149 168 0
151 172 0
150 170 0
159 180 0
152 173 0
153 174 0
155 176 0
152 172 0
123 143 54
51 81 92
52 82 98
54 84 105
56 88 108
52 83 92
52 82 92
55 87 106
54 86 107
54 86 104
54 86 94
57 89 109
57 90 110
54 86 95
54 86 101
56 88 105
54 86 99
57 90 114
56 88 111
52 83 94
57 89 117
57 89 114
57 89 103
56 89 113
55 86 113
56 90 111
59 92 123
55 87 110
56 88 108
55 88 106
57 90 120
57 89 115
55 87 97
56 89 103
57 90 106
57 90 113
59 93 126
58 91 115
57 90 117
58 91 121
54 85 103
55 88 113
57 90 113
56 89 110
57 90 117
58 91 120
57 90 118
56 89 105
57 90 115
57 90 115
56 89 107
57 89 100
56 89 107
56 89 108
55 88 111
57 89 111
59 92 122
59 93 124
58 91 121
57 90 117
55 87 117
55 87 107
55 87 105
56 88 108
56 89 103
56 88 108
56 89 102
57 90 111
58 91 110
57 90 114
58 91 115
55 87 114
56 88 111
56 88 107
56 89 102
58 92 125
55 88 97
56 88 110
57 90 118
57 89 111
53 85 92
55 86 114
54 84 113
55 87 102
56 89 99
58 91 108
56 88 108
56 88 99
56 89 114
57 89 113
55 86 105
56 88 110
55 85 100
55 87 105
54 84 92
56 87 111
54 85 107
54 84 102
55 85 94
54 85 97
56 87 113
54 84 97
55 84 104
53 82 92
51 80 83
50 77 87
52 80 91
124 141 40
157 173 0
156 172 0
153 166 0
150 164 0
150 162 0
149 164 0
153 169 0
151 167 0
151 166 0
152 166 0
153 164 0
150 163 0
154 167 0
155 167 0
131 131 0
104 82 0
89 70 0
87 70 0
89 74 0
81 65 0
89 74 0
94 80 0
103 87 0
109 93 0
111 95 0
123 106 0
126 107 0
131 112 0
134 115 0
136 115 0
133 114 0
136 116 0
139 118 0
139 118 0
154 127 29
175 140 48
178 142 51
177 141 51
176 141 51
174 140 51
173 140 51
172 139 51
171 139 51
170 138 51
169 138 51
168 137 51
167 137 51
166 137 51
165 136 51
165 136 51
164 136 51
163 135 51
163 135 51
162 135 51
161 135 51
161 134 51
161 134 51
160 134 51
160 134 51
159 134 51
159 134 51
159 134 51
159 134 51
158 134 51
158 133 51
158 133 51
158 133 51
158 133 51
158 133 51
158 133 51
158 133 51
158 133 51
158 133 51
158 134 51
159 134 51
159 134 51
159 134 51
159 134 51
160 134 51
160 134 51
160 134 51
161 134 51
161 134 51
161 135 51
162 135 51
162 135 51
162 135 51
163 135 51
163 135 51
164 136 51
164 136 51
165 136 51
165 136 51
165 136 51
166 137 51
166 137 51
167 137 51
167 137 51
168 137 51
168 138 51
169 138 51
169 138 51
170 138 51
170 138 51
171 139 51
171 139 51
172 139 51
172 139 51
173 139 51
173 140 51
163 132 49
124 104 42
95 84 36
67 67 33
66 67 34
73 70 34
86 77 35
112 95 39
125 104 41
144 117 44
173 138 49
179 142 51
180 142 51
173 138 46
150 125 25
139 118 0
139 118 0
139 118 0
139 118 0
137 117 0
138 118 0
140 119 0
140 118 0
138 117 0
139 118 0
138 117 0
135 115 0
138 117 0
136 116 0
136 116 0
136 117 0
138 117 0
136 116 0
138 117 0
136 115 0
138 117 0
136 154 0
138 157 0
138 155 0
137 156 0
139 158 0
133 153 0
138 156 0
137 155 0
138 156 0
138 156 0
137 157 0
138 156 0
138 157 0
137 156 0
139 158 0
140 158 0
140 158 0
139 158 0
139 158 0
139 158 0
140 159 0
140 158 0
140 158 0
154 169 115
168 180 168
180 190 204
179 190 204
179 189 204
178 189 204
178 189 204
177 189 204
177 188 204
176 188 204
176 188 204
175 187 204
175 187 204
174 187 204
174 187 204
174 186 204
173 186 204
172 186 204
172 186 204
172 185 204
171 185 204
171 185 204
170 185 204
170 184 204
169 184 204
169 184 204
168 183 204
168 183 204
167 183 204
167 183 204
166 182 204
166 182 204
166 182 204
165 182 204
165 182 204
164 181 204
164 181 204
163 181 204
163 181 204
163 181 204
162 180 204
162 180 204
162 180 204
161 180 204
161 180 204
161 180 204
161 179 204
161 179 204
160 179 204
160 179 204
160 179 204
160 179 204
160 179 204
160 179 204
160 179 204
160 179 204
160 179 204
160 179 204
160 179 204
160 179 204
161 179 204
161 180 204
161 180 204
161 180 204
162 180 204
162 180 204
163 180 204
163 181 204
164 181 204
164 181 204
165 182 204
166 182 204
166 182 204
167 183 204
168 183 204
169 184 204
170 184 204
171 185 204
172 185 204
173 186 204
174 186 204
175 187 204
176 188 204
177 188 204
178 189 204
175 186 191
155 170 119
139 158 28
139 158 0
140 158 0
138 156 0
138 157 0
133 150 0
131 149 0
129 147 0
127 143 0
119 136 0
116 131 0
101 116 0
107 123 0
102 117 0
91 105 0
100 114 0
93 106 0
92 106 0
95 108 0
106 120 0
127 144 0
153 174 0
154 175 0
151 171 0
156 177 0
153 173 0
157 177 0
155 175 0
156 177 0
154 175 0
149 169 0
149 169 0
146 167 0
148 169 0
148 169 0
148 168 0
135 156 0
102 124 73
50 80 91
53 85 99
53 83 98
53 84 100
55 87 108
53 85 98
54 86 106
55 87 103
55 87 99
55 87 100
52 83 101
55 88 113
56 88 106
54 85 103
56 89 106
58 91 113
53 85 97
54 86 101
56 88 112
56 88 110
56 88 115
57 90 110
57 90 122
56 88 120
56 89 113
56 89 105
57 89 118
57 90 110
55 88 107
59 92 122
56 89 97
54 85 100
56 89 111
57 89 108
58 91 115
57 90 114
58 91 128
58 92 118
58 91 133
55 88 106
56 89 115
57 91 111
56 88 108
55 87 102
57 90 114
56 89 115
57 90 110
58 91 120
56 89 100
58 90 117
57 90 114
55 86 99
57 89 110
56 89 113
56 89 108
56 89 110
56 87 105
54 85 102
55 88 107
58 91 122
57 89 113
56 89 108
56 88 102
58 91 122
57 89 111
56 88 100
55 87 111
57 90 107
56 89 105
57 90 115
55 88 105
56 89 111
55 87 97
56 89 114
55 86 105
55 87 99
55 87 103
55 86 97
58 91 105
55 86 103
56 88 115
57 90 110
57 90 111
55 87 99
55 87 104
54 85 105
56 88 100
56 88 114
56 88 121
55 85 100
53 84 95
56 88 111
56 88 104
53 82 105
53 84 99
53 83 100
53 82 102
54 85 99
54 85 99
53 83 99
54 85 100
52 80 87
53 81 90
48 74 85
78 97 57
152 164 0
151 165 0
146 162 0
152 167 0
158 173 0
145 156 0
148 162 0
147 161 0
148 161 0
150 162 0
152 165 0
141 150 0
151 160 0
147 158 0
158 173 0
152 164 0
134 136 0
102 79 0
90 68 0
87 70 0
94 78 0
83 67 0
89 74 0
100 83 0
113 95 0
101 88 0
113 98 0
122 105 0
127 109 0
127 108 0
129 110 0
136 116 0
136 115 0
137 117 0
139 118 0
138 117 0
141 119 7
158 129 33
174 139 47
178 142 51
177 141 51
176 141 51
175 140 51
174 140 51
173 139 51
172 139 51
170 138 51
169 138 51
169 138 51
168 137 51
167 137 51
166 137 51
166 136 51
165 136 51
164 136 51
164 136 51
163 135 51
163 135 51
162 135 51
162 135 51
161 135 51
161 135 51
161 135 51
161 134 51
161 134 51
160 134 51
160 134 51
160 134 51
160 134 51
160 134 51
160 134 51
160 134 51
160 134 51
160 134 51
160 134 51
160 134 51
161 134 51
161 134 51
161 135 51
161 135 51
162 135 51
162 135 51
162 135 51
162 135 51
163 135 51
163 135 51
163 136 51
164 136 51
164 136 51
165 136 51
165 136 51
165 136 51
166 137 51
166 137 51
167 137 51
167 137 51
168 137 51
168 137 51
169 138 51
169 138 51
170 138 51
170 138 51
171 138 51
171 139 51
172 139 51
172 139 51
172 139 51
173 140 51
174 140 51
174 140 51
174 140 51
175 140 51
175 140 51
176 141 51
176 141 51
177 141 51
177 141 51
178 142 51
178 142 51
179 142 51
179 142 51
180 142 51
170 137 44
150 124 25
140 119 5
139 118 0
137 117 0
140 119 0
139 118 0
140 119 0
138 118 0
140 119 0
139 118 0
138 117 0
137 117 0
138 118 0
138 117 0
137 116 0
138 116 0
138 117 0
139 118 0
138 117 0
138 117 0
136 116 0
134 113 0
133 114 0
137 116 0
136 155 0
133 152 0
136 155 0
137 156 0
138 156 0
136 154 0
135 153 0
139 158 0
137 156 0
137 156 0
138 156 0
137 156 0
139 158 0
137 156 0
138 157 0
138 157 0
140 158 0
139 157 0
140 159 0
140 158 0
139 158 0
139 158 0
139 158 0
140 158 0
140 158 0
150 166 93
169 181 170
179 189 201
179 190 204
179 189 204
178 189 204
178 189 204
177 189 204
177 188 204
176 188 204
176 188 204
176 188 204
175 187 204
175 187 204
174 187 204
174 187 204
173 186 204
173 186 204
172 186 204
172 186 204
171 185 204
171 185 204
170 185 204
170 184 204
170 184 204
169 184 204
169 184 204
168 183 204
168 183 204
167 183 204
167 183 204
167 183 204
166 182 204
166 182 204
165 182 204
165 182 204
165 182 204
164 181 204
164 181 204
164 181 204
163 181 204
163 181 204
163 181 204
163 181 204
163 180 204
162 180 204
162 180 204
162 180 204
162 180 204
162 180 204
162 180 204
162 180 204
162 180 204
162 180 204
162 180 204
162 180 204
163 180 204
163 180 204
163 181 204
163 181 204
163 181 204
164 181 204
164 181 204
165 182 204
165 182 204
166 182 204
166 182 204
167 183 204
167 183 204
168 183 204
169 184 204
170 184 204
171 185 204
171 185 204
172 186 204
173 186 204
174 187 204
175 187 204
176 188 204
177 189 204
179 189 204
172 184 182
151 167 104
140 159 28
138 157 0
138 157 0
136 155 0
135 153 0
137 156 0
135 153 0
127 146 0
124 142 0
124 141 0
114 130 0
112 128 0
103 119 0
102 119 0
99 115 0
91 105 0
95 109 0
90 103 0
93 106 0
92 105 0
105 119 0
140 158 0
158 178 0
153 173 0
154 173 0
154 174 0
153 173 0
150 171 0
153 173 0
145 165 0
147 166 0
143 163 0
149 169 0
149 170 0
149 169 0
143 162 0
145 165 0
148 168 0
141 161 0
138 158 25
75 101 83
47 76 82
52 83 101
53 83 100
52 82 92
54 85 109
55 87 111
54 85 97
56 88 95
55 87 106
54 85 93
52 82 90
56 88 110
55 88 103
54 86 105
55 87 106
57 90 113
56 90 103
56 88 108
56 88 100
55 87 104
54 86 94
52 84 98
54 86 105
56 88 102
56 89 103
55 88 105
56 88 105
59 92 126
55 87 108
55 87 102
56 89 113
56 89 97
55 87 105
59 92 128
58 91 108
55 87 99
56 89 114
55 86 111
56 89 99
55 87 105
58 91 122
57 90 111
54 86 107
56 88 103
57 90 111
56 88 107
57 90 107
56 89 107
54 87 100
54 86 107
57 90 103
57 89 105
56 89 114
56 88 107
56 88 94
57 90 118
55 87 97
58 91 120
57 91 105
56 89 105
56 88 97
55 87 110
54 86 102
55 88 99
56 89 107
57 90 120
56 88 122
56 88 105
55 87 103
56 88 107
57 91 120
56 89 114
58 91 120
57 90 102
55 86 100
54 86 105
54 86 92
55 86 100
57 90 117
57 89 108
52 83 95
56 88 111
54 86 95
57 89 113
56 88 105
53 83 100
54 85 97
55 87 111
55 85 102
56 88 114
54 85 94
53 83 97
56 88 107
53 84 92
54 84 107
53 83 95
52 82 86
54 84 94
54 84 100
54 85 94
52 81 88
52 81 87
68 89 83
144 157 18
143 155 0
144 155 0
148 162 0
144 156 0
140 153 0
149 160 0
148 159 0
140 150 0
143 153 0
147 159 0
142 152 0
152 164 0
142 151 0
148 157 0
148 159 0
148 159 0
148 158 0
139 141 0
97 73 0
99 76 0
95 76 0
87 67 0
91 74 0
91 77 0
89 74 0
97 82 0
93 80 0
115 98 0
114 98 0
120 103 0
126 108 0
130 112 0
134 114 0
133 113 0
139 118 0
139 118 0
138 118 0
138 118 0
141 119 8
156 128 31
174 139 46
178 142 51
178 141 51
176 141 51
175 140 51
174 140 51
173 140 51
172 139 51
171 139 51
170 138 51
170 138 51
169 138 51
168 138 51
167 137 51
167 137 51
166 137 51
166 136 51
165 136 51
165 136 51
164 136 51
164 136 51
163 136 51
163 135 51
163 135 51
163 135 51
162 135 51
162 135 51
162 135 51
162 135 51
162 135 51
162 135 51
162 135 51
162 135 51
162 135 51
162 135 51
162 135 51
162 135 51
163 135 51
163 135 51
163 135 51
163 135 51
164 136 51
164 136 51
164 136 51
164 136 51
165 136 51
165 136 51
165 136 51
166 136 51
166 137 51
167 137 51
167 137 51
167 137 51
168 137 51
168 138 51
169 138 51
169 138 51
170 138 51
170 138 51
170 138 51
171 139 51
171 139 51
172 139 51
172 139 51
173 139 51
173 140 51
174 140 51
174 140 51
175 140 51
175 140 51
176 141 51
176 141 51
176 141 51
177 141 51
177 141 51
178 142 51
178 142 51
179 142 51
179 142 51
179 142 50
168 135 41
150 125 24
138 118 0
140 119 0
140 119 0
138 117 0
139 118 0
138 118 0
139 118 0
138 117 0
138 118 0
139 118 0
138 118 0
139 118 0
140 118 0
136 116 0
137 117 0
135 114 0
138 117 0
137 117 0
139 118 0
136 116 0
135 115 0
138 117 0
137 117 0
134 115 0
136 116 0
137 155 0
135 154 0
137 155 0
139 158 0
138 156 0
136 155 0
136 154 0
138 156 0
138 156 0
136 155 0
137 154 0
138 156 0
138 157 0
138 156 0
137 156 0
138 156 0
138 156 0
138 157 0
138 157 0
138 158 0
140 158 0
140 158 0
139 158 0
140 158 0
139 157 0
139 158 0
139 158 0
146 163 79
158 173 135
174 185 188
179 190 204
179 190 204
179 189 204
178 189 204
178 189 204
177 189 204
177 188 204
176 188 204
176 188 204
175 188 204
175 187 204
174 187 204
174 187 204
174 186 204
173 186 204
173 186 204
172 186 204
172 185 204
171 185 204
171 185 204
171 185 204
170 185 204
170 184 204
169 184 204
169 184 204
168 184 204
168 183 204
168 183 204
167 183 204
167 183 204
167 183 204
166 183 204
166 182 204
166 182 204
165 182 204
165 182 204
165 182 204
165 182 204
165 182 204
164 181 204
164 181 204
164 181 204
164 181 204
164 181 204
164 181 204
164 181 204
164 181 204
164 181 204
164 181 204
164 181 204
164 181 204
165 182 204
165 182 204
165 182 204
166 182 204
166 182 204
166 182 204
167 183 204
167 183 204
168 183 204
168 183 204
169 184 204
169 184 204
170 184 204
171 185 204
172 185 204
172 186 204
173 186 204
174 187 204
175 187 204
176 188 204
177 188 204
178 189 204
179 189 203
167 180 165
150 166 100
139 158 0
139 158 0
137 155 0
136 154 0
138 156 0
136 153 0
133 151 0
132 150 0
126 145 0
123 140 0
121 138 0
118 135 0
102 118 0
115 131 0
100 115 0
97 111 0
99 114 0
99 113 0
95 109 0
97 111 0
104 118 0
113 127 0
144 162 0
151 169 0
152 171 0
146 165 0
141 161 0
144 163 0
139 158 0
142 161 0
144 162 0
142 162 0
154 174 0
151 171 0
141 161 0
145 165 0
148 169 0
147 166 0
152 173 0
143 164 0
142 162 0
143 164 0
123 143 40
52 81 90
53 84 96
51 81 84
52 82 91
52 83 97
54 85 108
50 80 90
54 85 94
54 86 101
53 84 91
52 83 93
54 85 96
53 85 101
55 87 110
55 86 104
54 86 94
55 88 95
55 86 105
57 90 120
53 85 92
55 88 106
55 87 104
56 89 105
56 88 105
54 86 103
54 86 92
57 89 110
54 86 94
57 90 115
56 88 111
56 88 105
56 89 108
55 86 103
57 89 103
58 91 121
56 89 107
56 88 115
54 86 99
56 89 107
56 89 102
55 87 103
55 87 111
55 87 107
55 87 108
54 86 107
56 88 88
56 89 107
57 90 110
56 89 107
56 89 111
57 90 118
56 89 107
55 86 118
56 89 105
57 90 107
55 87 97
56 88 111
58 92 118
57 90 111
56 88 107
56 89 103
55 88 97
55 87 107
56 88 102
54 86 94
55 87 102
56 88 113
58 91 113
56 88 107
56 88 110
58 90 115
56 88 110
55 87 103
58 92 122
56 87 108
54 86 100
57 90 110
56 89 114
53 84 102
55 86 102
55 87 97
54 85 94
54 86 105
57 89 113
58 91 108
55 87 107
54 86 95
55 87 108
56 88 99
56 87 111
54 85 100
53 84 103
53 83 102
54 85 78
53 84 104
53 84 90
52 81 87
52 83 88
51 78 85
52 79 96
54 84 104
49 74 81
127 141 40
143 151 0
145 156 0
147 156 0
143 153 0
144 154 0
143 154 0
148 159 0
148 161 0
145 151 0
145 152 0
143 153 0
151 162 0
146 154 0
144 151 0
147 154 0
144 153 0
145 153 0
136 142 0
141 145 0
139 144 0
102 80 0
96 73 0
100 76 0
97 78 0
92 75 0
94 79 0
100 83 0
101 85 0
109 94 0
104 89 0
110 94 0
124 106 0
119 102 0
127 108 0
128 110 0
134 114 0
132 113 0
137 116 0
138 117 0
139 118 0
139 118 0
139 118 0
152 126 27
172 138 45
178 142 50
178 142 51
177 141 51
176 141 51
175 140 51
174 140 51
173 140 51
172 139 51
171 139 51
171 139 51
170 138 51
169 138 51
169 138 51
168 137 51
168 137 51
167 137 51
167 137 51
166 137 51
166 137 51
165 136 51
165 136 51
165 136 51
165 136 51
164 136 51
164 136 51
164 136 51
164 136 51
164 136 51
164 136 51
164 136 51
164 136 51
164 136 51
164 136 51
164 136 51
164 136 51
165 136 51
165 136 51
165 136 51
165 136 51
166 136 51
166 137 51
166 137 51
166 137 51
167 137 51
167 137 51
167 137 51
168 137 51
168 137 51
169 138 51
169 138 51
169 138 51
170 138 51
170 138 51
170 138 51
171 139 51
171 139 51
172 139 51
172 139 51
173 139 51
173 140 51
174 140 51
174 140 51
174 140 51
175 140 51
175 140 51
176 141 51
176 141 51
177 141 51
177 141 51
178 141 51
178 142 51
179 142 51
179 142 51
179 142 51
173 138 45
160 130 34
145 122 16
139 118 0
139 118 0
140 119 0
140 118 0
140 119 0
139 118 0
138 117 0
139 118 0
138 117 0
139 118 0
138 118 0
139 118 0
140 118 0
138 117 0
136 117 0
137 116 0
138 117 0
137 117 0
138 117 0
138 117 0
137 116 0
137 116 0
136 115 0
136 116 0
137 116 0
136 116 0
135 115 0
134 152 0
135 153 0
137 156 0
133 152 0
134 153 0
137 155 0
136 154 0
132 150 0
136 155 0
135 154 0
136 155 0
138 156 0
139 157 0
137 156 0
139 158 0
138 157 0
141 159 0
136 155 0
138 156 0
137 156 0
139 157 0
140 158 0
139 158 0
139 158 0
138 158 0
140 158 0
139 158 0
139 158 0
140 158 0
139 158 20
147 164 81
166 179 159
178 188 199
179 190 204
179 189 204
178 189 204
178 189 204
178 189 204
177 188 204
177 188 204
176 188 204
176 188 204
175 188 204
175 187 204
175 187 204
174 187 204
174 187 204
173 186 204
173 186 204
172 186 204
172 186 204
172 185 204
171 185 204
171 185 204
170 185 204
170 185 204
170 184 204
169 184 204
169 184 204
169 184 204
168 184 204
168 183 204
168 183 204
168 183 204
167 183 204
167 183 204
167 183 204
167 183 204
167 183 204
167 183 204
166 182 204
166 182 204
166 182 204
166 182 204
166 182 204
166 182 204
166 182 204
166 182 204
166 182 204
167 183 204
167 183 204
167 183 204
167 183 204
168 183 204
168 183 204
168 184 204
169 184 204
169 184 204
170 184 204
170 185 204
171 185 204
171 185 204
172 186 204
173 186 204
173 186 204
174 187 204
175 187 204
176 188 204
176 188 204
178 189 204
179 189 204
175 186 193
157 172 132
143 161 57
138 157 0
140 159 0
138 157 0
138 157 0
137 155 0
134 152 0
131 147 0
132 150 0
129 146 0
124 143 0
120 138 0
112 128 0
114 129 0
112 127 0
100 116 0
100 115 0
97 111 0
91 105 0
97 112 0
102 116 0
94 107 0
98 111 0
114 128 0
140 157 0
139 158 0
141 160 0
146 166 0
145 164 0
144 163 0
148 167 0
144 163 0
138 156 0
144 162 0
144 163 0
138 157 0
147 168 0
137 157 0
150 169 0
147 167 0
142 162 0
145 164 0
146 165 0
144 164 0
147 165 0
145 165 0
123 144 46
52 83 84
46 75 68
51 81 86
52 82 103
52 82 83
55 87 102
55 87 106
53 84 104
58 91 117
52 83 101
54 86 97
55 87 109
55 87 96
54 85 102
56 88 102
55 87 103
54 86 102
57 90 114
56 89 99
55 87 99
55 87 99
55 88 99
53 85 101
55 87 109
56 88 95
55 87 107
56 88 103
57 90 105
54 87 95
56 89 107
56 89 105
57 89 110
57 90 105
56 88 102
56 88 95
55 86 103
56 88 92
56 88 102
56 89 111
54 85 102
57 91 113
56 89 107
55 88 108
55 87 110
58 91 110
57 89 108
57 89 110
55 87 108
57 89 105
58 91 120
57 90 108
57 90 113
55 88 100
59 92 121
54 85 95
57 90 111
55 86 108
55 87 100
55 88 108
54 86 100
57 90 102
54 85 103
55 87 90
56 89 108
54 85 97
55 86 99
56 88 102
56 88 103
56 88 111
57 90 115
55 87 100
55 87 103
55 87 97
53 84 99
57 89 111
55 87 99
54 84 105
56 87 111
57 89 114
55 86 95
52 83 84
56 87 100
54 86 90
53 83 99
54 86 103
56 88 107
53 82 100
54 85 99
53 84 94
55 86 99
56 87 105
54 83 100
53 83 94
52 82 97
53 83 97
53 82 95
53 82 96
53 82 92
50 78 92
52 80 90
116 129 48
148 160 0
133 144 0
143 150 0
142 155 0
148 157 0
145 156 0
148 155 0
141 150 0
142 150 0
141 147 0
142 150 0
143 152 0
143 149 0
138 143 0
138 141 0
135 143 0
146 155 0
147 154 0
142 148 0
144 150 0
144 150 0
140 141 0
111 92 0
100 76 0
98 77 0
96 77 0
101 81 0
87 71 0
91 77 0
94 78 0
109 92 0
114 97 0
114 98 0
118 100 0
128 110 0
119 101 0
128 109 0
128 110 0
134 114 0
133 113 0
134 114 0
139 118 0
137 117 0
138 118 0
139 118 0
143 121 15
160 130 35
175 140 48
179 142 51
178 141 51
177 141 51
176 141 51
175 140 51
174 140 51
173 140 51
173 139 51
172 139 51
171 139 51
171 139 51
170 138 51
170 138 51
169 138 51
169 138 51
168 138 51
168 137 51
168 137 51
167 137 51
167 137 51
167 137 51
167 137 51
167 137 51
166 137 51
166 137 51
166 137 51
166 137 51
166 137 51
166 137 51
166 137 51
167 137 51
167 137 51
167 137 51
167 137 51
167 137 51
167 137 51
167 137 51
168 137 51
168 137 51
168 137 51
168 138 51
169 138 51
169 138 51
169 138 51
170 138 51
170 138 51
170 138 51
171 139 51
171 139 51
172 139 51
172 139 51
172 139 51
173 139 51
173 140 51
174 140 51
174 140 51
175 140 51
175 140 51
175 140 51
176 141 51
176 141 51
177 141 51
177 141 51
178 141 51
178 142 51
178 142 51
179 142 51
179 142 51
179 142 50
166 134 40
151 125 26
141 119 0
140 118 0
139 118 0
137 117 0
141 119 0
139 118 0
139 118 0
138 118 0
139 118 0
139 118 0
139 118 0
137 117 0
140 119 0
140 119 0
138 117 0
135 115 0
138 117 0
138 117 0
138 117 0
137 117 0
138 117 0
136 116 0
137 117 0
134 115 0
137 116 0
137 116 0
136 116 0
137 116 0
134 115 0
135 114 0
135 153 0
134 152 0
135 154 0
136 154 0
136 154 0
135 155 0
136 155 0
137 155 0
132 151 0
137 155 0
135 153 0
137 156 0
137 155 0
139 158 0
136 155 0
137 155 0
135 153 0
138 157 0
140 158 0
137 156 0
139 157 0
138 156 0
139 157 0
137 156 0
139 158 0
140 158 0
139 158 0
139 157 0
141 159 0
140 158 0
138 158 0
139 158 0
141 159 45
158 172 127
170 182 173
179 190 203
179 190 204
179 189 204
178 189 204
178 189 204
178 189 204
177 189 204
177 188 204
176 188 204
176 188 204
176 188 204
175 187 204
175 187 204
174 187 204
174 187 204
174 186 204
173 186 204
173 186 204
172 186 204
172 186 204
172 185 204
171 185 204
171 185 204
171 185 204
171 185 204
170 185 204
170 185 204
170 184 204
170 184 204
169 184 204
169 184 204
169 184 204
169 184 204
169 184 204
169 184 204
168 184 204
168 184 204
168 184 204
168 184 204
169 184 204
168 184 204
168 184 204
169 184 204
169 184 204
169 184 204
169 184 204
169 184 204
170 184 204
170 184 204
170 185 204
171 185 204
171 185 204
172 186 204
172 186 204
173 186 204
173 186 204
174 187 204
175 187 204
175 187 204
176 188 204
177 188 204
178 189 204
178 189 204
176 187 195
164 177 153
148 165 91
140 159 0
138 157 0
139 157 0
138 156 0
136 155 0
136 154 0
133 151 0
131 149 0
132 150 0
125 142 0
125 142 0
122 140 0
119 135 0
120 137 0
114 131 0
108 124 0
110 126 0
99 114 0
106 120 0
94 108 0
105 119 0
102 116 0
90 103 0
99 112 0
121 136 0
146 164 0
144 163 0
144 162 0
140 159 0
143 161 0
142 160 0
140 158 0
142 160 0
145 163 0
144 162 0
140 158 0
139 157 0
137 155 0
144 162 0
140 159 0
136 155 0
134 153 0
143 162 0
138 157 0
143 162 0
134 153 0
139 159 0
131 148 0
142 161 0
102 124 80
48 77 88
53 83 101
51 81 82
53 83 105
53 84 99
53 84 89
54 86 96
53 85 86
53 85 99
55 87 101
56 88 115
53 84 94
51 82 84
54 86 105
54 86 109
55 86 104
54 85 102
55 87 112
54 86 97
54 86 97
55 87 103
56 89 110
54 86 100
57 90 115
55 87 105
55 86 108
55 87 94
56 89 103
56 88 108
55 87 102
55 87 110
54 86 94
57 90 107
52 83 97
56 88 113
54 86 94
55 87 107
56 89 108
56 89 105
54 86 97
53 84 88
54 85 99
57 90 105
56 87 108
55 86 97
59 92 120
55 87 107
56 90 102
56 89 102
57 90 110
55 87 94
55 88 100
57 90 100
55 88 99
56 89 105
57 89 110
55 88 100
55 87 103
55 86 100
57 89 114
55 87 103
56 89 114
52 84 88
57 90 111
57 90 113
54 86 90
55 88 107
55 86 111
55 86 97
56 89 107
55 87 108
56 89 111
56 89 108
52 82 82
56 89 117
56 89 105
55 87 92
55 87 95
55 87 102
54 85 94
55 86 102
55 87 113
55 86 95
53 84 95
54 85 103
54 85 99
54 85 102
56 86 104
56 87 107
53 83 92
54 85 99
53 83 105
51 79 82
54 85 99
51 79 83
54 84 102
52 81 92
48 73 75
104 119 62
142 154 0
139 150 0
142 150 0
137 147 0
143 152 0
142 152 0
135 143 0
142 152 0
141 149 0
134 139 0
148 159 0
148 157 0
137 146 0
144 150 0
138 140 0
143 150 0
139 148 0
138 143 0
146 155 0
143 147 0
140 143 0
142 147 0
139 148 0
137 137 0
120 109 0
96 73 0
98 76 0
96 74 0
106 87 0
94 75 0
100 82 0
101 83 0
93 78 0
110 93 0
109 93 0
115 99 0
119 101 0
124 106 0
128 109 0
126 108 0
133 114 0
135 115 0
135 116 0
136 116 0
138 118 0
139 118 0
139 118 0
138 117 0
140 119 0
147 123 21
161 131 36
175 140 48
179 142 51
178 141 51
177 141 51
176 141 51
175 141 51
175 140 51
174 140 51
173 140 51
173 139 51
172 139 51
172 139 51
171 139 51
171 139 51
170 138 51
170 138 51
170 138 51
169 138 51
169 138 51
169 138 51
169 138 51
169 138 51
168 138 51
168 138 51
169 138 51
168 138 51
168 138 51
168 138 51
168 138 51
169 138 51
169 138 51
169 138 51
169 138 51
169 138 51
169 138 51
170 138 51
170 138 51
170 138 51
170 138 51
171 138 51
171 139 51
171 139 51
171 139 51
172 139 51
172 139 51
173 139 51
173 139 51
173 140 51
174 140 51
174 140 51
174 140 51
175 140 51
175 140 51
176 141 51
176 141 51
176 141 51
177 141 51
177 141 51
178 141 51
178 142 51
178 142 51
179 142 51
179 142 51
178 141 49
170 137 44
153 126 28
142 120 12
139 118 0
139 118 0
139 118 0
138 118 0
140 119 0
139 118 0
138 118 0
139 118 0
138 118 0
137 117 0
137 117 0
137 116 0
138 118 0
137 117 0
139 118 0
139 118 0
137 117 0
137 117 0
139 118 0
136 116 0
136 116 0
138 117 0
137 117 0
137 116 0
137 117 0
135 115 0
134 114 0
134 114 0
135 114 0
137 116 0
138 117 0
135 114 0
135 154 0
136 154 0
134 153 0
134 153 0
136 154 0
136 155 0
136 154 0
136 155 0
136 154 0
139 157 0
135 154 0
135 153 0
134 152 0
136 155 0
136 155 0
136 155 0
137 156 0
134 153 0
136 155 0
137 155 0
137 156 0
138 157 0
139 158 0
137 157 0
137 155 0
139 157 0
137 155 0
139 157 0
139 157 0
138 158 0
139 158 0
140 159 0
138 157 0
140 158 0
139 158 0
141 160 50
155 170 121
166 179 162
176 187 193
179 190 204
179 190 204
179 189 204
178 189 204
178 189 204
177 189 204
177 188 204
177 188 204
176 188 204
176 188 204
176 188 204
175 187 204
175 187 204
175 187 204
174 187 204
174 187 204
174 186 204
173 186 204
173 186 204
173 186 204
172 186 204
172 186 204
172 186 204
172 185 204
172 185 204
171 185 204
171 185 204
171 185 204
171 185 204
171 185 204
171 185 204
171 185 204
171 185 204
171 185 204
171 185 204
171 185 204
171 185 204
171 185 204
171 185 204
171 185 204
171 185 204
172 185 204
172 186 204
172 186 204
173 186 204
173 186 204
173 186 204
174 187 204
174 187 204
175 187 204
175 187 204
176 188 204
177 188 204
177 189 204
178 189 204
179 189 204
174 186 189
162 176 149
149 165 93
140 158 0
138 157 0
139 158 0
138 157 0
139 157 0
137 155 0
137 155 0
135 152 0
132 149 0
129 146 0
131 149 0
121 138 0
127 143 0
123 140 0
116 133 0
113 130 0
108 126 0
100 116 0
109 125 0
96 111 0
105 120 0
103 117 0
90 104 0
101 115 0
94 108 0
104 117 0
122 138 0
140 157 0
135 152 0
138 155 0
134 152 0
133 151 0
140 159 0
139 157 0
139 157 0
141 159 0
144 163 0
131 149 0
144 163 0
138 156 0
144 163 0
134 152 0
139 158 0
137 155 0
140 158 0
135 154 0
137 156 0
137 157 0
138 157 0
153 173 0
142 160 0
134 154 0
135 154 0
91 112 71
49 78 89
54 85 100
52 82 93
55 87 99
55 87 101
55 87 105
53 84 75
50 79 82
55 87 97
55 87 108
55 87 107
54 85 88
55 87 105
55 87 102
55 88 107
53 84 106
56 89 111
54 86 100
56 88 107
55 86 103
56 89 101
54 86 103
53 85 96
57 90 105
57 90 122
56 88 118
55 87 110
56 87 97
55 88 100
55 87 97
53 85 102
55 87 97
56 88 111
55 87 100
55 87 102
56 88 113
55 88 105
57 90 117
55 86 105
57 90 102
55 88 105
56 88 99
56 88 111
56 88 103
55 87 107
55 87 103
55 86 107
56 88 110
55 88 103
54 86 88
57 90 113
55 87 103
57 90 107
55 87 102
58 90 126
54 86 107
53 84 97
56 89 107
56 88 102
54 85 105
56 88 108
55 87 102
54 86 108
55 87 105
54 85 99
55 86 114
55 87 100
56 88 102
55 87 103
55 86 105
55 87 111
54 86 97
55 87 111
56 89 105
56 89 113
57 90 110
56 88 114
56 88 110
56 88 107
51 81 99
56 88 111
53 83 88
54 85 95
55 87 107
52 82 90
52 81 95
55 85 105
54 86 97
53 83 99
53 82 96
54 84 110
54 84 99
51 80 90
50 79 90
50 78 85
52 79 92
93 111 70
136 147 0
139 150 0
137 142 0
134 140 0
129 137 0
131 139 0
136 145 0
140 146 0
134 138 0
149 158 0
139 146 0
136 142 0
146 154 0
134 140 0
133 140 0
134 136 0
140 144 0
135 134 0
141 146 0
138 141 0
140 139 0
139 142 0
143 148 0
142 148 0
139 142 0
145 146 0
125 118 0
100 76 0
103 79 0
106 84 0
99 75 0
92 74 0
98 80 0
104 86 0
100 84 0
107 90 0
109 92 0
117 99 0
121 103 0
124 106 0
119 102 0
130 110 0
133 113 0
135 115 0
135 115 0
136 116 0
138 117 0
136 115 0
135 115 0
137 117 0
139 118 0
138 118 0
139 119 5
153 126 26
166 134 40
172 138 45
179 142 51
178 142 51
177 141 51
177 141 51
176 141 51
175 140 51
175 140 51
174 140 51
174 140 51
173 140 51
173 139 51
173 139 51
172 139 51
172 139 51
172 139 51
172 139 51
171 139 51
171 139 51
171 139 51
171 139 51
171 139 51
171 139 51
171 138 51
171 138 51
171 139 51
171 139 51
171 139 51
171 139 51
171 139 51
171 139 51
171 139 51
172 139 51
172 139 51
172 139 51
172 139 51
172 139 51
173 139 51
173 139 51
173 140 51
174 140 51
174 140 51
174 140 51
174 140 51
175 140 51
175 140 51
176 141 51
176 141 51
176 141 51
177 141 51
177 141 51
177 141 51
178 142 51
178 142 51
179 142 51
179 142 51
179 142 51
175 140 48
165 133 39
156 128 30
142 120 10
138 118 0
141 119 0
137 117 0
138 118 0
139 118 0
138 118 0
138 118 0
139 118 0
139 118 0
137 117 0
137 117 0
137 117 0
140 118 0
138 117 0
135 115 0
135 116 0
135 115 0
137 116 0
137 117 0
135 115 0
136 116 0
136 115 0
138 117 0
136 116 0
134 114 0
133 113 0
136 116 0
133 114 0
133 113 0
136 116 0
136 115 0
137 117 0
135 114 0
135 115 0
134 114 0
135 154 0
134 152 0
132 150 0
134 153 0
137 155 0
135 153 0
134 152 0
136 154 0
134 152 0
134 153 0
133 152 0
136 155 0
136 155 0
136 155 0
136 154 0
138 157 0
136 154 0
135 153 0
135 154 0
138 156 0
137 156 0
135 154 0
136 155 0
136 155 0
139 157 0
139 157 0
137 156 0
138 157 0
138 157 0
137 157 0
138 157 0
139 158 0
139 157 0
140 158 0
139 158 0
139 158 0
139 158 0
138 158 0
140 159 20
147 164 79
158 172 131
171 183 177
178 189 199
179 190 204
179 190 204
179 189 204
178 189 204
178 189 204
178 189 204
177 188 204
177 188 204
177 188 204
176 188 204
176 188 204
176 188 204
175 188 204
175 187 204
175 187 204
174 187 204
174 187 204
174 187 204
174 187 204
174 187 204
174 187 204
173 186 204
173 186 204
173 186 204
173 186 204
173 186 204
173 186 204
173 186 204
173 186 204
173 186 204
173 186 204
173 186 204
173 186 204
173 186 204
173 186 204
174 187 204
174 187 204
174 187 204
174 187 204
175 187 204
175 187 204
176 188 204
176 188 204
176 188 204
177 188 204
177 189 204
178 189 204
179 189 204
177 188 198
167 180 167
159 174 138
146 163 84
140 158 0
138 157 0
139 158 0
139 157 0
137 156 0
137 156 0
137 154 0
134 151 0
134 152 0
135 153 0
133 151 0
127 146 0
122 139 0
124 141 0
122 139 0
113 130 0
115 132 0
97 114 0
106 121 0
104 120 0
100 115 0
113 129 0
104 118 0
102 118 0
97 110 0
98 111 0
99 112 0
104 117 0
130 146 0
136 152 0
134 151 0
135 152 0
138 155 0
136 153 0
135 151 0
138 156 0
139 157 0
132 150 0
141 159 0
135 154 0
131 149 0
132 150 0
138 155 0
136 154 0
135 153 0
145 164 0
136 156 0
131 151 0
130 148 0
145 164 0
135 154 0
136 154 0
128 146 0
134 154 0
135 153 0
128 147 0
141 160 0
82 106 73
51 81 89
50 81 82
51 81 97
53 84 105
51 82 80
53 84 100
50 80 95
53 84 92
54 85 97
54 86 96
57 89 103
54 85 102
55 88 108
53 84 100
53 85 96
53 85 94
54 86 99
54 85 103
56 88 111
56 88 104
55 87 100
55 88 100
55 88 94
56 89 105
55 86 99
55 88 110
53 84 95
56 88 117
56 88 115
57 89 108
53 84 94
52 82 90
54 86 94
57 90 115
56 88 103
55 87 105
54 86 97
55 87 107
54 85 90
53 84 88
55 87 107
55 87 97
52 83 92
53 85 100
54 86 100
56 88 105
53 84 80
56 88 110
56 88 107
56 88 95
54 85 86
57 90 113
56 88 115
56 88 105
54 86 108
55 88 99
55 86 84
55 87 102
53 83 94
55 87 99
54 84 100
56 88 105
56 88 107
56 89 111
54 85 94
53 84 94
54 85 82
57 89 103
55 87 103
56 89 103
53 83 100
53 83 102
53 84 97
54 86 95
53 83 86
54 84 94
55 88 102
55 87 99
55 87 99
55 85 111
56 89 108
52 82 94
55 85 114
53 83 100
52 81 86
54 84 97
53 83 94
53 83 97
55 86 94
51 80 95
52 80 87
52 80 90
50 77 88
51 81 88
79 98 45
141 150 18
141 153 0
138 147 0
137 144 0
123 130 0
136 145 0
136 143 0
133 142 0
140 149 0
133 140 0
141 146 0
137 141 0
135 139 0
129 133 0
131 134 0
138 142 0
139 146 0
139 143 0
133 137 0
140 148 0
135 138 0
141 144 0
142 148 0
140 144 0
132 127 0
140 142 0
139 139 0
138 136 0
130 123 0
109 87 0
95 67 0
98 77 0
95 72 0
98 79 0
96 76 0
105 87 0
103 86 0
107 88 0
116 98 0
112 96 0
113 96 0
121 104 0
123 105 0
127 109 0
128 109 0
130 110 0
129 111 0
133 113 0
135 115 0
137 116 0
136 116 0
137 117 0
138 117 0
139 118 0
140 119 0
139 118 0
140 119 0
147 123 20
153 127 28
165 133 39
175 140 48
179 142 51
178 142 51
178 141 51
177 141 51
176 141 51
176 141 51
176 141 51
175 140 51
175 140 51
174 140 51
174 140 51
174 140 51
174 140 51
174 140 51
173 140 51
173 140 51
173 140 51
173 139 51
173 139 51
173 139 51
173 139 51
173 139 51
173 139 51
173 140 51
173 140 51
173 140 51
173 140 51
173 140 51
174 140 51
174 140 51
174 140 51
174 140 51
175 140 51
175 140 51
175 140 51
175 140 51
176 141 51
176 141 51
176 141 51
177 141 51
177 141 51
177 141 51
178 141 51
178 142 51
178 142 51
179 142 51
179 142 51
179 142 51
177 141 49
168 135 42
163 132 37
148 123 22
139 118 0
140 118 0
139 118 0
139 118 0
140 119 0
138 118 0
140 119 0
137 116 0
138 117 0
138 118 0
139 118 0
138 117 0
136 116 0
139 118 0
138 118 0
138 118 0
135 115 0
135 115 0
138 117 0
135 116 0
135 115 0
138 117 0
137 116 0
135 115 0
137 117 0
137 116 0
134 115 0
132 113 0
136 116 0
136 115 0
134 114 0
133 113 0
134 115 0
135 115 0
131 111 0
137 116 0
136 115 0
134 114 0
133 112 0
130 149 0
132 150 0
133 151 0
132 150 0
132 151 0
133 152 0
133 152 0
135 153 0
131 150 0
132 150 0
136 153 0
131 149 0
134 153 0
137 155 0
136 155 0
137 156 0
134 153 0
137 156 0
138 156 0
136 154 0
133 151 0
138 156 0
137 155 0
136 156 0
136 155 0
136 154 0
139 157 0
136 154 0
138 157 0
137 157 0
138 157 0
138 157 0
139 157 0
139 158 0
137 155 0
138 157 0
137 157 0
140 158 0
139 157 0
139 158 0
140 158 0
139 158 0
140 158 20
149 165 93
157 172 131
166 179 162
174 185 187
179 190 203
179 190 204
179 189 204
179 189 204
178 189 204
178 189 204
178 189 204
178 189 204
177 189 204
177 188 204
177 188 204
177 188 204
176 188 204
176 188 204
176 188 204
176 188 204
176 188 204
176 188 204
175 188 204
175 187 204
175 187 204
175 187 204
175 187 204
175 187 204
175 187 204
175 187 204
175 187 204
176 188 204
176 188 204
176 188 204
176 188 204
176 188 204
176 188 204
177 188 204
177 188 204
177 189 204
178 189 204
178 189 204
179 189 204
178 189 202
173 184 185
161 175 143
156 171 124
151 167 100
139 158 0
139 157 0
140 158 0
138 157 0
138 157 0
138 156 0
137 156 0
136 155 0
136 154 0
134 152 0
131 149 0
132 150 0
132 149 0
126 144 0
124 142 0
124 142 0
120 137 0
121 139 0
117 134 0
111 127 0
111 128 0
103 120 0
114 129 0
109 125 0
99 114 0
95 110 0
94 108 0
104 118 0
96 109 0
106 120 0
118 133 0
127 143 0
136 153 0
132 149 0
130 148 0
133 150 0
135 152 0
135 152 0
131 147 0
135 152 0
128 144 0
128 146 0
139 156 0
133 151 0
129 146 0
141 159 0
139 157 0
126 143 0
135 153 0
145 164 0
133 151 0
133 151 0
131 149 0
133 151 0
145 164 0
140 160 0
118 135 0
133 152 0
127 145 0
129 147 0
128 147 0
128 147 0
71 95 69
52 81 90
49 79 79
52 83 92
51 82 93
53 84 81
50 80 73
56 88 102
53 84 101
55 86 102
53 84 82
52 83 89
54 86 86
52 82 85
54 85 96
55 87 97
55 87 102
56 89 114
53 84 96
53 85 90
54 85 100
52 83 95
55 88 97
56 88 107
53 84 95
55 87 99
56 88 105
54 86 94
53 84 100
54 86 103
55 88 102
56 88 90
55 88 94
56 88 111
54 85 97
55 88 95
56 88 97
57 89 108
56 89 103
55 87 103
55 86 105
55 87 111
56 89 107
56 88 97
56 89 107
54 86 99
55 87 95
54 85 103
54 85 92
55 87 88
54 85 110
55 86 95
52 83 90
53 83 97
53 84 92
55 86 110
56 89 118
55 88 103
55 86 114
54 85 90
56 88 107
56 88 115
53 84 100
53 85 95
57 89 102
55 87 105
55 87 107
54 85 103
55 86 103
54 86 105
53 85 94
52 83 95
55 87 104
55 86 110
57 90 110
55 87 111
53 83 90
56 88 104
54 84 102
53 84 99
53 82 90
52 82 95
53 84 100
55 85 97
54 85 86
54 85 99
52 80 100
54 85 92
52 81 82
50 78 76
49 75 83
48 76 74
49 76 60
73 95 76
122 130 18
126 134 0
130 140 0
127 139 0
132 140 0
125 134 0
122 129 0
127 135 0
130 136 0
137 142 0
131 136 0
139 148 0
137 143 0
136 144 0
134 140 0
132 133 0
141 147 0
131 133 0
133 134 0
137 140 0
142 144 0
132 135 0
138 143 0
132 133 0
140 143 0
142 147 0
127 127 0
128 124 0
138 137 0
131 127 0
134 126 0
116 100 0
100 73 0
99 72 0
105 80 0
100 79 0
100 79 0
113 93 0
108 89 0
106 88 0
104 87 0
111 94 0
105 88 0
115 98 0
117 100 0
127 108 0
118 102 0
124 105 0
128 110 0
130 111 0
133 114 0
136 115 0
133 113 0
134 115 0
135 115 0
136 116 0
140 118 0
138 118 0
139 118 0
138 118 0
139 119 0
139 118 5
145 122 18
158 129 34
164 133 39
173 138 46
179 142 50
179 142 51
178 142 51
178 141 51
178 141 51
177 141 51
177 141 51
176 141 51
176 141 51
176 141 51
176 141 51
175 141 51
175 141 51
175 140 51
175 140 51
175 140 51
175 140 51
175 140 51
175 140 51
175 140 51
175 140 51
175 140 51
176 141 51
176 141 51
176 141 51
176 141 51
176 141 51
176 141 51
177 141 51
177 141 51
177 141 51
177 141 51
177 141 51
178 141 51
178 142 51
178 142 51
179 142 51
179 142 51
179 142 51
179 142 50
174 139 47
169 136 42
154 127 29
149 124 23
139 118 5
138 118 0
139 118 0
140 119 0
139 118 0
138 118 0
139 118 0
138 118 0
137 117 0
138 117 0
139 118 0
139 118 0
138 117 0
138 117 0
139 118 0
139 118 0
137 116 0
136 116 0
136 116 0
136 116 0
138 117 0
137 117 0
136 116 0
135 115 0
137 116 0
134 115 0
134 114 0
134 115 0
134 114 0
136 115 0
136 116 0
135 115 0
136 115 0
135 115 0
135 114 0
134 113 0
133 113 0
136 114 0
137 116 0
133 112 0
134 113 0
134 114 0
131 111 0
133 151 0
131 149 0
135 154 0
134 153 0
134 153 0
133 151 0
135 153 0
132 150 0
129 148 0
131 149 0
129 147 0
137 154 0
136 154 0
136 154 0
137 155 0
137 156 0
135 153 0
135 154 0
136 153 0
136 154 0
135 153 0
134 153 0
136 154 0
135 154 0
135 154 0
136 156 0
137 156 0
137 156 0
137 156 0
135 153 0
137 155 0
139 158 0
139 157 0
140 158 0
139 158 0
137 156 0
138 157 0
139 157 0
139 158 0
140 159 0
140 158 0
139 158 0
139 158 0
140 158 0
139 157 0
139 158 0
139 158 0
140 159 28
151 167 102
156 171 126
161 175 144
167 180 167
172 184 182
179 190 203
179 190 204
179 190 204
179 190 204
179 189 204
179 189 204
178 189 204
178 189 204
178 189 204
178 189 204
178 189 204
178 189 204
178 189 204
178 189 204
177 189 204
177 189 204
177 189 204
178 189 204
178 189 204
178 189 204
178 189 204
178 189 204
178 189 204
178 189 204
179 189 204
179 189 204
179 190 204
178 189 201
174 185 186
170 182 176
166 178 159
152 168 114
151 167 106
140 159 35
138 157 0
140 158 0
139 158 0
140 158 0
138 157 0
138 158 0
138 157 0
139 157 0
136 155 0
136 154 0
130 147 0
134 152 0
131 149 0
135 152 0
130 148 0
129 146 0
126 144 0
127 144 0
120 138 0
121 139 0
119 136 0
117 134 0
103 120 0
108 124 0
101 116 0
106 122 0
104 119 0
102 116 0
100 113 0
105 119 0
102 116 0
100 113 0
108 120 0
121 136 0
133 149 0
134 150 0
127 144 0
142 158 0
135 151 0
134 151 0
142 161 0
137 154 0
136 153 0
128 145 0
127 144 0
140 157 0
139 156 0
128 144 0
127 145 0
133 150 0
135 153 0
130 146 0
126 143 0
133 151 0
136 155 0
130 147 0
131 148 0
138 156 0
135 152 0
133 151 0
141 159 0
118 135 0
138 157 0
129 147 0
128 146 0
122 139 0
130 149 31
77 99 67
49 79 82
51 80 88
53 85 98
53 84 96
53 84 91
52 82 91
52 82 89
52 82 99
53 84 89
53 84 94
52 83 100
54 86 99
52 83 83
55 87 106
53 84 100
54 85 105
55 86 107
53 83 95
52 83 92
54 85 101
54 85 92
55 87 104
52 84 80
54 86 94
53 84 92
54 85 97
55 88 110
55 86 99
54 86 107
54 86 99
54 86 102
56 88 107
56 88 99
57 90 114
54 87 95
55 88 102
56 88 100
56 87 103
56 88 100
56 89 110
54 86 100
53 84 97
54 86 95
55 87 102
55 88 105
53 84 84
56 87 99
55 87 107
54 86 99
54 85 92
55 87 103
56 89 102
54 85 84
53 84 84
55 86 103
55 88 105
54 86 99
56 88 99
53 84 100
53 85 97
54 86 100
55 88 108
55 86 100
55 87 97
55 86 102
58 90 117
53 84 92
52 83 86
53 83 100
56 89 108
52 82 88
53 84 90
57 89 99
54 86 90
57 89 113
53 84 92
53 84 107
54 85 92
52 82 95
50 79 78
52 82 92
52 81 88
50 79 83
53 83 97
52 82 90
52 82 94
49 78 84
53 82 94
53 83 97
50 77 81
83 102 76
136 147 0
123 133 0
130 139 0
126 135 0
132 138 0
131 137 0
131 137 0
131 138 0
130 135 0
131 133 0
133 138 0
132 136 0
129 132 0
131 133 0
133 137 0
134 137 0
132 132 0
128 128 0
134 136 0
133 135 0
134 135 0
128 128 0
140 142 0
139 141 0
134 135 0
138 136 0
135 135 0
134 129 0
141 139 0
134 131 0
137 132 0
137 137 0
129 124 0
131 128 0
106 84 0
100 74 0
101 75 0
97 76 0
100 79 0
104 83 0
98 82 0
103 84 0
110 93 0
109 92 0
111 92 0
110 93 0
117 99 0
115 97 0
123 104 0
125 105 0
124 106 0
128 110 0
130 110 0
128 110 0
134 114 0
133 114 0
132 113 0
136 115 0
136 116 0
137 116 0
139 118 0
139 118 0
138 118 0
140 119 0
138 118 0
138 117 0
138 118 0
142 120 7
145 122 19
160 131 35
164 133 37
166 134 40
171 137 45
177 141 49
179 142 51
179 142 51
178 142 51
178 142 51
178 142 51
178 142 51
178 141 51
178 141 51
178 141 51
178 141 51
177 141 51
178 141 51
177 141 51
178 141 51
178 141 51
178 141 51
178 141 51
178 142 51
178 142 51
178 142 51
178 142 51
179 142 51
179 142 51
179 142 51
179 142 51
179 142 51
179 142 50
176 140 48
171 137 44
163 132 37
156 128 31
151 125 24
142 120 10
139 118 0
140 119 0
139 118 0
139 118 0
138 117 0
139 118 0
139 118 0
139 118 0
140 119 0
139 118 0
139 118 0
138 117 0
138 118 0
139 117 0
139 118 0
138 117 0
137 117 0
134 114 0
136 116 0
136 116 0
135 115 0
136 116 0
137 116 0
133 114 0
133 113 0
134 113 0
135 115 0
134 114 0
135 115 0
135 115 0
135 115 0
132 112 0
135 115 0
133 113 0
137 116 0
136 116 0
133 113 0
135 115 0
136 115 0
133 113 0
135 114 0
134 113 0
130 109 0
135 114 0
135 115 0
133 112 0
133 112 0
127 145 0
130 148 0
132 150 0
133 151 0
130 149 0
132 150 0
133 151 0
128 145 0
128 147 0
136 154 0
135 153 0
136 154 0
130 148 0
133 152 0
131 149 0
133 152 0
136 155 0
135 154 0
131 150 0
137 155 0
137 155 0
131 150 0
133 152 0
133 152 0
136 155 0
136 154 0
139 158 0
137 155 0
137 155 0
138 157 0
135 154 0
138 157 0
133 152 0
137 156 0
139 158 0
137 155 0
138 157 0
138 157 0
137 156 0
138 157 0
138 156 0
140 159 0
137 156 0
139 158 0
140 158 0
139 158 0
140 159 0
138 157 0
139 158 0
139 158 0
139 158 0
139 158 0
139 158 0
140 158 0
144 161 61
146 163 81
147 164 86
156 171 126
158 173 134
166 179 161
167 179 165
169 181 170
172 183 179
171 183 179
173 184 185
174 185 188
174 185 187
175 187 193
173 184 184
173 184 184
170 182 177
170 182 178
169 182 173
167 179 165
160 174 140
163 176 151
155 170 124
151 167 108
150 166 98
142 160 45
141 159 0
139 158 0
137 157 0
137 157 0
140 158 0
138 157 0
139 158 0
138 157 0
139 158 0
136 155 0
139 157 0
136 155 0
136 154 0
135 152 0
131 149 0
136 154 0
133 152 0
131 150 0
127 144 0
127 145 0
129 147 0
123 140 0
123 141 0
124 141 0
122 139 0
118 135 0
120 138 0
113 130 0
103 118 0
106 122 0
109 124 0
109 124 0
105 120 0
103 118 0
102 116 0
105 119 0
108 121 0
96 108 0
107 120 0
131 146 0
126 141 0
136 151 0
134 150 0
131 148 0
130 146 0
129 146 0
128 144 0
131 147 0
134 151 0
124 140 0
128 144 0
124 141 0
133 150 0
133 149 0
131 148 0
127 144 0
129 146 0
131 148 0
123 140 0
138 155 0
131 149 0
124 142 0
134 151 0
128 146 0
130 148 0
128 145 0
124 141 0
134 153 0
126 145 0
128 146 0
137 156 0
134 153 0
131 149 0
134 151 0
130 149 0
74 97 57
52 82 83
50 80 70
52 83 92
53 84 110
53 84 93
53 83 96
52 83 86
51 82 99
54 86 102
52 83 90
53 84 99
54 86 93
55 86 99
53 84 89
54 86 109
54 85 98
54 86 92
54 85 92
56 89 115
53 84 92
52 83 97
54 85 97
57 89 103
55 87 98
55 87 94
55 86 102
54 86 95
55 87 105
55 87 97
52 83 88
57 90 111
54 86 102
56 88 104
53 84 94
52 83 95
55 88 103
55 86 107
55 87 103
55 88 95
56 88 110
56 88 111
54 85 100
54 85 90
56 88 105
52 82 88
55 87 97
54 86 97
55 86 103
51 80 88
53 85 97
55 86 92
54 86 100
54 85 100
55 86 88
54 85 103
56 88 110
54 86 86
54 85 86
54 85 99
56 88 107
53 84 84
53 84 95
53 84 94
55 87 111
55 86 105
55 87 104
53 84 82
54 86 97
55 86 95
54 86 97
54 85 102
54 85 107
56 87 111
48 76 78
54 84 99
52 83 92
53 84 97
53 84 94
52 81 92
54 85 94
54 84 94
53 83 97
52 82 92
50 79 84
49 76 80
52 81 76
49 77 76
48 74 79
72 93 76
126 136 31
129 138 0
130 139 0
133 141 0
129 137 0
132 138 0
129 135 0
122 130 0
132 142 0
127 132 0
122 128 0
130 133 0
133 139 0
138 145 0
131 135 0
136 141 0
131 137 0
130 135 0
130 129 0
140 146 0
137 142 0
130 131 0
136 139 0
135 138 0
126 122 0
126 125 0
125 123 0
125 125 0
131 126 0
140 136 0
133 131 0
130 128 0
133 130 0
135 129 0
127 120 0
137 132 0
121 105 0
101 71 0
100 74 0
100 76 0
104 83 0
104 83 0
98 77 0
109 89 0
101 85 0
109 89 0
107 89 0
113 96 0
110 94 0
114 97 0
116 99 0
121 104 0
126 108 0
122 105 0
127 109 0
127 108 0
131 112 0
131 112 0
132 113 0
135 115 0
132 113 0
132 112 0
138 117 0
138 117 0
138 118 0
136 116 0
138 117 0
140 118 0
137 117 0
138 118 0
140 118 0
139 118 0
139 118 0
140 118 0
140 119 0
145 122 16
149 124 24
154 127 27
156 128 32
163 132 38
163 132 38
167 135 41
168 135 42
169 136 43
173 138 46
173 138 46
172 138 45
172 138 45
174 139 46
174 139 46
174 139 47
170 137 44
169 136 43
166 134 41
170 136 43
163 132 37
158 129 33
157 129 32
151 125 27
150 125 25
143 120 14
139 118 0
141 119 0
139 118 0
139 118 0
139 118 0
139 118 0
139 118 0
139 118 0
140 119 0
139 118 0
139 118 0
139 118 0
138 118 0
139 118 0
137 116 0
140 119 0
136 116 0
137 117 0
138 117 0
138 117 0
135 115 0
137 116 0
136 116 0
137 117 0
136 116 0
135 116 0
134 114 0
138 117 0
134 115 0
136 115 0
133 113 0
134 113 0
133 113 0
131 112 0
137 115 0
135 115 0
132 112 0
133 113 0
135 115 0
136 116 0
131 111 0
136 115 0
131 111 0
136 115 0
133 113 0
133 113 0
134 114 0
131 110 0
134 113 0
133 112 0
134 113 0
134 112 0
135 113 0
130 110 0
132 151 0
133 152 0
132 150 0
131 148 0
133 151 0
132 150 0
135 153 0
138 155 0
134 153 0
136 155 0
131 149 0
136 155 0
132 151 0
134 152 0
134 152 0
134 153 0
136 155 0
134 153 0
132 151 0
133 152 0
132 150 0
129 147 0
133 153 0
135 154 0
135 154 0
135 153 0
134 153 0
133 152 0
135 154 0
135 153 0
136 154 0
133 151 0
137 156 0
136 154 0
136 155 0
138 157 0
136 154 0
136 155 0
134 153 0
138 156 0
137 155 0
137 154 0
139 157 0
140 158 0
139 157 0
138 157 0
139 158 0
137 156 0
140 158 0
139 157 0
138 156 0
138 157 0
139 158 0
139 158 0
139 157 0
138 157 0
140 158 0
140 158 0
138 157 0
140 158 0
140 159 0
140 158 0
139 158 0
139 158 0
139 158 0
138 157 0
139 158 0
140 159 0
140 158 0
139 157 0
139 158 0
139 158 0
137 156 0
139 158 0
138 156 0
139 158 0
138 157 0
139 157 0
137 156 0
138 157 0
139 158 0
137 156 0
140 158 0
139 157 0
136 155 0
139 158 0
139 157 0
138 156 0
136 154 0
137 155 0
136 155 0
134 152 0
136 154 0
129 147 0
130 148 0
129 146 0
132 151 0
128 145 0
128 146 0
126 144 0
125 141 0
122 140 0
117 135 0
117 134 0
112 127 0
106 123 0
111 128 0
110 127 0
120 137 0
105 121 0
108 123 0
97 112 0
102 116 0
103 117 0
103 116 0
98 111 0
114 127 0
133 148 0
132 147 0
134 149 0
123 138 0
135 151 0
133 150 0
128 144 0
130 146 0
130 145 0
127 143 0
135 151 0
127 143 0
126 143 0
137 154 0
126 142 0
135 152 0
130 147 0
136 154 0
137 155 0
133 150 0
127 144 0
136 154 0
131 148 0
132 149 0
129 147 0
131 149 0
126 143 0
128 146 0
129 147 0
126 143 0
130 148 0
121 139 0
125 142 0
128 146 0
131 149 0
115 132 0
129 147 0
118 136 0
122 139 0
75 97 59
50 80 90
51 81 91
50 80 80
52 83 85
52 83 95
52 82 98
53 84 88
54 85 99
51 82 78
51 81 86
53 83 96
51 82 98
55 88 99
57 89 107
55 87 111
53 83 92
50 81 74
54 85 100
55 87 100
54 85 99
53 85 101
55 87 108
53 85 91
54 86 99
54 85 95
54 85 102
54 86 88
54 86 102
55 87 100
53 84 95
54 87 107
55 87 103
54 86 102
54 87 97
54 86 105
51 81 84
56 88 110
56 89 108
55 88 94
55 88 95
54 86 95
54 86 97
55 87 105
56 88 107
55 87 105
53 84 95
55 88 102
56 87 110
55 86 100
52 84 90
53 83 97
55 86 97
54 86 102
54 86 95
53 85 97
53 84 99
54 85 105
54 85 105
55 87 100
54 86 82
54 85 103
53 84 94
54 85 97
53 83 92
54 85 97
54 85 92
54 85 86
51 82 76
52 83 88
54 86 104
53 83 88
52 82 94
51 81 86
53 83 90
56 87 103
53 84 102
54 85 107
52 81 94
51 81 88
51 80 88
52 83 94
52 81 88
52 81 94
50 77 78
50 78 74
50 79 81
77 95 60
120 126 18
117 126 0
131 141 0
128 135 0
128 138 0
134 141 0
131 140 0
128 135 0
122 128 0
128 133 0
124 130 0
136 146 0
122 125 0
125 127 0
120 123 0
123 125 0
131 136 0
129 134 0
132 138 0
130 131 0
127 133 0
127 128 0
126 128 0
129 129 0
130 132 0
130 130 0
134 131 0
119 113 0
128 127 0
127 126 0
136 136 0
128 125 0
139 138 0
136 136 0
135 132 0
126 118 0
135 127 0
138 133 0
129 118 0
110 87 0
97 72 0
104 77 0
104 82 0
101 78 0
102 81 0
103 84 0
111 91 0
114 94 0
110 90 0
109 91 0
111 93 0
116 99 0
118 99 0
119 101 0
120 102 0
120 103 0
124 107 0
122 104 0
123 105 0
130 111 0
133 114 0
128 109 0
134 113 0
132 112 0
132 112 0
132 113 0
136 116 0
138 117 0
139 118 0
136 116 0
137 117 0
140 119 0
138 117 0
138 117 0
140 119 0
138 118 0
138 118 0
140 118 0
139 118 0
137 117 0
140 119 0
140 119 0
140 119 0
140 119 0
140 119 0
140 119 0
139 118 0
139 119 0
140 119 0
139 118 0
140 119 0
140 119 0
140 119 0
139 118 0
139 118 0
140 119 0
139 118 0
139 118 0
138 118 0
139 118 0
139 118 0
140 119 0
139 118 0
138 117 0
140 119 0
140 119 0
137 118 0
137 117 0
138 118 0
139 118 0
139 118 0
139 118 0
137 117 0
138 117 0
138 118 0
139 118 0
138 117 0
136 116 0
137 117 0
139 118 0
137 116 0
136 116 0
136 117 0
138 117 0
138 117 0
133 114 0
136 116 0
134 114 0
134 115 0
134 114 0
134 115 0
137 116 0
136 116 0
136 115 0
134 113 0
131 112 0
135 115 0
132 112 0
129 110 0
135 114 0
132 112 0
133 112 0
134 114 0
136 115 0
132 113 0
134 113 0
132 113 0
129 109 0
130 110 0
133 112 0
134 113 0
132 110 0
129 109 0
134 114 0
133 111 0
129 107 0
128 148 0
129 147 0
129 146 0
129 147 0
130 149 0
132 150 0
135 152 0
131 150 0
133 151 0
134 152 0
133 150 0
132 151 0
133 152 0
130 149 0
131 149 0
133 152 0
132 150 0
131 149 0
129 147 0
130 149 0
133 152 0
131 148 0
133 152 0
134 152 0
134 152 0
133 152 0
134 153 0
133 152 0
129 148 0
135 154 0
138 156 0
134 153 0
133 151 0
135 153 0
137 155 0
135 154 0
136 155 0
137 155 0
134 153 0
138 156 0
136 155 0
137 156 0
137 156 0
137 155 0
137 155 0
136 154 0
138 156 0
138 157 0
139 157 0
139 157 0
138 157 0
139 157 0
137 156 0
139 157 0
138 156 0
136 155 0
138 157 0
139 157 0
137 156 0
139 157 0
139 158 0
138 157 0
139 158 0
137 156 0
138 156 0
139 158 0
139 157 0
138 157 0
139 157 0
140 158 0
139 158 0
138 156 0
139 158 0
138 157 0
138 157 0
139 158 0
138 157 0
138 156 0
137 155 0
139 158 0
137 156 0
137 154 0
136 153 0
135 153 0
135 154 0
136 153 0
132 149 0
134 152 0
131 148 0
131 150 0
129 147 0
130 148 0
132 150 0
132 150 0
127 144 0
121 139 0
123 140 0
123 140 0
117 135 0
119 137 0
114 130 0
113 130 0
115 132 0
116 132 0
111 127 0
115 131 0
106 121 0
109 125 0
103 117 0
109 125 0
104 118 0
103 117 0
102 115 0
97 109 0
96 108 0
124 139 0
122 136 0
134 149 0
121 136 0
129 145 0
127 141 0
128 143 0
124 140 0
125 140 0
122 138 0
129 145 0
129 144 0
123 139 0
132 148 0
122 138 0
130 146 0
132 148 0
139 156 0
125 142 0
123 141 0
129 146 0
133 151 0
125 141 0
132 150 0
125 142 0
134 152 0
130 147 0
122 139 0
132 150 0
124 142 0
115 132 0
124 142 0
134 153 0
124 140 0
130 147 0
124 143 0
134 152 0
125 143 0
126 144 0
128 147 0
118 136 0
117 134 14
85 107 68
47 76 62
51 81 82
50 79 88
52 83 94
52 83 88
52 82 92
51 80 96
52 83 80
49 78 81
54 86 107
51 82 86
52 82 91
53 84 99
52 83 90
55 86 99
54 85 102
51 82 80
53 84 100
51 82 90
52 83 88
52 84 70
53 85 94
53 83 92
53 84 80
54 86 94
51 82 80
54 86 101
54 85 95
55 87 92
54 85 94
54 86 103
55 87 99
52 83 90
55 87 105
56 88 108
54 86 99
55 87 99
54 85 90
52 83 84
54 85 97
56 88 108
53 84 94
53 84 88
57 90 107
54 85 103
55 87 102
54 86 88
55 87 107
53 85 97
54 85 97
54 85 94
56 88 102
53 84 100
54 85 97
51 81 97
51 80 70
54 85 99
56 87 99
53 84 90
52 82 95
54 84 95
54 85 103
54 85 107
50 81 92
54 86 99
53 84 95
54 84 108
55 86 103
55 86 97
54 85 92
52 83 90
50 79 88
48 78 76
53 84 83
55 86 99
52 82 82
52 81 94
53 82 92
51 80 83
51 80 78
53 83 99
53 82 95
45 72 76
51 80 84
77 91 67
120 131 0
123 131 0
122 129 0
122 127 0
120 127 0
136 148 0
121 130 0
123 131 0
113 120 0
122 127 0
127 132 0
126 131 0
132 137 0
131 139 0
128 134 0
121 126 0
134 139 0
126 132 0
125 124 0
128 131 0
129 127 0
129 130 0
124 124 0
129 133 0
134 137 0
131 134 0
125 126 0
128 126 0
133 130 0
128 128 0
131 128 0
127 120 0
124 121 0
124 117 0
126 117 0
134 129 0
123 115 0
133 128 0
127 119 0
137 131 0
127 122 0
124 109 0
104 81 0
98 70 0
101 77 0
94 70 0
101 80 0
109 87 0
106 85 0
109 89 0
112 93 0
114 95 0
108 90 0
101 85 0
110 92 0
117 98 0
116 99 0
114 97 0
121 104 0
119 101 0
122 104 0
121 104 0
124 105 0
125 107 0
131 111 0
130 111 0
130 111 0
134 114 0
136 116 0
134 115 0
136 115 0
135 115 0
133 114 0
135 115 0
135 115 0
136 116 0
138 118 0
138 117 0
138 118 0
137 117 0
138 118 0
139 118 0
137 117 0
139 118 0
137 117 0
138 118 0
137 117 0
138 118 0
136 117 0
139 118 0
138 117 0
138 117 0
138 118 0
139 118 0
140 118 0
139 118 0
138 117 0
138 118 0
138 117 0
138 118 0
138 118 0
139 118 0
137 117 0
138 118 0
140 119 0
138 117 0
140 119 0
135 115 0
137 117 0
138 117 0
137 117 0
137 117 0
139 117 0
135 116 0
135 115 0
135 115 0
136 116 0
136 115 0
135 115 0
136 116 0
136 116 0
136 116 0
137 116 0
136 116 0
136 116 0
134 114 0
134 114 0
135 115 0
136 115 0
133 114 0
132 112 0
130 111 0
133 113 0
134 114 0
136 115 0
128 108 0
132 113 0
130 111 0
134 114 0
134 114 0
131 111 0
134 114 0
133 113 0
131 112 0
132 110 0
134 114 0
134 113 0
131 111 0
131 111 0
132 111 0
130 110 0
134 112 0
134 112 0
131 109 0
132 111 0
130 108 0
132 109 0
129 148 0
132 151 0
130 149 0
128 146 0
131 149 0
129 148 0
131 149 0
132 150 0
130 150 0
131 149 0
134 152 0
126 144 0
133 151 0
129 147 0
134 153 0
131 149 0
132 150 0
133 151 0
131 149 0
132 150 0
132 151 0
130 149 0
136 154 0
131 149 0
133 151 0
134 152 0
133 152 0
133 152 0
134 152 0
131 150 0
135 154 0
130 149 0
131 148 0
132 151 0
135 153 0
133 150 0
134 152 0
137 156 0
134 152 0
136 154 0
134 153 0
136 154 0
134 153 0
137 155 0
135 154 0
138 156 0
137 154 0
138 156 0
137 156 0
136 155 0
136 155 0
137 155 0
139 157 0
137 156 0
135 154 0
138 157 0
138 157 0
138 157 0
138 156 0
138 156 0
135 154 0
137 156 0
138 156 0
138 157 0
140 158 0
137 156 0
138 157 0
140 158 0
136 156 0
137 154 0
137 155 0
138 156 0
138 156 0
138 156 0
136 155 0
137 155 0
136 154 0
135 153 0
137 155 0
135 154 0
136 155 0
133 151 0
133 151 0
133 151 0
134 153 0
133 151 0
133 152 0
133 151 0
129 147 0
125 143 0
126 144 0
127 146 0
122 140 0
128 145 0
123 141 0
122 141 0
122 140 0
115 132 0
114 132 0
116 133 0
109 124 0
110 127 0
112 129 0
107 123 0
114 131 0
111 127 0
98 113 0
110 124 0
106 121 0
104 117 0
101 114 0
96 108 0
101 113 0
120 134 0
115 130 0
122 137 0
128 143 0
123 138 0
129 145 0
122 137 0
126 141 0
131 146 0
132 148 0
122 137 0
125 141 0
130 146 0
127 143 0
132 147 0
129 145 0
124 140 0
133 149 0
124 140 0
126 143 0
127 143 0
136 153 0
124 141 0
124 141 0
144 161 0
132 149 0
128 144 0
123 141 0
121 138 0
129 147 0
128 145 0
123 141 0
123 140 0
122 140 0
116 134 0
123 140 0
130 147 0
129 148 0
121 140 0
119 135 0
124 141 0
116 132 0
121 137 0
117 134 0
117 135 0
93 114 52
50 80 75
52 82 89
50 80 83
51 81 92
51 81 86
51 82 82
52 83 99
52 82 82
53 83 97
52 83 93
53 84 100
54 85 92
53 85 96
53 84 102
51 81 92
51 81 86
52 82 88
54 86 96
52 83 80
53 84 91
53 84 99
52 83 82
53 85 100
53 84 97
54 85 99
55 87 103
54 86 94
52 82 86
55 87 103
54 86 100
52 83 86
55 86 105
52 83 76
53 84 88
56 88 105
56 89 108
55 86 107
54 86 94
54 85 110
54 86 99
55 87 110
54 85 95
54 85 100
53 84 94
55 87 115
53 84 102
53 84 95
54 85 94
53 84 90
55 86 102
58 91 115
55 87 97
56 89 105
51 80 80
55 86 99
54 85 97
54 85 94
55 86 113
53 83 100
52 82 90
53 83 99
53 85 90
54 85 103
52 81 88
53 84 80
54 85 100
53 84 94
53 84 94
50 78 86
54 84 102
51 81 76
53 84 100
50 79 97
52 82 97
51 80 83
51 79 86
51 80 79
51 79 95
47 75 72
50 79 76
49 77 67
48 76 74
94 109 54
124 134 0
117 123 0
125 138 0
127 137 0
121 130 0
125 133 0
129 134 0
133 140 0
128 135 0
124 128 0
126 133 0
125 132 0
125 131 0
133 137 0
123 127 0
132 139 0
126 131 0
119 122 0
131 134 0
131 137 0
125 128 0
133 136 0
133 136 0
129 133 0
127 125 0
124 121 0
127 123 0
122 123 0
131 130 0
124 117 0
128 127 0
132 126 0
131 125 0
126 120 0
121 118 0
122 113 0
129 120 0
123 113 0
120 112 0
126 116 0
128 120 0
130 123 0
123 111 0
126 114 0
115 95 0
104 76 0
98 70 0
105 80 0
105 82 0
93 73 0
104 81 0
105 84 0
113 93 0
105 88 0
111 92 0
116 98 0
108 89 0
110 94 0
114 97 0
120 100 0
115 96 0
120 102 0
118 100 0
124 105 0
125 106 0
127 108 0
127 109 0
130 111 0
131 111 0
127 109 0
129 110 0
130 111 0
131 112 0
137 117 0
131 112 0
136 116 0
136 115 0
136 115 0
135 115 0
138 118 0
138 117 0
138 117 0
133 113 0
139 118 0
137 117 0
137 117 0
137 117 0
137 117 0
137 116 0
138 118 0
139 118 0
137 117 0
137 117 0
136 116 0
139 118 0
137 116 0
137 117 0
138 117 0
138 117 0
139 118 0
135 115 0
137 116 0
139 118 0
138 118 0
137 116 0
136 116 0
138 117 0
135 116 0
137 116 0
138 118 0
136 114 0
136 115 0
137 117 0
138 117 0
134 114 0
137 117 0
137 116 0
135 115 0
135 115 0
137 117 0
133 113 0
132 113 0
134 115 0
134 115 0
135 115 0
135 114 0
133 113 0
134 114 0
135 115 0
130 111 0
136 116 0
135 115 0
128 108 0
130 111 0
132 112 0
134 113 0
133 113 0
129 109 0
135 114 0
130 110 0
132 112 0
130 110 0
135 114 0
131 110 0
133 111 0
127 106 0
130 111 0
128 108 0
127 107 0
131 109 0
128 108 0
134 114 0
133 112 0
129 108 0
132 111 0
132 109 0
131 109 0
132 111 0
135 153 0
129 147 0
127 144 0
123 140 0
130 147 0
129 146 0
129 147 0
127 145 0
132 151 0
129 147 0
129 148 0
128 146 0
131 149 0
130 148 0
134 153 0
133 151 0
134 152 0
129 147 0
135 153 0
132 151 0
129 147 0
132 150 0
129 148 0
133 151 0
132 151 0
131 149 0
134 152 0
135 153 0
127 145 0
133 152 0
137 155 0
135 154 0
135 153 0
133 151 0
135 153 0
135 153 0
135 154 0
134 152 0
133 152 0
134 152 0
131 150 0
135 154 0
132 150 0
131 149 0
134 152 0
134 153 0
136 155 0
138 156 0
138 157 0
136 155 0
137 154 0
135 153 0
136 154 0
135 154 0
137 156 0
135 153 0
136 155 0
137 155 0
137 156 0
134 152 0
133 152 0
135 154 0
137 156 0
135 153 0
136 154 0
137 155 0
136 155 0
134 151 0
138 156 0
136 155 0
135 153 0
135 153 0
136 155 0
137 155 0
133 150 0
131 149 0
132 149 0
133 151 0
133 151 0
132 150 0
132 149 0
133 150 0
134 152 0
131 148 0
129 147 0
126 144 0
131 149 0
130 148 0
129 146 0
128 146 0
126 144 0
116 132 0
127 145 0
127 145 0
124 141 0
121 138 0
119 137 0
109 126 0
114 131 0
109 127 0
114 130 0
110 126 0
108 124 0
105 121 0
107 122 0
99 114 0
104 118 0
97 110 0
100 112 0
103 116 0
103 116 0
119 133 0
121 136 0
129 144 0
129 144 0
120 135 0
121 136 0
125 141 0
130 145 0
131 147 0
120 135 0
132 147 0
127 143 0
128 143 0
124 140 0
126 142 0
130 145 0
137 153 0
130 146 0
128 144 0
135 152 0
127 144 0
130 146 0
123 139 0
122 139 0
128 145 0
117 133 0
125 142 0
126 144 0
129 147 0
128 146 0
130 147 0
121 138 0
119 136 0
125 142 0
132 149 0
112 129 0
132 150 0
117 134 0
128 146 0
123 140 0
120 138 0
127 145 0
115 131 0
123 139 0
123 141 0
120 137 0
104 120 0
110 127 0
107 124 31
58 83 66
50 79 79
49 78 89
51 81 91
48 77 79
50 81 70
53 84 97
50 80 84
53 83 87
52 82 95
47 75 70
53 84 97
55 87 107
53 84 93
50 79 84
50 81 81
52 82 94
53 84 88
52 83 78
56 88 107
54 86 102
56 88 103
55 86 96
54 86 95
53 84 102
55 88 97
54 86 97
52 82 88
52 83 88
56 88 107
54 85 90
55 88 92
53 84 88
53 85 95
52 82 95
52 82 82
54 85 95
54 86 90
53 84 102
54 86 94
52 83 94
54 85 80
53 84 94
55 87 94
55 86 95
54 85 88
52 82 80
54 86 88
56 88 105
54 86 100
53 85 84
54 86 90
55 86 105
51 81 90
52 82 99
53 84 97
51 81 90
55 87 102
54 85 110
51 80 84
54 86 99
53 84 99
55 87 103
52 81 86
52 83 97
51 81 86
53 84 82
52 82 100
54 86 82
50 77 94
50 79 62
54 85 97
52 81 88
52 81 95
54 84 81
50 78 90
52 82 78
49 77 76
48 76 86
53 77 65
98 110 31
115 120 0
113 122 0
113 122 0
122 128 0
119 129 0
111 118 0
114 119 0
123 131 0
118 127 0
131 139 0
122 127 0
117 125 0
125 131 0
117 120 0
112 115 0
116 118 0
121 123 0
134 144 0
126 131 0
124 121 0
121 119 0
122 124 0
129 128 0
123 125 0
131 133 0
133 134 0
131 130 0
120 117 0
125 122 0
124 120 0
131 129 0
120 122 0
125 115 0
124 120 0
126 116 0
127 120 0
125 118 0
123 113 0
119 113 0
121 111 0
129 123 0
124 116 0
126 118 0
124 113 0
125 117 0
131 123 0
120 109 0
118 101 0
100 72 0
108 79 0
106 80 0
101 78 0
107 84 0
103 80 0
103 81 0
107 86 0
110 90 0
111 92 0
114 94 0
118 98 0
108 90 0
116 98 0
118 100 0
122 104 0
121 102 0
114 97 0
120 102 0
125 105 0
124 105 0
123 105 0
129 108 0
131 112 0
129 110 0
124 107 0
129 109 0
134 114 0
130 111 0
132 112 0
134 115 0
133 114 0
134 115 0
136 116 0
137 116 0
134 114 0
133 114 0
137 117 0
134 115 0
137 116 0
133 113 0
135 115 0
134 114 0
134 115 0
134 114 0
136 115 0
136 115 0
136 116 0
136 115 0
136 116 0
136 115 0
136 116 0
138 117 0
136 116 0
137 117 0
136 116 0
136 116 0
135 115 0
137 116 0
135 115 0
134 114 0
135 115 0
133 113 0
136 116 0
136 116 0
130 111 0
135 116 0
135 114 0
137 117 0
133 113 0
133 114 0
133 112 0
132 113 0
137 115 0
136 115 0
133 112 0
133 113 0
130 111 0
137 116 0
133 113 0
131 112 0
132 111 0
130 110 0
130 110 0
131 112 0
131 111 0
128 109 0
133 113 0
130 111 0
132 112 0
131 111 0
131 110 0
134 113 0
131 110 0
130 109 0
133 112 0
135 115 0
129 109 0
133 113 0
129 108 0
126 106 0
130 107 0
131 109 0
129 107 0
128 108 0
129 108 0
133 112 0
134 112 0
132 109 0
133 111 0
130 108 0
131 148 0
132 149 0
133 151 0
129 148 0
129 146 0
133 150 0
129 147 0
131 150 0
130 148 0
132 149 0
127 146 0
129 147 0
128 146 0
130 148 0
131 149 0
129 147 0
130 148 0
127 145 0
128 146 0
130 148 0
128 146 0
132 151 0
133 151 0
134 152 0
130 148 0
128 147 0
134 152 0
132 150 0
134 153 0
129 146 0
132 150 0
132 150 0
132 151 0
131 149 0
132 151 0
132 150 0
133 150 0
134 152 0
133 151 0
132 150 0
134 152 0
132 150 0
133 151 0
133 152 0
130 149 0
134 152 0
131 150 0
133 151 0
133 151 0
135 153 0
133 152 0
134 152 0
135 154 0
134 152 0
134 152 0
137 155 0
132 150 0
136 153 0
130 148 0
135 154 0
134 152 0
133 151 0
135 154 0
134 152 0
136 154 0
135 153 0
132 150 0
136 153 0
134 152 0
133 151 0
134 152 0
132 151 0
131 149 0
132 149 0
132 150 0
132 151 0
133 151 0
129 148 0
133 150 0
134 152 0
133 151 0
130 147 0
130 148 0
126 144 0
128 145 0
127 144 0
127 145 0
123 142 0
131 150 0
121 138 0
118 136 0
122 139 0
121 137 0
113 130 0
118 136 0
116 133 0
112 130 0
112 129 0
109 126 0
111 127 0
112 127 0
107 123 0
104 119 0
109 124 0
100 115 0
99 112 0
100 112 0
99 112 0
103 116 0
115 129 0
127 142 0
122 136 0
115 129 0
127 143 0
126 141 0
122 137 0
122 137 0
123 138 0
130 145 0
126 141 0
124 140 0
128 143 0
116 130 0
117 132 0
120 135 0
129 145 0
122 138 0
126 142 0
125 141 0
126 142 0
124 140 0
113 129 0
122 137 0
123 140 0
129 145 0
122 139 0
123 140 0
134 151 0
129 145 0
130 147 0
125 143 0
124 141 0
130 147 0
118 135 0
125 143 0
133 150 0
124 142 0
124 141 0
120 138 0
114 131 0
122 139 0
124 140 0
120 137 0
118 136 0
115 132 0
104 122 0
115 132 0
116 135 0
115 132 0
111 127 0
116 133 0
79 101 68
49 79 85
47 75 67
47 75 73
50 80 88
50 79 83
50 79 88
51 82 91
51 81 74
52 82 84
53 84 100
51 81 78
53 84 100
49 78 76
51 80 72
54 86 99
53 85 95
54 86 99
54 86 97
51 82 92
51 82 86
53 84 88
52 83 92
51 82 86
54 86 94
54 85 94
52 82 74
52 83 78
54 85 102
52 82 82
53 85 90
52 83 74
53 84 80
54 85 82
52 83 95
53 84 100
51 81 95
54 86 94
51 81 80
53 85 90
54 85 88
52 82 92
51 81 80
53 84 100
53 85 88
55 87 99
56 89 100
54 86 97
55 86 100
53 83 99
56 88 107
50 80 84
53 83 86
55 87 102
54 85 94
54 86 86
51 81 88
53 84 95
55 87 97
52 81 84
53 84 92
54 84 95
52 83 84
54 84 95
51 80 100
50 79 94
51 81 78
51 80 88
53 83 92
50 78 78
50 78 88
51 81 86
51 80 90
49 76 84
49 77 82
50 79 88
49 76 78
54 77 62
102 112 36
107 115 0
99 108 0
119 127 0
122 131 0
115 122 0
106 111 0
116 125 0
118 127 0
123 129 0
121 127 0
121 130 0
126 135 0
129 136 0
122 126 0
125 133 0
127 134 0
119 126 0
121 124 0
126 130 0
119 124 0
128 131 0
123 124 0
121 117 0
124 122 0
123 125 0
121 119 0
123 125 0
128 129 0
129 130 0
128 127 0
121 116 0
123 121 0
129 125 0
120 115 0
125 120 0
117 111 0
125 120 0
131 124 0
127 117 0
125 117 0
129 119 0
123 113 0
121 111 0
122 109 0
130 123 0
130 119 0
128 117 0
123 109 0
121 105 0
114 99 0
115 95 0
99 70 0
105 77 0
106 80 0
100 76 0
104 80 0
101 79 0
104 84 0
112 91 0
109 90 0
120 98 0
114 94 0
111 93 0
117 97 0
116 96 0
120 102 0
121 100 0
122 103 0
122 103 0
123 103 0
122 104 0
124 104 0
127 108 0
123 105 0
128 109 0
124 106 0
129 110 0
130 111 0
127 108 0
130 111 0
127 108 0
133 114 0
133 113 0
132 112 0
130 111 0
135 116 0
133 114 0
132 112 0
131 112 0
134 114 0
134 114 0
131 112 0
134 114 0
134 114 0
137 116 0
135 115 0
136 116 0
134 114 0
134 114 0
134 114 0
132 113 0
136 116 0
137 116 0
136 116 0
132 112 0
132 112 0
135 115 0
134 114 0
136 116 0
137 117 0
134 114 0
134 114 0
135 116 0
134 114 0
135 115 0
133 113 0
133 113 0
134 114 0
130 111 0
133 113 0
134 114 0
133 113 0
131 112 0
134 114 0
134 114 0
132 112 0
134 114 0
131 112 0
132 113 0
131 112 0
133 113 0
131 111 0
130 110 0
130 110 0
129 109 0
132 112 0
128 108 0
131 111 0
131 112 0
128 108 0
135 114 0
133 112 0
131 110 0
126 107 0
129 107 0
133 112 0
131 110 0
127 107 0
128 107 0
132 111 0
132 110 0
130 107 0
129 109 0
130 109 0
130 108 0
129 106 0
130 109 0
129 108 0
130 108 0
131 109 0
128 146 0
130 148 0
130 147 0
129 146 0
128 145 0
125 142 0
130 148 0
128 145 0
126 144 0
126 144 0
129 147 0
129 147 0
126 143 0
128 146 0
131 149 0
128 146 0
133 150 0
129 146 0
127 144 0
131 150 0
134 152 0
130 148 0
129 148 0
135 154 0
129 147 0
130 148 0
130 148 0
130 149 0
132 149 0
132 150 0
133 151 0
128 147 0
134 152 0
134 152 0
135 154 0
132 151 0
129 148 0
131 150 0
129 147 0
132 149 0
130 148 0
133 151 0
131 149 0
134 153 0
133 150 0
129 147 0
132 151 0
132 151 0
132 151 0
130 149 0
135 153 0
135 153 0
133 152 0
133 151 0
133 152 0
132 151 0
135 153 0
131 150 0
131 148 0
131 150 0
135 153 0
132 150 0
130 148 0
134 152 0
135 152 0
133 152 0
132 150 0
130 148 0
132 151 0
132 151 0
133 152 0
132 150 0
131 149 0
133 152 0
126 144 0
124 141 0
130 148 0
128 145 0
130 149 0
131 149 0
126 144 0
125 144 0
128 145 0
124 142 0
124 142 0
126 145 0
120 138 0
118 135 0
120 138 0
124 142 0
117 133 0
120 137 0
120 136 0
115 132 0
109 124 0
118 136 0
111 127 0
114 130 0
104 119 0
113 128 0
109 123 0
107 122 0
106 121 0
98 112 0
103 116 0
99 111 0
104 117 0
114 128 0
113 128 0
126 140 0
120 135 0
120 134 0
126 141 0
129 144 0
126 142 0
125 139 0
127 141 0
124 139 0
125 140 0
132 147 0
121 137 0
120 136 0
126 141 0
126 142 0
126 142 0
130 146 0
125 141 0
124 140 0
126 142 0
129 145 0
107 123 0
133 149 0
118 134 0
129 146 0
128 144 0
120 136 0
128 146 0
129 146 0
122 139 0
124 141 0
125 142 0
129 146 0
122 139 0
129 146 0
128 147 0
128 145 0
122 140 0
119 134 0
101 117 0
116 133 0
130 147 0
114 131 0
125 142 0
118 134 0
106 122 0
113 130 0
114 131 0
108 124 0
104 120 0
113 131 0
113 130 0
110 125 0
79 99 61
49 77 86
47 76 77
49 78 84
50 79 82
53 83 92
53 84 85
51 81 85
49 79 79
51 80 77
50 80 87
52 82 82
51 82 74
51 82 74
54 85 92
53 83 98
54 85 96
48 77 60
53 84 95
53 83 82
52 83 95
53 85 99
54 85 102
54 85 94
53 83 88
52 83 84
54 85 95
54 85 100
55 87 90
56 88 107
54 86 97
54 86 88
52 82 97
52 83 84
52 82 90
55 86 107
52 82 99
49 79 80
55 87 90
52 83 86
54 86 90
52 82 88
52 82 74
55 87 95
54 85 94
55 86 100
53 84 82
53 84 100
50 80 80
53 84 82
52 83 84
54 85 94
51 81 76
53 83 82
54 85 92
54 85 94
51 80 82
53 82 90
53 84 92
52 82 90
50 80 76
52 81 97
52 82 88
52 83 95
51 81 80
52 82 80
52 82 82
51 80 84
50 79 78
51 80 76
51 80 82
51 80 88
50 79 86
49 76 76
49 76 81
77 93 67
115 126 0
111 116 0
112 122 0
110 117 0
113 124 0
120 126 0
111 121 0
96 101 0
118 126 0
126 135 0
104 108 0
129 139 0
119 124 0
119 126 0
119 125 0
123 130 0
120 127 0
133 142 0
124 129 0
126 129 0
126 130 0
125 128 0
126 127 0
125 127 0
123 126 0
126 128 0
119 119 0
127 129 0
124 123 0
119 118 0
124 122 0
126 125 0
124 121 0
117 111 0
133 130 0
121 115 0
123 118 0
116 112 0
136 131 0
118 111 0
123 119 0
125 117 0
119 108 0
124 113 0
124 114 0
128 120 0
118 103 0
121 108 0
127 115 0
124 109 0
123 109 0
124 113 0
124 109 0
130 118 0
108 90 0
105 78 0
101 70 0
108 83 0
105 82 0
109 85 0
111 88 0
111 89 0
106 86 0
109 86 0
115 92 0
116 94 0
117 96 0
122 102 0
118 99 0
119 98 0
119 101 0
115 97 0
111 93 0
119 101 0
126 106 0
123 105 0
122 104 0
121 103 0
126 107 0
131 112 0
129 110 0
125 106 0
123 105 0
127 108 0
127 107 0
130 110 0
125 108 0
133 113 0
132 113 0
131 112 0
131 112 0
128 110 0
134 114 0
131 112 0
129 109 0
131 112 0
132 112 0
132 112 0
133 112 0
132 113 0
132 112 0
135 115 0
136 114 0
133 112 0
134 112 0
135 115 0
127 109 0
134 114 0
134 114 0
132 112 0
131 113 0
135 114 0
130 110 0
136 115 0
134 113 0
136 115 0
132 112 0
133 113 0
132 112 0
133 113 0
128 109 0
132 112 0
132 112 0
134 114 0
134 114 0
126 108 0
130 111 0
130 110 0
132 112 0
129 110 0
131 110 0
132 112 0
128 108 0
134 114 0
132 111 0
131 110 0
131 110 0
131 111 0
128 108 0
129 108 0
130 109 0
130 109 0
132 111 0
129 107 0
130 109 0
131 110 0
125 106 0
131 109 0
133 112 0
129 108 0
128 106 0
132 110 0
124 103 0
128 106 0
130 108 0
131 108 0
127 104 0
134 111 0
126 104 0
130 108 0
129 107 0
128 105 0
130 149 0
128 145 0
130 147 0
124 141 0
129 146 0
126 143 0
127 143 0
125 142 0
127 145 0
128 145 0
131 149 0
124 143 0
133 151 0
129 145 0
129 147 0
132 151 0
136 154 0
128 145 0
129 148 0
129 148 0
127 145 0
126 144 0
133 151 0
124 141 0
131 149 0
129 146 0
130 149 0
131 149 0
125 142 0
131 149 0
133 152 0
132 150 0
131 149 0
127 145 0
133 152 0
135 153 0
130 147 0
131 148 0
132 151 0
133 151 0
130 149 0
128 146 0
132 150 0
132 149 0
134 152 0
131 150 0
131 149 0
129 148 0
130 147 0
131 149 0
132 151 0
129 146 0
132 151 0
134 152 0
128 146 0
129 147 0
130 149 0
132 151 0
130 148 0
131 150 0
132 150 0
126 144 0
130 147 0
128 145 0
129 147 0
129 147 0
130 148 0
128 147 0
130 148 0
129 147 0
129 147 0
132 150 0
125 142 0
127 145 0
125 142 0
129 146 0
128 146 0
127 145 0
125 143 0
128 145 0
127 143 0
123 142 0
124 141 0
121 138 0
120 138 0
127 145 0
122 139 0
122 138 0
118 135 0
119 136 0
117 134 0
118 135 0
118 134 0
112 128 0
113 130 0
113 128 0
118 134 0
105 119 0
97 111 0
108 122 0
104 118 0
100 113 0
103 116 0
99 112 0
100 112 0
112 125 0
122 136 0
123 138 0
122 136 0
123 138 0
124 139 0
124 139 0
122 137 0
126 141 0
120 135 0
127 142 0
122 136 0
131 146 0
125 141 0
125 141 0
126 142 0
122 137 0
123 138 0
130 146 0
120 135 0
125 141 0
121 137 0
123 139 0
128 143 0
127 142 0
124 139 0
126 143 0
128 144 0
125 142 0
120 136 0
126 142 0
130 147 0
121 137 0
120 135 0
129 145 0
118 135 0
116 133 0
121 138 0
118 135 0
118 136 0
121 137 0
129 147 0
116 132 0
118 135 0
121 138 0
117 134 0
118 135 0
111 127 0
103 120 0
121 139 0
111 129 0
113 131 0
108 125 0
116 132 0
117 134 0
98 114 0
104 120 0
105 121 0
85 102 34
66 90 80
48 76 76
48 76 84
48 77 82
49 79 80
49 78 72
50 80 82
50 80 80
49 78 70
49 79 80
52 83 80
54 85 88
49 78 82
52 83 76
51 81 86
54 85 107
53 85 90
50 80 82
54 85 99
50 80 78
54 86 97
51 81 76
55 87 102
53 84 92
53 83 86
53 84 94
52 83 88
51 81 86
53 83 86
51 82 72
52 82 92
53 83 92
55 86 99
51 81 82
54 85 95
49 78 60
55 87 99
54 85 94
54 85 95
53 84 95
52 82 97
53 84 95
52 82 82
54 85 100
55 87 113
52 83 80
54 86 100
51 81 74
53 83 94
53 83 92
53 83 94
51 80 88
51 81 78
51 80 80
55 87 105
51 81 90
52 83 92
52 83 88
50 78 82
49 79 72
52 83 92
55 85 95
52 81 90
50 79 78
48 77 67
48 76 67
50 78 76
50 79 94
48 75 72
49 76 74
47 74 76
58 77 51
104 114 44
102 108 0
109 115 0
124 132 0
108 117 0
102 109 0
121 128 0
118 128 0
114 120 0
122 131 0
119 128 0
115 120 0
124 132 0
115 121 0
119 124 0
120 124 0
120 127 0
120 126 0
118 123 0
115 122 0
123 126 0
124 127 0
119 123 0
132 139 0
133 138 0
127 132 0
124 126 0
124 127 0
121 118 0
121 123 0
118 121 0
117 117 0
129 131 0
119 120 0
125 124 0
123 121 0
126 122 0
127 126 0
123 120 0
123 119 0
130 125 0
124 116 0
128 123 0
129 125 0
120 111 0
125 115 0
120 113 0
121 109 0
129 124 0
124 112 0
132 122 0
125 113 0
125 114 0
123 109 0
124 111 0
123 106 0
125 108 0
119 103 0
118 97 0
98 71 0
100 70 0
110 81 0
105 78 0
111 85 0
106 83 0
111 88 0
108 85 0
109 87 0
120 97 0
114 93 0
115 95 0
115 95 0
119 100 0
116 97 0
117 98 0
116 98 0
122 101 0
126 106 0
116 97 0
123 104 0
122 103 0
128 107 0
120 103 0
125 106 0
126 107 0
126 107 0
127 109 0
128 110 0
128 107 0
127 107 0
124 106 0
130 110 0
128 108 0
127 108 0
131 110 0
131 111 0
130 111 0
128 109 0
131 111 0
132 113 0
129 110 0
127 109 0
131 111 0
133 112 0
131 112 0
132 112 0
131 111 0
129 109 0
133 113 0
130 111 0
130 110 0
129 110 0
129 110 0
134 114 0
131 111 0
130 111 0
131 111 0
127 108 0
127 108 0
129 109 0
132 112 0
133 113 0
127 109 0
131 111 0
131 111 0
131 110 0
133 113 0
129 110 0
131 111 0
133 112 0
128 107 0
131 111 0
129 109 0
134 112 0
129 108 0
132 111 0
132 111 0
130 109 0
128 107 0
124 104 0
128 108 0
129 108 0
129 107 0
129 109 0
127 106 0
129 108 0
130 109 0
132 111 0
131 109 0
128 106 0
127 105 0
126 104 0
129 107 0
125 103 0
127 103 0
127 105 0
130 108 0
130 107 0
124 99 0
128 104 0
129 105 0
131 110 0
132 109 0
129 105 0
131 147 0
129 146 0
130 147 0
129 146 0
129 146 0
127 144 0
125 141 0
127 145 0
129 146 0
132 150 0
128 145 0
128 145 0
127 144 0
129 146 0
129 147 0
129 147 0
126 143 0
127 145 0
126 144 0
130 148 0
128 147 0
128 146 0
128 146 0
128 146 0
128 145 0
128 146 0
126 144 0
124 142 0
127 145 0
126 144 0
128 145 0
129 147 0
130 148 0
127 145 0
130 148 0
126 143 0
128 146 0
128 146 0
131 150 0
130 148 0
132 150 0
130 149 0
129 148 0
125 143 0
127 145 0
128 146 0
128 145 0
131 149 0
132 151 0
130 149 0
131 149 0
123 141 0
132 150 0
123 141 0
129 147 0
129 147 0
129 146 0
130 149 0
128 145 0
125 143 0
133 151 0
124 142 0
128 146 0
129 148 0
130 148 0
126 144 0
128 146 0
124 142 0
129 147 0
128 146 0
124 142 0
132 149 0
127 145 0
126 144 0
123 141 0
126 143 0
125 142 0
126 144 0
119 136 0
124 142 0
117 134 0
124 141 0
118 135 0
114 131 0
121 138 0
115 132 0
115 133 0
119 137 0
111 128 0
110 126 0
114 131 0
116 132 0
111 126 0
116 130 0
108 123 0
106 121 0
112 127 0
101 115 0
109 123 0
96 109 0
103 116 0
103 114 0
110 124 0
114 129 0
118 131 0
116 130 0
122 137 0
129 144 0
128 142 0
127 143 0
128 143 0
122 137 0
122 138 0
125 141 0
126 142 0
123 138 0
121 136 0
130 145 0
119 134 0
127 142 0
130 146 0
124 140 0
125 141 0
120 135 0
122 137 0
129 146 0
123 139 0
123 139 0
119 135 0
136 152 0
121 137 0
114 129 0
119 134 0
116 132 0
117 134 0
122 138 0
123 140 0
119 137 0
125 142 0
113 129 0
123 140 0
129 147 0
124 141 0
124 141 0
113 130 0
123 140 0
129 146 0
124 140 0
115 132 0
114 131 0
128 144 0
120 136 0
125 142 0
118 135 0
119 136 0
108 124 0
111 127 0
112 128 0
122 139 0
108 122 0
110 127 0
104 121 0
106 122 0
89 104 0
104 119 0
74 93 42
50 77 60
46 73 70
48 77 84
50 80 95
52 82 90
49 79 76
48 77 76
49 79 81
52 83 76
54 86 94
53 84 97
51 81 90
53 83 102
51 81 82
52 83 88
52 83 86
52 82 92
50 80 82
52 82 84
50 79 78
50 80 78
52 82 92
54 85 94
53 84 94
52 82 90
52 82 92
50 81 78
53 84 86
53 85 80
52 83 80
53 84 95
51 81 86
55 86 95
50 80 70
53 85 90
55 86 103
53 83 88
53 83 90
53 84 88
51 80 84
53 83 90
52 83 84
51 80 86
53 84 99
54 85 90
52 82 94
52 82 92
54 85 92
53 84 88
50 79 76
52 82 99
52 83 102
50 79 90
52 82 97
48 77 72
51 80 70
51 80 83
52 81 88
51 80 95
50 79 72
51 82 82
50 79 74
51 80 90
51 80 82
51 81 84
49 76 80
48 75 63
47 70 60
82 97 25
92 97 0
108 119 0
99 107 0
107 116 0
102 110 0
105 112 0
95 102 0
105 112 0
114 127 0
114 118 0
113 119 0
111 117 0
118 129 0
114 119 0
113 122 0
120 128 0
119 127 0
119 125 0
124 132 0
128 139 0
121 129 0
117 124 0
128 133 0
117 122 0
115 117 0
122 126 0
126 130 0
125 125 0
126 128 0
108 107 0
121 123 0
133 135 0
127 126 0
132 132 0
123 123 0
129 129 0
125 124 0
126 126 0
123 122 0
121 115 0
129 124 0
128 123 0
126 121 0
125 120 0
124 118 0
124 121 0
119 112 0
125 116 0
129 124 0
123 111 0
122 111 0
126 118 0
107 95 0
121 106 0
122 110 0
123 111 0
118 102 0
122 108 0
118 104 0
123 108 0
119 103 0
116 96 0
110 84 0
98 67 0
101 71 0
101 77 0
104 80 0
110 86 0
103 77 0
104 80 0
112 88 0
104 83 0
113 92 0
111 91 0
109 89 0
115 96 0
115 95 0
116 97 0
121 99 0
117 98 0
122 102 0
114 95 0
117 98 0
120 101 0
126 105 0
119 100 0
120 101 0
120 102 0
126 107 0
126 107 0
126 106 0
127 107 0
129 109 0
123 105 0
124 105 0
126 107 0
132 113 0
125 106 0
129 109 0
129 109 0
129 110 0
124 105 0
127 107 0
130 110 0
124 105 0
132 111 0
131 111 0
125 106 0
128 110 0
129 110 0
130 110 0
131 111 0
132 113 0
132 112 0
126 106 0
127 107 0
131 111 0
130 110 0
127 108 0
130 111 0
133 113 0
126 107 0
129 109 0
130 109 0
130 108 0
127 107 0
129 109 0
131 111 0
130 110 0
132 111 0
127 106 0
129 109 0
129 109 0
125 106 0
127 108 0
128 109 0
128 107 0
125 105 0
127 107 0
126 106 0
125 105 0
130 107 0
128 107 0
133 112 0
130 107 0
127 107 0
129 109 0
130 109 0
129 107 0
129 108 0
128 106 0
128 106 0
129 108 0
123 101 0
125 104 0
128 106 0
129 106 0
126 105 0
132 110 0
126 102 0
129 107 0
129 106 0
128 105 0
128 103 0
129 106 0
134 151 0
127 144 0
129 145 0
130 147 0
129 145 0
127 143 0
127 144 0
129 146 0
130 147 0
127 144 0
126 142 0
124 141 0
128 144 0
128 144 0
128 145 0
127 145 0
126 143 0
124 141 0
126 143 0
128 146 0
126 143 0
126 144 0
123 140 0
128 146 0
129 147 0
128 145 0
124 142 0
129 148 0
130 148 0
125 142 0
127 145 0
127 145 0
125 144 0
126 144 0
126 143 0
129 146 0
127 144 0
128 146 0
129 147 0
125 144 0
129 147 0
129 147 0
131 149 0
126 144 0
128 147 0
126 144 0
129 148 0
130 149 0
129 147 0
123 141 0
121 140 0
128 146 0
130 148 0
127 145 0
127 144 0
131 149 0
127 145 0
129 147 0
129 147 0
133 151 0
132 150 0
128 146 0
126 144 0
129 147 0
129 148 0
122 140 0
127 145 0
120 138 0
126 145 0
125 143 0
124 142 0
120 138 0
122 140 0
123 140 0
123 141 0
124 142 0
119 136 0
117 134 0
121 138 0
115 132 0
121 138 0
116 133 0
125 142 0
121 138 0
118 135 0
113 128 0
118 135 0
112 128 0
108 124 0
114 131 0
111 126 0
108 123 0
110 125 0
108 122 0
110 124 0
106 120 0
101 114 0
97 110 0
98 110 0
104 117 0
105 118 0
121 135 0
119 133 0
125 139 0
122 137 0
112 126 0
125 139 0
119 134 0
116 131 0
127 141 0
125 141 0
121 136 0
125 140 0
125 140 0
129 145 0
131 146 0
124 140 0
119 135 0
127 142 0
118 134 0
127 143 0
132 149 0
121 137 0
121 137 0
125 141 0
114 131 0
121 137 0
126 142 0
123 138 0
128 145 0
125 140 0
127 143 0
126 143 0
134 151 0
123 138 0
130 146 0
125 142 0
129 147 0
123 140 0
123 141 0
123 138 0
126 143 0
113 128 0
128 145 0
113 130 0
110 126 0
114 131 0
111 128 0
120 136 0
116 134 0
120 137 0
120 136 0
114 131 0
117 134 0
107 124 0
111 128 0
110 126 0
124 140 0
104 121 0
108 124 0
98 115 0
109 125 0
101 115 0
99 114 0
98 112 0
98 115 0
81 97 25
61 83 53
48 77 72
46 74 72
49 78 88
51 82 86
50 79 90
51 81 86
50 80 78
50 80 84
51 81 86
50 79 76
54 86 97
49 79 80
50 80 84
51 81 67
53 84 100
50 80 82
50 80 90
53 84 78
52 83 95
51 81 87
48 76 80
52 82 97
51 81 82
53 84 92
51 81 80
53 85 90
53 84 84
51 81 76
51 80 82
52 83 84
53 84 82
52 83 99
52 83 92
54 85 88
53 84 92
50 80 80
53 84 92
51 82 90
53 83 100
52 83 90
51 81 88
49 78 76
53 84 86
51 80 86
50 80 72
51 80 92
50 79 86
52 83 94
52 82 95
51 81 80
52 83 90
49 77 82
48 76 80
51 80 86
53 83 78
51 80 92
49 77 88
49 78 80
51 80 94
49 79 80
47 75 80
48 75 74
47 75 70
49 78 83
62 80 44
94 102 25
100 109 0
109 118 0
102 113 0
104 111 0
100 109 0
110 117 0
113 120 0
107 115 0
114 123 0
111 119 0
110 115 0
113 122 0
110 118 0
111 118 0
111 123 0
118 128 0
113 116 0
119 126 0
116 118 0
127 137 0
123 126 0
122 128 0
127 133 0
110 115 0
112 115 0
117 122 0
122 128 0
123 125 0
123 130 0
123 126 0
123 125 0
130 135 0
128 130 0
126 130 0
126 129 0
128 131 0
121 121 0
120 119 0
122 124 0
126 122 0
131 131 0
127 121 0
117 112 0
127 123 0
131 129 0
131 127 0
124 119 0
114 107 0
118 105 0
120 112 0
122 115 0
118 109 0
127 118 0
124 114 0
119 108 0
121 108 0
123 107 0
126 115 0
126 108 0
120 104 0
124 106 0
123 106 0
128 116 0
124 106 0
115 97 0
113 91 0
101 74 0
100 70 0
105 75 0
108 80 0
109 80 0
110 85 0
115 90 0
107 84 0
109 88 0
111 88 0
119 96 0
107 88 0
117 94 0
118 96 0
111 90 0
113 93 0
117 97 0
119 98 0
122 101 0
113 94 0
120 100 0
125 104 0
121 101 0
123 103 0
123 103 0
117 98 0
120 102 0
125 104 0
123 104 0
124 104 0
125 104 0
127 107 0
123 104 0
126 107 0
125 105 0
124 104 0
126 107 0
130 109 0
124 105 0
125 106 0
128 108 0
126 107 0
126 106 0
126 108 0
130 111 0
129 108 0
130 110 0
126 107 0
129 109 0
129 108 0
126 106 0
126 106 0
130 110 0
126 106 0
126 107 0
131 110 0
127 107 0
124 105 0
126 106 0
127 106 0
129 109 0
131 109 0
130 109 0
133 111 0
129 110 0
130 109 0
125 105 0
131 110 0
125 104 0
125 104 0
127 106 0
125 106 0
128 107 0
127 106 0
125 104 0
126 104 0
125 105 0
128 107 0
126 104 0
129 106 0
132 109 0
126 105 0
127 104 0
129 106 0
127 103 0
127 104 0
125 103 0
127 104 0
128 105 0
130 107 0
130 107 0
125 102 0
129 105 0
124 101 0
124 101 0
125 101 0
127 104 0
128 105 0
129 105 0
140 129 0
169 191 0
162 184 0
149 169 22
133 151 0
129 146 0
125 142 0
126 143 0
127 143 0
132 149 0
128 145 0
124 140 0
132 149 0
127 144 0
125 142 0
125 143 0
121 138 0
126 144 0
127 144 0
128 145 0
127 144 0
128 146 0
127 144 0
125 142 0
128 145 0
123 140 0
129 145 0
130 148 0
128 146 0
122 139 0
125 143 0
123 141 0
129 146 0
126 143 0
130 149 0
125 143 0
127 145 0
126 143 0
124 141 0
125 143 0
129 148 0
129 146 0
125 143 0
126 145 0
128 145 0
120 138 0
129 146 0
123 141 0
132 150 0
125 143 0
126 144 0
125 143 0
130 149 0
125 144 0
122 140 0
124 142 0
128 147 0
120 136 0
126 144 0
123 142 0
124 141 0
117 134 0
124 141 0
126 144 0
124 142 0
127 144 0
129 146 0
125 144 0
124 141 0
128 146 0
126 144 0
125 142 0
121 138 0
124 142 0
116 132 0
119 136 0
117 134 0
121 138 0
118 135 0
118 135 0
108 125 0
115 132 0
117 132 0
113 129 0
116 131 0
113 129 0
109 125 0
114 130 0
111 126 0
114 129 0
111 126 0
107 122 0
111 126 0
106 119 0
102 115 0
103 116 0
102 114 0
107 120 0
109 122 0
119 134 0
121 136 0
123 138 0
127 142 0
116 130 0
125 140 0
124 138 0
120 134 0
126 141 0
126 141 0
120 135 0
117 132 0
132 147 0
124 139 0
127 143 0
122 137 0
127 142 0
132 147 0
130 146 0
126 141 0
129 143 0
127 142 0
122 138 0
120 136 0
121 138 0
131 147 0
124 140 0
128 145 0
127 144 0
119 136 0
121 138 0
123 140 0
123 139 0
126 143 0
131 148 0
130 147 0
123 139 0
132 150 0
130 147 0
128 145 0
117 134 0
128 144 0
112 129 0
130 147 0
119 137 0
115 132 0
124 141 0
117 134 0
120 136 0
125 143 0
116 133 0
121 138 0
124 141 0
116 133 0
105 121 0
109 127 0
106 122 0
104 121 0
105 121 0
99 116 0
114 130 0
108 124 0
99 114 0
99 114 0
104 119 0
94 108 0
89 102 0
104 120 0
84 99 0
91 106 0
90 106 40
53 79 79
49 78 76
50 80 89
48 77 78
48 76 70
49 78 72
51 81 94
49 79 90
49 79 78
49 79 78
52 83 92
52 82 88
52 82 94
51 81 88
53 83 94
49 78 80
51 81 82
47 74 67
48 76 84
48 78 86
50 80 72
51 82 82
51 81 90
53 83 84
54 84 95
50 81 84
53 84 88
54 85 90
49 78 65
53 84 88
51 80 90
49 78 76
51 81 82
52 82 84
50 79 80
54 85 100
50 80 86
51 81 74
51 82 86
54 85 95
53 84 94
51 80 92
50 79 90
51 81 80
50 80 70
50 79 82
52 82 90
48 76 76
46 74 72
51 81 88
48 75 82
49 78 80
49 77 78
49 77 78
49 78 76
50 79 76
48 76 65
46 72 62
48 76 82
47 74 67
47 74 67
53 77 72
82 96 40
95 102 0
104 110 0
99 108 0
90 99 0
102 111 0
95 103 0
110 115 0
108 116 0
113 122 0
113 123 0
119 128 0
107 114 0
99 107 0
104 112 0
125 133 0
122 132 0
120 129 0
111 118 0
119 128 0
115 124 0
110 117 0
115 123 0
120 125 0
119 125 0
116 125 0
121 126 0
121 131 0
120 127 0
114 115 0
118 120 0
123 126 0
120 125 0
124 126 0
124 128 0
127 133 0
121 121 0
129 130 0
125 127 0
133 135 0
122 124 0
125 123 0
124 120 0
121 119 0
132 129 0
123 116 0
125 122 0
121 115 0
127 125 0
134 132 0
127 119 0
124 118 0
127 118 0
129 125 0
124 117 0
122 112 0
119 111 0
122 109 0
126 111 0
123 112 0
119 105 0
122 107 0
124 115 0
122 110 0
125 111 0
122 111 0
116 98 0
127 113 0
114 99 0
118 99 0
125 105 0
112 91 0
102 72 0
105 73 0
101 73 0
104 78 0
106 78 0
106 81 0
107 82 0
106 81 0
117 93 0
111 89 0
111 89 0
115 93 0
117 94 0
114 92 0
114 92 0
113 92 0
117 96 0
114 94 0
117 94 0
117 96 0
117 97 0
122 101 0
122 101 0
123 104 0
121 101 0
126 105 0
117 97 0
119 100 0
125 105 0
125 102 0
120 101 0
123 103 0
123 103 0
130 109 0
123 105 0
122 103 0
123 104 0
125 105 0
128 108 0
124 104 0
131 110 0
128 108 0
125 105 0
129 109 0
127 105 0
127 107 0
122 103 0
127 106 0
125 105 0
126 107 0
128 107 0
124 104 0
127 106 0
128 108 0
129 107 0
123 105 0
128 108 0
126 106 0
124 105 0
130 109 0
125 105 0
128 107 0
127 106 0
128 107 0
130 109 0
127 105 0
123 102 0
127 105 0
121 101 0
124 103 0
124 102 0
125 104 0
124 104 0
126 105 0
127 104 0
125 103 0
124 101 0
124 102 0
129 106 0
125 104 0
129 106 0
127 103 0
124 101 0
128 105 0
125 101 0
125 102 0
128 105 0
124 101 0
125 102 0
123 101 0
124 100 0
128 105 0
127 102 0
134 121 0
153 159 0
164 177 11
170 189 0
170 193 0
169 191 0
164 188 0
165 187 0
156 177 0
146 165 0
130 147 0
127 144 0
128 144 0
123 139 0
125 142 0
124 140 0
123 140 0
125 141 0
125 141 0
126 143 0
130 147 0
123 139 0
123 139 0
128 145 0
128 145 0
128 145 0
122 139 0
127 145 0
130 147 0
124 142 0
130 148 0
120 137 0
126 143 0
125 143 0
123 140 0
127 145 0
129 146 0
124 141 0
131 149 0
126 143 0
125 142 0
123 140 0
124 142 0
128 145 0
120 137 0
127 145 0
117 135 0
128 146 0
130 148 0
125 142 0
126 143 0
120 138 0
120 137 0
124 142 0
126 144 0
127 145 0
130 148 0
123 141 0
123 141 0
122 140 0
126 144 0
125 143 0
122 140 0
122 139 0
129 147 0
125 143 0
121 138 0
122 139 0
122 139 0
122 139 0
116 133 0
118 135 0
127 145 0
119 136 0
122 138 0
119 136 0
117 135 0
109 126 0
121 140 0
123 139 0
113 129 0
123 139 0
120 136 0
111 127 0
111 126 0
111 126 0
114 130 0
111 127 0
109 123 0
113 129 0
111 126 0
110 124 0
106 121 0
113 127 0
106 118 0
112 125 0
101 114 0
103 116 0
114 128 0
117 131 0
122 135 0
121 135 0
125 140 0
113 127 0
114 128 0
121 135 0
124 138 0
122 137 0
118 133 0
120 134 0
123 138 0
126 141 0
130 145 0
128 144 0
124 139 0
130 144 0
128 144 0
119 134 0
125 140 0
129 144 0
122 137 0
128 144 0
129 145 0
119 134 0
124 138 0
119 135 0
131 147 0
130 147 0
128 145 0
124 139 0
127 144 0
120 136 0
121 137 0
125 142 0
128 145 0
119 134 0
120 137 0
129 146 0
129 146 0
128 144 0
131 148 0
126 144 0
123 140 0
128 145 0
117 135 0
126 144 0
113 130 0
129 146 0
121 138 0
125 143 0
120 136 0
116 132 0
115 132 0
122 140 0
111 129 0
115 131 0
118 134 0
107 124 0
107 123 0
96 112 0
113 129 0
121 137 0
112 128 0
105 119 0
108 124 0
115 131 0
108 125 0
98 114 0
96 110 0
100 114 0
92 107 0
92 106 0
99 114 0
95 110 0
77 93 36
53 79 54
45 72 70
48 77 78
48 77 68
48 76 60
47 75 72
47 75 76
49 79 74
48 77 60
50 79 87
47 75 74
48 77 67
51 82 78
50 79 72
51 81 94
52 82 90
50 80 80
50 80 88
48 77 70
49 79 86
51 81 82
49 78 65
50 79 74
51 81 82
51 80 88
51 81 86
51 81 80
51 81 94
49 78 76
49 77 74
52 82 74
51 80 86
49 78 80
51 81 86
49 79 80
52 82 78
48 76 72
50 79 84
50 80 90
49 78 84
52 82 84
50 79 90
50 80 84
48 76 76
51 81 86
53 84 95
51 81 78
47 76 72
50 79 88
46 72 65
51 80 82
49 77 72
48 76 80
49 78 82
48 75 72
50 77 82
44 70 65
55 77 62
82 95 44
102 110 0
104 109 0
95 103 0
98 106 0
106 113 0
102 112 0
95 105 0
116 124 0
101 110 0
111 122 0
101 106 0
119 130 0
110 117 0
103 111 0
103 111 0
122 130 0
101 106 0
113 118 0
108 112 0
111 117 0
123 132 0
107 113 0
113 121 0
117 120 0
113 121 0
116 125 0
109 113 0
123 125 0
113 118 0
123 129 0
119 126 0
124 127 0
119 124 0
124 128 0
120 123 0
126 127 0
126 127 0
122 123 0
122 120 0
119 120 0
125 127 0
123 125 0
129 131 0
114 114 0
124 123 0
126 126 0
119 114 0
123 119 0
121 116 0
128 126 0
123 119 0
128 127 0
126 125 0
120 116 0
128 123 0
124 116 0
124 116 0
129 122 0
118 105 0
124 115 0
120 107 0
120 106 0
126 111 0
123 110 0
118 103 0
116 101 0
122 111 0
125 108 0
126 110 0
124 109 0
127 110 0
119 102 0
120 102 0
119 103 0
117 99 0
113 90 0
101 71 0
103 74 0
100 71 0
99 73 0
109 81 0
107 81 0
114 87 0
107 84 0
108 85 0
112 89 0
108 85 0
116 93 0
121 98 0
114 92 0
109 87 0
116 94 0
117 94 0
109 88 0
112 91 0
118 97 0
120 98 0
120 100 0
122 102 0
116 96 0
124 103 0
119 98 0
123 103 0
121 99 0
124 104 0
122 101 0
122 101 0
121 102 0
123 103 0
121 102 0
122 102 0
126 105 0
126 105 0
121 101 0
124 105 0
122 101 0
127 105 0
123 102 0
125 104 0
123 103 0
125 102 0
121 100 0
120 100 0
125 104 0
125 104 0
124 102 0
124 103 0
125 103 0
130 108 0
126 103 0
123 103 0
126 105 0
126 104 0
126 106 0
130 108 0
125 104 0
123 101 0
124 102 0
125 104 0
123 101 0
124 102 0
123 102 0
128 105 0
121 100 0
128 104 0
123 100 0
122 100 0
123 100 0
128 104 0
125 102 0
124 102 0
122 100 0
127 104 0
125 101 0
125 101 0
126 102 0
118 93 0
127 102 0
125 101 0
123 99 0
126 102 0
126 103 0
127 102 0
131 116 0
152 154 0
161 172 0
165 183 0
167 185 0
170 190 0
168 189 0
170 193 0
166 188 0
167 188 0
169 191 0
167 189 0
169 192 0
159 182 0
158 179 0
145 164 0
129 145 0
119 136 0
125 141 0
125 141 0
128 144 0
122 138 0
126 142 0
125 142 0
125 142 0
123 139 0
125 141 0
128 145 0
129 146 0
130 146 0
124 141 0
121 137 0
126 143 0
122 140 0
121 137 0
128 145 0
128 144 0
124 141 0
123 140 0
126 143 0
122 139 0
125 142 0
125 143 0
124 141 0
124 141 0
125 144 0
120 136 0
124 142 0
122 138 0
126 143 0
128 145 0
124 143 0
128 145 0
129 147 0
122 139 0
127 144 0
129 147 0
120 136 0
128 145 0
124 142 0
123 140 0
119 136 0
124 141 0
125 143 0
125 143 0
121 138 0
123 140 0
123 140 0
124 141 0
124 140 0
114 131 0
123 140 0
119 135 0
116 133 0
122 139 0
120 137 0
118 134 0
121 138 0
116 133 0
122 138 0
119 134 0
111 126 0
117 133 0
111 126 0
108 124 0
114 130 0
112 127 0
111 126 0
110 125 0
107 122 0
107 120 0
102 116 0
112 126 0
103 117 0
102 115 0
101 113 0
98 110 0
106 119 0
111 125 0
117 131 0
124 139 0
123 137 0
120 134 0
126 141 0
119 134 0
120 135 0
123 137 0
123 137 0
125 140 0
127 142 0
124 138 0
119 134 0
124 139 0
124 140 0
129 143 0
125 140 0
119 134 0
128 143 0
129 144 0
116 131 0
125 140 0
120 136 0
124 140 0
127 143 0
122 138 0
132 149 0
126 142 0
123 139 0
121 137 0
131 147 0
115 130 0
130 146 0
121 137 0
130 147 0
118 134 0
121 136 0
130 147 0
116 132 0
124 141 0
120 136 0
120 136 0
122 138 0
120 137 0
118 135 0
126 143 0
123 140 0
119 136 0
119 136 0
122 139 0
117 135 0
122 139 0
125 141 0
117 133 0
131 149 0
105 121 0
127 145 0
121 139 0
114 130 0
125 142 0
112 128 0
114 130 0
109 125 0
108 124 0
106 123 0
98 114 0
117 133 0
103 120 0
97 112 0
105 121 0
97 111 0
95 110 0
97 112 0
100 115 0
98 112 0
93 108 0
101 116 0
97 111 0
78 92 0
90 106 18
63 81 44
52 78 60
44 71 57
46 74 74
48 77 73
47 76 67
50 79 84
48 77 76
51 81 80
49 79 70
47 76 65
49 79 78
51 82 80
48 77 86
45 72 57
50 80 70
50 79 80
49 79 82
48 77 74
53 84 86
53 84 86
51 81 82
51 81 78
49 78 80
48 76 65
50 80 84
48 77 74
50 79 76
50 80 94
49 78 72
49 77 78
52 82 80
51 81 80
52 82 84
50 79 95
48 77 76
52 83 84
51 81 86
49 78 74
50 80 82
48 76 70
49 78 80
49 78 74
50 80 90
52 81 78
46 74 60
49 77 76
47 75 74
45 71 67
51 81 86
47 75 72
47 74 54
46 74 67
47 75 72
56 78 47
61 74 44
82 89 0
101 112 0
86 95 0
102 110 0
99 105 0
94 101 0
101 109 0
100 107 0
80 88 0
96 104 0
104 111 0
100 106 0
96 105 0
102 106 0
109 117 0
114 121 0
113 122 0
115 125 0
112 120 0
118 125 0
116 123 0
117 124 0
112 118 0
113 119 0
119 128 0
114 122 0
122 133 0
102 109 0
120 126 0
122 126 0
126 135 0
135 146 0
126 129 0
127 134 0
124 125 0
110 116 0
117 120 0
128 133 0
119 119 0
130 136 0
122 127 0
129 131 0
123 127 0
108 110 0
127 126 0
131 134 0
131 132 0
123 119 0
124 120 0
125 122 0
125 124 0
123 113 0
120 116 0
126 123 0
122 119 0
125 122 0
117 111 0
122 118 0
121 114 0
114 102 0
119 114 0
129 123 0
124 116 0
123 113 0
121 110 0
122 110 0
125 111 0
126 116 0
122 110 0
121 108 0
120 107 0
124 111 0
124 109 0
122 107 0
122 109 0
120 104 0
128 112 0
121 100 0
121 101 0
117 96 0
104 81 0
104 74 0
108 75 0
95 66 0
106 79 0
112 84 0
103 76 0
111 84 0
107 80 0
114 90 0
106 81 0
113 90 0
108 84 0
117 92 0
113 89 0
108 87 0
110 88 0
113 92 0
111 90 0
118 97 0
118 97 0
117 94 0
116 92 0
122 99 0
119 100 0
115 95 0
115 94 0
118 97 0
117 96 0
117 97 0
120 99 0
120 98 0
123 102 0
116 97 0
119 98 0
127 105 0
122 102 0
124 103 0
126 105 0
123 104 0
122 101 0
129 108 0
124 102 0
123 101 0
124 104 0
122 100 0
126 105 0
122 100 0
123 103 0
123 101 0
128 107 0
127 105 0
126 103 0
122 102 0
127 104 0
125 102 0
124 101 0
130 107 0
120 99 0
126 104 0
129 107 0
127 105 0
127 104 0
123 100 0
122 99 0
123 99 0
128 104 0
123 99 0
125 102 0
117 93 0
122 98 0
122 99 0
120 95 0
123 98 0
121 94 0
123 97 0
127 103 0
125 102 0
119 95 0
126 100 0
124 99 0
126 100 0
136 122 0
149 148 0
157 167 0
161 177 0
166 182 0
166 186 0
167 184 0
167 186 0
167 186 0
163 179 0
162 184 0
169 191 0
169 191 0
166 189 0
163 186 0
168 190 0
164 185 0
164 186 0
167 188 0
165 186 0
160 180 0
151 171 0
141 159 0
132 148 0
123 139 0
125 140 0
120 136 0
121 137 0
126 142 0
122 138 0
122 138 0
122 138 0
122 138 0
123 139 0
118 134 0
119 135 0
124 140 0
126 142 0
121 138 0
120 136 0
124 140 0
124 141 0
123 138 0
120 137 0
125 141 0
126 143 0
123 141 0
121 138 0
123 139 0
117 134 0
127 145 0
125 141 0
122 139 0
121 137 0
122 138 0
126 143 0
121 139 0
118 135 0
119 136 0
118 135 0
119 136 0
121 139 0
121 137 0
127 143 0
119 136 0
118 135 0
122 139 0
120 135 0
120 136 0
119 135 0
116 132 0
122 139 0
114 130 0
118 136 0
118 134 0
119 136 0
120 136 0
114 129 0
116 133 0
112 127 0
112 128 0
113 129 0
120 136 0
115 130 0
110 124 0
116 131 0
108 123 0
111 125 0
113 127 0
114 129 0
109 124 0
114 128 0
103 116 0
106 119 0
103 116 0
99 111 0
96 108 0
106 118 0
110 123 0
117 133 0
118 131 0
125 140 0
120 133 0
127 142 0
123 137 0
124 138 0
124 140 0
125 139 0
130 145 0
120 135 0
119 133 0
124 140 0
117 131 0
125 140 0
135 151 0
122 137 0
127 142 0
127 143 0
119 134 0
121 136 0
122 137 0
129 145 0
134 149 0
127 142 0
121 136 0
123 139 0
125 140 0
129 145 0
114 129 0
126 142 0
123 139 0
128 144 0
123 139 0
126 142 0
124 141 0
132 148 0
122 138 0
123 139 0
119 137 0
117 132 0
120 137 0
120 136 0
118 134 0
117 134 0
121 138 0
119 135 0
127 145 0
118 135 0
120 137 0
122 139 0
118 135 0
120 137 0
114 132 0
115 132 0
121 137 0
115 132 0
120 138 0
120 137 0
117 134 0
120 136 0
112 128 0
110 127 0
119 136 0
113 129 0
119 137 0
100 116 0
108 123 0
100 117 0
110 126 0
98 115 0
102 117 0
93 108 0
106 122 0
98 113 0
91 105 0
95 110 0
97 113 0
92 107 0
83 99 0
92 106 0
79 93 0
86 101 0
84 97 0
85 98 0
72 86 31
49 72 67
43 69 57
44 70 65
48 76 70
46 74 62
49 78 83
48 76 75
48 76 70
45 73 47
51 80 80
52 82 94
47 75 82
48 77 62
51 81 86
47 76 72
51 80 88
48 76 72
49 78 74
50 80 82
50 80 86
47 76 60
50 79 78
51 81 76
51 80 72
49 78 80
51 80 78
50 79 86
47 75 65
50 80 84
51 80 92
50 78 80
51 81 80
49 78 70
47 76 67
49 78 78
50 80 78
50 79 70
48 76 82
45 73 62
52 81 88
46 73 72
48 75 72
45 71 67
46 73 72
50 79 78
48 76 78
45 70 60
46 72 62
49 76 78
52 69 51
71 84 47
89 98 0
84 92 0
88 97 0
85 90 0
82 91 0
90 98 0
101 109 0
83 89 0
95 99 0
88 95 0
103 114 0
101 107 0
102 112 0
104 110 0
106 115 0
99 107 0
104 110 0
122 133 0
108 116 0
110 116 0
116 126 0
117 126 0
123 133 0
106 113 0
119 126 0
111 116 0
109 119 0
122 130 0
124 132 0
115 122 0
123 132 0
125 131 0
118 125 0
115 122 0
116 124 0
129 136 0
127 134 0
128 134 0
120 124 0
130 138 0
125 127 0
127 133 0
119 124 0
130 135 0
130 137 0
123 125 0
133 135 0
128 129 0
127 132 0
117 117 0
130 132 0
128 129 0
128 130 0
124 120 0
130 135 0
124 122 0
124 119 0
125 119 0
120 118 0
123 119 0
120 113 0
122 115 0
118 107 0
131 124 0
122 116 0
125 116 0
125 111 0
125 117 0
116 107 0
122 111 0
115 100 0
122 110 0
125 112 0
125 115 0
120 108 0
122 110 0
119 103 0
121 102 0
121 107 0
117 100 0
123 105 0
122 108 0
123 105 0
120 101 0
116 97 0
115 94 0
107 83 0
109 80 0
99 67 0
107 77 0
107 80 0
107 80 0
108 81 0
109 82 0
112 87 0
107 80 0
104 81 0
112 88 0
111 87 0
116 92 0
109 85 0
114 91 0
110 86 0
117 93 0
113 91 0
114 90 0
121 99 0
118 96 0
123 100 0
118 96 0
115 93 0
116 95 0
123 101 0
122 100 0
119 95 0
120 96 0
124 103 0
121 99 0
117 97 0
126 103 0
118 95 0
123 101 0
121 97 0
126 104 0
118 96 0
120 97 0
123 102 0
124 102 0
121 101 0
120 99 0
120 100 0
122 101 0
119 97 0
117 96 0
125 101 0
123 101 0
123 100 0
123 101 0
122 100 0
124 102 0
126 103 0
123 100 0
120 98 0
123 99 0
123 99 0
124 99 0
122 99 0
120 96 0
126 102 0
123 98 0
123 99 0
126 103 0
124 100 0
121 97 0
123 99 0
126 101 0
123 98 0
124 99 0
122 95 0
122 95 0
134 117 0
139 132 0
144 147 0
156 168 0
163 178 0
170 188 0
166 185 0
166 184 0
161 178 0
164 181 0
165 183 0
165 182 0
166 187 0
164 181 0
163 185 0
161 183 0
167 189 0
166 188 0
166 187 0
159 180 0
163 184 0
166 187 0
161 183 0
160 182 0
160 181 0
165 186 0
165 186 0
161 182 0
159 180 0
147 167 0
139 157 0
128 144 0
122 138 0
124 139 0
123 138 0
122 138 0
122 138 0
121 136 0
124 139 0
119 135 0
121 137 0
119 135 0
120 135 0
123 138 0
121 137 0
121 136 0
119 135 0
123 139 0
123 140 0
122 138 0
119 136 0
123 140 0
121 137 0
125 141 0
120 137 0
121 136 0
118 133 0
119 135 0
118 134 0
123 139 0
115 131 0
121 138 0
120 136 0
127 143 0
119 135 0
126 142 0
120 136 0
121 137 0
118 134 0
117 133 0
119 135 0
120 136 0
122 139 0
118 135 0
114 130 0
115 131 0
116 131 0
110 124 0
119 134 0
111 128 0
113 129 0
116 131 0
111 126 0
119 133 0
110 125 0
116 131 0
110 125 0
109 124 0
111 125 0
107 121 0
111 125 0
115 128 0
106 119 0
102 114 0
101 112 0
103 115 0
109 122 0
111 124 0
117 130 0
117 131 0
121 134 0
119 134 0
123 137 0
120 135 0
117 132 0
113 128 0
123 138 0
122 137 0
130 145 0
119 134 0
127 142 0
125 140 0
123 138 0
123 137 0
127 142 0
129 143 0
121 137 0
125 140 0
123 138 0
130 145 0
130 145 0
128 143 0
128 143 0
123 139 0
128 143 0
125 141 0
128 144 0
131 147 0
131 146 0
126 142 0
123 139 0
129 145 0
126 141 0
127 143 0
124 140 0
125 142 0
125 142 0
129 145 0
121 138 0
127 143 0
131 147 0
119 135 0
125 142 0
126 143 0
129 146 0
121 137 0
125 142 0
120 137 0
131 148 0
120 137 0
116 133 0
130 146 0
129 146 0
118 136 0
123 140 0
119 136 0
125 141 0
114 132 0
115 132 0
126 143 0
135 154 0
113 129 0
115 132 0
106 123 0
99 116 0
116 132 0
109 126 0
105 120 0
104 120 0
106 124 0
102 117 0
99 115 0
103 119 0
110 125 0
112 128 0
103 119 0
95 110 0
96 111 0
95 111 0
94 109 0
97 112 0
87 101 0
85 99 0
84 98 0
79 93 0
79 93 0
93 107 0
83 98 0
81 94 0
85 98 0
84 97 8
60 77 48
53 75 64
45 71 76
43 68 62
47 75 72
46 74 70
50 79 78
47 75 76
48 76 67
47 75 65
48 77 78
47 75 67
49 78 82
47 75 76
50 80 82
50 80 72
49 79 70
44 71 74
49 78 84
49 77 76
49 79 65
49 77 65
48 76 78
51 81 78
46 74 62
46 73 74
49 78 78
48 76 84
49 78 76
48 76 78
49 76 80
48 77 74
49 77 72
49 78 80
47 74 65
51 81 86
49 77 72
45 72 62
47 76 74
46 74 67
48 75 74
47 75 80
47 73 72
48 76 78
47 69 51
56 71 36
79 87 0
79 88 0
95 105 0
94 104 0
93 103 0
95 102 0
93 103 0
95 101 0
87 94 0
93 102 0
97 104 0
95 101 0
96 103 0
99 110 0
93 104 0
102 112 0
112 123 0
108 120 0
88 92 0
104 111 0
109 114 0
123 131 0
109 117 0
112 120 0
108 117 0
104 112 0
113 120 0
114 122 0
106 116 0
126 135 0
117 126 0
108 118 0
113 122 0
129 137 0
120 128 0
131 137 0
122 129 0
120 125 0
120 125 0
122 126 0
121 125 0
125 135 0
123 129 0
127 134 0
135 141 0
122 126 0
127 126 0
129 134 0
126 125 0
115 113 0
129 135 0
125 123 0
114 112 0
128 131 0
116 119 0
124 124 0
128 127 0
136 139 0
124 121 0
129 129 0
127 128 0
125 123 0
121 117 0
138 138 0
121 114 0
132 128 0
118 116 0
126 123 0
122 115 0
115 102 0
126 117 0
125 114 0
125 115 0
119 110 0
128 117 0
119 107 0
123 107 0
126 112 0
123 110 0
121 106 0
130 116 0
125 113 0
123 111 0
125 111 0
130 116 0
121 103 0
117 101 0
123 108 0
126 110 0
123 104 0
125 111 0
120 101 0
110 92 0
103 80 0
103 72 0
105 73 0
96 69 0
110 82 0
104 77 0
109 83 0
108 82 0
107 81 0
112 86 0
111 86 0
108 82 0
109 85 0
114 91 0
113 91 0
114 90 0
112 90 0
112 87 0
117 95 0
113 90 0
117 92 0
117 97 0
112 90 0
118 95 0
118 97 0
118 93 0
118 94 0
118 95 0
119 95 0
123 99 0
122 100 0
124 99 0
123 99 0
121 97 0
119 95 0
122 99 0
125 101 0
124 101 0
118 95 0
114 91 0
117 95 0
120 97 0
127 103 0
124 102 0
124 101 0
123 99 0
123 100 0
122 99 0
117 95 0
116 92 0
119 94 0
121 97 0
126 103 0
124 100 0
123 98 0
122 98 0
123 98 0
120 96 0
120 95 0
127 102 0
123 96 0
125 101 0
122 98 0
121 95 0
120 93 0
121 94 0
130 111 0
141 132 0
151 153 0
154 163 0
161 178 0
161 175 0
158 170 0
160 175 0
162 179 0
161 176 0
162 178 0
161 175 0
166 183 0
166 183 0
163 180 0
168 186 0
165 183 0
168 187 0
166 187 0
163 185 0
163 185 0
167 189 0
164 187 0
165 188 0
161 183 0
166 188 0
165 186 0
165 186 0
162 182 0
163 184 0
159 179 0
158 179 0
158 178 0
158 178 0
158 179 0
155 176 0
156 177 0
149 167 0
146 165 0
132 149 0
128 143 22
124 139 0
125 140 0
117 131 0
118 133 0
121 136 0
118 133 0
115 130 0
120 135 0
117 132 0
122 138 0
117 132 0
120 135 0
120 135 0
121 137 0
116 132 0
120 135 0
119 134 0
120 136 0
119 136 0
122 138 0
120 136 0
116 132 0
116 131 0
114 130 0
118 133 0
120 136 0
123 139 0
118 133 0
119 135 0
116 131 0
118 134 0
112 126 0
114 131 0
113 128 0
118 133 0
114 128 0
114 130 0
123 139 0
116 131 0
118 133 0
113 128 0
114 129 0
114 129 0
112 126 0
114 129 0
110 124 0
115 129 0
107 120 0
100 113 0
110 123 0
107 120 0
105 118 0
106 119 0
101 114 0
104 117 0
105 118 0
111 124 0
118 132 0
116 131 0
124 139 0
120 134 0
117 131 0
123 137 0
121 135 0
126 140 0
124 139 0
129 142 0
126 141 0
123 138 0
125 139 0
120 135 0
122 137 0
120 134 0
129 144 0
123 137 0
125 140 0
126 141 0
131 146 0
126 141 0
125 140 0
123 139 0
125 141 0
120 135 0
123 139 0
118 133 0
126 141 0
121 136 0
124 140 0
126 142 0
123 139 0
123 138 0
122 138 0
126 141 0
124 140 0
133 150 0
130 145 0
122 138 0
130 147 0
121 136 0
129 147 0
127 145 0
119 136 0
122 138 0
128 146 0
134 150 0
115 132 0
121 138 0
118 134 0
127 145 0
123 140 0
122 141 0
117 135 0
122 139 0
124 140 0
118 134 0
125 142 0
119 137 0
130 148 0
115 131 0
121 139 0
111 127 0
115 133 0
115 132 0
109 127 0
115 132 0
122 140 0
111 126 0
111 129 0
111 129 0
105 121 0
116 133 0
119 136 0
110 126 0
112 128 0
97 113 0
109 125 0
105 121 0
105 121 0
109 125 0
113 129 0
94 110 0
91 106 0
111 126 0
92 108 0
102 118 0
88 103 0
81 94 0
91 106 0
76 90 0
85 99 0
90 104 0
97 110 0
67 80 0
89 102 0
65 78 0
75 88 0
69 81 25
60 77 47
54 76 51
45 72 67
47 75 67
44 71 54
43 68 70
47 76 82
48 76 72
45 72 70
48 76 70
50 78 90
46 73 74
48 76 62
48 77 67
48 76 72
48 76 67
49 78 67
47 75 74
50 81 70
48 77 76
49 78 70
47 75 62
48 76 72
47 75 67
46 74 67
47 75 70
46 74 70
45 73 67
46 74 67
44 70 54
46 73 70
48 76 70
49 78 84
47 75 72
43 69 54
46 73 62
45 72 57
44 70 67
55 77 51
63 78 31
79 89 0
89 97 0
89 97 0
76 88 0
87 97 0
90 97 0
81 89 0
84 94 0
79 89 0
101 109 0
94 104 0
101 109 0
94 101 0
107 117 0
92 101 0
100 107 0
98 105 0
99 108 0
105 116 0
102 109 0
96 105 0
113 123 0
97 103 0
101 108 0
109 121 0
104 113 0
108 114 0
118 127 0
114 123 0
121 132 0
120 130 0
116 123 0
111 116 0
112 120 0
118 127 0
118 127 0
121 129 0
108 112 0
117 124 0
111 116 0
116 120 0
125 134 0
124 128 0
127 134 0
129 133 0
119 122 0
117 122 0
123 126 0
113 117 0
137 143 0
118 120 0
128 134 0
125 129 0
130 134 0
126 129 0
135 137 0
132 135 0
126 127 0
122 120 0
127 126 0
114 112 0
134 136 0
116 113 0
130 130 0
126 123 0
120 115 0
126 125 0
117 109 0
126 120 0
125 118 0
133 129 0
128 124 0
124 119 0
127 118 0
117 104 0
123 115 0
128 121 0
127 115 0
125 116 0
128 118 0
127 117 0
126 114 0
131 123 0
121 105 0
126 111 0
127 114 0
130 119 0
120 111 0
133 123 0
127 116 0
123 109 0
121 104 0
126 109 0
122 108 0
118 98 0
122 107 0
120 102 0
115 96 0
117 100 0
118 97 0
112 92 0
110 83 0
104 76 0
101 67 0
101 71 0
107 78 0
110 81 0
109 82 0
110 80 0
109 80 0
104 78 0
109 83 0
107 80 0
109 84 0
112 85 0
116 91 0
120 96 0
113 87 0
112 87 0
111 89 0
113 88 0
115 92 0
115 89 0
120 95 0
112 88 0
114 91 0
116 91 0
120 94 0
119 95 0
118 91 0
121 96 0
121 96 0
121 97 0
122 99 0
118 94 0
117 92 0
126 101 0
118 93 0
115 91 0
121 96 0
115 91 0
115 92 0
120 95 0
122 96 0
119 95 0
116 86 0
118 94 0
120 96 0
115 91 0
126 101 0
121 95 0
122 97 0
117 91 0
117 92 0
120 92 0
115 89 0
120 92 0
129 104 0
133 116 0
144 140 0
149 153 0
153 162 0
160 175 0
155 167 0
160 169 0
161 173 0
161 174 0
163 177 0
162 176 0
160 175 0
164 180 0
163 177 0
162 178 0
159 176 0
161 177 0
167 184 0
162 180 0
163 180 0
165 182 0
165 181 0
162 183 0
161 182 0
164 184 0
158 179 0
156 176 0
160 182 0
170 192 0
162 184 0
155 175 0
167 188 0
162 183 0
157 179 0
159 179 0
155 175 0
157 178 0
158 178 0
160 179 0
158 179 0
153 173 0
156 177 0
156 177 0
152 171 0
154 174 0
150 169 0
150 168 0
139 157 0
133 149 0
129 145 0
120 134 0
119 134 0
115 129 0
116 130 0
119 133 0
116 131 0
115 129 0
117 131 0
117 131 0
116 131 0
114 129 0
123 138 0
118 132 0
114 129 0
115 129 0
119 134 0
119 133 0
111 125 0
113 127 0
117 132 0
115 129 0
113 128 0
116 130 0
112 126 0
113 127 0
116 131 0
115 129 0
112 127 0
112 126 0
113 128 0
112 126 0
112 126 0
111 125 0
106 120 0
111 125 0
114 128 0
115 128 0
110 123 0
109 122 0
112 126 0
102 114 0
109 122 0
109 121 0
108 121 0
113 126 0
106 118 0
115 128 0
121 135 0
122 136 0
122 137 0
116 131 0
129 143 0
115 129 0
130 145 0
124 138 0
126 141 0
131 146 0
126 141 0
127 143 0
127 142 0
124 139 0
124 138 0
125 141 0
130 145 0
119 133 0
125 140 0
121 135 0
129 144 0
123 138 0
128 143 0
123 138 0
127 143 0
130 146 0
139 155 0
128 144 0
128 143 0
123 138 0
126 141 0
139 155 0
127 142 0
125 141 0
119 134 0
123 139 0
112 129 0
122 138 0
118 134 0
124 141 0
126 142 0
126 142 0
125 142 0
121 137 0
130 146 0
117 134 0
120 138 0
131 147 0
121 137 0
126 143 0
122 139 0
121 136 0
111 128 0
125 142 0
122 139 0
118 135 0
125 142 0
119 136 0
113 129 0
127 144 0
123 139 0
120 138 0
114 131 0
117 134 0
120 136 0
124 141 0
125 142 0
122 138 0
122 139 0
115 132 0
121 139 0
120 139 0
117 134 0
108 125 0
112 129 0
113 130 0
115 132 0
125 142 0
110 128 0
103 120 0
108 124 0
109 125 0
118 134 0
102 118 0
100 116 0
115 132 0
95 111 0
101 116 0
113 129 0
110 127 0
96 112 0
84 100 0
101 115 0
85 100 0
97 112 0
96 110 0
80 94 0
87 101 0
84 97 0
86 98 0
94 107 0
72 85 0
84 98 0
74 86 0
75 87 0
74 86 0
69 80 0
83 97 0
66 79 25
54 73 47
49 71 51
39 61 40
41 67 60
43 70 65
47 75 74
44 70 65
46 73 57
45 72 67
47 75 65
43 70 74
47 75 67
48 76 72
44 72 44
46 73 60
49 78 74
46 74 74
48 76 78
42 68 47
42 67 60
46 72 57
46 73 70
44 70 62
46 73 62
45 71 70
42 67 54
48 77 72
46 72 62
43 69 60
42 67 54
40 63 44
56 71 44
57 70 36
86 97 25
72 81 0
75 85 0
55 64 0
85 93 0
66 71 0
71 81 0
81 92 0
82 90 0
72 81 0
83 89 0
104 113 0
89 97 0
94 103 0
95 106 0
95 103 0
101 110 0
98 106 0
99 109 0
109 120 0
101 110 0
98 102 0
104 114 0
102 111 0
102 109 0
111 118 0
112 122 0
108 115 0
110 116 0
111 121 0
110 118 0
111 120 0
120 129 0
122 132 0
123 132 0
110 122 0
125 135 0
118 127 0
113 120 0
127 137 0
129 140 0
121 127 0
116 125 0
133 144 0
125 131 0
121 125 0
133 139 0
121 130 0
130 137 0
126 131 0
127 133 0
120 124 0
132 136 0
135 140 0
127 129 0
119 121 0
121 123 0
124 122 0
130 136 0
118 117 0
132 135 0
127 129 0
123 126 0
124 123 0
127 124 0
125 118 0
122 122 0
129 128 0
127 123 0
130 130 0
135 133 0
120 117 0
129 124 0
115 111 0
130 130 0
131 127 0
125 121 0
124 116 0
120 113 0
126 118 0
126 119 0
132 122 0
122 111 0
134 131 0
127 118 0
126 115 0
128 117 0
124 112 0
121 106 0
125 113 0
128 114 0
118 106 0
122 106 0
125 112 0
123 110 0
123 107 0
124 110 0
121 107 0
128 119 0
121 105 0
122 106 0
115 98 0
123 107 0
123 106 0
122 104 0
124 108 0
126 111 0
122 102 0
115 92 0
116 92 0
106 77 0
106 76 0
110 80 0
106 74 0
103 72 0
100 70 0
111 78 0
113 86 0
112 85 0
108 82 0
110 82 0
115 86 0
113 87 0
118 92 0
113 87 0
111 84 0
113 88 0
118 92 0
114 87 0
117 91 0
111 84 0
118 93 0
112 82 0
116 89 0
115 90 0
109 83 0
121 96 0
115 88 0
118 92 0
120 94 0
122 97 0
116 91 0
115 88 0
116 89 0
119 91 0
119 93 0
115 87 0
118 91 0
119 90 0
119 93 0
120 91 0
117 90 0
117 89 0
115 88 0
128 104 0
133 120 0
132 120 0
142 137 0
147 148 0
149 155 0
151 158 0
158 166 0
152 158 0
158 170 0
157 166 0
157 167 0
157 167 0
157 167 0
158 171 0
159 172 0
162 176 0
156 167 0
162 176 0
162 178 0
160 172 0
161 176 0
164 180 0
160 176 0
165 181 0
166 183 0
161 176 0
159 173 0
160 172 0
163 184 0
159 181 0
161 183 0
162 183 0
163 185 0
163 184 0
160 181 0
157 179 0
167 188 0
164 185 0
158 178 0
163 182 0
159 180 0
159 180 0
159 180 0
155 175 0
157 178 0
156 176 0
159 179 0
157 177 0
156 174 0
157 177 0
155 174 0
158 177 0
155 174 0
153 171 0
154 173 0
152 171 0
158 177 0
149 168 0
144 161 0
141 158 0
138 154 0
140 156 0
132 148 0
126 140 22
115 130 0
118 132 0
114 127 0
118 131 0
112 126 0
111 124 0
110 124 0
116 130 0
115 128 0
107 120 0
109 123 0
110 123 0
117 131 0
113 126 0
114 128 0
115 129 0
114 128 0
111 125 0
111 124 0
112 125 0
111 125 0
112 125 0
111 124 0
107 120 0
108 120 0
114 127 0
106 118 0
107 119 0
106 119 0
112 126 0
112 125 0
115 129 0
117 130 0
124 138 0
124 138 0
123 138 0
121 136 0
127 142 0
123 138 0
124 138 0
123 139 0
128 142 0
123 137 0
121 135 0
124 139 0
124 138 0
125 139 0
122 136 0
122 137 0
130 145 0
125 139 0
123 138 0
124 139 0
127 141 0
124 139 0
122 137 0
128 143 0
123 139 0
123 136 0
126 141 0
131 146 0
129 144 0
128 143 0
129 144 0
127 142 0
122 138 0
131 147 0
128 144 0
124 139 0
121 136 0
130 146 0
131 147 0
123 139 0
125 142 0
123 139 0
125 142 0
126 142 0
121 137 0
125 141 0
140 157 0
128 145 0
125 141 0
130 146 0
127 144 0
117 134 0
129 146 0
120 138 0
125 142 0
124 141 0
127 144 0
124 141 0
127 145 0
131 149 0
129 147 0
117 135 0
131 148 0
121 138 0
113 130 0
122 140 0
126 143 0
121 138 0
123 141 0
114 131 0
130 147 0
114 131 0
114 131 0
123 140 0
124 140 0
120 138 0
118 134 0
112 129 0
116 133 0
105 122 0
115 133 0
116 134 0
116 132 0
114 130 0
105 122 0
107 123 0
97 114 0
120 137 0
107 124 0
95 111 0
106 122 0
106 122 0
106 122 0
106 122 0
92 107 0
96 112 0
98 114 0
108 123 0
93 109 0
103 119 0
90 105 0
93 107 0
84 98 0
93 107 0
68 83 0
92 105 0
77 90 0
70 83 0
72 85 0
78 91 0
68 82 0
89 102 0
69 81 0
67 80 0
63 75 0
68 80 0
65 77 0
83 95 0
55 70 18
52 67 40
50 69 47
47 68 57
50 73 62
44 70 54
43 69 60
40 66 51
42 68 51
44 70 54
41 65 62
47 76 74
44 70 65
45 72 62
45 72 70
44 70 60
46 72 65
43 68 74
43 70 51
42 66 70
43 67 67
42 65 47
45 65 47
52 71 40
47 63 40
69 81 18
54 66 25
70 76 0
60 71 0
76 86 0
57 67 0
83 88 0
77 87 0
86 95 0
81 91 0
86 94 0
83 87 0
93 105 0
84 94 0
86 95 0
90 99 0
97 106 0
96 106 0
89 94 0
86 98 0
109 117 0
94 104 0
97 106 0
107 117 0
105 118 0
106 117 0
98 105 0
89 98 0
99 110 0
114 122 0
97 107 0
109 114 0
110 120 0
121 129 0
112 119 0
108 117 0
123 133 0
107 117 0
114 124 0
113 124 0
115 123 0
114 119 0
110 116 0
123 130 0
129 137 0
126 136 0
111 119 0
124 134 0
124 133 0
129 135 0
121 129 0
131 136 0
123 128 0
117 122 0
123 125 0
124 131 0
127 132 0
127 136 0
130 134 0
129 133 0
132 139 0
142 150 0
133 136 0
127 128 0
130 135 0
123 125 0
123 126 0
121 123 0
125 127 0
129 131 0
118 117 0
133 132 0
123 124 0
124 120 0
125 125 0
115 108 0
128 126 0
125 123 0
129 127 0
129 126 0
127 126 0
134 129 0
130 128 0
129 124 0
128 123 0
129 121 0
121 112 0
135 130 0
121 110 0
127 120 0
128 119 0
126 116 0
124 118 0
122 109 0
128 117 0
124 109 0
124 108 0
122 108 0
128 117 0
126 112 0
114 99 0
122 106 0
125 110 0
122 110 0
123 109 0
124 108 0
127 112 0
122 105 0
128 112 0
120 103 0
124 108 0
117 101 0
131 119 0
126 111 0
124 107 0
129 113 0
121 105 0
125 110 0
118 100 0
120 98 0
116 95 0
110 89 0
115 91 0
112 84 0
111 85 0
108 78 0
108 76 0
109 77 0
108 80 0
110 83 0
110 82 0
114 86 0
105 75 0
112 84 0
114 84 0
112 83 0
109 81 0
115 87 0
113 86 0
114 85 0
109 81 0
114 86 0
114 85 0
115 88 0
116 88 0
116 86 0
118 90 0
122 94 0
107 78 0
116 87 0
112 86 0
122 104 0
128 113 0
132 120 0
123 103 0
131 122 0
148 147 0
146 148 0
151 155 0
148 154 0
149 153 0
152 157 0
154 161 0
148 155 0
157 167 0
157 166 0
155 164 0
152 162 0
160 172 0
157 167 0
162 178 0
158 171 0
153 164 0
159 171 0
156 165 0
154 165 0
160 173 0
160 174 0
159 170 0
160 171 0
156 169 0
162 177 0
159 176 0
160 170 0
165 180 0
164 180 0
161 177 0
164 179 0
167 189 0
162 182 0
166 188 0
156 176 0
161 182 0
164 185 0
161 182 0
160 181 0
158 178 0
158 178 0
163 184 0
157 178 0
160 180 0
159 179 0
160 180 0
160 180 0
160 179 0
156 176 0
157 177 0
153 172 0
153 172 0
156 175 0
151 170 0
151 170 0
151 169 0
150 169 0
153 172 0
152 171 0
141 159 0
156 175 0
149 166 0
153 171 0
148 166 0
152 170 0
150 168 0
145 162 0
141 158 0
144 161 0
138 154 0
145 162 0
132 148 0
137 153 0
138 153 0
133 148 0
132 147 0
130 145 0
124 138 0
131 146 0
130 145 0
129 143 0
131 146 0
125 139 0
127 141 0
126 141 0
125 139 0
118 133 0
123 137 0
133 147 22
122 137 0
129 144 0
131 145 0
133 148 0
130 144 0
133 147 0
122 138 0
128 143 0
126 140 0
126 140 0
125 139 0
129 144 0
126 141 0
128 142 0
129 143 0
121 136 0
123 137 0
116 130 0
133 148 0
122 136 0
116 130 0
116 131 0
130 145 0
128 143 0
126 141 0
129 144 0
125 140 0
123 138 0
130 145 0
129 144 0
126 141 0
127 142 0
124 139 0
118 133 0
123 138 0
130 144 0
128 143 0
126 141 0
123 138 0
128 144 0
127 142 0
130 145 0
123 139 0
122 138 0
120 134 0
130 146 0
124 139 0
131 147 0
127 143 0
124 140 0
122 138 0
131 147 0
130 147 0
128 144 0
113 128 0
123 139 0
119 136 0
126 143 0
122 140 0
128 145 0
127 144 0
129 146 0
132 149 0
124 140 0
123 140 0
121 139 0
137 155 0
128 146 0
124 142 0
118 135 0
128 146 0
128 145 0
125 144 0
125 142 0
132 150 0
119 137 0
125 143 0
126 143 0
125 142 0
122 140 0
122 140 0
123 141 0
114 131 0
122 139 0
114 132 0
127 145 0
122 140 0
120 137 0
119 137 0
116 133 0
127 144 0
114 130 0
116 134 0
106 122 0
119 136 0
113 130 0
111 129 0
110 127 0
116 133 0
111 128 0
101 117 0
108 124 0
107 123 0
100 116 0
114 130 0
99 114 0
97 112 0
89 105 0
106 122 0
97 113 0
96 112 0
97 112 0
77 91 0
97 113 0
99 114 0
87 102 0
101 115 0
82 97 0
82 95 0
78 91 0
78 93 0
77 90 0
86 98 0
77 91 0
79 91 0
90 102 0
78 92 0
85 97 0
60 71 0
78 89 0
73 85 0
58 68 0
55 65 0
67 75 0
71 81 0
63 74 25
42 56 18
57 70 31
45 59 40
50 64 25
53 65 31
42 58 25
50 67 44
55 70 36
48 63 25
51 65 31
67 80 25
63 75 25
65 75 0
60 70 18
73 83 0
62 72 0
61 69 0
74 83 0
71 82 0
72 80 0
57 67 0
80 90 0
79 89 0
85 95 0
78 88 0
85 95 0
75 85 0
81 90 0
80 90 0
91 101 0
72 82 0
78 87 0
80 86 0
91 101 0
95 105 0
93 102 0
97 107 0
87 99 0
103 114 0
110 119 0
94 105 0
103 113 0
101 108 0
103 112 0
102 109 0
107 114 0
118 126 0
109 118 0
103 111 0
115 126 0
120 130 0
112 119 0
106 115 0
104 114 0
124 135 0
113 121 0
117 127 0
115 120 0
114 120 0
118 127 0
119 132 0
113 119 0
124 134 0
129 138 0
125 130 0
121 130 0
117 125 0
116 125 0
121 128 0
121 128 0
118 125 0
119 126 0
133 140 0
118 125 0
126 133 0
122 128 0
123 131 0
128 136 0
127 131 0
121 127 0
129 136 0
131 139 0
129 132 0
130 134 0
116 116 0
116 116 0
129 136 0
121 122 0
129 130 0
125 125 0
127 126 0
131 133 0
139 142 0
128 126 0
123 127 0
118 114 0
133 130 0
123 116 0
132 130 0
129 124 0
122 119 0
124 121 0
132 130 0
126 118 0
120 114 0
124 113 0
131 124 0
131 122 0
126 119 0
132 120 0
120 108 0
135 129 0
124 113 0
130 122 0
123 112 0
123 116 0
126 113 0
116 102 0
126 118 0
127 114 0
120 104 0
122 112 0
125 110 0
122 108 0
126 112 0
127 115 0
120 105 0
130 118 0
115 99 0
127 111 0
127 113 0
128 113 0
126 110 0
128 113 0
118 102 0
115 100 0
122 103 0
130 116 0
130 117 0
130 120 0
128 115 0
131 118 0
132 119 0
134 123 0
129 114 0
129 114 0
136 128 0
125 108 0
126 112 0
130 119 0
123 106 0
116 97 0
129 120 0
118 97 0
119 101 0
120 100 0
126 118 0
121 107 0
130 114 0
128 119 0
139 130 0
128 118 0
142 136 0
131 122 0
137 132 0
144 142 0
144 142 0
136 128 0
144 142 0
145 146 0
153 159 0
144 144 0
149 153 0
150 153 0
148 151 0
149 151 0
155 165 0
154 162 0
148 151 0
152 156 0
157 162 0
148 154 0
152 158 0
159 168 0
153 165 0
148 156 0
150 158 0
152 161 0
157 166 0
156 166 0
153 163 0
156 168 0
158 170 0
158 168 0
153 164 0
160 173 0
156 168 0
158 170 0
159 171 0
159 169 0
167 183 0
165 182 0
161 175 0
162 176 0
161 176 0
162 179 0
161 182 0
157 177 0
164 185 0
160 181 0
165 187 0
159 180 0
159 179 0
161 182 0
157 176 0
156 176 0
159 180 0
157 178 0
158 178 0
157 177 0
156 176 0
160 180 0
157 177 0
156 176 0
156 176 0
159 179 0
156 175 0
148 167 0
147 166 0
153 171 0
149 167 0
152 170 0
151 170 0
150 169 0
153 172 0
144 163 0
141 159 0
142 160 0
149 167 0
148 167 0
142 160 0
147 164 0
140 156 0
141 158 0
142 159 0
142 158 0
142 158 0
145 161 0
143 160 0
134 149 0
141 157 0
137 153 0
132 148 0
132 147 0
131 146 0
126 141 0
133 148 0
132 148 0
133 148 0
126 141 0
128 143 0
131 147 0
130 145 0
127 141 0
130 145 0
130 145 0
126 140 0
128 143 0
124 138 0
121 136 0
132 147 0
127 143 0
123 137 0
129 144 0
127 142 0
118 133 0
125 140 0
129 143 0
126 141 0
124 139 0
127 142 0
127 142 0
129 144 0
127 142 0
124 139 0
127 142 0
127 142 0
127 142 0
120 135 0
121 136 0
132 147 0
125 140 0
126 141 0
122 137 0
131 146 0
132 147 0
122 137 0
126 141 0
125 140 0
124 140 0
125 140 0
125 140 0
125 141 0
128 143 0
128 144 0
137 154 0
133 149 0
125 141 0
129 144 0
125 141 0
126 143 0
132 149 0
137 154 0
130 146 0
133 149 0
126 142 0
128 144 0
128 145 0
131 148 0
124 141 0
127 143 0
125 142 0
131 147 0
133 150 0
130 146 0
125 142 0
132 150 0
127 145 0
121 138 0
128 146 0
139 157 0
132 149 0
131 150 0
131 148 0
136 154 0
135 153 0
125 143 0
126 144 0
125 141 0
131 149 0
130 147 0
135 154 0
120 137 0
124 142 0
122 141 0
120 137 0
121 138 0
129 146 0
128 146 0
102 119 0
130 148 0
126 143 0
114 132 0
122 139 0
118 136 0
112 129 0
116 133 0
120 137 0
104 121 0
109 126 0
114 131 0
116 131 0
115 132 0
108 125 0
116 133 0
101 118 0
112 129 0
97 112 0
103 120 0
116 132 0
102 118 0
96 111 0
100 116 0
97 112 0
96 110 0
99 114 0
94 111 0
82 97 0
74 88 0
96 111 0
81 94 0
93 108 0
91 105 0
83 96 0
96 111 0
97 111 0
88 101 0
74 89 0
84 98 0
76 87 0
81 94 0
71 83 0
71 83 0
64 74 0
61 74 0
69 82 0
58 71 0
77 89 0
65 76 0
53 63 0
61 72 0
73 84 0
79 89 0
67 78 0
66 76 0
66 76 0
43 51 0
71 81 0
69 79 0
57 67 0
88 100 0
58 66 0
68 78 0
63 72 0
58 68 0
73 82 0
67 77 0
61 73 0
81 92 0
70 78 0
86 94 0
85 96 0
88 100 0
82 93 0
98 108 0
100 111 0
78 89 0
93 101 0
67 76 0
87 98 0
93 107 0
83 92 0
96 109 0
80 90 0
89 98 0
95 105 0
98 111 0
95 103 0
91 100 0
104 114 0
114 123 0
106 118 0
106 116 0
105 117 0
111 122 0
95 106 0
102 111 0
124 136 0
112 123 0
115 127 0
113 124 0
117 127 0
107 115 0
108 117 0
112 121 0
114 124 0
118 129 0
120 127 0
112 121 0
117 127 0
113 124 0
121 130 0
122 132 0
125 131 0
121 128 0
116 123 0
124 133 0
121 129 0
125 131 0
127 139 0
126 132 0
131 139 0
126 133 0
119 127 0
120 124 0
130 137 0
131 140 0
129 136 0
118 120 0
129 136 0
134 141 0
137 145 0
131 135 0
136 142 0
140 146 0
120 125 0
123 124 0
134 136 0
126 130 0
123 128 0
133 137 0
124 123 0
129 131 0
127 129 0
125 125 0
119 115 0
126 124 0
128 128 0
132 132 0
123 117 0
126 126 0
126 121 0
140 138 0
130 129 0
120 114 0
139 136 0
129 123 0
123 114 0
127 123 0
132 123 0
128 126 0
125 113 0
129 124 0
133 126 0
130 124 0
129 120 0
128 118 0
123 109 0
124 112 0
130 120 0
130 119 0
131 122 0
120 105 0
128 116 0
128 115 0
123 109 0
125 111 0
129 115 0
131 120 0
126 112 0
127 113 0
128 114 0
130 116 0
125 110 0
127 112 0
129 114 0
123 109 0
121 105 0
127 112 0
129 117 0
130 117 0
126 108 0
125 114 0
131 116 0
136 130 0
125 111 0
130 117 0
131 120 0
132 123 0
135 125 0
120 105 0
133 123 0
133 125 0
138 132 0
127 115 0
136 126 0
140 136 0
137 128 0
142 136 0
135 132 0
137 133 0
130 126 0
140 135 0
141 137 0
140 137 0
144 144 0
139 135 0
137 135 0
141 140 0
142 141 0
145 148 0
149 150 0
144 145 0
147 148 0
155 162 0
148 151 0
152 155 0
151 156 0
146 148 0
152 159 0
147 150 0
148 150 0
150 154 0
153 163 0
153 158 0
155 162 0
154 160 0
155 165 0
152 161 0
158 167 0
158 166 0
156 166 0
159 172 0
157 170 0
152 160 0
157 171 0
155 165 0
158 171 0
161 172 0
158 170 0
157 168 0
156 168 0
161 174 0
163 177 0
154 164 0
156 168 0
164 185 0
161 182 0
157 178 0
161 182 0
161 181 0
155 175 0
158 176 0
160 180 0
147 167 0
162 183 0
157 177 0
153 172 0
153 173 0
158 178 0
155 173 0
156 175 0
155 174 0
157 177 0
150 169 0
150 169 0
155 176 0
149 168 0
151 169 0
154 172 0
149 166 0
146 164 0
147 164 0
152 170 0
142 160 0
147 165 0
150 168 0
150 167 0
143 161 0
144 161 0
137 153 0
141 158 0
146 163 0
143 159 0
133 150 0
134 149 0
140 156 0
138 154 0
137 153 0
142 159 0
140 156 0
139 155 0
137 153 0
138 154 0
132 147 0
133 149 0
130 144 0
125 141 0
137 153 0
132 147 0
128 143 0
137 153 0
132 147 0
132 147 0
132 147 0
131 147 0
122 138 0
132 147 0
129 144 0
128 143 0
126 141 0
135 151 0
122 136 0
127 141 0
125 139 0
120 134 0
130 145 0
125 140 0
128 143 0
129 144 0
129 144 0
127 141 0
128 142 0
120 135 0
125 139 0
131 146 0
127 142 0
122 137 0
126 141 0
116 132 0
124 139 0
125 141 0
133 149 0
126 141 0
119 134 0
131 147 0
134 149 0
124 139 0
128 144 0
130 145 0
132 147 0
129 144 0
125 141 0
123 138 0
134 150 0
125 140 0
133 149 0
128 144 0
133 149 0
136 153 0
137 153 0
129 146 0
133 149 0
123 139 0
126 143 0
127 144 0
129 146 0
141 159 0
126 142 0
127 143 0
117 134 0
132 149 0
126 142 0
130 147 0
128 147 0
120 138 0
122 139 0
129 146 0
127 145 0
124 141 0
123 141 0
129 147 0
127 145 0
127 144 0
117 134 0
116 133 0
136 155 0
126 143 0
131 149 0
129 146 0
120 137 0
120 137 0
117 135 0
133 151 0
120 138 0
124 142 0
126 144 0
126 145 0
121 139 0
116 134 0
119 136 0
112 129 0
119 136 0
121 139 0
125 142 0
117 135 0
107 125 0
116 133 0
109 126 0
115 132 0
116 133 0
109 125 0
116 132 0
113 130 0
96 111 0
111 129 0
103 119 0
111 129 0
117 134 0
105 120 0
113 129 0
96 113 0
100 116 0
106 121 0
96 111 0
93 110 0
97 112 0
91 107 0
83 96 0
86 101 0
107 123 0
98 113 0
68 83 0
83 98 0
82 96 0
93 107 0
82 97 0
86 100 0
83 97 0
81 94 0
59 74 0
93 106 0
66 80 0
71 84 0
75 86 0
87 100 0
67 80 0
77 90 0
86 98 0
69 80 0
87 99 0
75 85 0
81 92 0
65 75 0
68 81 0
69 78 0
69 79 0
68 80 0
57 68 0
56 67 0
75 85 0
74 85 0
73 83 0
87 98 0
79 91 0
66 76 0
65 77 0
67 79 0
72 82 0
88 96 0
91 104 0
84 89 0
78 89 0
85 94 0
82 92 0
85 93 0
89 99 0
86 97 0
83 96 0
81 91 0
96 109 0
91 101 0
91 102 0
98 109 0
79 90 0
93 102 0
87 98 0
100 112 0
96 108 0
103 114 0
108 121 0
106 117 0
106 115 0
100 110 0
104 114 0
101 110 0
103 113 0
112 123 0
109 121 0
107 120 0
116 126 0
120 134 0
117 130 0
113 123 0
116 123 0
119 129 0
122 133 0
121 131 0
124 134 0
112 118 0
107 113 0
112 119 0
122 132 0
119 130 0
106 111 0
121 128 0
121 129 0
126 134 0
116 122 0
118 123 0
113 122 0
123 132 0
111 119 0
131 140 0
136 142 0
118 126 0
117 124 0
138 146 0
126 129 0
129 135 0
131 135 0
123 129 0
125 133 0
121 121 0
136 141 0
126 129 0
124 129 0
135 140 0
119 118 0
132 131 0
126 125 0
130 131 0
128 128 0
142 145 0
128 131 0
129 133 0
132 134 0
127 128 0
135 138 0
122 120 0
141 144 0
124 124 0
136 136 0
136 132 0
127 123 0
126 128 0
128 124 0
125 121 0
120 113 0
128 120 0
124 119 0
131 127 0
129 122 0
131 126 0
127 118 0
119 109 0
126 117 0
126 114 0
126 116 0
125 118 0
126 117 0
130 123 0
126 113 0
122 104 0
132 123 0
130 118 0
133 123 0
122 109 0
132 128 0
131 120 0
126 113 0
129 115 0
128 112 0
129 119 0
126 113 0
130 119 0
133 122 0
125 111 0
132 115 0
127 116 0
132 122 0
125 113 0
128 114 0
133 121 0
128 116 0
130 121 0
136 129 0
134 125 0
127 115 0
133 126 0
125 113 0
132 123 0
132 124 0
131 119 0
137 128 0
140 134 0
132 126 0
130 121 0
135 130 0
135 129 0
138 133 0
140 133 0
142 138 0
137 133 0
140 137 0
131 122 0
138 133 0
139 138 0
141 141 0
145 147 0
144 142 0
146 148 0
149 153 0
145 143 0
147 149 0
148 149 0
146 153 0
139 140 0
143 148 0
147 150 0
150 154 0
150 152 0
149 155 0
153 158 0
159 172 0
159 169 0
155 162 0
152 161 0
155 166 0
153 162 0
156 167 0
156 166 0
152 159 0
157 164 0
153 161 0
153 162 0
158 169 0
158 170 0
153 162 0
157 168 0
155 166 0
159 173 0
159 170 0
159 172 0
158 171 0
162 177 0
161 182 0
158 178 0
157 176 0
161 182 0
156 176 0
163 184 0
159 180 0
157 177 0
154 175 0
157 177 0
156 176 0
154 173 0
159 179 0
159 178 0
148 167 0
153 172 0
156 175 0
148 166 0
151 171 0
156 175 0
157 176 0
152 171 0
146 164 0
146 164 0
153 171 0
149 167 0
148 165 0
151 169 0
142 160 0
147 164 0
143 160 0
142 159 0
146 163 0
140 157 0
151 168 0
139 156 0
138 155 0
143 160 0
145 162 0
146 162 0
136 151 0
143 159 0
142 157 0
138 154 0
144 160 0
133 150 0
133 148 0
130 144 0
131 147 0
127 142 0
134 150 0
137 153 0
135 151 0
136 152 0
135 150 0
131 146 0
133 148 0
125 139 0
130 145 0
136 152 0
124 139 0
126 142 0
135 150 0
127 143 0
131 146 0
133 149 0
132 146 0
130 146 0
119 133 0
131 146 0
129 144 0
129 144 0
119 134 0
133 148 0
134 150 0
137 152 0
127 143 0
126 141 0
132 147 0
119 133 0
139 154 0
131 145 0
131 147 0
134 150 0
128 144 0
128 144 0
127 143 0
127 142 0
133 148 0
127 142 0
123 139 0
137 154 0
128 144 0
136 153 0
132 148 0
130 147 0
131 148 0
129 145 0
129 145 0
124 139 0
138 156 0
120 137 0
130 147 0
131 148 0
129 145 0
138 155 0
129 146 0
130 148 0
125 141 0
133 150 0
135 152 0
134 151 0
129 146 0
132 149 0
132 150 0
133 150 0
134 152 0
133 150 0
135 153 0
124 141 0
141 159 0
134 151 0
131 149 0
118 136 0
125 143 0
136 153 0
120 137 0
121 139 0
123 141 0
128 146 0
121 139 0
133 150 0
129 147 0
125 144 0
126 144 0
123 141 0
135 154 0
124 141 0
118 136 0
122 139 0
125 143 0
118 135 0
127 146 0
117 135 0
118 135 0
114 132 0
130 149 0
116 134 0
116 132 0
105 123 0
115 131 0
124 142 0
114 131 0
113 130 0
109 127 0
116 133 0
116 134 0
106 123 0
105 121 0
101 118 0
110 126 0
106 122 0
98 113 0
100 116 0
106 123 0
97 113 0
95 111 0
98 113 0
95 110 0
103 118 0
94 109 0
90 105 0
105 122 0
85 100 0
90 105 0
91 105 0
94 110 0
94 109 0
89 104 0
67 81 0
93 106 0
71 86 0
87 101 0
83 97 0
83 96 0
84 97 0
81 94 0
80 93 0
78 91 0
77 91 0
84 97 0
76 88 0
72 84 0
76 88 0
70 82 0
68 80 0
68 79 0
73 86 0
71 82 0
89 101 0
68 79 0
73 84 0
69 79 0
82 93 0
77 90 0
76 87 0
73 84 0
71 80 0
67 79 0
72 79 0
83 96 0
84 94 0
71 86 0
69 78 0
80 93 0
83 94 0
80 90 0
88 98 0
78 88 0
98 108 0
91 104 0
99 109 0
91 100 0
97 109 0
101 112 0
76 87 0
91 105 0
94 104 0
95 108 0
102 111 0
98 109 0
103 111 0
112 121 0
93 106 0
99 110 0
98 111 0
107 118 0
104 115 0
108 118 0
100 108 0
97 105 0
111 119 0
106 115 0
114 125 0
105 118 0
115 126 0
118 130 0
120 130 0
111 119 0
110 117 0
112 125 0
122 132 0
121 132 0
118 129 0
114 122 0
126 136 0
127 136 0
127 138 0
127 139 0
127 138 0
116 125 0
123 130 0
125 131 0
119 123 0
134 143 0
120 126 0
117 125 0
127 135 0
128 136 0
126 133 0
130 138 0
145 156 0
131 140 0
136 147 0
125 135 0
136 144 0
128 137 0
125 131 0
124 129 0
134 141 0
136 141 0
134 141 0
128 128 0
128 132 0
127 131 0
123 128 0
122 126 0
134 140 0
132 134 0
133 140 0
129 131 0
128 127 0
134 133 0
131 135 0
132 132 0
132 132 0
120 113 0
127 128 0
126 124 0
131 130 0
126 125 0
126 123 0
129 125 0
128 124 0
130 123 0
126 123 0
131 128 0
130 128 0
124 116 0
133 123 0
134 130 0
132 128 0
132 124 0
131 121 0
131 126 0
131 123 0
138 131 0
122 112 0
125 117 0
123 111 0
129 122 0
128 119 0
130 120 0
125 110 0
129 116 0
128 120 0
128 119 0
128 113 0
127 117 0
132 123 0
125 112 0
128 117 0
131 122 0
127 115 0
129 118 0
121 109 0
123 110 0
124 112 0
129 116 0
128 118 0
128 116 0
126 111 0
125 117 0
134 125 0
128 118 0
138 129 0
125 114 0
137 130 0
131 123 0
134 122 0
139 132 0
141 138 0
137 131 0
131 123 0
135 126 0
140 138 0
132 127 0
136 129 0
136 131 0
135 130 0
139 134 0
133 129 0
138 135 0
137 133 0
147 149 0
142 141 0
140 136 0
143 142 0
142 140 0
141 138 0
148 146 0
148 153 0
152 157 0
151 153 0
149 153 0
149 152 0
142 144 0
153 160 0
149 150 0
154 159 0
151 154 0
156 163 0
156 164 0
152 162 0
144 146 0
154 163 0
157 168 0
156 166 0
153 161 0
156 164 0
158 170 0
155 164 0
159 170 0
158 165 0
161 175 0
159 172 0
163 178 0
157 170 0
158 171 0
158 168 0
157 177 0
155 175 0
160 180 0
157 178 0
154 174 0
153 173 0
153 173 0
147 166 0
154 174 0
158 178 0
152 170 0
150 169 0
152 171 0
158 177 0
154 172 0
147 166 0
153 172 0
155 174 0
152 170 0
151 170 0
147 165 0
148 166 0
148 167 0
151 169 0
152 170 0
154 171 0
153 172 0
144 160 0
143 159 0
144 161 0
150 168 0
146 163 0
139 156 0
148 164 0
142 158 0
143 160 0
141 157 0
144 160 0
144 160 0
143 160 0
139 155 0
130 145 0
131 147 0
137 152 0
135 151 0
135 151 0
137 154 0
139 155 0
128 143 0
130 146 0
135 150 0
130 145 0
134 149 0
136 151 0
131 147 0
135 151 0
129 145 0
128 143 0
125 140 0
132 148 0
129 144 0
132 147 0
131 146 0
129 144 0
126 141 0
132 147 0
131 146 0
129 144 0
129 144 0
129 144 0
127 143 0
128 142 0
122 137 0
130 146 0
130 145 0
133 149 0
127 143 0
136 152 0
128 144 0
135 150 0
129 144 0
141 157 0
132 148 0
125 140 0
123 138 0
133 148 0
129 145 0
135 151 0
133 149 0
131 148 0
130 145 0
135 152 0
126 142 0
126 141 0
121 138 0
135 152 0
132 148 0
128 144 0
129 145 0
134 151 0
128 144 0
134 150 0
122 138 0
128 145 0
122 139 0
136 153 0
134 153 0
134 152 0
131 148 0
129 146 0
123 139 0
136 154 0
127 145 0
128 145 0
132 150 0
123 140 0
122 140 0
128 144 0
135 154 0
131 149 0
125 142 0
134 152 0
124 141 0
128 145 0
131 149 0
121 138 0
129 147 0
117 136 0
125 142 0
127 146 0
120 138 0
126 143 0
116 135 0
132 150 0
119 138 0
129 147 0
130 148 0
133 151 0
124 141 0
108 126 0
128 146 0
136 153 0
122 140 0
117 136 0
121 139 0
121 139 0
120 138 0
117 134 0
125 144 0
127 145 0
108 125 0
105 121 0
111 128 0
106 123 0
110 126 0
119 136 0
107 123 0
121 137 0
115 132 0
103 119 0
109 126 0
103 120 0
103 119 0
106 123 0
112 128 0
102 119 0
89 104 0
103 119 0
90 105 0
101 118 0
100 117 0
97 114 0
97 113 0
87 102 0
91 106 0
92 107 0
87 102 0
90 107 0
81 96 0
94 110 0
91 108 0
85 97 0
81 96 0
74 87 0
80 93 0
92 105 0
89 103 0
84 96 0
76 90 0
70 81 0
91 105 0
88 101 0
76 88 0
77 92 0
79 90 0
69 82 0
87 99 0
70 83 0
73 86 0
87 100 0
76 86 0
74 86 0
72 85 0
77 91 0
61 73 0
78 92 0
84 96 0
80 93 0
83 95 0
80 93 0
65 77 0
77 90 0
79 89 0
87 100 0
89 103 0
79 91 0
91 98 0
87 99 0
90 99 0
108 120 0
88 101 0
83 92 0
98 110 0
96 107 0
100 110 0
101 114 0
87 97 0
99 111 0
99 108 0
100 111 0
97 109 0
114 124 0
99 112 0
92 104 0
103 115 0
129 139 0
100 107 0
108 119 0
111 122 0
118 130 0
115 126 0
111 121 0
110 121 0
105 118 0
114 127 0
126 135 0
108 116 0
121 132 0
120 130 0
123 132 0
111 117 0
116 127 0
121 133 0
116 126 0
126 143 0
117 126 0
122 130 0
126 137 0
127 137 0
130 139 0
116 125 0
117 126 0
126 136 0
124 130 0
120 131 0
121 129 0
123 133 0
134 142 0
135 144 0
135 145 0
130 138 0
131 137 0
136 146 0
126 135 0
129 138 0
129 135 0
128 134 0
141 150 0
133 136 0
118 125 0
129 135 0
126 130 0
129 137 0
135 142 0
137 143 0
129 134 0
139 146 0
134 139 0
130 130 0
128 126 0
128 126 0
131 133 0
131 133 0
135 134 0
127 131 0
125 125 0
127 127 0
123 122 0
136 139 0
132 132 0
120 116 0
125 122 0
125 125 0
132 125 0
133 129 0
125 123 0
131 130 0
127 123 0
133 131 0
125 118 0
128 123 0
122 115 0
129 123 0
130 126 0
134 125 0
124 113 0
131 124 0
133 124 0
130 124 0
127 121 0
138 132 0
130 124 0
136 126 0
132 122 0
133 126 0
125 112 0
125 115 0
132 122 0
128 120 0
130 117 0
126 118 0
125 117 0
126 112 0
130 117 0
120 108 0
138 131 0
133 120 0
123 107 0
131 118 0
127 114 0
127 115 0
131 122 0
130 116 0
133 121 0
132 123 0
135 126 0
135 129 0
132 124 0
136 130 0
140 136 0
132 123 0
141 136 0
136 127 0
140 136 0
137 129 0
134 127 0
139 136 0
137 130 0
139 132 0
140 136 0
140 136 0
142 139 0
138 133 0
143 143 0
136 133 0
140 135 0
146 148 0
146 148 0
139 137 0
152 154 0
148 152 0
152 157 0
154 157 0
138 135 0
154 158 0
144 146 0
148 151 0
151 153 0
144 146 0
147 153 0
151 155 0
146 150 0
149 155 0
149 153 0
161 171 0
155 166 0
154 163 0
153 161 0
159 169 0
156 163 0
154 165 0
152 161 0
159 175 0
155 165 0
157 167 0
158 169 0
155 164 0
155 167 0
157 168 0
163 176 0
154 174 0
161 182 0
157 177 0
158 179 0
155 176 0
159 180 0
155 175 0
153 172 0
158 179 0
152 171 0
156 175 0
152 172 0
151 170 0
153 172 0
149 166 0
153 171 0
152 170 0
149 167 0
153 171 0
148 166 0
150 168 0
143 161 0
151 170 0
148 166 0
146 163 0
137 152 0
143 160 0
146 164 0
143 162 0
145 162 0
147 164 0
144 161 0
141 157 0
145 162 0
138 154 0
138 155 0
142 158 0
138 154 0
148 164 0
134 149 0
139 155 0
142 157 0
138 154 0
135 152 0
133 149 0
142 158 0
134 150 0
139 154 0
135 151 0
128 143 0
138 153 0
136 151 0
132 147 0
141 157 0
130 145 0
136 151 0
125 140 0
136 152 0
136 151 0
128 143 0
126 141 0
125 140 0
133 148 0
130 146 0
128 143 0
133 149 0
123 137 0
130 146 0
128 143 0
138 152 0
138 154 0
128 143 0
122 137 0
128 143 0
130 146 0
136 152 0
131 146 0
130 145 0
136 152 0
123 140 0
132 148 0
136 152 0
131 146 0
128 143 0
132 148 0
134 149 0
129 144 0
132 148 0
133 150 0
127 141 0
130 146 0
130 146 0
130 147 0
124 140 0
131 148 0
129 145 0
131 148 0
135 152 0
128 144 0
137 153 0
125 141 0
138 155 0
136 153 0
131 148 0
136 154 0
121 138 0
139 158 0
131 149 0
131 149 0
122 139 0
133 150 0
122 140 0
124 141 0
132 149 0
126 144 0
126 144 0
131 149 0
125 142 0
135 153 0
132 152 0
128 147 0
128 146 0
136 155 0
124 142 0
126 144 0
125 143 0
133 151 0
124 141 0
126 144 0
127 145 0
131 149 0
136 155 0
121 138 0
125 143 0
133 152 0
126 144 0
121 138 0
123 140 0
130 149 0
117 136 0
116 134 0
123 141 0
129 147 0
121 138 0
121 139 0
113 131 0
117 135 0
120 137 0
120 138 0
116 135 0
104 121 0
124 141 0
117 134 0
118 136 0
110 127 0
114 130 0
122 140 0
113 130 0
121 139 0
107 123 0
108 125 0
119 136 0
110 126 0
108 125 0
109 125 0
104 120 0
88 104 0
101 117 0
117 134 0
89 106 0
102 117 0
103 119 0
92 108 0
95 111 0
100 115 0
97 113 0
93 109 0
97 113 0
106 122 0
83 98 0
89 104 0
88 103 0
78 93 0
87 101 0
96 111 0
99 114 0
92 107 0
84 99 0
75 89 0
81 94 0
83 96 0
79 94 0
74 88 0
84 99 0
88 101 0
87 100 0
64 75 0
75 89 0
75 88 0
83 95 0
81 95 0
77 91 0
90 103 0
79 93 0
80 93 0
87 100 0
85 97 0
73 84 0
70 82 0
86 99 0
79 91 0
78 89 0
87 100 0
94 106 0
101 114 0
81 94 0
76 88 0
86 98 0
88 102 0
88 99 0
84 98 0
80 92 0
101 110 0
88 98 0
107 121 0
111 122 0
95 107 0
104 115 0
106 117 0
102 114 0
97 108 0
107 117 0
98 111 0
107 119 0
97 109 0
103 114 0
99 110 0
104 117 0
115 127 0
107 117 0
104 116 0
116 129 0
113 125 0
120 129 0
109 121 0
116 129 0
113 123 0
107 120 0
112 126 0
119 128 0
119 133 0
102 109 0
111 120 0
112 123 0
126 139 0
116 127 0
114 122 0
122 133 0
124 134 0
124 135 0
131 142 0
127 136 0
114 122 0
119 127 0
128 139 0
126 136 0
136 146 0
127 134 0
126 136 0
120 128 0
127 139 0
123 133 0
131 140 0
134 142 0
130 138 0
138 144 0
130 136 0
122 129 0
122 126 0
118 120 0
130 137 0
139 146 0
129 134 0
138 144 0
122 127 0
132 140 0
132 134 0
130 131 0
124 125 0
128 133 0
133 137 0
135 143 0
130 129 0
123 121 0
126 130 0
132 134 0
135 136 0
125 127 0
126 122 0
131 131 0
135 141 0
125 125 0
136 138 0
129 129 0
123 120 0
135 134 0
122 115 0
131 128 0
129 124 0
132 128 0
137 135 0
121 116 0
133 128 0
124 119 0
122 117 0
129 124 0
132 124 0
123 112 0
132 125 0
131 127 0
133 126 0
136 130 0
131 125 0
127 118 0
128 117 0
125 116 0
130 121 0
128 118 0
131 119 0
135 123 0
122 107 0
127 117 0
128 119 0
132 125 0
132 122 0
128 120 0
130 118 0
139 133 0
134 125 0
126 118 0
125 114 0
132 123 0
131 121 0
128 115 0
127 118 0
134 128 0
125 115 0
134 123 0
139 134 0
134 126 0
134 125 0
138 133 0
131 124 0
130 120 0
132 122 0
140 134 0
141 140 0
142 139 0
141 140 0
133 126 0
142 139 0
134 128 0
133 130 0
148 147 0
145 144 0
134 130 0
147 146 0
145 147 0
142 144 0
155 158 0
149 154 0
149 153 0
147 146 0
143 142 0
141 140 0
147 150 0
147 148 0
148 152 0
149 155 0
150 154 0
152 159 0
147 154 0
145 149 0
153 160 0
156 164 0
151 154 0
152 157 0
154 160 0
149 157 0
156 163 0
156 163 0
156 170 0
155 164 0
158 168 0
155 165 0
154 164 0
157 169 0
159 171 0
153 163 0
160 173 0
155 176 0
158 178 0
156 175 0
152 171 0
153 173 0
155 175 0
156 176 0
158 178 0
153 173 0
156 176 0
149 169 0
155 174 0
156 175 0
147 166 0
155 174 0
146 164 0
151 169 0
151 169 0
146 165 0
147 165 0
155 173 0
154 172 0
148 166 0
151 169 0
147 164 0
142 159 0
140 157 0
146 164 0
141 158 0
141 157 0
151 168 0
144 161 0
146 162 0
145 162 0
145 163 0
139 155 0
134 149 0
138 154 0
145 162 0
140 156 0
132 149 0
141 158 0
134 150 0
138 154 0
139 155 0
131 147 0
132 148 0
139 155 0
131 147 0
136 152 0
133 149 0
140 156 0
129 144 0
138 154 0
133 149 0
135 151 0
136 151 0
134 150 0
134 150 0
124 140 0
135 150 0
136 151 0
133 149 0
134 150 0
127 142 0
130 146 0
141 157 0
138 154 0
133 149 0
129 145 0
132 148 0
132 147 0
130 146 0
133 149 0
133 149 0
128 144 0
131 147 0
134 149 0
134 150 0
133 149 0
145 161 0
132 148 0
132 148 0
129 145 0
135 151 0
132 148 0
134 150 0
132 150 0
134 150 0
126 142 0
132 149 0
131 147 0
127 143 0
130 146 0
133 149 0
129 145 0
126 142 0
133 149 0
137 154 0
132 150 0
129 146 0
130 147 0
130 147 0
132 149 0
126 143 0
120 138 0
130 148 0
129 146 0
134 152 0
133 150 0
134 151 0
134 152 0
136 154 0
129 147 0
133 151 0
132 150 0
130 147 0
123 140 0
131 149 0
128 145 0
131 148 0
139 157 0
129 147 0
127 146 0
128 146 0
128 146 0
127 145 0
128 147 0
135 154 0
127 145 0
126 145 0
118 136 0
129 148 0
132 151 0
121 140 0
125 143 0
116 134 0
122 141 0
133 152 0
122 141 0
121 138 0
132 151 0
124 142 0
123 142 0
120 137 0
112 130 0
121 139 0
113 130 0
120 137 0
128 145 0
113 131 0
115 133 0
120 137 0
122 140 0
117 134 0
103 121 0
111 128 0
114 131 0
119 136 0
113 130 0
112 129 0
103 120 0
104 122 0
105 123 0
106 123 0
110 126 0
101 118 0
101 118 0
93 111 0
103 120 0
115 131 0
100 117 0
99 116 0
93 110 0
90 107 0
104 119 0
99 115 0
97 113 0
114 130 0
93 109 0
100 117 0
89 104 0
82 96 0
95 111 0
88 102 0
96 112 0
91 106 0
77 91 0
94 109 0
89 103 0
99 112 0
80 96 0
102 117 0
83 98 0
78 91 0
84 99 0
78 91 0
75 87 0
92 106 0
90 104 0
88 101 0
76 91 0
91 106 0
78 90 0
85 98 0
84 97 0
82 94 0
83 97 0
89 102 0
99 112 0
93 106 0
94 106 0
90 104 0
78 91 0
82 94 0
86 97 0
87 99 0
90 104 0
85 97 0
93 104 0
92 105 0
103 112 0
91 101 0
96 107 0
91 104 0
92 105 0
101 112 0
100 111 0
104 115 0
101 112 0
100 112 0
95 105 0
105 117 0
101 116 0
114 127 0
106 117 0
114 126 0
110 123 0
114 125 0
107 119 0
112 123 0
118 131 0
121 134 0
108 122 0
105 114 0
118 132 0
118 130 0
112 125 0
109 120 0
106 119 0
121 130 0
119 132 0
129 139 0
117 131 0
121 134 0
129 140 0
119 129 0
119 127 0
133 142 0
122 133 0
133 144 0
124 137 0
126 136 0
131 141 0
131 145 0
114 125 0
129 138 0
131 142 0
129 137 0
125 135 0
122 129 0
122 128 0
131 138 0
120 130 0
132 142 0
135 145 0
122 128 0
122 130 0
133 143 0
124 131 0
143 151 0
132 142 0
123 127 0
130 136 0
137 145 0
133 141 0
129 136 0
133 139 0
122 125 0
138 143 0
132 135 0
136 141 0
122 128 0
136 137 0
128 128 0
138 145 0
125 124 0
123 120 0
127 127 0
126 128 0
124 125 0
136 137 0
129 128 0
138 142 0
130 133 0
134 134 0
134 135 0
135 134 0
132 131 0
132 133 0
133 131 0
128 125 0
137 136 0
132 125 0
135 130 0
131 125 0
136 135 0
129 126 0
137 128 0
136 131 0
129 124 0
128 122 0
122 113 0
128 120 0
133 122 0
135 127 0
126 119 0
132 125 0
131 125 0
137 127 0
131 122 0
136 130 0
125 116 0
131 123 0
129 122 0
130 122 0
131 123 0
133 125 0
132 124 0
131 121 0
134 123 0
131 122 0
134 126 0
135 129 0
134 123 0
132 121 0
134 124 0
138 131 0
135 128 0
136 124 0
130 123 0
135 130 0
134 129 0
139 133 0
139 133 0
133 125 0
138 131 0
132 124 0
143 140 0
143 138 0
136 132 0
142 138 0
138 131 0
146 146 0
142 140 0
144 143 0
138 135 0
144 140 0
144 143 0
139 141 0
146 143 0
147 149 0
142 141 0
151 155 0
144 145 0
148 147 0
143 145 0
144 145 0
150 152 0
149 153 0
151 158 0
153 159 0
145 147 0
149 152 0
149 152 0
150 156 0
151 156 0
156 162 0
159 167 0
157 165 0
156 164 0
159 171 0
156 165 0
158 171 0
157 163 0
160 171 0
159 170 0
153 161 0
155 166 0
159 170 0
153 172 0
152 173 0
152 171 0
152 171 0
158 178 0
159 179 0
153 172 0
155 174 0
160 179 0
150 168 0
154 173 0
148 168 0
152 171 0
158 177 0
154 173 0
153 171 0
150 169 0
146 163 0
147 165 0
153 171 0
148 166 0
144 161 0
149 166 0
142 159 0
147 165 0
146 164 0
142 159 0
152 169 0
147 164 0
143 159 0
148 165 0
148 165 0
145 161 0
131 148 0
141 157 0
142 159 0
140 157 0
135 151 0
139 155 0
132 147 0
137 152 0
131 147 0
135 151 0
138 154 0
132 148 0
136 152 0
141 156 0
130 145 0
133 148 0
132 147 0
140 156 0
134 149 0
138 153 0
127 142 0
139 155 0
133 148 0
139 155 0
136 151 0
124 139 0
130 146 0
132 147 0
129 144 0
139 154 0
133 148 0
129 144 0
133 149 0
134 149 0
131 146 0
132 147 0
120 136 0
132 148 0
128 144 0
132 148 0
132 147 0
138 154 0
135 151 0
131 147 0
134 149 0
134 150 0
133 149 0
128 143 0
132 148 0
131 147 0
129 145 0
130 147 0
128 144 0
133 149 0
131 148 0
134 151 0
131 148 0
132 148 0
134 151 0
126 142 0
138 155 0
127 144 0
135 152 0
135 152 0
132 149 0
139 157 0
139 157 0
138 155 0
132 149 0
130 148 0
123 140 0
127 144 0
130 148 0
141 159 0
132 150 0
139 157 0
128 146 0
128 146 0
123 140 0
126 144 0
127 144 0
137 155 0
135 152 0
127 145 0
127 145 0
130 148 0
127 144 0
128 146 0
135 154 0
126 145 0
133 150 0
133 152 0
134 152 0
132 151 0
131 149 0
128 146 0
128 146 0
130 149 0
129 148 0
128 145 0
134 153 0
118 136 0
130 149 0
126 146 0
128 147 0
114 132 0
127 145 0
105 123 0
116 134 0
122 140 0
132 151 0
117 136 0
122 140 0
128 146 0
121 139 0
121 138 0
128 145 0
135 152 0
116 133 0
112 129 0
112 129 0
111 129 0
112 128 0
99 115 0
119 137 0
113 129 0
113 130 0
112 129 0
106 121 0
109 125 0
107 124 0
111 128 0
111 128 0
106 124 0
90 107 0
99 116 0
94 110 0
108 125 0
104 120 0
89 105 0
101 118 0
109 125 0
96 112 0
105 121 0
96 112 0
101 117 0
81 97 0
90 106 0
91 108 0
101 115 0
94 110 0
91 103 0
97 112 0
98 114 0
98 115 0
95 111 0
96 111 0
88 101 0
93 106 0
89 104 0
87 100 0
95 108 0
101 116 0
87 101 0
94 109 0
77 91 0
78 92 0
86 100 0
91 105 0
83 95 0
86 99 0
88 102 0
86 99 0
94 107 0
84 98 0
108 122 0
93 107 0
90 103 0
95 109 0
79 92 0
98 110 0
88 102 0
102 115 0
97 109 0
96 108 0
97 110 0
85 98 0
90 100 0
94 105 0
101 112 0
100 110 0
102 115 0
105 117 0
94 109 0
99 113 0
96 109 0
108 120 0
111 125 0
109 123 0
121 135 0
115 127 0
112 124 0
107 121 0
114 126 0
116 128 0
111 121 0
115 127 0
107 120 0
104 117 0
118 129 0
116 128 0
106 116 0
123 136 0
122 134 0
124 135 0
109 119 0
116 129 0
121 135 0
111 122 0
124 138 0
121 129 0
111 121 0
129 136 0
129 144 0
120 129 0
127 141 0
122 128 0
137 148 0
135 147 0
120 133 0
127 137 0
125 135 0
126 139 0
134 144 0
122 130 0
125 134 0
115 123 0
121 130 0
122 131 0
126 136 0
132 142 0
136 143 0
121 129 0
124 131 0
126 134 0
135 147 0
141 150 0
138 145 0
132 136 0
129 136 0
136 146 0
135 143 0
125 127 0
135 138 0
133 140 0
129 134 0
135 141 0
124 128 0
130 138 0
131 132 0
123 125 0
129 135 0
128 128 0
135 140 0
129 130 0
128 132 0
134 138 0
137 144 0
138 141 0
130 133 0
128 124 0
134 136 0
133 129 0
135 133 0
132 132 0
137 136 0
129 129 0
133 132 0
129 126 0
132 131 0
136 132 0
129 121 0
134 130 0
130 126 0
128 127 0
131 125 0
136 133 0
130 127 0
135 130 0
131 126 0
134 129 0
128 118 0
124 116 0
135 129 0
132 125 0
130 120 0
135 126 0
134 127 0
128 122 0
131 125 0
128 116 0
134 124 0
119 110 0
130 122 0
127 118 0
130 120 0
130 124 0
130 123 0
132 123 0
134 130 0
138 129 0
133 126 0
127 117 0
137 130 0
132 125 0
125 116 0
139 132 0
135 128 0
132 125 0
135 131 0
135 127 0
135 130 0
139 130 0
135 128 0
143 139 0
139 134 0
134 124 0
142 141 0
137 131 0
144 141 0
147 146 0
141 136 0
142 140 0
142 141 0
144 145 0
142 138 0
142 143 0
139 137 0
145 147 0
148 146 0
143 142 0
146 149 0
145 145 0
154 160 0
145 146 0
146 149 0
147 153 0
149 153 0
144 148 0
153 155 0
156 163 0
142 146 0
152 159 0
151 156 0
150 156 0
154 163 0
152 159 0
150 154 0
149 151 0
150 155 0
152 161 0
149 153 0
156 162 0
160 171 0
157 166 0
159 169 0
158 167 0
156 177 0
152 171 0
154 174 0
156 176 0
155 174 0
154 173 0
160 180 0
156 176 0
150 170 0
151 169 0
151 169 0
150 169 0
148 166 0
154 173 0
155 174 0
147 164 0
151 169 0
154 172 0
147 166 0
150 168 0
150 168 0
143 160 0
152 169 0
152 170 0
143 160 0
149 166 0
140 156 0
149 167 0
143 159 0
143 161 0
146 164 0
135 150 0
142 159 0
136 152 0
147 163 0
138 153 0
142 158 0
134 149 0
141 157 0
145 161 0
139 156 0
133 150 0
130 145 0
138 154 0
135 152 0
136 151 0
133 148 0
134 151 0
144 160 0
140 156 0
136 152 0
138 153 0
140 156 0
139 156 0
140 156 0
130 146 0
136 152 0
135 151 0
131 147 0
132 148 0
131 147 0
133 149 0
133 149 0
137 152 0
133 148 0
131 146 0
126 142 0
136 151 0
135 151 0
130 147 0
126 142 0
130 146 0
135 151 0
132 148 0
124 140 0
134 150 0
146 163 0
129 145 0
139 156 0
136 152 0
132 150 0
127 144 0
139 155 0
134 150 0
134 149 0
136 153 0
134 150 0
136 154 0
135 152 0
136 153 0
138 155 0
123 139 0
135 151 0
133 149 0
132 149 0
135 154 0
135 152 0
133 149 0
136 154 0
126 142 0
129 146 0
128 145 0
127 145 0
130 147 0
135 152 0
123 140 0
134 153 0
126 144 0
135 153 0
125 143 0
128 146 0
132 149 0
137 155 0
134 152 0
130 147 0
134 152 0
126 143 0
127 145 0
133 152 0
131 150 0
127 145 0
131 149 0
131 150 0
129 147 0
122 140 0
122 141 0
129 148 0
132 150 0
131 148 0
130 149 0
129 147 0
119 138 0
129 148 0
126 143 0
123 140 0
115 134 0
129 148 0
134 153 0
127 144 0
126 144 0
119 137 0
121 139 0
124 143 0
122 140 0
122 141 0
123 142 0
117 136 0
129 148 0
124 142 0
127 146 0
120 138 0
117 135 0
114 132 0
115 133 0
108 125 0
118 137 0
114 132 0
112 130 0
122 140 0
116 135 0
112 130 0
122 137 0
114 132 0
114 130 0
116 133 0
113 130 0
111 128 0
113 130 0
115 131 0
93 110 0
102 118 0
117 134 0
111 127 0
105 121 0
85 101 0
100 116 0
103 119 0
102 117 0
100 115 0
100 117 0
101 116 0
99 114 0
100 116 0
96 112 0
88 103 0
97 112 0
91 107 0
89 104 0
85 100 0
92 109 0
96 111 0
90 103 0
96 111 0
85 98 0
93 107 0
86 99 0
96 110 0
87 101 0
94 109 0
89 104 0
110 124 0
108 123 0
89 104 0
88 101 0
88 105 0
88 101 0
88 102 0
86 99 0
99 114 0
94 109 0
94 106 0
89 103 0
84 96 0
88 103 0
94 110 0
107 121 0
88 101 0
97 109 0
97 109 0
90 103 0
98 112 0
91 103 0
99 113 0
100 113 0
111 126 0
102 115 0
101 116 0
104 117 0
105 119 0
105 116 0
107 120 0
109 125 0
104 113 0
113 125 0
101 114 0
108 121 0
99 110 0
117 130 0
119 132 0
114 129 0
119 133 0
112 126 0
99 113 0
102 114 0
115 127 0
117 127 0
117 126 0
116 127 0
119 128 0
122 133 0
116 128 0
120 133 0
120 130 0
122 136 0
121 132 0
122 132 0
123 134 0
118 130 0
127 138 0
125 136 0
120 130 0
124 134 0
126 137 0
123 133 0
136 148 0
118 129 0
129 139 0
127 138 0
125 138 0
123 133 0
133 143 0
126 137 0
132 139 0
129 137 0
135 147 0
122 131 0
129 140 0
131 140 0
126 133 0
122 128 0
127 140 0
137 142 0
128 134 0
135 143 0
134 138 0
127 133 0
133 141 0
131 137 0
134 139 0
139 147 0
130 135 0
143 148 0
129 135 0
132 136 0
138 147 0
123 127 0
136 142 0
124 125 0
130 134 0
138 141 0
131 133 0
129 130 0
133 136 0
138 143 0
136 138 0
127 125 0
134 138 0
126 127 0
126 125 0
134 134 0
133 136 0
131 133 0
131 127 0
119 116 0
127 126 0
131 131 0
130 127 0
134 133 0
133 128 0
133 129 0
130 123 0
135 132 0
130 122 0
134 131 0
127 120 0
132 129 0
127 121 0
130 127 0
127 123 0
127 121 0
128 121 0
128 124 0
131 122 0
137 135 0
135 127 0
135 128 0
132 121 0
133 126 0
139 137 0
131 126 0
129 119 0
130 120 0
137 128 0
130 122 0
135 129 0
133 123 0
133 125 0
133 128 0
142 140 0
135 125 0
140 136 0
134 128 0
136 129 0
135 129 0
134 128 0
136 130 0
135 129 0
138 134 0
136 131 0
137 134 0
143 142 0
132 127 0
132 124 0
140 138 0
142 137 0
135 132 0
138 135 0
143 139 0
139 135 0
148 147 0
142 143 0
143 141 0
141 138 0
145 146 0
148 149 0
145 148 0
146 148 0
143 143 0
146 148 0
147 149 0
144 147 0
150 155 0
149 153 0
154 161 0
149 154 0
153 161 0
152 158 0
152 159 0
155 160 0
155 161 0
153 161 0
153 163 0
155 161 0
154 164 0
159 170 0
158 169 0
155 165 0
157 168 0
156 168 0
159 170 0
151 170 0
154 174 0
156 175 0
159 180 0
155 174 0
155 175 0
153 172 0
149 168 0
148 167 0
156 175 0
148 166 0
147 165 0
149 168 0
150 168 0
153 172 0
151 168 0
150 168 0
147 164 0
144 162 0
149 167 0
150 168 0
150 168 0
145 162 0
135 152 0
147 164 0
148 166 0
148 166 0
138 155 0
138 154 0
142 158 0
141 157 0
139 156 0
139 155 0
145 161 0
141 158 0
136 152 0
142 159 0
137 154 0
140 156 0
132 148 0
139 155 0
134 150 0
132 148 0
137 154 0
139 156 0
132 148 0
128 144 0
135 150 0
144 161 0
140 156 0
136 152 0
136 152 0
137 153 0
137 153 0
131 147 0
139 155 0
131 147 0
131 147 0
137 153 0
134 150 0
130 145 0
133 150 0
133 148 0
139 154 0
132 148 0
144 161 0
137 153 0
134 150 0
128 144 0
137 153 0
138 155 0
136 152 0
132 149 0
131 147 0
136 152 0
137 153 0
131 147 0
136 153 0
136 153 0
136 152 0
129 146 0
140 157 0
133 150 0
137 154 0
135 152 0
137 155 0
126 143 0
129 145 0
129 147 0
134 151 0
131 148 0
126 143 0
132 148 0
136 153 0
145 163 0
144 163 0
132 149 0
131 149 0
140 158 0
131 148 0
129 147 0
126 143 0
135 153 0
133 151 0
128 146 0
132 150 0
132 149 0
132 149 0
128 146 0
128 145 0
131 151 0
136 155 0
137 156 0
129 148 0
122 140 0
137 156 0
123 142 0
133 150 0
133 151 0
134 152 0
125 143 0
133 153 0
128 147 0
133 151 0
130 148 0
123 141 0
117 134 0
134 154 0
130 149 0
133 151 0
129 147 0
120 139 0
131 151 0
122 140 0
130 148 0
126 144 0
122 140 0
126 145 0
125 143 0
128 147 0
123 142 0
128 148 0
125 143 0
125 144 0
121 139 0
123 141 0
115 133 0
128 147 0
121 139 0
120 138 0
117 134 0
129 147 0
108 125 0
108 127 0
125 142 0
106 123 0
115 134 0
123 139 0
106 124 0
108 126 0
126 145 0
119 137 0
115 132 0
110 128 0
117 135 0
115 133 0
99 116 0
106 123 0
112 130 0
100 117 0
113 129 0
99 116 0
103 119 0
111 127 0
104 121 0
104 120 0
106 122 0
98 114 0
105 122 0
102 118 0
108 125 0
90 107 0
104 119 0
95 112 0
90 105 0
102 117 0
97 112 0
104 120 0
88 102 0
91 107 0
97 112 0
112 129 0
98 114 0
94 109 0
97 113 0
96 110 0
85 99 0
85 101 0
95 111 0
87 102 0
90 106 0
88 104 0
96 109 0
92 105 0
95 110 0
97 111 0
94 110 0
97 110 0
95 107 0
103 118 0
93 107 0
76 90 0
84 97 0
88 99 0
106 119 0
97 110 0
94 109 0
103 117 0
91 106 0
115 129 0
98 113 0
110 122 0
102 114 0
93 108 0
99 113 0
108 122 0
102 116 0
112 126 0
108 121 0
109 123 0
96 109 0
99 109 0
103 114 0
103 116 0
112 127 0
116 130 0
108 123 0
117 127 0
119 131 0
119 130 0
114 124 0
120 133 0
114 125 0
106 117 0
110 124 0
109 121 0
126 138 0
118 131 0
113 126 0
117 127 0
122 130 0
122 133 0
116 128 0
130 144 0
139 154 0
120 134 0
121 133 0
121 133 0
122 135 0
127 140 0
135 148 0
122 134 0
131 143 0
132 144 0
129 140 0
125 139 0
131 142 0
127 141 0
119 128 0
122 134 0
127 139 0
128 133 0
133 141 0
125 133 0
134 143 0
131 139 0
133 144 0
135 143 0
126 131 0
134 143 0
125 135 0
130 136 0
139 150 0
138 146 0
140 149 0
130 138 0
124 133 0
130 136 0
129 134 0
128 135 0
132 134 0
131 137 0
131 135 0
128 132 0
137 145 0
127 132 0
131 137 0
139 141 0
129 130 0
142 147 0
137 141 0
137 140 0
137 142 0
133 136 0
133 134 0
138 141 0
131 132 0
134 138 0
129 129 0
129 130 0
137 140 0
135 137 0
134 133 0
135 135 0
131 129 0
130 128 0
131 126 0
135 134 0
134 132 0
136 135 0
141 141 0
130 127 0
133 130 0
135 132 0
131 129 0
135 134 0
126 121 0
134 129 0
129 120 0
137 138 0
134 132 0
141 141 0
136 131 0
135 128 0
138 138 0
132 126 0
135 131 0
134 132 0
133 127 0
138 136 0
138 134 0
138 134 0
135 130 0
141 136 0
137 129 0
133 124 0
136 130 0
133 128 0
134 126 0
134 130 0
136 128 0
134 126 0
135 127 0
143 139 0
133 130 0
141 135 0
136 131 0
133 127 0
135 126 0
141 137 0
141 138 0
135 131 0
142 142 0
139 133 0
137 134 0
140 136 0
139 137 0
141 140 0
140 134 0
144 144 0
147 148 0
143 143 0
146 147 0
141 136 0
144 146 0
143 142 0
148 148 0
145 147 0
147 153 0
146 147 0
151 154 0
147 150 0
149 155 0
141 142 0
151 155 0
149 153 0
152 159 0
150 155 0
148 155 0
150 155 0
157 167 0
155 161 0
158 167 0
154 161 0
150 158 0
152 160 0
152 162 0
151 157 0
157 166 0
158 171 0
151 170 0
158 178 0
150 169 0
156 175 0
154 173 0
153 172 0
145 164 0
152 170 0
154 173 0
155 174 0
154 173 0
149 168 0
154 173 0
149 168 0
147 165 0
146 163 0
149 168 0
149 168 0
152 169 0
145 162 0
154 172 0
146 164 0
146 163 0
145 163 0
149 167 0
142 159 0
143 159 0
147 164 0
142 158 0
140 156 0
132 147 0
138 155 0
145 163 0
141 158 0
141 157 0
136 153 0
140 156 0
138 154 0
137 154 0
139 155 0
140 156 0
145 161 0
139 155 0
137 153 0
131 146 0
142 158 0
138 154 0
141 157 0
138 155 0
138 155 0
143 160 0
140 156 0
136 151 0
131 147 0
135 152 0
138 154 0
140 156 0
131 146 0
132 148 0
131 148 0
132 148 0
137 153 0
132 149 0
133 148 0
136 152 0
142 159 0
136 152 0
134 151 0
136 153 0
130 146 0
127 143 0
133 150 0
134 150 0
135 151 0
132 149 0
134 150 0
132 149 0
129 146 0
135 152 0
136 152 0
138 154 0
132 149 0
141 159 0
127 144 0
136 153 0
139 157 0
134 151 0
135 152 0
128 145 0
137 154 0
134 152 0
139 157 0
135 153 0
135 154 0
138 156 0
136 154 0
131 148 0
133 150 0
136 154 0
134 150 0
136 154 0
134 152 0
135 154 0
130 147 0
142 161 0
135 152 0
136 154 0
135 154 0
131 148 0
136 154 0
138 156 0
131 151 0
135 154 0
130 148 0
131 148 0
125 144 0
132 150 0
131 149 0
135 154 0
129 148 0
137 157 0
135 153 0
121 139 0
129 147 0
130 148 0
133 152 0
132 151 0
127 146 0
128 146 0
127 145 0
140 159 0
127 146 0
116 135 0
121 140 0
129 147 0
123 141 0
120 138 0
119 137 0
126 144 0
121 141 0
134 154 0
140 160 0
134 152 0
121 140 0
122 141 0
113 131 0
122 140 0
122 141 0
119 137 0
121 138 0
111 130 0
126 144 0
120 138 0
122 140 0
122 140 0
119 136 0
108 126 0
107 124 0
115 131 0
127 145 0
108 126 0
102 119 0
102 120 0
108 124 0
111 128 0
106 124 0
108 126 0
105 123 0
109 127 0
104 121 0
109 127 0
101 118 0
105 123 0
114 131 0
112 129 0
109 125 0
97 113 0
100 115 0
102 119 0
89 105 0
96 112 0
102 118 0
100 117 0
93 110 0
115 130 0
99 116 0
102 119 0
99 114 0
106 123 0
110 127 0
94 108 0
105 121 0
102 118 0
92 107 0
96 111 0
74 91 0
90 105 0
94 110 0
87 102 0
87 103 0
86 100 0
96 111 0
95 108 0
86 100 0
84 100 0
106 120 0
107 121 0
105 119 0
101 116 0
100 114 0
100 115 0
95 108 0
98 111 0
101 115 0
107 123 0
109 124 0
96 109 0
101 114 0
104 119 0
101 111 0
97 112 0
102 117 0
96 108 0
115 128 0
107 120 0
100 111 0
106 120 0
101 116 0
112 126 0
109 124 0
112 125 0
116 130 0
103 116 0
119 133 0
106 118 0
113 126 0
108 121 0
116 128 0
113 124 0
111 124 0
103 116 0
115 128 0
121 133 0
114 127 0
117 129 0
123 136 0
113 126 0
121 133 0
108 118 0
113 127 0
124 138 0
123 134 0
118 130 0
127 139 0
122 134 0
124 136 0
127 139 0
117 129 0
119 129 0
129 142 0
126 134 0
130 141 0
130 143 0
126 137 0
125 135 0
137 149 0
131 142 0
129 138 0
133 143 0
140 156 0
131 141 0
139 150 0
139 150 0
126 135 0
134 144 0
130 140 0
133 141 0
128 134 0
133 144 0
135 145 0
127 135 0
130 137 0
128 136 0
130 140 0
137 146 0
130 134 0
128 133 0
125 132 0
131 138 0
133 142 0
131 134 0
133 138 0
141 151 0
130 137 0
129 134 0
132 134 0
135 142 0
137 143 0
139 144 0
140 145 0
137 140 0
122 123 0
137 143 0
133 137 0
136 138 0
133 139 0
136 138 0
136 138 0
137 141 0
135 137 0
135 140 0
135 131 0
131 130 0
128 129 0
136 141 0
131 128 0
137 135 0
131 129 0
131 131 0
138 140 0
134 131 0
133 132 0
132 131 0
128 124 0
136 134 0
135 136 0
139 139 0
138 135 0
133 129 0
128 128 0
136 130 0
135 134 0
136 129 0
136 131 0
131 122 0
141 134 0
128 119 0
135 130 0
128 119 0
138 135 0
138 136 0
128 123 0
130 123 0
134 131 0
129 123 0
141 135 0
137 131 0
139 132 0
131 126 0
135 129 0
138 134 0
143 142 0
136 134 0
134 127 0
135 129 0
139 135 0
143 141 0
136 130 0
138 135 0
141 138 0
138 134 0
135 132 0
136 133 0
136 130 0
145 145 0
139 136 0
143 142 0
135 134 0
134 132 0
146 144 0
145 144 0
141 139 0
140 141 0
141 143 0
143 145 0
147 153 0
137 132 0
149 153 0
147 149 0
144 142 0
148 151 0
151 159 0
141 140 0
142 149 0
149 154 0
143 144 0
146 152 0
154 159 0
153 158 0
147 151 0
150 156 0
150 154 0
153 161 0
151 156 0
157 163 0
155 163 0
155 163 0
155 165 0
146 148 0
157 166 0
149 169 0
153 172 0
148 166 0
149 167 0
155 175 0
155 174 0
153 172 0
153 172 0
152 171 0
145 163 0
149 167 0
152 170 0
154 172 0
148 166 0
152 171 0
150 168 0
147 166 0
147 165 0
149 166 0
146 164 0
147 165 0
149 167 0
143 159 0
143 160 0
151 169 0
139 157 0
142 159 0
147 165 0
137 154 0
142 159 0
138 155 0
137 153 0
144 161 0
141 157 0
140 156 0
146 164 0
128 144 0
137 153 0
139 155 0
140 156 0
134 150 0
143 159 0
149 165 0
142 159 0
136 153 0
138 153 0
135 150 0
144 161 0
134 150 0
142 159 0
133 149 0
140 156 0
132 148 0
132 147 0
142 159 0
130 147 0
140 156 0
142 159 0
141 158 0
131 146 0
133 149 0
137 154 0
143 159 0
136 153 0
131 147 0
133 149 0
135 150 0
138 154 0
134 151 0
132 148 0
139 155 0
135 152 0
141 158 0
137 153 0
132 149 0
132 148 0
136 152 0
134 151 0
131 148 0
139 157 0
136 153 0
141 159 0
132 150 0
142 160 0
127 143 0
140 157 0
141 158 0
129 146 0
140 158 0
139 156 0
131 148 0
136 153 0
137 155 0
137 154 0
131 150 0
139 157 0
125 143 0
139 156 0
134 153 0
132 150 0
136 154 0
138 158 0
130 149 0
138 157 0
132 150 0
131 149 0
127 145 0
131 149 0
132 150 0
122 139 0
130 149 0
118 136 0
134 152 0
126 144 0
132 151 0
141 160 0
127 144 0
126 145 0
130 148 0
132 150 0
136 155 0
130 149 0
131 150 0
125 145 0
134 153 0
128 147 0
132 150 0
122 141 0
132 151 0
138 158 0
125 143 0
138 158 0
134 152 0
131 151 0
126 144 0
126 145 0
128 147 0
124 142 0
124 142 0
126 144 0
130 148 0
125 144 0
127 145 0
128 147 0
122 141 0
124 143 0
128 147 0
123 141 0
126 144 0
119 137 0
126 145 0
123 141 0
111 130 0
121 140 0
119 137 0
105 123 0
116 134 0
118 136 0
118 138 0
121 139 0
125 143 0
103 120 0
113 131 0
113 131 0
109 126 0
111 130 0
110 127 0
104 120 0
109 126 0
107 125 0
117 134 0
114 131 0
116 135 0
105 123 0
105 123 0
106 125 0
109 126 0
105 120 0
95 112 0
99 117 0
102 118 0
111 128 0
90 106 0
108 123 0
109 126 0
107 122 0
100 115 0
94 111 0
113 128 0
101 115 0
90 107 0
101 117 0
104 120 0
106 123 0
88 104 0
88 103 0
107 123 0
103 120 0
107 123 0
116 132 0
107 122 0
97 112 0
98 114 0
106 120 0
87 104 0
91 106 0
105 120 0
91 106 0
101 116 0
116 131 0
93 109 0
92 104 0
95 109 0
106 119 0
86 100 0
102 115 0
103 117 0
91 104 0
100 113 0
108 121 0
103 116 0
107 122 0
104 117 0
104 119 0
106 119 0
110 125 0
91 105 0
110 123 0
105 118 0
112 125 0
110 123 0
115 126 0
100 114 0
116 132 0
115 131 0
109 123 0
119 132 0
122 138 0
107 121 0
110 122 0
122 136 0
124 139 0
117 129 0
124 138 0
111 125 0
122 137 0
120 134 0
124 137 0
112 122 0
116 129 0
120 134 0
121 134 0
120 132 0
123 136 0
122 133 0
123 137 0
122 133 0
125 135 0
123 135 0
127 140 0
128 142 0
133 147 0
126 137 0
116 127 0
136 150 0
135 145 0
132 143 0
126 136 0
131 144 0
126 137 0
125 137 0
129 138 0
128 139 0
136 147 0
138 148 0
136 144 0
136 151 0
135 147 0
147 160 0
132 143 0
136 146 0
141 153 0
135 141 0
134 144 0
142 153 0
133 140 0
133 141 0
129 138 0
138 148 0
140 154 0
124 133 0
134 140 0
124 130 0
132 137 0
141 149 0
121 128 0
136 143 0
129 133 0
133 142 0
134 138 0
132 135 0
140 145 0
130 135 0
129 133 0
128 133 0
136 139 0
132 137 0
135 139 0
137 141 0
132 138 0
132 133 0
136 142 0
141 146 0
138 141 0
133 137 0
134 135 0
139 138 0
137 140 0
136 135 0
136 135 0
134 138 0
139 141 0
138 137 0
134 135 0
130 127 0
132 133 0
137 135 0
136 136 0
136 136 0
136 134 0
135 133 0
134 130 0
138 135 0
139 140 0
134 129 0
136 134 0
139 137 0
143 140 0
133 129 0
141 138 0
137 131 0
142 140 0
136 134 0
134 130 0
139 141 0
135 133 0
138 137 0
132 125 0
134 130 0
134 129 0
136 132 0
136 131 0
136 133 0
137 132 0
132 128 0
136 129 0
145 140 0
146 146 0
143 139 0
139 134 0
139 134 0
136 129 0
138 138 0
137 133 0
138 133 0
136 131 0
145 143 0
137 135 0
135 133 0
147 149 0
138 139 0
138 135 0
138 135 0
148 145 0
142 141 0
146 149 0
143 143 0
146 145 0
146 150 0
154 158 0
146 148 0
143 145 0
147 150 0
139 139 0
157 164 0
150 153 0
149 152 0
154 161 0
144 146 0
147 152 0
145 148 0
150 157 0
150 155 0
152 159 0
153 163 0
156 165 0
153 160 0
158 163 0
153 160 0
152 157 0
153 172 0
157 175 0
154 173 0
152 172 0
152 170 0
151 171 0
150 167 0
147 166 0
147 165 0
150 168 0
145 163 0
148 166 0
146 164 0
154 173 0
147 164 0
146 163 0
148 166 0
144 162 0
144 161 0
155 173 0
142 159 0
143 159 0
147 164 0
139 157 0
149 166 0
147 164 0
138 155 0
145 163 0
146 163 0
141 157 0
137 153 0
139 156 0
141 156 0
142 159 0
140 156 0
131 147 0
144 161 0
137 153 0
136 152 0
139 156 0
139 156 0
144 161 0
132 148 0
141 157 0
136 152 0
140 156 0
134 150 0
143 159 0
139 155 0
134 150 0
128 143 0
139 155 0
139 155 0
131 147 0
137 153 0
142 158 0
137 154 0
132 149 0
138 155 0
128 144 0
143 160 0
133 149 0
137 153 0
135 152 0
139 156 0
132 148 0
148 165 0
143 160 0
142 159 0
131 148 0
131 147 0
129 145 0
132 148 0
129 145 0
138 156 0
135 152 0
139 156 0
135 152 0
131 148 0
140 158 0
135 152 0
140 157 0
142 159 0
134 151 0
130 147 0
135 153 0
136 154 0
137 154 0
135 153 0
132 150 0
138 156 0
133 152 0
128 145 0
134 152 0
132 149 0
137 155 0
129 147 0
130 148 0
137 155 0
137 155 0
131 150 0
138 156 0
134 152 0
141 160 0
141 160 0
132 152 0
137 155 0
144 162 0
133 151 0
140 159 0
135 154 0
134 153 0
125 143 0
140 160 0
134 154 0
135 153 0
135 155 0
133 151 0
127 146 0
128 147 0
133 153 0
125 141 0
136 155 0
131 150 0
124 143 0
133 152 0
132 151 0
140 161 0
140 159 0
133 151 0
128 148 0
119 136 0
127 146 0
122 141 0
126 145 0
130 148 0
130 148 0
135 154 0
122 141 0
118 139 0
127 146 0
123 141 0
128 147 0
124 143 0
126 146 0
126 145 0
121 140 0
109 127 0
123 141 0
124 143 0
120 140 0
117 135 0
118 136 0
120 138 0
116 135 0
123 142 0
117 135 0
129 148 0
114 132 0
113 131 0
126 144 0
121 140 0
112 130 0
120 138 0
109 127 0
112 131 0
110 128 0
114 131 0
113 130 0
105 121 0
118 135 0
110 128 0
115 133 0
110 127 0
97 115 0
113 130 0
100 118 0
119 138 0
108 125 0
108 126 0
106 124 0
100 117 0
102 118 0
109 126 0
114 130 0
101 118 0
108 125 0
102 116 0
100 118 0
98 116 0
100 115 0
103 118 0
90 105 0
103 119 0
104 119 0
104 120 0
110 126 0
106 121 0
105 121 0
99 115 0
102 116 0
100 115 0
103 118 0
101 117 0
95 110 0
107 122 0
100 115 0
85 101 0
104 120 0
101 116 0
108 124 0
105 119 0
101 116 0
103 115 0
95 108 0
101 115 0
106 120 0
113 127 0
99 113 0
105 121 0
95 109 0
120 134 0
100 116 0
96 112 0
109 124 0
106 122 0
118 131 0
115 131 0
115 130 0
117 128 0
118 131 0
119 133 0
120 132 0
107 118 0
112 126 0
109 123 0
111 126 0
121 136 0
115 128 0
113 129 0
127 141 0
113 124 0
116 131 0
123 138 0
114 128 0
121 133 0
117 130 0
111 124 0
118 133 0
124 139 0
130 145 0
123 133 0
121 135 0
119 132 0
123 136 0
121 132 0
125 139 0
125 136 0
127 141 0
132 147 0
135 151 0
124 137 0
128 140 0
132 146 0
140 153 0
123 132 0
126 139 0
132 144 0
119 130 0
121 131 0
128 140 0
119 129 0
127 136 0
134 144 0
136 149 0
133 144 0
140 154 0
127 137 0
133 144 0
124 133 0
130 141 0
135 144 0
135 145 0
138 148 0
145 157 0
123 129 0
138 151 0
132 142 0
137 148 0
132 140 0
133 141 0
133 137 0
137 147 0
128 134 0
137 146 0
132 142 0
139 145 0
136 142 0
123 125 0
130 135 0
128 133 0
135 142 0
136 144 0
129 134 0
130 140 0
142 148 0
129 133 0
139 144 0
136 140 0
138 142 0
135 141 0
134 138 0
139 145 0
140 146 0
130 132 0
131 135 0
131 134 0
141 143 0
136 134 0
136 137 0
130 131 0
136 138 0
130 131 0
135 134 0
135 135 0
140 144 0
136 135 0
137 139 0
140 140 0
137 136 0
140 137 0
136 140 0
132 127 0
137 135 0
128 123 0
141 141 0
131 123 0
141 141 0
136 133 0
136 132 0
130 126 0
135 133 0
138 134 0
138 137 0
137 131 0
131 124 0
138 135 0
135 132 0
138 137 0
138 136 0
138 138 0
137 132 0
142 141 0
134 129 0
131 124 0
129 123 0
143 141 0
136 133 0
141 138 0
143 144 0
140 138 0
137 134 0
140 136 0
145 142 0
142 140 0
139 135 0
144 141 0
141 141 0
141 139 0
135 131 0
139 136 0
145 147 0
153 156 0
143 141 0
141 143 0
144 148 0
150 152 0
142 141 0
143 144 0
143 140 0
156 164 0
142 142 0
142 143 0
142 142 0
145 146 0
146 149 0
146 148 0
147 151 0
144 146 0
147 152 0
149 151 0
147 154 0
155 163 0
156 165 0
150 156 0
156 163 0
154 164 0
147 152 0
151 158 0
155 164 0
150 170 0
155 174 0
151 170 0
146 164 0
153 172 0
151 169 0
153 172 0
158 176 0
155 175 0
153 171 0
156 174 0
148 167 0
147 165 0
148 166 0
153 171 0
145 162 0
151 169 0
142 159 0
139 155 0
148 166 0
143 160 0
146 164 0
145 162 0
145 163 0
147 165 0
142 159 0
146 164 0
142 160 0
142 159 0
149 167 0
134 149 0
142 158 0
140 157 0
138 155 0
139 155 0
135 151 0
137 153 0
139 155 0
138 154 0
137 153 0
141 157 0
139 156 0
143 160 0
142 160 0
136 153 0
140 157 0
143 160 0
137 154 0
138 155 0
142 158 0
135 151 0
142 159 0
130 145 0
137 153 0
134 150 0
129 145 0
141 157 0
135 151 0
138 155 0
134 149 0
140 157 0
136 153 0
141 158 0
140 157 0
139 155 0
138 155 0
142 159 0
140 157 0
135 151 0
134 151 0
135 152 0
134 151 0
139 155 0
136 152 0
134 151 0
138 155 0
125 142 0
140 157 0
145 162 0
135 153 0
134 151 0
133 151 0
139 157 0
132 150 0
136 154 0
141 159 0
142 159 0
140 159 0
141 160 0
134 152 0
142 159 0
132 150 0
138 156 0
136 154 0
135 154 0
134 153 0
146 165 0
141 160 0
130 147 0
141 160 0
129 147 0
141 160 0
139 157 0
127 147 0
137 155 0
135 153 0
142 161 0
142 160 0
140 160 0
129 148 0
141 159 0
134 153 0
130 149 0
136 155 0
135 154 0
143 162 0
142 162 0
126 144 0
126 144 0
134 153 0
132 153 0
130 149 0
134 154 0
138 158 0
137 156 0
135 156 0
137 157 0
135 153 0
120 140 0
136 155 0
125 144 0
128 147 0
130 149 0
134 153 0
132 151 0
130 149 0
116 134 0
128 146 0
134 153 0
128 146 0
129 147 0
130 149 0
123 142 0
123 142 0
123 142 0
134 152 0
124 143 0
128 147 0
114 132 0
133 151 0
120 139 0
112 131 0
112 130 0
104 123 0
124 142 0
119 138 0
111 129 0
116 134 0
108 126 0
118 137 0
102 120 0
113 131 0
122 140 0
104 121 0
117 136 0
123 141 0
118 136 0
107 125 0
116 134 0
106 124 0
112 130 0
112 130 0
114 131 0
127 146 0
121 139 0
114 132 0
121 139 0
106 125 0
116 133 0
102 118 0
109 126 0
109 126 0
103 119 0
107 123 0
106 124 0
118 136 0
100 116 0
101 118 0
107 124 0
101 116 0
100 117 0
107 123 0
97 114 0
101 114 0
101 116 0
103 119 0
106 122 0
104 121 0
120 137 0
104 120 0
108 125 0
106 120 0
101 117 0
105 120 0
90 104 0
99 115 0
108 124 0
103 119 0
93 109 0
111 126 0
108 123 0
103 119 0
98 113 0
88 103 0
100 116 0
105 119 0
113 128 0
100 113 0
111 129 0
103 117 0
110 126 0
106 119 0
115 129 0
97 113 0
114 130 0
104 119 0
103 114 0
105 118 0
112 128 0
119 133 0
108 124 0
110 125 0
109 124 0
116 132 0
115 127 0
130 144 0
125 141 0
119 133 0
111 125 0
118 130 0
115 127 0
114 128 0
121 135 0
120 134 0
123 139 0
114 126 0
125 140 0
121 136 0
121 133 0
123 135 0
117 129 0
124 138 0
121 132 0
116 129 0
125 138 0
120 133 0
121 135 0
124 135 0
126 139 0
130 143 0
122 131 0
113 125 0
134 147 0
129 141 0
119 130 0
131 144 0
129 144 0
134 148 0
120 132 0
130 142 0
135 151 0
137 149 0
138 152 0
139 152 0
128 138 0
132 143 0
134 146 0
126 137 0
134 146 0
130 138 0
134 144 0
133 146 0
135 146 0
131 141 0
141 154 0
140 149 0
136 146 0
136 144 0
134 147 0
137 148 0
132 138 0
140 152 0
146 156 0
132 137 0
135 141 0
135 145 0
130 136 0
128 134 0
126 133 0
139 146 0
136 141 0
138 144 0
138 148 0
138 146 0
135 139 0
135 141 0
137 144 0
132 137 0
133 140 0
139 145 0
128 129 0
133 139 0
138 142 0
133 136 0
134 133 0
132 130 0
127 129 0
134 135 0
138 143 0
135 138 0
136 136 0
133 135 0
134 133 0
133 133 0
145 148 0
133 131 0
126 131 0
134 138 0
142 143 0
138 139 0
129 129 0
139 141 0
132 130 0
137 136 0
139 137 0
141 140 0
142 141 0
136 133 0
132 128 0
138 135 0
140 138 0
137 134 0
130 124 0
138 137 0
130 127 0
140 138 0
137 132 0
135 133 0
135 129 0
139 137 0
135 130 0
132 130 0
137 135 0
137 129 0
137 135 0
138 136 0
135 133 0
138 134 0
136 135 0
136 134 0
138 135 0
130 126 0
145 147 0
138 135 0
148 148 0
141 140 0
139 138 0
138 135 0
140 138 0
142 139 0
142 143 0
142 142 0
147 149 0
145 144 0
142 144 0
141 140 0
149 155 0
147 151 0
141 139 0
143 143 0
146 145 0
152 156 0
147 148 0
146 148 0
153 157 0
142 144 0
147 148 0
149 151 0
147 149 0
150 154 0
153 161 0
141 141 0
142 145 0
145 148 0
146 150 0
150 157 0
163 172 0
152 159 0
154 159 0
154 162 0
154 173 0
154 173 0
152 170 0
151 169 0
149 167 0
147 164 0
148 167 0
147 165 0
152 171 0
154 173 0
150 169 0
145 164 0
150 168 0
149 166 0
149 167 0
147 165 0
144 162 0
143 160 0
148 166 0
149 167 0
140 157 0
145 162 0
150 167 0
142 158 0
135 151 0
145 162 0
144 162 0
136 152 0
145 163 0
143 160 0
142 160 0
139 155 0
142 159 0
138 155 0
143 160 0
136 152 0
143 160 0
140 156 0
138 155 0
145 163 0
138 155 0
140 156 0
145 162 0
144 160 0
143 160 0
141 158 0
140 156 0
138 155 0
134 151 0
135 151 0
138 155 0
137 154 0
137 153 0
131 147 0
143 160 0
145 162 0
139 157 0
134 151 0
137 153 0
132 147 0
136 152 0
140 156 0
137 154 0
138 154 0
136 154 0
134 150 0
138 155 0
136 153 0
134 151 0
136 152 0
127 143 0
141 158 0
130 147 0
147 165 0
133 149 0
138 156 0
142 160 0
130 148 0
135 152 0
136 154 0
138 155 0
139 157 0
128 144 0
132 149 0
143 161 0
139 157 0
138 156 0
136 154 0
140 158 0
137 155 0
131 149 0
133 152 0
139 157 0
127 144 0
128 147 0
133 150 0
130 147 0
143 162 0
138 157 0
132 150 0
129 147 0
132 151 0
136 155 0
125 144 0
141 159 0
129 148 0
135 154 0
133 152 0
140 159 0
130 148 0
130 149 0
132 150 0
138 158 0
134 154 0
144 163 0
128 147 0
134 153 0
137 157 0
136 155 0
130 148 0
135 155 0
132 150 0
136 156 0
133 152 0
130 149 0
126 146 0
138 158 0
133 153 0
141 161 0
129 148 0
129 149 0
134 154 0
127 146 0
133 153 0
132 151 0
136 155 0
118 137 0
132 151 0
122 141 0
132 152 0
132 152 0
128 148 0
123 142 0
133 154 0
124 144 0
125 146 0
130 148 0
138 157 0
122 141 0
119 137 0
119 137 0
125 143 0
135 155 0
124 142 0
124 145 0
126 145 0
115 134 0
118 137 0
120 139 0
123 142 0
120 139 0
127 145 0
118 136 0
113 131 0
114 133 0
120 138 0
121 138 0
125 143 0
121 139 0
116 133 0
105 122 0
103 121 0
103 121 0
112 129 0
113 132 0
111 129 0
101 118 0
113 130 0
121 138 0
118 135 0
106 123 0
106 124 0
106 124 0
110 127 0
107 125 0
111 128 0
107 123 0
99 116 0
104 120 0
109 127 0
101 118 0
100 116 0
117 131 0
112 129 0
101 120 0
110 126 0
105 122 0
107 122 0
113 130 0
111 127 0
101 116 0
106 123 0
107 123 0
104 119 0
89 106 0
110 124 0
89 104 0
107 122 0
106 121 0
91 108 0
113 130 0
114 129 0
107 122 0
111 124 0
105 121 0
115 132 0
112 126 0
114 130 0
115 131 0
105 117 0
110 125 0
108 124 0
108 122 0
122 136 0
117 132 0
105 119 0
112 128 0
110 124 0
105 119 0
111 126 0
113 126 0
108 122 0
110 124 0
107 121 0
119 134 0
116 131 0
100 111 0
112 126 0
102 116 0
122 136 0
101 114 0
122 135 0
109 122 0
115 131 0
119 131 0
115 128 0
111 124 0
121 133 0
128 140 0
132 144 0
129 144 0
122 137 0
131 145 0
120 133 0
129 143 0
124 136 0
118 134 0
123 136 0
128 144 0
127 141 0
127 140 0
117 126 0
125 138 0
134 146 0
133 147 0
131 143 0
136 150 0
125 138 0
138 150 0
130 144 0
133 146 0
132 144 0
127 138 0
124 135 0
138 146 0
137 149 0
138 149 0
134 143 0
127 136 0
126 134 0
130 143 0
136 145 0
135 143 0
129 138 0
131 141 0
133 143 0
131 141 0
135 144 0
131 139 0
135 141 0
139 146 0
127 134 0
129 137 0
132 141 0
135 143 0
145 154 0
137 146 0
126 133 0
127 135 0
137 141 0
138 144 0
137 144 0
136 144 0
138 141 0
135 139 0
134 139 0
131 138 0
138 145 0
140 143 0
135 138 0
143 149 0
133 135 0
141 145 0
135 140 0
135 138 0
137 137 0
131 132 0
135 140 0
135 140 0
133 136 0
136 140 0
131 131 0
132 136 0
125 124 0
138 140 0
131 132 0
141 144 0
137 141 0
137 135 0
134 134 0
140 141 0
132 128 0
135 139 0
139 140 0
143 143 0
135 135 0
137 139 0
140 139 0
129 130 0
142 143 0
136 135 0
141 140 0
139 138 0
143 148 0
141 142 0
134 133 0
135 130 0
139 137 0
135 128 0
142 144 0
135 133 0
139 136 0
145 147 0
133 126 0
139 138 0
139 139 0
151 155 0
139 137 0
147 146 0
140 139 0
146 150 0
141 138 0
143 144 0
137 134 0
146 148 0
138 137 0
135 133 0
145 146 0
142 143 0
139 140 0
142 141 0
143 145 0
152 157 0
145 147 0
144 147 0
145 144 0
149 150 0
146 148 0
143 142 0
151 156 0
145 147 0
141 142 0
150 153 0
150 157 0
146 151 0
143 140 0
145 148 0
152 156 0
146 151 0
153 164 0
149 151 0
151 157 0
147 148 0
145 149 0
156 165 0
148 154 0
148 154 0
152 159 0
150 154 0
152 160 0
149 168 0
155 173 0
153 171 0
152 171 0
151 169 0
150 168 0
153 172 0
153 172 0
157 176 0
147 165 0
149 168 0
151 169 0
142 159 0
148 167 0
150 167 0
147 165 0
148 166 0
150 169 0
135 152 0
145 163 0
142 159 0
150 168 0
150 168 0
147 166 0
136 152 0
142 159 0
151 169 0
146 163 0
138 154 0
145 162 0
143 160 0
141 159 0
141 158 0
141 157 0
139 156 0
150 168 0
141 158 0
140 156 0
136 152 0
143 160 0
144 162 0
142 159 0
138 155 0
138 156 0
139 156 0
138 155 0
136 153 0
142 159 0
146 164 0
145 162 0
137 153 0
135 152 0
141 158 0
136 153 0
143 161 0
142 159 0
136 154 0
140 156 0
132 148 0
133 149 0
138 155 0
136 153 0
134 151 0
142 159 0
134 152 0
140 157 0
136 152 0
140 157 0
141 159 0
142 160 0
130 147 0
135 152 0
138 155 0
136 154 0
142 161 0
138 155 0
140 158 0
129 147 0
128 145 0
139 158 0
139 156 0
128 146 0
140 157 0
137 155 0
138 157 0
133 151 0
138 156 0
137 157 0
136 154 0
139 158 0
133 151 0
131 147 0
133 151 0
123 142 0
131 150 0
141 159 0
140 157 0
136 156 0
133 152 0
136 154 0
137 156 0
135 154 0
139 158 0
134 153 0
137 157 0
133 152 0
132 150 0
139 158 0
141 160 0
132 151 0
136 155 0
131 150 0
125 143 0
139 158 0
136 155 0
126 144 0
130 149 0
133 152 0
134 153 0
137 157 0
131 149 0
137 157 0
126 144 0
127 145 0
134 154 0
141 160 0
129 147 0
127 147 0
133 152 0
139 158 0
139 158 0
132 151 0
132 152 0
131 149 0
126 145 0
126 145 0
128 146 0
126 146 0
123 142 0
126 146 0
137 157 0
126 146 0
125 145 0
128 147 0
137 156 0
126 144 0
124 143 0
129 148 0
115 134 0
129 148 0
119 138 0
117 137 0
119 139 0
127 146 0
115 134 0
115 135 0
120 138 0
120 139 0
123 142 0
116 134 0
121 138 0
112 130 0
119 136 0
126 144 0
112 130 0
126 145 0
108 126 0
125 145 0
102 119 0
114 133 0
119 139 0
107 124 0
118 134 0
118 136 0
109 126 0
119 137 0
117 135 0
111 128 0
113 131 0
116 132 0
108 125 0
111 128 0
122 140 0
118 136 0
115 131 0
121 139 0
108 125 0
118 135 0
101 119 0
107 123 0
96 110 0
104 122 0
112 130 0
101 118 0
103 122 0
106 121 0
108 123 0
99 116 0
113 130 0
106 120 0
103 119 0
108 125 0
100 116 0
107 123 0
108 125 0
95 108 0
113 128 0
106 121 0
119 137 0
111 128 0
107 124 0
111 129 0
113 129 0
110 124 0
105 120 0
100 115 0
120 136 0
110 126 0
113 129 0
98 112 0
116 130 0
120 135 0
115 130 0
110 125 0
122 140 0
111 126 0
109 122 0
113 128 0
97 110 0
109 124 0
104 120 0
117 132 0
118 132 0
117 132 0
125 139 0
116 131 0
109 125 0
118 132 0
114 129 0
123 138 0
133 149 0
128 142 0
128 143 0
124 140 0
110 125 0
119 133 0
123 138 0
126 140 0
138 156 0
127 140 0
129 140 0
124 135 0
130 144 0
122 138 0
125 139 0
125 140 0
129 145 0
134 147 0
130 142 0
143 158 0
129 144 0
129 144 0
119 132 0
134 145 0
132 146 0
138 151 0
131 144 0
128 138 0
129 141 0
135 148 0
128 141 0
132 144 0
134 143 0
132 141 0
132 145 0
129 140 0
139 151 0
134 147 0
142 157 0
124 135 0
139 152 0
129 140 0
139 148 0
138 150 0
124 131 0
134 143 0
136 148 0
129 136 0
129 138 0
135 146 0
143 155 0
131 140 0
134 144 0
144 154 0
142 155 0
132 139 0
144 153 0
130 139 0
131 138 0
143 152 0
138 147 0
138 145 0
129 133 0
135 143 0
133 142 0
147 157 0
135 143 0
142 150 0
144 149 0
138 142 0
135 140 0
134 141 0
144 151 0
140 146 0
127 131 0
134 139 0
144 151 0
136 142 0
141 150 0
143 147 0
141 146 0
138 145 0
141 146 0
133 134 0
139 142 0
152 159 0
124 126 0
138 140 0
136 138 0
135 136 0
136 138 0
136 140 0
131 127 0
146 149 0
139 138 0
131 132 0
138 138 0
133 132 0
137 136 0
137 136 0
134 132 0
134 134 0
146 148 0
137 138 0
130 128 0
142 143 0
137 131 0
141 142 0
139 137 0
136 132 0
138 136 0
136 130 0
142 140 0
141 139 0
141 139 0
146 149 0
141 139 0
141 140 0
145 147 0
137 137 0
141 140 0
140 138 0
136 134 0
140 143 0
149 153 0
144 141 0
142 143 0
135 133 0
144 143 0
145 145 0
150 151 0
140 140 0
140 137 0
145 146 0
137 138 0
145 146 0
146 148 0
143 145 0
150 151 0
145 146 0
144 148 0
144 144 0
151 155 0
146 151 0
147 149 0
145 148 0
145 149 0
146 148 0
143 145 0
147 151 0
145 149 0
151 157 0
152 157 0
150 153 0
150 157 0
152 158 0
152 156 0
155 163 0
151 156 0
150 154 0
153 172 0
156 175 0
148 167 0
150 169 0
151 170 0
150 169 0
148 165 0
141 158 0
149 167 0
154 172 0
151 169 0
143 162 0
147 166 0
144 161 0
147 164 0
141 159 0
152 171 0
144 162 0
147 164 0
149 168 0
148 166 0
148 165 0
139 155 0
141 159 0
148 166 0
141 158 0
140 158 0
140 157 0
147 165 0
142 159 0
146 163 0
140 156 0
139 157 0
143 161 0
147 164 0
139 156 0
146 163 0
143 160 0
141 159 0
144 162 0
130 147 0
139 156 0
139 155 0
141 159 0
149 166 0
141 159 0
138 155 0
138 155 0
143 160 0
136 153 0
144 161 0
148 166 0
132 148 0
141 159 0
138 156 0
142 159 0
137 154 0
138 155 0
135 151 0
128 145 0
132 148 0
136 154 0
140 157 0
149 167 0
134 151 0
132 149 0
135 151 0
133 152 0
143 161 0
141 159 0
131 148 0
139 157 0
143 161 0
130 148 0
136 153 0
148 166 0
140 158 0
140 158 0
137 155 0
144 162 0
131 148 0
140 159 0
130 146 0
136 154 0
136 153 0
142 161 0
137 155 0
137 155 0
137 154 0
142 160 0
134 152 0
138 156 0
137 156 0
131 149 0
139 158 0
137 156 0
140 159 0
139 157 0
138 157 0
145 165 0
134 154 0
142 159 0
143 161 0
136 155 0
133 151 0
134 154 0
139 159 0
137 157 0
129 147 0
139 158 0
136 156 0
135 155 0
125 145 0
137 156 0
136 155 0
130 150 0
140 159 0
135 154 0
132 151 0
125 145 0
130 149 0
143 163 0
138 158 0
141 161 0
131 151 0
136 156 0
129 148 0
141 160 0
128 148 0
135 153 0
135 155 0
142 162 0
139 158 0
136 154 0
131 150 0
126 146 0
129 148 0
123 143 0
117 135 0
129 148 0
128 148 0
134 153 0
134 153 0
126 145 0
129 148 0
120 139 0
118 135 0
119 137 0
125 144 0
130 149 0
113 131 0
128 147 0
117 136 0
126 145 0
127 146 0
122 140 0
124 142 0
118 137 0
116 136 0
115 134 0
126 144 0
128 148 0
122 140 0
108 126 0
118 136 0
114 132 0
107 124 0
112 131 0
117 136 0
118 137 0
120 137 0
116 135 0
115 135 0
109 128 0
117 135 0
108 127 0
118 135 0
115 134 0
116 135 0
116 134 0
113 132 0
111 129 0
116 135 0
112 131 0
116 134 0
107 125 0
116 134 0
111 129 0
112 126 0
113 130 0
120 136 0
108 125 0
120 137 0
103 118 0
122 139 0
104 120 0
106 121 0
99 114 0
114 133 0
112 128 0
109 125 0
108 125 0
99 115 0
109 124 0
102 119 0
97 113 0
106 123 0
113 130 0
109 125 0
110 127 0
109 125 0
113 130 0
114 129 0
104 120 0
117 134 0
99 113 0
122 140 0
121 137 0
108 126 0
115 133 0
105 121 0
114 128 0
118 134 0
116 131 0
110 125 0
120 134 0
113 130 0
119 134 0
126 144 0
115 131 0
113 127 0
103 117 0
107 122 0
117 133 0
113 128 0
123 137 0
121 136 0
116 133 0
119 136 0
119 129 0
112 127 0
120 134 0
116 129 0
126 140 0
122 137 0
125 140 0
117 132 0
116 128 0
117 131 0
122 136 0
111 124 0
115 128 0
124 138 0
136 150 0
126 141 0
129 142 0
118 131 0
125 141 0
125 139 0
132 142 0
124 139 0
134 148 0
127 141 0
130 143 0
126 135 0
132 149 0
132 145 0
126 137 0
129 143 0
118 133 0
123 136 0
136 149 0
135 148 0
129 138 0
131 143 0
129 141 0
134 148 0
138 150 0
138 150 0
135 151 0
129 139 0
138 151 0
132 143 0
132 145 0
131 144 0
138 146 0
136 147 0
131 143 0
141 152 0
129 141 0
136 146 0
127 130 0
136 146 0
138 151 0
133 144 0
132 143 0
137 146 0
137 144 0
134 142 0
136 144 0
134 142 0
136 145 0
135 143 0
140 151 0
134 141 0
142 150 0
141 149 0
140 144 0
131 137 0
132 133 0
132 138 0
133 140 0
146 157 0
135 141 0
138 145 0
140 145 0
132 138 0
145 152 0
137 144 0
139 148 0
132 136 0
138 145 0
141 146 0
143 148 0
135 141 0
140 147 0
139 145 0
141 143 0
140 142 0
141 144 0
135 135 0
135 135 0
137 139 0
137 136 0
137 139 0
132 133 0
134 132 0
139 141 0
141 143 0
145 149 0
136 140 0
140 141 0
141 143 0
141 144 0
139 139 0
140 142 0
144 144 0
139 138 0
143 142 0
137 134 0
147 151 0
145 148 0
134 136 0
145 146 0
136 136 0
136 135 0
136 134 0
143 146 0
135 132 0
143 143 0
142 139 0
142 141 0
137 134 0
145 145 0
138 137 0
142 145 0
137 138 0
145 145 0
144 146 0
138 136 0
144 144 0
135 132 0
148 154 0
138 140 0
146 148 0
145 147 0
143 143 0
143 140 0
148 151 0
146 149 0
148 150 0
144 145 0
152 153 0
149 153 0
144 148 0
147 148 0
148 151 0
149 155 0
141 144 0
152 157 0
148 151 0
155 162 0
154 159 0
151 160 0
155 163 0
149 154 0
151 156 0
149 154 0
153 158 0
152 162 0
153 173 0
150 168 0
150 168 0
148 165 0
149 167 0
145 164 0
155 174 0
145 163 0
149 167 0
150 169 0
157 175 0
149 167 0
150 168 0
141 158 0
145 163 0
144 163 0
147 165 0
145 163 0
144 162 0
147 164 0
143 160 0
146 163 0
142 160 0
149 167 0
153 171 0
142 159 0
138 156 0
143 161 0
143 160 0
139 156 0
144 162 0
139 155 0
138 155 0
139 156 0
138 156 0
138 155 0
143 159 0
139 156 0
136 153 0
140 157 0
144 162 0
134 151 0
135 152 0
147 164 0
145 163 0
148 165 0
143 159 0
140 158 0
142 159 0
139 157 0
138 155 0
133 149 0
140 158 0
140 157 0
138 154 0
134 151 0
136 153 0
142 160 0
137 154 0
136 153 0
141 159 0
138 155 0
142 159 0
139 156 0
140 157 0
139 156 0
147 164 0
135 153 0
142 160 0
139 156 0
139 157 0
136 155 0
141 159 0
144 163 0
146 165 0
137 155 0
144 161 0
138 156 0
138 155 0
139 157 0
144 162 0
144 163 0
134 152 0
143 162 0
148 167 0
143 162 0
130 147 0
141 160 0
142 162 0
138 156 0
137 156 0
140 159 0
138 156 0
138 157 0
144 163 0
130 148 0
132 151 0
138 158 0
134 154 0
131 149 0
128 145 0
130 149 0
133 152 0
133 152 0
133 153 0
135 155 0
137 157 0
136 155 0
142 161 0
146 166 0
142 161 0
133 152 0
134 154 0
142 163 0
140 159 0
139 157 0
137 155 0
135 154 0
135 155 0
131 150 0
133 153 0
134 155 0
138 159 0
133 154 0
132 151 0
130 148 0
126 146 0
136 155 0
135 153 0
130 150 0
125 145 0
130 150 0
125 145 0
124 143 0
131 150 0
127 146 0
123 142 0
137 157 0
125 144 0
126 145 0
133 153 0
134 154 0
128 147 0
130 149 0
132 152 0
136 156 0
121 139 0
126 146 0
119 139 0
122 141 0
124 143 0
127 146 0
126 145 0
125 143 0
137 157 0
120 140 0
128 148 0
122 141 0
131 150 0
126 146 0
118 137 0
118 137 0
109 128 0
125 144 0
129 148 0
113 131 0
128 147 0
127 145 0
126 145 0
117 135 0
122 140 0
110 128 0
109 128 0
106 124 0
117 136 0
118 137 0
120 137 0
117 136 0
113 131 0
118 136 0
110 129 0
111 129 0
113 130 0
98 114 0
112 129 0
110 127 0
103 121 0
118 136 0
106 123 0
113 130 0
114 133 0
116 135 0
118 135 0
105 122 0
113 131 0
120 137 0
123 140 0
115 132 0
98 113 0
103 120 0
110 127 0
111 127 0
114 131 0
122 139 0
120 137 0
112 130 0
112 130 0
99 116 0
107 123 0
118 133 0
102 119 0
98 111 0
108 126 0
111 128 0
108 124 0
112 130 0
120 136 0
125 140 0
120 135 0
120 137 0
101 114 0
105 122 0
115 130 0
110 127 0
113 128 0
114 131 0
112 126 0
105 120 0
120 135 0
109 124 0
122 135 0
121 134 0
124 138 0
107 118 0
124 139 0
130 145 0
127 144 0
111 127 0
116 128 0
124 138 0
117 132 0
123 139 0
125 139 0
113 126 0
116 133 0
118 129 0
124 138 0
122 136 0
125 138 0
127 143 0
131 147 0
124 138 0
123 137 0
120 133 0
129 143 0
121 132 0
119 134 0
125 139 0
130 142 0
128 143 0
133 149 0
129 143 0
136 153 0
131 145 0
128 141 0
136 148 0
128 139 0
134 148 0
142 155 0
131 142 0
133 146 0
133 147 0
140 154 0
139 154 0
133 145 0
133 147 0
135 149 0
140 154 0
124 134 0
143 155 0
138 150 0
135 145 0
138 153 0
141 151 0
136 147 0
135 146 0
138 148 0
139 149 0
137 147 0
138 151 0
135 145 0
134 145 0
140 153 0
138 146 0
149 163 0
127 137 0
137 145 0
132 140 0
143 155 0
143 155 0
136 142 0
140 148 0
135 141 0
146 159 0
139 149 0
141 152 0
141 148 0
141 152 0
140 149 0
136 145 0
134 141 0
126 133 0
148 157 0
139 149 0
142 146 0
140 147 0
139 144 0
140 149 0
135 137 0
142 147 0
140 144 0
140 146 0
136 138 0
134 137 0
139 142 0
138 145 0
142 142 0
138 140 0
146 149 0
139 143 0
138 140 0
136 143 0
147 150 0
142 146 0
142 144 0
135 137 0
136 136 0
137 136 0
145 148 0
131 130 0
138 137 0
141 145 0
137 136 0
136 136 0
143 144 0
136 139 0
143 147 0
142 145 0
134 132 0
137 140 0
141 143 0
139 142 0
141 142 0
137 136 0
139 139 0
142 145 0
135 134 0
140 141 0
144 144 0
145 144 0
141 140 0
138 136 0
138 138 0
146 147 0
145 146 0
142 143 0
147 150 0
142 143 0
145 145 0
142 146 0
139 140 0
143 137 0
136 135 0
144 144 0
139 137 0
134 133 0
144 148 0
138 136 0
144 144 0
146 150 0
148 152 0
148 152 0
146 148 0
151 155 0
145 146 0
148 153 0
149 155 0
152 156 0
144 148 0
148 148 0
144 145 0
145 150 0
147 150 0
149 154 0
151 156 0
150 152 0
151 159 0
152 157 0
147 154 0
148 152 0
149 167 0
154 172 0
146 164 0
153 172 0
145 163 0
153 171 0
145 164 0
150 168 0
151 169 0
143 161 0
145 162 0
150 168 0
152 171 0
142 159 0
148 166 0
152 170 0
143 160 0
149 167 0
148 166 0
149 167 0
144 162 0
147 165 0
139 157 0
143 160 0
144 161 0
151 168 0
149 165 0
143 160 0
145 163 0
145 162 0
143 159 0
142 160 0
146 163 0
138 154 0
142 160 0
144 161 0
140 157 0
140 157 0
139 155 0
141 158 0
142 159 0
141 158 0
137 154 0
142 159 0
140 158 0
141 159 0
143 161 0
143 160 0
135 153 0
137 155 0
132 150 0
140 157 0
139 157 0
144 162 0
135 152 0
148 166 0
140 158 0
141 158 0
137 155 0
135 152 0
141 159 0
143 161 0
144 162 0
144 162 0
139 156 0
138 155 0
139 157 0
140 158 0
147 165 0
137 155 0
149 168 0
140 157 0
132 150 0
136 154 0
140 159 0
143 161 0
138 156 0
143 162 0
141 160 0
137 155 0
140 159 0
135 153 0
128 146 0
132 150 0
138 156 0
137 156 0
136 156 0
141 160 0
141 159 0
144 163 0
142 161 0
137 156 0
142 160 0
139 159 0
138 157 0
135 154 0
140 160 0
132 150 0
132 152 0
131 150 0
132 151 0
136 155 0
134 153 0
137 155 0
144 164 0
132 150 0
130 149 0
131 151 0
142 162 0
131 150 0
143 164 0
140 159 0
136 155 0
136 155 0
138 159 0
132 151 0
138 158 0
132 152 0
134 154 0
131 150 0
134 153 0
126 145 0
137 156 0
127 146 0
137 157 0
128 147 0
136 156 0
136 156 0
136 156 0
123 142 0
132 152 0
129 148 0
127 147 0
136 156 0
125 143 0
128 147 0
123 142 0
122 142 0
126 145 0
132 151 0
131 151 0
132 151 0
122 141 0
129 147 0
140 160 0
141 161 0
127 145 0
125 145 0
130 149 0
119 138 0
126 146 0
128 147 0
120 140 0
124 144 0
129 148 0
126 145 0
124 143 0
135 154 0
122 141 0
112 129 0
118 138 0
125 144 0
120 139 0
115 134 0
107 126 0
128 147 0
123 142 0
113 131 0
120 139 0
123 142 0
118 138 0
120 139 0
119 138 0
124 143 0
124 142 0
120 138 0
124 142 0
115 134 0
108 128 0
122 140 0
115 134 0
113 130 0
118 136 0
116 134 0
115 132 0
113 131 0
109 126 0
130 149 0
102 118 0
109 128 0
111 129 0
120 137 0
113 131 0
117 133 0
108 124 0
111 128 0
101 118 0
117 134 0
111 129 0
110 128 0
108 125 0
106 125 0
106 123 0
113 129 0
106 124 0
109 126 0
110 127 0
124 141 0
108 124 0
107 124 0
117 135 0
118 135 0
116 133 0
127 143 0
110 126 0
123 140 0
122 139 0
109 126 0
114 132 0
122 138 0
115 134 0
110 127 0
111 128 0
105 120 0
115 130 0
124 139 0
120 136 0
112 128 0
119 135 0
122 138 0
130 148 0
122 139 0
116 130 0
120 134 0
118 134 0
116 132 0
121 136 0
121 135 0
122 136 0
129 143 0
124 139 0
120 137 0
113 127 0
117 133 0
126 140 0
128 144 0
133 149 0
129 144 0
121 137 0
126 139 0
129 146 0
125 143 0
123 137 0
134 151 0
117 132 0
130 143 0
123 138 0
126 140 0
126 139 0
124 138 0
132 146 0
137 151 0
131 148 0
119 133 0
111 124 0
120 132 0
137 151 0
127 139 0
138 152 0
132 147 0
137 150 0
131 145 0
137 149 0
127 135 0
125 135 0
136 153 0
135 150 0
141 154 0
131 145 0
138 155 0
133 143 0
140 155 0
137 152 0
133 144 0
136 147 0
135 143 0
139 154 0
135 145 0
133 146 0
131 140 0
143 159 0
139 148 0
139 150 0
140 149 0
140 153 0
146 157 0
136 147 0
137 147 0
140 151 0
130 138 0
131 139 0
138 148 0
135 148 0
144 154 0
135 143 0
141 149 0
134 139 0
139 146 0
127 132 0
139 148 0
143 153 0
136 142 0
139 149 0
135 138 0
141 149 0
134 142 0
143 153 0
136 145 0
136 142 0
134 140 0
138 143 0
140 146 0
141 147 0
140 148 0
139 142 0
134 138 0
145 150 0
140 145 0
140 143 0
131 136 0
144 152 0
135 137 0
137 138 0
143 149 0
136 139 0
142 145 0
139 141 0
145 152 0
135 134 0
142 146 0
144 149 0
136 136 0
143 143 0
144 146 0
141 144 0
136 136 0
141 144 0
141 145 0
143 148 0
144 144 0
136 134 0
137 140 0
136 134 0
142 140 0
147 151 0
141 143 0
139 142 0
135 132 0
140 141 0
141 141 0
146 148 0
145 147 0
144 146 0
140 143 0
139 139 0
141 139 0
145 145 0
139 138 0
138 134 0
142 143 0
145 146 0
145 145 0
144 147 0
145 150 0
140 138 0
140 139 0
145 150 0
152 158 0
144 144 0
148 154 0
142 142 0
147 154 0
145 145 0
147 152 0
146 152 0
142 144 0
147 151 0
150 153 0
149 155 0
146 148 0
156 163 0
147 152 0
152 159 0
147 150 0
148 152 0
149 154 0
156 163 0
147 152 0
152 156 0
151 158 0
154 172 0
151 170 0
148 166 0
149 167 0
155 174 0
150 168 0
147 166 0
148 167 0
147 165 0
145 162 0
145 163 0
154 172 0
151 170 0
148 167 0
149 167 0
141 160 0
141 159 0
143 160 0
139 157 0
140 157 0
145 162 0
142 160 0
143 161 0
145 162 0
138 156 0
147 164 0
138 155 0
144 161 0
142 159 0
149 168 0
142 159 0
142 159 0
142 160 0
141 158 0
143 161 0
148 166 0
138 155 0
132 149 0
141 158 0
148 166 0
135 152 0
140 158 0
143 161 0
141 159 0
144 163 0
146 163 0
139 157 0
145 162 0
137 154 0
141 160 0
138 157 0
136 154 0
140 157 0
138 156 0
138 155 0
134 151 0
141 159 0
132 149 0
145 163 0
142 160 0
129 146 0
132 150 0
143 161 0
142 161 0
129 146 0
138 156 0
143 162 0
138 154 0
145 163 0
144 163 0
142 161 0
135 152 0
139 156 0
140 159 0
143 161 0
135 154 0
133 151 0
154 173 0
135 153 0
147 166 0
138 158 0
135 153 0
139 158 0
131 149 0
138 157 0
141 160 0
139 160 0
142 161 0
146 166 0
136 154 0
141 161 0
142 161 0
142 161 0
136 155 0
144 163 0
135 153 0
135 153 0
138 159 0
134 152 0
142 162 0
146 166 0
145 166 0
130 151 0
144 164 0
142 161 0
136 155 0
140 160 0
144 164 0
139 159 0
133 153 0
141 160 0
139 158 0
135 154 0
141 162 0
141 161 0
141 162 0
138 158 0
142 163 0
138 158 0
139 158 0
130 149 0
127 146 0
130 150 0
141 160 0
141 162 0
133 153 0
129 148 0
138 158 0
136 157 0
131 151 0
136 156 0
126 147 0
137 157 0
130 149 0
127 147 0
128 146 0
133 152 0
140 159 0
130 150 0
137 157 0
122 141 0
137 156 0
120 139 0
134 154 0
133 152 0
121 140 0
135 156 0
125 143 0
133 152 0
144 163 0
120 139 0
123 143 0
120 138 0
124 144 0
117 135 0
124 143 0
117 137 0
122 141 0
133 153 0
130 148 0
128 147 0
116 134 0
118 137 0
121 140 0
117 135 0
132 152 0
123 143 0
113 132 0
116 135 0
127 145 0
123 141 0
114 132 0
113 131 0
117 136 0
123 141 0
117 136 0
117 136 0
113 132 0
120 139 0
112 130 0
121 139 0
115 132 0
113 132 0
117 133 0
113 132 0
113 130 0
131 150 0
111 129 0
122 140 0
121 138 0
117 133 0
117 134 0
111 129 0
121 138 0
104 124 0
109 128 0
122 138 0
123 142 0
112 130 0
106 124 0
115 133 0
116 135 0
113 129 0
117 132 0
119 136 0
127 145 0
114 132 0
111 127 0
119 135 0
119 137 0
116 133 0
117 133 0
120 138 0
111 126 0
110 127 0
116 133 0
116 132 0
114 128 0
115 131 0
113 130 0
123 141 0
111 128 0
109 126 0
113 130 0
124 141 0
116 131 0
125 141 0
122 137 0
127 143 0
119 135 0
121 133 0
114 131 0
118 134 0
115 129 0
117 132 0
115 131 0
123 140 0
117 134 0
132 146 0
126 142 0
127 143 0
125 140 0
129 147 0
118 133 0
123 137 0
134 152 0
122 136 0
124 136 0
120 130 0
131 146 0
121 133 0
131 145 0
130 147 0
136 152 0
138 153 0
122 137 0
120 134 0
135 151 0
126 140 0
125 141 0
126 140 0
132 146 0
134 148 0
135 150 0
130 145 0
133 146 0
135 150 0
136 151 0
137 154 0
125 139 0
136 150 0
133 146 0
132 146 0
143 160 0
135 149 0
139 152 0
129 141 0
135 146 0
137 149 0
137 149 0
139 154 0
136 148 0
131 143 0
139 152 0
131 144 0
136 148 0
134 145 0
132 144 0
140 152 0
135 147 0
131 143 0
140 156 0
135 147 0
135 146 0
133 143 0
136 147 0
151 165 0
141 155 0
136 146 0
137 147 0
137 145 0
138 147 0
138 148 0
133 140 0
144 155 0
134 140 0
139 146 0
143 153 0
133 142 0
139 143 0
143 152 0
136 143 0
139 149 0
138 146 0
134 140 0
146 154 0
147 154 0
137 145 0
138 146 0
142 151 0
142 150 0
140 148 0
137 142 0
136 140 0
140 142 0
146 154 0
136 141 0
138 143 0
139 145 0
139 145 0
144 151 0
143 150 0
146 152 0
137 143 0
137 140 0
142 145 0
136 142 0
142 149 0
137 141 0
149 157 0
146 150 0
145 146 0
136 140 0
140 140 0
138 136 0
141 142 0
137 136 0
143 145 0
141 142 0
145 151 0
144 147 0
146 150 0
143 144 0
140 142 0
141 146 0
143 145 0
142 144 0
135 132 0
144 148 0
140 142 0
144 146 0
142 145 0
151 156 0
149 153 0
144 147 0
144 147 0
143 140 0
137 139 0
141 141 0
146 151 0
151 154 0
143 146 0
144 145 0
145 148 0
141 140 0
148 151 0
148 153 0
150 151 0
144 146 0
145 148 0
143 144 0
143 143 0
143 149 0
150 158 0
148 151 0
146 146 0
152 156 0
144 148 0
145 147 0
147 151 0
147 148 0
150 156 0
147 149 0
147 151 0
146 150 0
146 150 0
146 148 0
151 158 0
153 158 0
153 159 0
156 176 0
151 169 0
155 174 0
152 170 0
145 163 0
152 170 0
148 167 0
151 169 0
150 168 0
148 167 0
143 161 0
139 156 0
146 164 0
151 170 0
146 165 0
150 168 0
154 173 0
153 171 0
149 167 0
133 149 0
138 155 0
143 161 0
143 160 0
147 165 0
145 163 0
141 159 0
144 161 0
143 161 0
148 167 0
146 165 0
142 159 0
144 161 0
146 165 0
145 163 0
148 166 0
139 156 0
147 164 0
140 158 0
139 156 0
144 162 0
143 160 0
147 165 0
147 166 0
144 161 0
140 158 0
140 158 0
144 162 0
142 160 0
138 154 0
144 162 0
149 166 0
139 157 0
144 163 0
134 152 0
136 152 0
142 160 0
144 161 0
142 160 0
141 158 0
139 156 0
141 159 0
143 161 0
143 161 0
146 165 0
135 154 0
150 168 0
139 157 0
142 160 0
140 158 0
146 163 0
149 168 0
145 164 0
139 157 0
144 163 0
133 152 0
145 164 0
134 153 0
146 165 0
136 153 0
143 162 0
140 159 0
137 156 0
147 166 0
136 154 0
147 166 0
144 164 0
143 161 0
135 154 0
148 167 0
142 161 0
137 156 0
135 154 0
139 157 0
147 167 0
129 148 0
124 142 0
131 150 0
134 154 0
146 166 0
143 162 0
138 157 0
130 149 0
147 165 0
131 151 0
142 162 0
134 153 0
141 159 0
134 153 0
136 155 0
132 151 0
139 158 0
141 162 0
145 165 0
138 160 0
140 160 0
136 155 0
146 167 0
127 146 0
134 153 0
137 157 0
133 151 0
130 149 0
141 160 0
130 150 0
137 157 0
136 155 0
131 150 0
138 158 0
134 154 0
131 150 0
129 149 0
138 158 0
135 154 0
127 148 0
138 158 0
132 151 0
132 152 0
131 150 0
137 158 0
127 146 0
123 143 0
135 156 0
127 147 0
133 154 0
123 142 0
121 141 0
128 147 0
123 142 0
122 141 0
128 148 0
127 145 0
131 151 0
135 156 0
123 142 0
125 145 0
123 142 0
131 150 0
123 142 0
124 142 0
132 151 0
115 134 0
129 148 0
124 141 0
119 138 0
119 138 0
122 141 0
116 134 0
123 143 0
123 142 0
119 136 0
108 127 0
114 133 0
120 138 0
123 142 0
125 143 0
120 138 0
108 125 0
121 140 0
123 143 0
119 137 0
120 139 0
117 135 0
125 143 0
124 142 0
118 137 0
115 134 0
113 131 0
109 127 0
110 127 0
106 124 0
106 123 0
117 134 0
119 135 0
112 129 0
101 117 0
108 125 0
117 135 0
115 133 0
121 139 0
117 135 0
121 139 0
121 139 0
122 138 0
117 134 0
118 133 0
111 128 0
117 135 0
111 129 0
116 134 0
124 140 0
114 132 0
118 135 0
106 123 0
120 137 0
117 133 0
114 131 0
106 121 0
118 135 0
121 138 0
112 126 0
125 142 0
111 127 0
122 140 0
119 135 0
109 125 0
113 129 0
125 143 0
119 135 0
122 136 0
119 136 0
124 141 0
116 132 0
115 131 0
125 142 0
117 131 0
123 138 0
124 139 0
117 132 0
124 139 0
118 133 0
131 147 0
131 144 0
124 141 0
116 130 0
129 144 0
132 146 0
128 143 0
123 137 0
128 146 0
131 146 0
125 141 0
136 151 0
124 140 0
127 139 0
130 147 0
129 144 0
132 149 0
127 141 0
127 140 0
124 139 0
129 143 0
134 151 0
134 149 0
133 148 0
142 156 0
136 148 0
147 164 0
129 144 0
131 143 0
134 149 0
135 145 0
127 140 0
142 158 0
135 146 0
128 142 0
138 152 0
135 147 0
129 144 0
132 146 0
140 155 0
138 148 0
141 153 0
135 148 0
130 143 0
138 149 0
139 154 0
141 154 0
134 149 0
138 152 0
148 160 0
141 153 0
142 154 0
142 152 0
137 147 0
129 140 0
144 155 0
130 139 0
137 148 0
139 153 0
141 149 0
137 149 0
141 153 0
140 150 0
137 146 0
135 145 0
138 149 0
139 145 0
143 154 0
140 147 0
139 148 0
142 149 0
134 144 0
133 138 0
142 150 0
137 145 0
134 141 0
143 152 0
141 151 0
136 147 0
139 146 0
143 147 0
139 144 0
137 145 0
137 144 0
136 144 0
139 146 0
144 153 0
142 148 0
137 143 0
142 146 0
132 134 0
144 152 0
140 145 0
133 137 0
137 138 0
143 148 0
132 135 0
153 163 0
142 145 0
149 157 0
143 147 0
138 142 0
142 144 0
140 143 0
141 142 0
146 151 0
137 144 0
133 131 0
140 142 0
139 142 0
134 133 0
141 143 0
148 151 0
144 145 0
137 136 0
143 149 0
141 145 0
139 141 0
141 144 0
144 145 0
140 144 0
139 144 0
147 148 0
140 136 0
146 151 0
145 150 0
140 143 0
143 142 0
147 150 0
146 150 0
141 141 0
145 149 0
146 150 0
144 145 0
149 154 0
145 148 0
142 146 0
147 148 0
144 147 0
146 151 0
144 145 0
144 149 0
147 156 0
147 149 0
150 154 0
140 142 0
149 153 0
144 148 0
143 144 0
151 156 0
155 162 0
151 156 0
144 149 0
144 148 0
151 154 0
149 156 0
141 143 0
150 156 0
156 162 0
146 147 0
149 167 0
153 171 0
147 165 0
155 174 0
151 170 0
144 163 0
151 169 0
144 162 0
150 169 0
146 164 0
147 164 0
147 166 0
149 167 0
142 161 0
150 169 0
143 161 0
148 165 0
147 165 0
142 160 0
144 163 0
150 168 0
142 160 0
142 159 0
150 168 0
144 162 0
142 159 0
142 159 0
140 157 0
147 165 0
145 164 0
146 165 0
144 162 0
139 157 0
143 161 0
142 160 0
149 167 0
147 166 0
148 166 0
139 156 0
147 164 0
145 164 0
141 159 0
147 164 0
142 159 0
143 160 0
141 159 0
144 162 0
142 159 0
140 158 0
133 151 0
149 166 0
138 156 0
137 155 0
150 168 0
139 157 0
147 165 0
142 160 0
142 161 0
139 156 0
140 158 0
140 159 0
134 153 0
130 148 0
150 170 0
142 161 0
144 162 0
146 164 0
138 157 0
130 148 0
140 159 0
134 153 0
141 160 0
136 154 0
138 157 0
141 158 0
138 157 0
142 161 0
140 158 0
138 157 0
135 154 0
137 155 0
135 154 0
150 169 0
146 165 0
132 150 0
134 152 0
136 155 0
134 153 0
140 159 0
132 150 0
142 161 0
144 164 0
138 159 0
143 163 0
150 171 0
140 159 0
141 160 0
136 154 0
138 157 0
136 155 0
140 160 0
139 159 0
132 151 0
139 159 0
138 158 0
145 165 0
142 162 0
133 153 0
144 165 0
141 160 0
131 150 0
144 165 0
135 154 0
135 156 0
141 161 0
132 152 0
141 161 0
133 153 0
141 160 0
147 168 0
140 161 0
131 150 0
142 161 0
138 158 0
134 154 0
135 154 0
133 152 0
137 156 0
139 159 0
140 160 0
133 152 0
139 159 0
126 146 0
139 159 0
135 154 0
125 145 0
137 158 0
136 156 0
136 156 0
133 152 0
128 148 0
136 156 0
135 154 0
132 151 0
125 145 0
133 152 0
138 158 0
133 153 0
129 148 0
128 148 0
131 150 0
126 147 0
122 141 0
128 148 0
126 145 0
126 145 0
116 135 0
117 137 0
125 144 0
128 147 0
123 141 0
134 154 0
134 154 0
129 148 0
121 138 0
121 141 0
112 131 0
114 132 0
132 150 0
107 125 0
117 136 0
124 142 0
125 144 0
117 136 0
123 141 0
124 143 0
115 133 0
120 140 0
113 131 0
124 142 0
115 134 0
122 141 0
117 135 0
114 131 0
119 138 0
125 143 0
113 131 0
114 132 0
122 140 0
108 125 0
112 131 0
120 138 0
116 135 0
109 124 0
120 139 0
117 134 0
112 129 0
117 134 0
116 133 0
121 139 0
123 140 0
129 147 0
118 136 0
125 144 0
126 143 0
115 131 0
112 130 0
121 139 0
118 135 0
118 135 0
112 130 0
116 132 0
112 128 0
113 128 0
118 135 0
120 134 0
122 141 0
113 128 0
114 129 0
114 129 0
118 136 0
124 142 0
113 129 0
127 145 0
114 129 0
130 147 0
125 143 0
107 120 0
124 142 0
124 141 0
121 136 0
117 131 0
128 144 0
125 142 0
125 142 0
119 135 0
122 135 0
125 142 0
121 138 0
127 141 0
116 133 0
117 133 0
123 137 0
119 133 0
123 139 0
126 143 0
120 136 0
132 147 0
134 149 0
122 138 0
124 142 0
131 147 0
130 144 0
130 144 0
129 146 0
125 140 0
137 152 0
133 147 0
127 141 0
120 132 0
136 151 0
130 142 0
127 139 0
130 146 0
142 158 0
128 143 0
124 138 0
129 143 0
128 141 0
138 152 0
134 146 0
133 148 0
134 149 0
136 151 0
134 149 0
140 153 0
134 147 0
135 150 0
131 142 0
135 150 0
140 156 0
132 145 0
135 150 0
136 147 0
136 148 0
138 152 0
138 150 0
141 153 0
136 146 0
135 145 0
130 142 0
147 163 0
136 148 0
138 148 0
137 148 0
135 146 0
145 159 0
140 150 0
136 148 0
136 147 0
134 142 0
139 152 0
139 148 0
133 143 0
140 150 0
142 153 0
133 141 0
141 152 0
139 150 0
135 142 0
140 149 0
137 145 0
136 145 0
133 140 0
137 145 0
148 159 0
142 151 0
135 143 0
145 155 0
145 156 0
142 152 0
146 156 0
140 146 0
145 152 0
136 142 0
139 149 0
138 145 0
146 153 0
140 146 0
136 139 0
140 148 0
137 140 0
138 144 0
147 156 0
142 147 0
141 148 0
150 158 0
142 145 0
138 142 0
146 153 0
143 148 0
138 142 0
146 155 0
145 152 0
139 144 0
149 157 0
148 159 0
137 140 0
138 136 0
143 145 0
140 143 0
139 140 0
149 155 0
141 144 0
144 149 0
136 137 0
144 146 0
143 147 0
147 152 0
144 146 0
141 144 0
137 136 0
150 156 0
135 134 0
145 148 0
142 142 0
139 142 0
141 145 0
139 140 0
139 139 0
138 137 0
146 150 0
146 150 0
142 142 0
137 138 0
143 144 0
145 148 0
142 146 0
143 144 0
141 147 0
146 150 0
145 146 0
147 153 0
152 156 0
149 153 0
150 158 0
141 145 0
143 145 0
143 145 0
153 159 0
152 158 0
153 159 0
154 163 0
148 151 0
147 150 0
152 163 0
149 156 0
147 151 0
141 144 0
154 161 0
151 170 0
155 173 0
150 169 0
153 172 0
147 165 0
149 167 0
147 165 0
146 164 0
150 169 0
144 162 0
143 161 0
148 166 0
150 169 0
148 167 0
154 172 0
148 167 0
157 176 0
147 165 0
150 169 0
142 159 0
145 164 0
148 167 0
143 161 0
144 162 0
144 162 0
144 162 0
145 163 0
144 162 0
149 168 0
152 170 0
146 164 0
149 167 0
143 159 0
148 166 0
155 173 0
141 158 0
145 162 0
139 156 0
143 161 0
144 162 0
152 170 0
144 162 0
140 158 0
145 162 0
146 165 0
131 148 0
140 158 0
148 168 0
141 159 0
141 160 0
141 159 0
138 156 0
139 157 0
142 161 0
136 154 0
143 161 0
142 160 0
144 163 0
135 153 0
146 165 0
142 161 0
144 163 0
146 164 0
146 165 0
139 158 0
140 158 0
146 166 0
144 163 0
148 166 0
141 160 0
143 161 0
140 159 0
143 162 0
143 162 0
143 163 0
138 157 0
138 156 0
137 156 0
148 166 0
132 150 0
133 151 0
135 153 0
136 155 0
141 160 0
144 163 0
139 157 0
141 159 0
138 157 0
141 160 0
142 162 0
148 169 0
139 160 0
140 159 0
141 160 0
136 156 0
139 158 0
142 161 0
129 148 0
145 165 0
133 153 0
135 155 0
140 159 0
136 156 0
146 165 0
137 156 0
139 159 0
136 155 0
138 158 0
140 160 0
139 158 0
136 155 0
139 158 0
135 154 0
135 155 0
133 153 0
148 169 0
136 156 0
141 161 0
145 165 0
133 152 0
137 157 0
137 157 0
140 160 0
136 156 0
136 156 0
129 148 0
129 149 0
144 164 0
140 161 0
141 162 0
135 155 0
136 158 0
129 148 0
124 144 0
136 156 0
135 156 0
129 149 0
127 147 0
127 147 0
123 143 0
133 153 0
133 152 0
133 153 0
133 153 0
130 150 0
131 153 0
131 151 0
133 153 0
121 140 0
131 152 0
116 135 0
123 143 0
124 142 0
135 154 0
127 147 0
133 153 0
121 141 0
122 141 0
128 148 0
120 138 0
128 147 0
130 149 0
131 151 0
130 149 0
128 148 0
126 145 0
123 143 0
116 135 0
112 131 0
120 138 0
124 144 0
115 135 0
120 139 0
123 142 0
122 140 0
122 141 0
120 139 0
126 145 0
116 135 0
117 136 0
115 133 0
119 138 0
121 139 0
126 143 0
126 146 0
114 131 0
131 150 0
120 140 0
120 139 0
111 130 0
119 138 0
124 142 0
124 142 0
120 137 0
122 140 0
117 134 0
131 149 0
106 122 0
122 139 0
116 135 0
109 126 0
122 140 0
110 128 0
127 146 0
110 129 0
125 141 0
126 144 0
124 142 0
116 135 0
119 137 0
124 141 0
123 141 0
118 135 0
124 142 0
118 134 0
114 130 0
125 142 0
117 135 0
128 145 0
126 143 0
125 140 0
116 132 0
111 127 0
122 140 0
120 136 0
120 138 0
113 130 0
120 136 0
120 137 0
111 126 0
114 130 0
118 136 0
121 135 0
125 141 0
135 152 0
125 142 0
131 149 0
128 143 0
114 128 0
117 132 0
124 140 0
123 140 0
131 145 0
119 134 0
131 148 0
127 143 0
130 145 0
127 141 0
133 151 0
137 155 0
138 151 0
117 133 0
118 133 0
139 155 0
130 145 0
134 150 0
117 131 0
136 150 0
135 150 0
138 153 0
135 150 0
139 153 0
130 144 0
130 146 0
141 157 0
141 155 0
131 146 0
128 140 0
139 153 0
137 151 0
133 147 0
129 144 0
137 151 0
130 143 0
137 151 0
141 157 0
138 153 0
136 148 0
134 148 0
135 145 0
137 151 0
138 152 0
132 142 0
141 154 0
134 146 0
132 142 0
138 151 0
132 143 0
134 147 0
142 154 0
135 146 0
139 156 0
143 155 0
141 154 0
133 144 0
141 154 0
145 159 0
138 148 0
139 151 0
146 158 0
150 165 0
141 151 0
136 146 0
146 158 0
144 156 0
133 143 0
136 145 0
138 150 0
143 154 0
136 144 0
142 153 0
146 161 0
144 154 0
147 157 0
143 152 0
138 146 0
139 146 0
138 151 0
139 148 0
144 151 0
138 144 0
134 139 0
146 156 0
143 152 0
138 143 0
139 149 0
142 148 0
143 149 0
142 148 0
141 148 0
142 149 0
141 148 0
140 145 0
141 152 0
134 136 0
137 144 0
147 159 0
144 148 0
138 144 0
137 141 0
140 144 0
143 150 0
143 145 0
143 145 0
144 148 0
139 140 0
145 146 0
141 145 0
141 147 0
137 139 0
144 152 0
145 150 0
149 156 0
145 152 0
137 140 0
148 154 0
144 149 0
139 138 0
143 147 0
136 138 0
139 141 0
138 141 0
140 144 0
141 146 0
137 138 0
152 156 0
143 143 0
142 144 0
146 153 0
148 152 0
146 150 0
141 145 0
146 152 0
142 147 0
150 155 0
146 148 0
147 150 0
153 161 0
148 155 0
147 148 0
141 140 0
145 147 0
146 149 0
143 149 0
143 145 0
148 151 0
145 152 0
144 147 0
146 150 0
145 147 0
147 149 0
149 152 0
142 147 0
146 152 0
152 158 0
147 154 0
143 149 0
145 148 0
154 162 0
154 163 0
149 168 0
149 168 0
153 171 0
142 160 0
151 171 0
145 163 0
145 163 0
149 167 0
146 164 0
152 170 0
143 161 0
146 164 0
144 162 0
148 167 0
151 169 0
152 170 0
146 165 0
146 164 0
150 169 0
145 163 0
144 162 0
144 161 0
143 161 0
141 158 0
142 160 0
141 159 0
142 159 0
147 164 0
145 163 0
149 168 0
146 164 0
141 160 0
139 156 0
143 160 0
143 161 0
141 160 0
144 162 0
151 169 0
140 159 0
141 158 0
133 151 0
143 160 0
141 158 0
148 167 0
145 163 0
138 156 0
141 159 0
144 162 0
144 163 0
141 161 0
141 159 0
139 157 0
144 162 0
143 161 0
144 163 0
144 163 0
144 163 0
141 159 0
135 154 0
139 156 0
139 158 0
136 154 0
149 168 0
143 162 0
140 159 0
138 156 0
141 159 0
138 156 0
145 165 0
146 165 0
140 159 0
134 153 0
152 173 0
148 167 0
138 157 0
145 165 0
143 162 0
145 164 0
145 165 0
145 164 0
144 163 0
136 155 0
143 162 0
140 159 0
145 164 0
135 154 0
144 163 0
136 154 0
137 157 0
138 158 0
146 165 0
138 157 0
136 155 0
140 160 0
132 151 0
141 161 0
140 160 0
137 156 0
142 161 0
142 161 0
148 168 0
134 154 0
139 157 0
140 162 0
140 159 0
146 166 0
138 159 0
143 163 0
145 166 0
138 158 0
132 152 0
135 154 0
144 165 0
146 166 0
138 158 0
138 158 0
134 153 0
135 155 0
137 157 0
138 159 0
135 154 0
136 156 0
134 155 0
143 162 0
128 148 0
131 150 0
136 157 0
130 150 0
137 158 0
142 162 0
138 157 0
132 151 0
136 156 0
132 153 0
127 146 0
129 148 0
133 154 0
136 157 0
130 149 0
140 160 0
134 154 0
134 155 0
125 145 0
131 150 0
128 148 0
126 145 0
128 147 0
118 136 0
126 146 0
126 146 0
132 152 0
130 150 0
128 147 0
125 145 0
128 148 0
129 148 0
127 145 0
128 148 0
131 149 0
124 144 0
124 144 0
117 136 0
124 144 0
117 137 0
125 145 0
121 139 0
129 147 0
122 142 0
115 134 0
129 147 0
115 134 0
121 141 0
124 143 0
127 145 0
123 142 0
130 149 0
130 148 0
120 139 0
126 145 0
111 130 0
120 137 0
123 141 0
126 145 0
127 146 0
118 137 0
111 130 0
115 133 0
128 147 0
115 134 0
130 147 0
116 135 0
117 136 0
122 140 0
116 134 0
118 134 0
120 139 0
111 129 0
113 132 0
119 137 0
119 137 0
126 145 0
125 142 0
118 135 0
114 131 0
117 133 0
118 136 0
118 136 0
122 137 0
115 134 0
117 134 0
123 140 0
111 128 0
125 142 0
130 148 0
124 139 0
129 146 0
117 135 0
120 138 0
116 134 0
126 142 0
125 142 0
115 131 0
120 138 0
127 144 0
130 148 0
123 142 0
129 145 0
128 145 0
119 134 0
118 134 0
128 144 0
121 137 0
120 137 0
130 145 0
125 141 0
135 152 0
118 135 0
130 147 0
132 149 0
133 151 0
126 141 0
131 147 0
126 144 0
131 146 0
125 143 0
132 149 0
124 143 0
137 152 0
127 144 0
122 136 0
129 145 0
128 141 0
133 148 0
133 150 0
127 142 0
125 140 0
130 145 0
134 149 0
130 147 0
126 140 0
130 143 0
131 146 0
134 151 0
137 152 0
136 150 0
133 148 0
137 154 0
133 150 0
140 155 0
144 161 0
135 151 0
137 155 0
138 150 0
127 140 0
131 145 0
138 152 0
142 156 0
138 152 0
121 129 0
140 151 0
138 150 0
132 145 0
139 152 0
138 151 0
142 156 0
132 148 0
139 155 0
140 153 0
140 152 0
138 152 0
141 153 0
144 155 0
149 162 0
146 158 0
133 144 0
139 153 0
141 156 0
142 156 0
140 155 0
131 144 0
136 147 0
141 150 0
144 153 0
137 150 0
139 152 0
140 149 0
139 151 0
133 145 0
140 149 0
137 147 0
142 149 0
137 145 0
143 155 0
142 148 0
137 147 0
148 158 0
142 151 0
139 147 0
144 156 0
142 150 0
141 154 0
147 157 0
136 145 0
142 152 0
144 153 0
131 137 0
147 159 0
134 141 0
131 135 0
142 147 0
138 148 0
140 145 0
148 155 0
145 149 0
135 141 0
141 152 0
140 146 0
142 145 0
138 142 0
140 143 0
140 143 0
151 160 0
142 148 0
144 148 0
146 151 0
140 146 0
141 144 0
143 150 0
150 156 0
142 144 0
144 147 0
145 151 0
141 145 0
137 143 0
142 144 0
138 143 0
140 145 0
143 148 0
147 154 0
136 136 0
145 147 0
142 147 0
144 147 0
142 145 0
142 144 0
145 147 0
143 146 0
141 142 0
142 142 0
148 149 0
141 140 0
148 153 0
142 146 0
144 148 0
145 150 0
146 149 0
150 155 0
141 143 0
146 153 0
142 143 0
144 146 0
146 149 0
148 154 0
144 151 0
151 158 0
155 161 0
151 158 0
143 148 0
146 148 0
150 156 0
156 162 0
155 159 0
149 151 0
150 155 0
159 170 0
146 150 0
149 155 0
155 163 0
149 153 0
145 149 0
148 166 0
145 164 0
147 167 0
152 170 0
145 163 0
145 164 0
155 175 0
148 167 0
150 168 0
147 165 0
142 159 0
145 163 0
148 166 0
147 165 0
150 169 0
143 161 0
146 165 0
148 167 0
148 166 0
140 158 0
150 169 0
146 165 0
143 161 0
148 166 0
148 167 0
149 167 0
143 161 0
144 161 0
138 156 0
140 158 0
145 164 0
142 161 0
143 162 0
143 161 0
148 165 0
142 161 0
145 164 0
144 162 0
142 160 0
141 160 0
144 163 0
147 165 0
143 161 0
148 166 0
143 161 0
133 151 0
136 153 0
149 169 0
137 154 0
145 164 0
145 163 0
137 155 0
143 161 0
140 158 0
144 163 0
146 165 0
132 149 0
135 153 0
142 160 0
144 163 0
139 158 0
142 161 0
143 162 0
142 161 0
133 151 0
140 158 0
144 163 0
132 149 0
132 151 0
149 169 0
138 157 0
141 159 0
141 160 0
148 166 0
140 160 0
142 162 0
139 159 0
152 171 0
139 158 0
133 152 0
143 161 0
140 160 0
142 161 0
145 164 0
145 164 0
150 170 0
142 161 0
139 159 0
145 165 0
145 164 0
139 159 0
140 160 0
137 156 0
139 158 0
137 156 0
143 164 0
147 166 0
141 160 0
143 164 0
134 153 0
138 158 0
137 155 0
140 159 0
137 157 0
142 162 0
151 171 0
136 157 0
137 157 0
142 164 0
140 159 0
140 159 0
145 164 0
139 160 0
142 163 0
132 151 0
133 153 0
128 148 0
146 167 0
131 152 0
139 159 0
130 150 0
134 154 0
136 156 0
128 147 0
139 159 0
141 161 0
136 156 0
134 155 0
121 140 0
134 154 0
133 153 0
135 155 0
132 151 0
135 155 0
133 153 0
136 156 0
131 151 0
145 165 0
133 153 0
130 150 0
139 160 0
126 146 0
130 150 0
126 146 0
139 158 0
127 147 0
133 152 0
143 162 0
135 155 0
123 141 0
129 149 0
138 159 0
136 156 0
126 147 0
128 148 0
125 145 0
120 141 0
129 147 0
127 146 0
131 151 0
132 151 0
129 149 0
116 135 0
137 157 0
115 134 0
133 154 0
126 146 0
135 155 0
119 139 0
127 148 0
130 147 0
122 142 0
117 136 0
121 140 0
123 142 0
127 147 0
123 141 0
119 138 0
126 144 0
125 144 0
116 136 0
107 124 0
128 147 0
122 141 0
123 142 0
127 147 0
108 126 0
126 146 0
130 149 0
121 139 0
113 131 0
113 131 0
119 136 0
118 138 0
113 131 0
120 138 0
122 141 0
128 146 0
113 130 0
129 149 0
121 138 0
122 141 0
114 131 0
126 142 0
106 123 0
111 129 0
118 137 0
117 135 0
108 125 0
126 144 0
114 132 0
125 141 0
127 145 0
125 142 0
121 139 0
108 126 0
121 136 0
125 141 0
129 147 0
123 139 0
126 143 0
114 131 0
120 137 0
117 132 0
120 137 0
128 144 0
130 147 0
112 128 0
117 132 0
122 139 0
124 141 0
125 143 0
128 143 0
125 141 0
128 145 0
121 138 0
119 134 0
135 152 0
137 155 0
121 140 0
124 143 0
127 146 0
128 143 0
123 136 0
120 134 0
129 144 0
134 151 0
123 139 0
128 144 0
129 145 0
132 148 0
134 149 0
134 150 0
129 144 0
133 147 0
138 154 0
127 144 0
127 141 0
131 147 0
141 157 0
127 144 0
126 141 0
133 147 0
124 137 0
130 145 0
133 147 0
138 152 0
137 151 0
138 154 0
138 152 0
130 144 0
134 149 0
140 157 0
132 145 0
137 150 0
139 152 0
135 150 0
139 155 0
139 154 0
139 155 0
148 160 0
143 155 0
140 153 0
138 152 0
140 153 0
137 153 0
138 151 0
138 151 0
141 155 0
141 156 0
131 144 0
133 145 0
136 151 0
135 150 0
136 147 0
131 142 0
133 144 0
145 157 0
140 149 0
146 159 0
138 151 0
142 152 0
138 149 0
133 144 0
143 157 0
137 148 0
138 149 0
141 147 0
142 154 0
141 153 0
139 149 0
136 147 0
138 146 0
148 162 0
140 149 0
140 151 0
135 148 0
148 158 0
142 153 0
141 150 0
140 147 0
135 145 0
145 156 0
146 156 0
145 151 0
139 148 0
141 148 0
146 154 0
146 157 0
143 153 0
136 144 0
136 140 0
132 134 0
138 142 0
148 158 0
145 155 0
142 150 0
143 148 0
149 160 0
148 155 0
140 144 0
148 157 0
145 152 0
137 140 0
143 149 0
138 147 0
135 141 0
137 141 0
140 145 0
139 143 0
136 142 0
144 152 0
145 149 0
141 147 0
146 153 0
139 140 0
138 139 0
151 158 0
147 156 0
145 150 0
144 150 0
140 143 0
141 142 0
146 151 0
144 147 0
146 152 0
142 147 0
141 146 0
145 148 0
144 150 0
143 145 0
143 150 0
151 158 0
151 160 0
145 151 0
143 145 0
143 147 0
148 152 0
145 149 0
149 155 0
152 159 0
143 145 0
146 147 0
151 154 0
141 145 0
151 158 0
147 152 0
151 155 0
148 152 0
146 152 0
145 147 0
145 152 0
148 154 0
149 156 0
149 153 0
144 150 0
145 151 0
149 158 0
157 166 0
149 156 0
145 164 0
146 164 0
149 167 0
145 163 0
150 168 0
145 163 0
143 161 0
145 163 0
145 162 0
143 161 0
148 167 0
151 170 0
147 165 0
145 163 0
142 159 0
146 165 0
146 164 0
151 169 0
147 165 0
145 163 0
149 167 0
148 166 0
146 165 0
149 167 0
140 159 0
147 166 0
152 170 0
142 160 0
143 161 0
147 165 0
143 160 0
144 163 0
151 170 0
144 163 0
145 162 0
143 161 0
144 162 0
145 163 0
145 164 0
146 165 0
146 166 0
143 162 0
138 156 0
149 168 0
146 165 0
146 165 0
148 166 0
142 160 0
144 162 0
140 159 0
150 170 0
143 162 0
145 164 0
142 161 0
142 160 0
140 159 0
142 161 0
136 154 0
141 159 0
140 158 0
145 164 0
138 157 0
135 153 0
140 158 0
135 153 0
147 166 0
149 169 0
143 163 0
142 161 0
141 161 0
145 165 0
141 160 0
143 162 0
137 156 0
144 163 0
144 164 0
146 167 0
145 164 0
136 155 0
146 166 0
139 159 0
146 166 0
143 162 0
137 157 0
138 156 0
148 168 0
139 158 0
142 161 0
139 158 0
136 155 0
149 169 0
140 159 0
128 147 0
143 164 0
148 169 0
142 162 0
140 160 0
143 163 0
143 163 0
145 164 0
144 165 0
137 158 0
139 158 0
130 150 0
138 157 0
138 159 0
141 161 0
139 160 0
136 155 0
138 158 0
145 165 0
141 161 0
137 157 0
136 157 0
140 162 0
140 159 0
131 151 0
130 150 0
145 165 0
133 154 0
150 171 0
137 156 0
140 160 0
132 151 0
142 163 0
136 155 0
138 159 0
143 164 0
135 154 0
136 155 0
138 158 0
137 158 0
137 158 0
135 155 0
132 153 0
123 142 0
136 156 0
138 158 0
130 150 0
134 154 0
131 151 0
134 156 0
130 150 0
140 159 0
132 153 0
139 158 0
137 157 0
125 145 0
127 147 0
128 148 0
124 144 0
124 144 0
124 144 0
128 147 0
127 147 0
126 148 0
129 148 0
123 143 0
127 146 0
128 146 0
129 149 0
135 155 0
106 127 0
126 145 0
132 152 0
115 135 0
124 143 0
113 132 0
124 143 0
120 139 0
121 139 0
128 145 0
130 149 0
130 150 0
119 139 0
124 144 0
125 144 0
125 144 0
133 152 0
125 144 0
127 145 0
113 132 0
133 152 0
126 145 0
130 150 0
126 145 0
119 138 0
111 130 0
118 135 0
112 131 0
121 140 0
120 138 0
125 143 0
121 140 0
126 145 0
125 143 0
114 132 0
128 147 0
125 144 0
125 144 0
123 141 0
131 148 0
117 133 0
118 135 0
117 133 0
121 140 0
127 144 0
135 154 0
117 135 0
122 141 0
120 137 0
124 141 0
124 141 0
128 146 0
120 136 0
109 125 0
120 136 0
114 132 0
117 133 0
121 138 0
127 142 0
117 136 0
117 133 0
133 151 0
131 148 0
123 141 0
124 142 0
127 145 0
116 130 0
128 144 0
128 146 0
137 155 0
124 140 0
126 143 0
120 137 0
132 149 0
123 141 0
129 148 0
125 143 0
135 149 0
125 142 0
126 140 0
131 148 0
130 148 0
135 151 0
130 146 0
119 137 0
134 148 0
133 150 0
133 150 0
127 143 0
131 147 0
130 143 0
136 153 0
131 148 0
132 148 0
136 152 0
130 144 0
117 130 0
135 149 0
140 155 0
134 150 0
130 146 0
134 148 0
140 157 0
140 155 0
135 150 0
127 142 0
132 144 0
127 141 0
141 159 0
143 161 0
141 158 0
126 141 0
142 157 0
135 148 0
139 153 0
136 149 0
132 146 0
134 147 0
129 142 0
143 160 0
136 150 0
139 153 0
140 155 0
146 160 0
135 150 0
139 153 0
131 142 0
146 160 0
141 154 0
141 154 0
140 150 0
140 154 0
142 157 0
136 147 0
139 149 0
143 158 0
142 158 0
124 133 0
145 158 0
149 164 0
155 171 0
140 150 0
145 158 0
143 157 0
135 147 0
140 152 0
145 157 0
138 149 0
143 158 0
138 145 0
140 151 0
141 153 0
139 152 0
141 152 0
138 147 0
142 153 0
146 157 0
138 144 0
145 154 0
145 154 0
144 152 0
141 149 0
135 142 0
142 150 0
135 142 0
144 153 0
140 147 0
137 143 0
140 149 0
136 142 0
139 147 0
139 148 0
133 140 0
147 159 0
144 151 0
143 149 0
139 145 0
146 154 0
150 157 0
135 141 0
147 156 0
140 146 0
146 153 0
146 153 0
136 140 0
143 151 0
141 145 0
143 152 0
152 161 0
138 142 0
140 146 0
144 149 0
148 156 0
146 151 0
145 151 0
142 147 0
143 142 0
145 152 0
145 152 0
143 149 0
144 147 0
142 146 0
153 160 0
146 151 0
132 132 0
141 146 0
144 149 0
146 153 0
149 154 0
145 147 0
143 149 0
145 150 0
150 155 0
150 156 0
147 148 0
145 151 0
144 147 0
147 153 0
145 150 0
147 153 0
145 147 0
149 156 0
151 156 0
144 149 0
148 154 0
150 156 0
149 157 0
150 157 0
149 155 0
151 158 0
151 159 0
156 163 0
148 154 0
150 158 0
145 149 0
151 159 0
151 158 0
141 143 0
143 162 0
153 172 0
140 157 0
157 176 0
151 171 0
152 172 0
142 161 0
149 167 0
145 164 0
152 170 0
146 164 0
152 172 0
146 164 0
151 170 0
143 162 0
148 167 0
150 169 0
150 169 0
148 166 0
145 163 0
146 165 0
147 164 0
148 168 0
150 168 0
146 165 0
145 164 0
151 169 0
142 159 0
146 164 0
144 163 0
146 164 0
136 153 0
154 173 0
147 165 0
140 158 0
145 164 0
146 165 0
148 168 0
145 164 0
142 161 0
155 174 0
152 171 0
136 155 0
145 164 0
136 155 0
147 165 0
140 158 0
145 163 0
151 171 0
149 168 0
148 168 0
145 165 0
149 168 0
153 173 0
139 159 0
144 163 0
143 162 0
143 161 0
149 169 0
144 162 0
139 157 0
144 163 0
140 159 0
132 150 0
140 159 0
132 152 0
149 168 0
138 156 0
151 172 0
146 166 0
135 154 0
140 160 0
145 164 0
145 164 0
147 167 0
145 165 0
148 169 0
142 162 0
146 166 0
138 156 0
132 151 0
142 162 0
138 157 0
152 172 0
146 166 0
145 166 0
146 167 0
142 163 0
138 157 0
140 160 0
138 157 0
136 155 0
144 164 0
131 151 0
143 161 0
140 160 0
135 154 0
138 157 0
144 166 0
139 159 0
144 166 0
144 165 0
140 161 0
138 159 0
141 162 0
140 159 0
134 154 0
135 156 0
131 149 0
147 167 0
138 158 0
136 156 0
138 158 0
138 159 0
136 156 0
134 153 0
134 154 0
148 169 0
134 154 0
145 165 0
134 154 0
146 166 0
134 153 0
143 164 0
139 160 0
139 159 0
136 157 0
141 161 0
146 167 0
135 155 0
139 159 0
123 142 0
135 155 0
143 164 0
137 157 0
137 158 0
134 155 0
128 148 0
142 162 0
131 151 0
131 151 0
135 154 0
139 159 0
129 148 0
138 158 0
128 148 0
125 145 0
134 154 0
133 152 0
131 151 0
128 149 0
133 152 0
133 153 0
136 155 0
126 145 0
126 147 0
124 144 0
130 150 0
131 151 0
126 146 0
124 144 0
128 147 0
128 149 0
126 145 0
133 152 0
128 146 0
132 152 0
128 147 0
123 142 0
130 150 0
128 148 0
128 147 0
124 142 0
121 141 0
125 144 0
116 136 0
127 146 0
128 147 0
125 144 0
123 141 0
123 143 0
112 131 0
114 133 0
123 142 0
134 155 0
126 145 0
115 134 0
125 141 0
144 163 0
121 138 0
116 133 0
117 135 0
127 146 0
129 148 0
127 147 0
117 135 0
120 139 0
124 143 0
131 148 0
116 135 0
124 143 0
125 144 0
130 147 0
126 146 0
127 146 0
126 145 0
120 138 0
119 135 0
116 134 0
116 133 0
126 145 0
121 137 0
127 143 0
129 147 0
123 141 0
122 142 0
131 149 0
116 131 0
124 141 0
129 148 0
125 143 0
126 145 0
131 149 0
122 139 0
125 141 0
120 136 0
130 148 0
129 145 0
124 139 0
130 145 0
128 145 0
123 140 0
111 129 0
120 139 0
129 145 0
128 143 0
126 141 0
130 147 0
131 145 0
130 145 0
130 150 0
134 152 0
126 141 0
124 141 0
135 150 0
130 147 0
128 143 0
123 140 0
127 143 0
132 148 0
125 141 0
133 149 0
133 151 0
134 151 0
132 147 0
135 150 0
119 135 0
124 139 0
139 153 0
134 151 0
133 148 0
140 159 0
133 150 0
138 154 0
133 148 0
141 157 0
134 148 0
134 148 0
137 151 0
128 142 0
131 144 0
133 147 0
133 147 0
145 161 0
133 145 0
140 156 0
135 151 0
130 145 0
132 148 0
137 152 0
136 151 0
135 150 0
140 156 0
149 167 0
137 153 0
139 152 0
139 153 0
135 148 0
132 143 0
137 153 0
136 146 0
135 148 0
136 151 0
139 152 0
128 140 0
139 150 0
140 150 0
141 155 0
141 152 0
145 158 0
138 152 0
145 159 0
143 154 0
133 145 0
145 159 0
141 153 0
144 153 0
143 160 0
140 152 0
137 146 0
146 158 0
152 166 0
131 142 0
143 154 0
143 152 0
135 146 0
142 154 0
145 156 0
144 156 0
139 147 0
147 157 0
140 151 0
136 145 0
142 153 0
146 152 0
146 156 0
142 153 0
144 154 0
150 159 0
141 152 0
142 150 0
141 148 0
143 154 0
142 147 0
142 154 0
145 152 0
145 155 0
144 154 0
144 150 0
147 157 0
144 154 0
144 150 0
142 149 0
143 149 0
143 150 0
139 146 0
145 154 0
146 151 0
138 142 0
145 154 0
145 151 0
140 145 0
148 154 0
146 155 0
143 147 0
146 153 0
145 149 0
142 144 0
145 149 0
140 143 0
142 149 0
151 158 0
142 148 0
144 149 0
149 156 0
148 153 0
139 142 0
147 152 0
153 161 0
154 164 0
145 150 0
147 152 0
152 161 0
142 146 0
146 150 0
146 147 0
142 146 0
147 152 0
150 152 0
146 150 0
144 149 0
149 155 0
152 159 0
141 140 0
152 158 0
145 149 0
150 154 0
152 158 0
142 143 0
149 154 0
147 151 0
151 156 0
152 158 0
152 157 0
149 156 0
149 156 0
145 150 0
152 157 0
144 147 0
146 153 0
148 167 0
148 167 0
148 167 0
147 166 0
152 171 0
140 158 0
149 167 0
146 164 0
146 164 0
146 164 0
141 160 0
152 171 0
146 165 0
140 157 0
149 168 0
146 164 0
148 166 0
141 159 0
148 166 0
139 158 0
150 168 0
136 154 0
147 165 0
146 164 0
149 167 0
141 159 0
143 161 0
145 163 0
145 164 0
148 167 0
149 167 0
144 162 0
146 165 0
152 172 0
142 160 0
136 154 0
147 166 0
147 166 0
149 169 0
148 165 0
142 161 0
147 166 0
142 161 0
147 165 0
134 153 0
149 167 0
141 159 0
138 156 0
150 170 0
146 164 0
140 160 0
143 162 0
150 170 0
138 157 0
142 162 0
137 156 0
146 164 0
140 159 0
144 164 0
146 167 0
136 155 0
143 162 0
150 169 0
131 149 0
142 162 0
142 160 0
148 168 0
143 162 0
140 160 0
140 160 0
142 162 0
139 158 0
136 155 0
143 163 0
142 161 0
141 160 0
148 166 0
143 163 0
136 155 0
135 154 0
139 159 0
139 157 0
140 160 0
145 165 0
145 165 0
146 166 0
140 160 0
144 163 0
142 162 0
137 156 0
141 161 0
136 155 0
137 157 0
140 160 0
140 161 0
138 158 0
142 163 0
140 160 0
140 159 0
144 165 0
146 167 0
146 167 0
146 166 0
145 166 0
136 157 0
142 161 0
140 160 0
145 166 0
140 159 0
141 161 0
139 159 0
140 161 0
137 158 0
145 166 0
139 158 0
143 163 0
143 163 0
129 148 0
135 156 0
137 157 0
140 160 0
131 152 0
136 155 0
138 159 0
134 154 0
144 163 0
131 151 0
138 158 0
136 156 0
131 151 0
137 157 0
139 160 0
130 151 0
135 155 0
149 169 0
139 160 0
131 151 0
130 150 0
127 148 0
129 149 0
133 154 0
138 158 0
132 149 0
134 155 0
133 153 0
126 145 0
133 154 0
123 143 0
135 154 0
129 149 0
132 152 0
138 157 0
133 153 0
124 144 0
130 148 0
139 159 0
130 149 0
126 147 0
137 157 0
122 141 0
129 147 0
118 138 0
131 151 0
125 145 0
121 140 0
123 143 0
123 142 0
139 159 0
141 160 0
130 148 0
128 147 0
134 153 0
127 146 0
128 146 0
132 151 0
130 149 0
116 133 0
121 140 0
123 141 0
127 148 0
131 151 0
123 141 0
124 142 0
119 138 0
126 146 0
118 138 0
127 146 0
127 147 0
117 136 0
115 133 0
118 137 0
118 137 0
125 143 0
113 131 0
135 154 0
129 150 0
121 140 0
128 147 0
127 145 0
115 132 0
118 136 0
127 144 0
129 148 0
120 137 0
127 144 0
127 146 0
113 131 0
127 145 0
113 130 0
117 135 0
120 138 0
116 134 0
129 145 0
122 141 0
116 134 0
129 145 0
123 141 0
129 146 0
127 144 0
128 146 0
129 148 0
128 146 0
129 147 0
131 150 0
129 149 0
127 144 0
125 143 0
123 139 0
130 146 0
135 154 0
129 146 0
125 139 0
130 145 0
119 136 0
126 144 0
127 143 0
129 148 0
129 148 0
135 155 0
129 147 0
131 147 0
129 146 0
131 150 0
132 149 0
127 142 0
133 151 0
126 142 0
123 138 0
126 143 0
131 148 0
130 146 0
131 147 0
132 149 0
134 149 0
137 154 0
131 146 0
129 145 0
132 151 0
136 153 0
132 148 0
138 152 0
136 154 0
136 152 0
135 150 0
140 158 0
126 141 0
133 147 0
139 157 0
139 157 0
147 163 0
139 155 0
145 159 0
138 154 0
136 150 0
138 155 0
134 152 0
145 160 0
137 153 0
132 148 0
141 157 0
133 150 0
136 151 0
134 148 0
130 144 0
136 153 0
127 143 0
145 159 0
142 156 0
145 159 0
132 145 0
137 150 0
133 146 0
139 154 0
141 157 0
146 161 0
134 146 0
140 153 0
147 163 0
138 152 0
136 150 0
142 157 0
144 160 0
152 165 0
139 152 0
135 142 0
141 152 0
139 154 0
137 148 0
154 171 0
144 155 0
143 154 0
145 157 0
141 154 0
139 152 0
146 156 0
141 150 0
142 152 0
149 161 0
148 162 0
142 152 0
144 157 0
149 160 0
153 168 0
138 147 0
146 157 0
137 146 0
144 155 0
148 158 0
139 147 0
140 152 0
145 156 0
145 156 0
142 155 0
145 151 0
148 157 0
149 160 0
151 156 0
149 159 0
141 150 0
148 161 0
139 148 0
142 147 0
144 152 0
148 157 0
142 149 0
139 143 0
145 154 0
145 152 0
144 154 0
147 154 0
150 159 0
147 156 0
151 159 0
133 138 0
153 161 0
148 154 0
152 163 0
137 140 0
144 148 0
149 156 0
141 145 0
144 152 0
146 153 0
139 143 0
142 144 0
147 154 0
158 167 0
138 143 0
145 149 0
145 151 0
149 154 0
147 152 0
151 160 0
146 151 0
142 150 0
141 146 0
150 157 0
149 157 0
146 150 0
148 154 0
154 163 0
146 151 0
143 148 0
141 140 0
146 151 0
144 147 0
153 162 0
147 152 0
151 157 0
150 157 0
147 152 0
144 150 0
153 160 0
149 156 0
140 144 0
140 142 0
150 157 0
150 156 0
151 159 0
152 159 0
143 162 0
155 174 0
150 169 0
144 162 0
143 162 0
151 170 0
151 170 0
150 169 0
151 169 0
145 164 0
149 167 0
156 175 0
144 163 0
149 167 0
143 162 0
149 168 0
145 163 0
145 163 0
147 165 0
147 166 0
147 165 0
147 165 0
148 167 0
145 164 0
148 166 0
153 172 0
146 164 0
144 163 0
145 164 0
146 164 0
147 167 0
135 152 0
138 156 0
142 160 0
148 167 0
146 165 0
146 164 0
149 169 0
145 164 0
158 177 0
146 166 0
139 157 0
148 166 0
142 161 0
147 166 0
147 166 0
149 169 0
143 163 0
140 159 0
152 172 0
149 168 0
142 160 0
139 159 0
137 154 0
140 159 0
148 167 0
140 159 0
149 169 0
143 162 0
142 161 0
147 167 0
145 165 0
146 167 0
136 155 0
143 162 0
151 172 0
138 157 0
139 159 0
144 164 0
141 161 0
135 155 0
144 163 0
146 167 0
144 163 0
138 157 0
138 158 0
141 160 0
141 161 0
141 161 0
141 160 0
143 163 0
147 167 0
140 160 0
146 165 0
147 167 0
151 170 0
139 158 0
146 165 0
131 150 0
145 165 0
143 162 0
142 162 0
148 167 0
134 155 0
138 158 0
141 162 0
142 162 0
143 164 0
144 163 0
141 162 0
136 155 0
141 161 0
141 160 0
142 163 0
139 160 0
140 161 0
145 165 0
147 167 0
145 166 0
145 166 0
139 159 0
129 150 0
137 157 0
150 170 0
129 149 0
136 156 0
145 166 0
134 154 0
139 161 0
136 157 0
128 149 0
139 160 0
140 160 0
142 163 0
143 164 0
141 162 0
141 163 0
126 145 0
143 163 0
136 156 0
130 149 0
138 158 0
126 147 0
141 160 0
139 159 0
130 151 0
131 151 0
133 153 0
133 155 0
132 151 0
137 157 0
129 150 0
138 158 0
131 151 0
135 155 0
130 150 0
135 156 0
134 152 0
132 151 0
130 150 0
129 149 0
135 155 0
121 140 0
133 153 0
125 144 0
133 153 0
131 151 0
129 149 0
135 156 0
133 153 0
127 146 0
131 150 0
132 152 0
138 157 0
128 149 0
127 146 0
130 149 0
130 150 0
125 143 0
129 148 0
129 149 0
127 145 0
138 158 0
130 150 0
125 145 0
132 151 0
124 144 0
127 146 0
121 140 0
123 142 0
135 155 0
132 151 0
128 146 0
122 140 0
135 153 0
128 147 0
126 145 0
129 148 0
122 142 0
128 148 0
125 144 0
125 144 0
132 150 0
117 137 0
110 128 0
128 146 0
125 145 0
125 142 0
120 139 0
112 130 0
126 146 0
129 148 0
123 142 0
131 148 0
124 144 0
116 134 0
129 149 0
128 148 0
116 133 0
119 137 0
130 148 0
117 136 0
124 140 0
132 150 0
122 140 0
123 141 0
127 144 0
121 138 0
130 147 0
133 151 0
127 146 0
128 146 0
120 136 0
131 150 0
128 146 0
126 143 0
125 143 0
130 147 0
127 144 0
117 132 0
123 139 0
124 141 0
117 130 0
126 143 0
122 140 0
132 150 0
119 137 0
132 148 0
133 150 0
127 144 0
126 142 0
139 158 0
135 153 0
132 149 0
127 144 0
125 144 0
130 148 0
126 140 0
135 152 0
140 157 0
133 150 0
124 144 0
131 148 0
135 152 0
129 145 0
139 156 0
130 145 0
131 146 0
139 156 0
140 155 0
133 151 0
126 141 0
137 154 0
134 148 0
136 152 0
134 150 0
133 149 0
133 150 0
146 161 0
131 145 0
134 152 0
141 156 0
137 152 0
139 153 0
136 154 0
129 146 0
137 150 0
140 152 0
133 145 0
145 163 0
135 150 0
143 158 0
141 155 0
130 146 0
142 157 0
139 153 0
144 158 0
138 152 0
133 147 0
130 147 0
147 162 0
136 148 0
142 157 0
143 159 0
141 156 0
148 163 0
144 157 0
144 160 0
147 161 0
148 160 0
146 158 0
144 157 0
144 155 0
141 155 0
136 149 0
148 161 0
143 157 0
147 162 0
147 159 0
138 148 0
144 157 0
143 155 0
141 154 0
139 156 0
139 152 0
146 158 0
145 155 0
136 144 0
144 157 0
132 140 0
134 143 0
142 156 0
147 157 0
145 157 0
146 156 0
144 152 0
144 155 0
138 148 0
140 150 0
138 146 0
147 157 0
141 151 0
143 152 0
141 148 0
145 155 0
140 148 0
142 148 0
149 161 0
138 144 0
137 146 0
145 151 0
148 160 0
150 159 0
143 150 0
144 152 0
144 151 0
148 156 0
142 146 0
138 146 0
141 149 0
139 147 0
145 150 0
143 149 0
140 145 0
145 151 0
142 150 0
149 158 0
151 160 0
150 156 0
143 149 0
148 154 0
139 143 0
146 156 0
152 161 0
149 155 0
143 146 0
148 154 0
148 151 0
146 150 0
148 154 0
148 157 0
146 152 0
140 144 0
152 163 0
154 162 0
148 152 0
145 149 0
143 145 0
147 154 0
148 153 0
145 149 0
149 155 0
149 153 0
146 152 0
150 158 0
155 164 0
149 157 0
143 147 0
144 147 0
145 147 0
138 141 0
146 154 0
151 158 0
150 156 0
153 162 0
146 153 0
146 151 0
150 154 0
149 152 0
148 156 0
153 173 0
152 169 0
152 171 0
152 171 0
155 175 0
152 171 0
153 172 0
149 168 0
150 170 0
153 172 0
139 159 0
154 174 0
146 165 0
148 166 0
147 166 0
153 172 0
144 162 0
150 169 0
146 165 0
154 173 0
146 165 0
148 167 0
150 169 0
148 166 0
142 159 0
149 168 0
147 166 0
150 169 0
138 157 0
149 167 0
149 168 0
146 163 0
145 163 0
146 165 0
138 156 0
140 159 0
148 166 0
146 166 0
149 167 0
143 162 0
147 167 0
137 155 0
153 173 0
142 161 0
152 172 0
149 169 0
148 168 0
149 168 0
140 159 0
145 166 0
148 167 0
139 158 0
148 166 0
144 164 0
132 150 0
143 162 0
144 163 0
147 167 0
137 157 0
136 156 0
149 169 0
136 155 0
151 170 0
142 161 0
147 167 0
145 164 0
144 164 0
143 164 0
148 167 0
149 169 0
147 167 0
145 163 0
134 153 0
145 165 0
144 162 0
142 162 0
136 155 0
137 156 0
144 163 0
149 170 0
147 166 0
137 157 0
153 173 0
139 159 0
144 163 0
145 164 0
147 167 0
136 157 0
151 171 0
149 169 0
138 158 0
141 162 0
137 158 0
144 165 0
135 155 0
139 159 0
147 168 0
139 160 0
140 160 0
143 165 0
140 159 0
132 152 0
132 150 0
150 169 0
142 163 0
144 164 0
135 154 0
141 162 0
134 155 0
141 161 0
139 159 0
139 160 0
146 168 0
134 156 0
136 157 0
139 160 0
131 151 0
139 160 0
146 168 0
136 157 0
133 153 0
132 153 0
139 159 0
149 170 0
135 155 0
132 152 0
141 162 0
134 154 0
135 155 0
133 153 0
139 160 0
135 155 0
137 157 0
138 160 0
135 155 0
139 159 0
136 157 0
139 160 0
135 156 0
131 151 0
143 164 0
135 156 0
125 144 0
133 153 0
144 165 0
130 150 0
133 154 0
139 158 0
135 156 0
133 154 0
132 152 0
142 164 0
140 159 0
123 143 0
143 164 0
123 143 0
139 158 0
134 156 0
131 151 0
136 157 0
135 155 0
127 146 0
131 150 0
133 152 0
132 151 0
134 155 0
132 151 0
124 143 0
134 155 0
127 146 0
129 149 0
121 140 0
137 158 0
133 153 0
124 144 0
135 155 0
125 144 0
129 149 0
129 149 0
130 149 0
129 148 0
136 156 0
139 160 0
125 143 0
125 146 0
121 140 0
119 136 0
115 135 0
129 147 0
137 157 0
121 139 0
122 141 0
129 149 0
130 149 0
135 155 0
122 141 0
108 125 0
130 148 0
128 147 0
121 140 0
125 144 0
131 150 0
127 145 0
133 151 0
131 149 0
127 145 0
125 144 0
114 133 0
130 146 0
133 150 0
120 136 0
129 146 0
129 147 0
136 155 0
126 145 0
135 155 0
118 136 0
127 142 0
130 147 0
133 150 0
133 149 0
130 145 0
133 149 0
128 146 0
126 143 0
129 149 0
133 151 0
131 149 0
130 146 0
123 139 0
134 152 0
130 148 0
133 151 0
137 153 0
129 148 0
115 132 0
129 145 0
130 148 0
128 145 0
120 137 0
129 146 0
141 158 0
127 143 0
131 149 0
129 146 0
136 154 0
128 144 0
129 145 0
128 145 0
130 147 0
125 141 0
139 154 0
130 146 0
133 151 0
140 155 0
129 147 0
127 141 0
139 155 0
131 149 0
139 154 0
125 142 0
142 160 0
134 150 0
136 150 0
138 154 0
135 153 0
139 155 0
143 160 0
142 158 0
139 154 0
137 154 0
145 157 0
130 143 0
141 159 0
138 153 0
143 154 0
138 152 0
137 151 0
155 175 0
136 153 0
142 156 0
136 150 0
148 163 0
141 154 0
147 162 0
131 146 0
143 159 0
142 158 0
138 149 0
144 158 0
145 162 0
149 165 0
146 163 0
144 158 0
141 155 0
140 151 0
143 157 0
133 146 0
142 154 0
141 157 0
150 164 0
135 147 0
141 156 0
136 148 0
140 154 0
138 149 0
143 155 0
139 153 0
150 165 0
140 152 0
137 154 0
134 145 0
134 143 0
150 165 0
146 159 0
144 154 0
142 153 0
142 151 0
144 159 0
142 153 0
145 157 0
141 149 0
145 155 0
142 154 0
143 154 0
145 157 0
143 155 0
146 158 0
143 151 0
143 157 0
144 155 0
149 159 0
149 160 0
148 159 0
143 152 0
146 156 0
147 155 0
146 157 0
148 154 0
136 141 0
144 153 0
142 150 0
144 154 0
148 156 0
137 145 0
139 149 0
142 149 0
142 151 0
147 157 0
142 150 0
151 160 0
145 153 0
147 160 0
147 156 0
149 158 0
148 157 0
141 149 0
152 164 0
139 142 0
149 158 0
148 156 0
136 137 0
147 154 0
142 148 0
143 151 0
142 148 0
139 142 0
154 166 0
149 154 0
142 144 0
142 146 0
139 145 0
146 154 0
144 151 0
144 149 0
150 157 0
147 153 0
149 156 0
145 154 0
149 156 0
152 160 0
150 155 0
145 148 0
141 146 0
136 142 0
150 158 0
146 152 0
146 153 0
143 148 0
154 161 0
144 148 0
148 153 0
147 153 0
151 158 0
149 156 0
146 151 0
146 149 0
144 149 0
152 162 0
150 156 0
147 166 0
143 161 0
146 164 0
146 165 0
149 167 0
147 167 0
147 165 0
153 172 0
145 163 0
148 166 0
148 167 0
144 163 0
150 169 0
147 166 0
146 165 0
148 168 0
147 165 0
146 165 0
148 166 0
147 165 0
144 163 0
144 163 0
149 169 0
144 162 0
141 159 0
138 156 0
151 170 0
153 173 0
154 173 0
151 171 0
146 165 0
144 164 0
141 159 0
141 160 0
148 168 0
143 162 0
143 162 0
142 162 0
144 163 0
148 168 0
140 158 0
143 162 0
146 167 0
140 159 0
143 162 0
144 162 0
147 168 0
150 170 0
150 170 0
146 167 0
152 172 0
143 163 0
145 164 0
150 170 0
138 158 0
141 160 0
148 167 0
142 161 0
148 169 0
150 170 0
133 152 0
146 166 0
143 162 0
143 163 0
144 165 0
147 167 0
140 160 0
145 165 0
142 161 0
144 164 0
148 169 0
142 163 0
144 164 0
142 161 0
154 174 0
143 163 0
141 160 0
144 163 0
148 169 0
141 159 0
145 164 0
142 163 0
142 162 0
143 163 0
140 161 0
154 175 0
146 166 0
147 166 0
144 164 0
145 165 0
147 168 0
137 158 0
142 163 0
141 161 0
141 162 0
140 160 0
150 171 0
138 158 0
139 159 0
139 160 0
146 167 0
141 163 0
139 159 0
143 164 0
139 159 0
136 156 0
140 161 0
143 162 0
136 157 0
141 160 0
143 163 0
143 164 0
139 160 0
139 160 0
143 164 0
145 165 0
133 154 0
138 158 0
144 164 0
139 159 0
146 168 0
141 161 0
130 150 0
145 166 0
143 164 0
132 152 0
130 150 0
150 169 0
139 159 0
128 149 0
135 154 0
139 159 0
144 165 0
141 161 0
135 155 0
130 151 0
138 158 0
137 157 0
131 151 0
138 157 0
128 147 0
137 156 0
128 148 0
134 156 0
129 149 0
137 158 0
134 154 0
134 154 0
142 162 0
136 157 0
135 156 0
135 155 0
133 154 0
126 145 0
130 149 0
133 153 0
138 158 0
129 149 0
131 151 0
135 155 0
125 144 0
133 152 0
124 144 0
135 155 0
125 143 0
134 154 0
132 151 0
135 153 0
131 150 0
135 155 0
134 154 0
135 155 0
121 140 0
135 153 0
123 145 0
124 143 0
117 135 0
135 155 0
120 139 0
125 145 0
128 148 0
129 148 0
116 136 0
117 137 0
120 139 0
127 144 0
118 138 0
127 145 0
128 145 0
129 148 0
128 147 0
120 138 0
122 141 0
126 145 0
121 139 0
130 148 0
119 138 0
129 149 0
129 147 0
117 135 0
132 150 0
121 138 0
123 141 0
130 147 0
122 143 0
128 147 0
127 146 0
133 152 0
129 147 0
133 152 0
126 143 0
126 145 0
122 140 0
120 139 0
131 150 0
113 131 0
123 142 0
128 148 0
126 145 0
124 142 0
130 146 0
130 148 0
129 146 0
120 136 0
133 153 0
137 152 0
125 142 0
132 149 0
138 157 0
125 142 0
136 152 0
135 153 0
123 140 0
132 150 0
126 143 0
133 152 0
144 163 0
136 155 0
132 149 0
137 155 0
142 159 0
138 154 0
136 152 0
131 144 0
133 149 0
130 147 0
124 141 0
132 147 0
131 148 0
140 156 0
133 145 0
139 155 0
137 155 0
126 142 0
133 151 0
133 151 0
144 165 0
130 148 0
132 149 0
139 156 0
138 155 0
134 150 0
133 152 0
131 149 0
146 163 0
135 152 0
138 152 0
138 156 0
144 160 0
142 159 0
136 152 0
131 148 0
135 153 0
136 151 0
139 154 0
131 144 0
140 154 0
135 149 0
135 151 0
147 163 0
142 157 0
132 146 0
146 163 0
130 145 0
148 163 0
143 159 0
138 151 0
137 153 0
133 145 0
136 153 0
141 154 0
138 152 0
146 162 0
139 152 0
136 149 0
148 165 0
144 159 0
137 149 0
145 159 0
143 156 0
140 153 0
135 148 0
137 148 0
146 162 0
144 162 0
137 149 0
142 153 0
148 163 0
139 150 0
153 167 0
140 154 0
144 155 0
143 153 0
143 155 0
145 155 0
147 160 0
139 148 0
147 159 0
144 157 0
146 160 0
147 163 0
140 151 0
150 161 0
137 149 0
147 160 0
141 153 0
145 157 0
146 160 0
144 154 0
140 150 0
147 158 0
147 159 0
144 157 0
149 162 0
143 155 0
143 154 0
147 157 0
143 153 0
141 148 0
145 154 0
143 151 0
137 142 0
144 158 0
143 153 0
144 152 0
147 156 0
144 154 0
143 151 0
145 155 0
148 158 0
144 152 0
148 156 0
148 160 0
154 167 0
139 145 0
146 149 0
144 148 0
147 154 0
143 151 0
153 164 0
142 151 0
138 143 0
144 153 0
144 151 0
151 159 0
149 155 0
142 149 0
143 148 0
148 155 0
147 153 0
139 138 0
141 148 0
146 153 0
147 156 0
138 144 0
141 147 0
154 162 0
148 153 0
146 155 0
150 157 0
146 151 0
152 159 0
146 155 0
146 153 0
148 154 0
149 156 0
149 154 0
150 155 0
147 151 0
146 152 0
156 165 0
146 153 0
148 155 0
144 146 0
154 163 0
146 149 0
148 156 0
151 160 0
144 150 0
154 161 0
149 168 0
148 168 0
154 173 0
152 172 0
142 160 0
151 170 0
147 165 0
150 169 0
150 168 0
150 170 0
151 170 0
143 162 0
152 171 0
151 170 0
148 168 0
144 163 0
146 164 0
145 164 0
148 167 0
150 170 0
146 165 0
146 165 0
146 166 0
149 168 0
142 161 0
146 165 0
150 168 0
145 164 0
147 165 0
147 166 0
146 165 0
137 156 0
144 163 0
145 164 0
146 165 0
141 159 0
143 161 0
142 160 0
145 164 0
142 160 0
147 167 0
148 167 0
142 161 0
150 170 0
148 167 0
145 164 0
145 164 0
146 166 0
144 162 0
144 162 0
147 166 0
148 168 0
151 171 0
147 167 0
151 170 0
143 162 0
144 163 0
145 164 0
146 165 0
140 159 0
146 165 0
145 165 0
140 160 0
141 159 0
142 161 0
136 156 0
145 165 0
140 160 0
145 165 0
142 162 0
143 163 0
148 168 0
150 170 0
146 165 0
141 160 0
149 169 0
147 166 0
147 166 0
147 165 0
149 169 0
143 163 0
141 160 0
145 166 0
141 161 0
144 164 0
149 170 0
139 160 0
143 164 0
138 157 0
142 162 0
145 165 0
143 164 0
145 165 0
143 164 0
143 163 0
145 165 0
141 162 0
138 160 0
139 159 0
143 164 0
139 159 0
140 161 0
140 161 0
139 160 0
149 170 0
140 160 0
135 155 0
134 154 0
142 163 0
141 162 0
142 163 0
141 161 0
143 163 0
134 154 0
138 158 0
140 160 0
147 168 0
128 149 0
143 163 0
146 166 0
136 156 0
138 159 0
130 150 0
139 159 0
137 157 0
138 158 0
144 165 0
132 152 0
140 160 0
132 153 0
137 159 0
125 145 0
142 164 0
146 167 0
132 152 0
133 155 0
143 164 0
136 158 0
142 164 0
137 158 0
131 152 0
141 161 0
139 161 0
133 155 0
137 158 0
131 151 0
140 161 0
133 153 0
137 156 0
133 154 0
132 152 0
137 157 0
135 154 0
127 145 0
124 144 0
127 146 0
135 156 0
131 152 0
128 147 0
132 152 0
137 157 0
131 152 0
129 149 0
131 150 0
130 150 0
126 146 0
132 151 0
139 159 0
118 137 0
129 148 0
126 146 0
126 145 0
121 141 0
129 146 0
121 140 0
122 141 0
118 137 0
133 153 0
135 154 0
123 143 0
128 147 0
124 144 0
130 151 0
130 150 0
127 145 0
124 143 0
133 153 0
131 150 0
121 139 0
133 152 0
132 153 0
126 145 0
132 152 0
134 152 0
128 147 0
135 155 0
115 134 0
113 132 0
129 147 0
123 142 0
124 142 0
124 144 0
145 163 0
131 150 0
124 141 0
132 150 0
124 142 0
125 145 0
124 142 0
131 148 0
121 139 0
125 141 0
131 150 0
118 136 0
130 150 0
126 142 0
124 142 0
127 146 0
121 139 0
125 144 0
137 154 0
126 144 0
127 143 0
131 149 0
125 142 0
122 138 0
135 153 0
134 152 0
134 153 0
133 151 0
134 153 0
135 156 0
128 145 0
131 147 0
127 145 0
126 143 0
132 149 0
131 148 0
118 133 0
132 151 0
137 154 0
133 152 0
133 149 0
127 146 0
129 147 0
135 153 0
131 148 0
139 157 0
135 152 0
138 153 0
129 144 0
118 132 0
138 156 0
136 153 0
126 141 0
122 136 0
135 151 0
134 148 0
141 163 0
137 155 0
136 155 0
133 151 0
137 154 0
135 151 0
123 137 0
137 155 0
138 157 0
141 157 0
136 153 0
135 153 0
141 159 0
146 163 0
139 154 0
140 158 0
133 147 0
141 159 0
135 150 0
138 155 0
141 157 0
145 163 0
135 151 0
146 161 0
135 151 0
135 148 0
145 159 0
131 144 0
136 151 0
142 157 0
146 162 0
139 153 0
137 154 0
138 153 0
142 158 0
139 153 0
138 152 0
142 157 0
138 153 0
138 153 0
143 155 0
145 157 0
151 166 0
136 151 0
149 164 0
138 150 0
146 160 0
148 162 0
133 143 0
142 155 0
137 149 0
145 159 0
148 161 0
137 148 0
140 150 0
144 155 0
143 156 0
146 157 0
148 163 0
145 158 0
139 150 0
146 163 0
149 165 0
145 156 0
140 151 0
133 145 0
144 153 0
144 157 0
140 151 0
145 159 0
146 158 0
146 157 0
141 150 0
147 156 0
141 151 0
151 163 0
137 151 0
143 152 0
135 145 0
146 157 0
139 150 0
138 147 0
149 160 0
140 149 0
146 158 0
136 144 0
133 140 0
147 154 0
145 153 0
145 156 0
145 154 0
142 147 0
149 161 0
140 148 0
141 149 0
146 155 0
145 152 0
153 165 0
147 156 0
149 157 0
141 149 0
148 157 0
142 149 0
150 157 0
142 151 0
149 158 0
142 148 0
145 153 0
145 153 0
147 155 0
145 151 0
146 153 0
143 144 0
151 159 0
147 151 0
147 156 0
148 155 0
148 157 0
149 159 0
154 165 0
149 156 0
140 143 0
148 156 0
150 157 0
144 150 0
145 149 0
149 158 0
149 155 0
149 159 0
151 156 0
149 155 0
154 163 0
150 160 0
146 152 0
142 150 0
144 147 0
151 158 0
147 152 0
149 158 0
150 158 0
150 156 0
155 164 0
156 177 0
155 175 0
145 165 0
147 165 0
147 165 0
152 171 0
148 166 0
148 168 0
148 167 0
146 165 0
150 169 0
151 171 0
151 171 0
149 168 0
155 175 0
142 161 0
144 162 0
147 166 0
141 160 0
150 168 0
148 166 0
149 168 0
147 167 0
146 166 0
143 162 0
146 165 0
142 160 0
148 167 0
152 171 0
150 169 0
143 163 0
145 165 0
149 168 0
148 168 0
141 161 0
145 164 0
146 165 0
144 163 0
148 167 0
148 167 0
151 171 0
146 165 0
145 165 0
146 165 0
146 165 0
144 164 0
143 163 0
143 162 0
146 165 0
146 165 0
147 166 0
144 164 0
152 172 0
138 156 0
147 166 0
139 158 0
149 169 0
145 165 0
148 168 0
141 161 0
150 172 0
150 170 0
144 163 0
149 168 0
144 164 0
149 168 0
150 170 0
149 170 0
142 162 0
140 159 0
147 166 0
147 167 0
140 161 0
142 162 0
136 157 0
145 166 0
148 169 0
144 164 0
149 169 0
141 162 0
137 157 0
145 167 0
144 165 0
141 160 0
143 164 0
144 164 0
145 166 0
143 163 0
143 163 0
146 167 0
139 158 0
140 160 0
142 163 0
140 161 0
141 162 0
143 163 0
138 159 0
148 169 0
142 162 0
143 164 0
143 165 0
147 168 0
140 161 0
141 161 0
145 166 0
142 163 0
141 163 0
141 162 0
146 167 0
144 163 0
150 169 0
143 164 0
143 164 0
140 161 0
137 158 0
136 156 0
140 160 0
139 161 0
133 154 0
140 160 0
135 154 0
141 162 0
141 161 0
144 164 0
135 156 0
152 172 0
131 151 0
138 159 0
138 159 0
142 164 0
144 164 0
133 153 0
137 158 0
143 164 0
129 149 0
133 153 0
137 159 0
130 149 0
140 161 0
142 163 0
129 150 0
139 160 0
142 162 0
136 156 0
127 148 0
130 150 0
134 154 0
130 150 0
133 154 0
130 150 0
135 155 0
133 154 0
127 147 0
131 150 0
141 163 0
142 162 0
137 158 0
132 152 0
126 148 0
135 156 0
135 155 0
118 139 0
127 147 0
136 157 0
128 148 0
128 148 0
134 153 0
131 151 0
135 157 0
126 146 0
130 150 0
134 155 0
130 151 0
131 151 0
135 155 0
134 154 0
129 149 0
124 143 0
131 151 0
124 144 0
115 134 0
137 157 0
130 149 0
133 153 0
124 143 0
127 146 0
139 160 0
133 152 0
123 142 0
139 159 0
131 151 0
123 142 0
130 150 0
126 144 0
129 148 0
121 139 0
131 152 0
139 159 0
136 157 0
126 144 0
128 148 0
121 139 0
127 146 0
124 142 0
123 142 0
130 148 0
127 146 0
128 147 0
128 146 0
125 144 0
129 148 0
134 153 0
131 149 0
126 143 0
134 153 0
132 151 0
127 145 0
123 141 0
113 132 0
133 152 0
130 145 0
129 148 0
119 137 0
123 143 0
123 141 0
128 146 0
125 142 0
127 144 0
123 142 0
130 146 0
126 143 0
133 151 0
133 150 0
137 153 0
136 156 0
129 145 0
142 159 0
127 143 0
128 147 0
134 151 0
134 150 0
130 145 0
134 152 0
135 152 0
137 153 0
132 149 0
131 149 0
136 152 0
139 157 0
132 150 0
140 158 0
137 155 0
139 155 0
126 143 0
133 149 0
138 154 0
132 151 0
133 149 0
139 158 0
131 148 0
138 154 0
130 145 0
133 149 0
134 150 0
143 160 0
144 164 0
136 153 0
131 147 0
137 152 0
139 156 0
139 156 0
133 149 0
135 152 0
141 157 0
139 152 0
145 163 0
144 161 0
145 164 0
143 161 0
140 157 0
140 157 0
134 148 0
132 146 0
132 148 0
137 152 0
147 161 0
139 152 0
144 160 0
141 157 0
128 142 0
133 147 0
135 149 0
145 157 0
138 154 0
144 160 0
138 154 0
141 155 0
145 160 0
134 148 0
146 158 0
152 168 0
141 152 0
145 158 0
146 159 0
137 150 0
148 162 0
145 160 0
138 155 0
135 148 0
143 154 0
143 157 0
143 157 0
146 157 0
146 161 0
145 160 0
142 156 0
140 153 0
140 152 0
137 150 0
144 155 0
130 139 0
146 158 0
141 153 0
145 155 0
147 160 0
140 153 0
145 155 0
144 155 0
136 148 0
140 152 0
138 153 0
152 168 0
148 158 0
151 162 0
130 136 0
144 155 0
140 152 0
147 160 0
141 154 0
144 152 0
151 163 0
150 163 0
145 155 0
144 154 0
139 147 0
144 154 0
153 161 0
148 159 0
147 156 0
142 152 0
143 154 0
142 151 0
144 154 0
146 157 0
151 161 0
144 153 0
145 154 0
148 159 0
146 157 0
156 169 0
144 155 0
143 151 0
142 148 0
145 155 0
145 154 0
148 155 0
142 148 0
152 161 0
146 154 0
141 147 0
145 150 0
139 143 0
142 147 0
146 154 0
152 162 0
150 160 0
145 152 0
143 149 0
142 148 0
152 163 0
153 160 0
151 159 0
147 156 0
149 155 0
145 149 0
148 155 0
149 153 0
146 153 0
144 149 0
149 158 0
149 157 0
149 156 0
152 158 0
145 148 0
145 150 0
150 157 0
148 155 0
152 158 0
148 153 0
145 152 0
150 169 0
145 163 0
154 173 0
146 165 0
153 172 0
150 169 0
143 162 0
152 171 0
148 168 0
146 164 0
152 171 0
150 170 0
152 171 0
148 166 0
147 167 0
149 168 0
144 162 0
147 166 0
142 162 0
149 168 0
145 164 0
147 166 0
152 171 0
145 163 0
150 169 0
151 171 0
144 163 0
149 169 0
150 169 0
141 159 0
151 170 0
150 170 0
146 165 0
146 166 0
153 172 0
147 166 0
148 167 0
143 163 0
145 165 0
136 154 0
150 170 0
155 175 0
145 165 0
152 172 0
147 166 0
156 175 0
154 173 0
146 166 0
147 167 0
144 164 0
148 168 0
144 163 0
145 165 0
151 171 0
148 169 0
148 168 0
150 170 0
148 168 0
142 162 0
145 164 0
148 169 0
150 171 0
155 176 0
143 162 0
143 161 0
144 164 0
143 162 0
144 165 0
140 160 0
142 162 0
140 160 0
150 170 0
151 171 0
144 163 0
143 164 0
141 160 0
135 155 0
145 165 0
142 161 0
148 169 0
144 164 0
140 160 0
145 167 0
138 157 0
137 157 0
147 167 0
139 160 0
146 167 0
151 173 0
136 157 0
139 160 0
145 166 0
148 169 0
139 160 0
145 165 0
154 176 0
140 161 0
144 164 0
133 153 0
141 161 0
145 166 0
146 167 0
144 164 0
136 156 0
139 159 0
141 161 0
130 150 0
137 157 0
144 165 0
131 151 0
142 163 0
137 157 0
140 161 0
141 162 0
142 163 0
143 164 0
142 163 0
140 161 0
136 155 0
134 153 0
137 158 0
143 162 0
137 159 0
132 153 0
143 163 0
131 151 0
141 162 0
139 160 0
133 153 0
129 148 0
135 154 0
141 162 0
144 165 0
143 164 0
142 163 0
134 154 0
132 152 0
132 152 0
142 164 0
139 158 0
124 145 0
130 151 0
128 147 0
134 154 0
134 154 0
137 157 0
135 155 0
142 163 0
129 149 0
135 155 0
132 152 0
136 156 0
139 159 0
125 147 0
137 158 0
131 150 0
129 148 0
127 147 0
131 151 0
124 145 0
122 140 0
132 152 0
137 157 0
125 144 0
138 158 0
129 149 0
125 144 0
128 147 0
134 153 0
128 147 0
124 144 0
136 157 0
131 150 0
140 159 0
121 142 0
137 157 0
129 151 0
133 154 0
130 150 0
133 154 0
143 162 0
125 144 0
130 149 0
129 147 0
138 157 0
136 155 0
138 157 0
123 142 0
131 150 0
138 158 0
128 147 0
127 146 0
124 141 0
119 140 0
129 147 0
129 149 0
132 152 0
131 151 0
130 149 0
129 149 0
129 148 0
127 146 0
126 147 0
126 143 0
127 145 0
131 149 0
125 142 0
132 150 0
140 159 0
126 141 0
122 142 0
131 148 0
130 151 0
138 156 0
130 149 0
133 152 0
128 144 0
125 144 0
127 142 0
137 156 0
126 146 0
134 152 0
131 149 0
128 146 0
129 148 0
129 149 0
124 141 0
134 153 0
124 141 0
126 144 0
135 152 0
135 152 0
124 142 0
129 147 0
135 154 0
136 153 0
140 159 0
137 156 0
132 149 0
136 153 0
136 154 0
127 143 0
124 141 0
127 147 0
143 159 0
131 148 0
125 141 0
132 146 0
129 146 0
130 146 0
131 148 0
136 154 0
139 158 0
129 145 0
130 148 0
126 143 0
136 152 0
139 156 0
129 144 0
138 152 0
138 154 0
133 147 0
144 159 0
143 160 0
131 146 0
142 160 0
136 152 0
131 145 0
145 161 0
131 147 0
144 160 0
126 140 0
140 157 0
139 154 0
143 159 0
142 158 0
141 160 0
130 144 0
142 161 0
137 153 0
130 145 0
136 152 0
139 155 0
150 165 0
142 156 0
137 152 0
142 156 0
140 154 0
135 150 0
145 161 0
143 155 0
142 157 0
143 158 0
148 163 0
145 160 0
141 159 0
145 163 0
138 152 0
151 166 0
140 155 0
145 160 0
143 157 0
146 161 0
145 159 0
144 158 0
131 139 0
138 152 0
145 159 0
140 155 0
149 163 0
146 158 0
149 165 0
143 156 0
149 162 0
139 152 0
140 155 0
141 157 0
144 159 0
148 162 0
145 160 0
147 163 0
132 142 0
141 152 0
149 163 0
142 158 0
144 157 0
145 156 0
144 154 0
147 162 0
145 156 0
145 158 0
147 161 0
143 154 0
154 167 0
138 151 0
137 147 0
154 170 0
139 150 0
146 155 0
146 158 0
143 155 0
147 159 0
145 154 0
147 156 0
152 165 0
141 152 0
147 156 0
144 154 0
143 153 0
145 154 0
145 156 0
147 158 0
147 158 0
134 139 0
144 153 0
145 155 0
144 157 0
145 154 0
148 158 0
144 152 0
145 152 0
152 161 0
148 157 0
146 156 0
149 156 0
143 151 0
142 153 0
150 158 0
145 149 0
148 155 0
150 158 0
146 154 0
147 154 0
147 155 0
146 153 0
145 152 0
146 154 0
143 148 0
150 161 0
149 157 0
147 157 0
154 164 0
152 162 0
149 155 0
150 160 0
153 163 0
147 155 0
144 150 0
151 159 0
148 157 0
147 151 0
148 155 0
150 157 0
153 160 0
153 162 0
148 153 0
149 157 0
147 155 0
145 153 0
150 157 0
153 173 0
153 172 0
148 167 0
151 171 0
146 165 0
151 171 0
149 168 0
154 174 0
145 163 0
153 172 0
148 167 0
152 171 0
151 171 0
147 166 0
147 167 0
150 169 0
149 168 0
148 168 0
142 161 0
152 171 0
150 170 0
145 164 0
144 162 0
149 168 0
147 166 0
147 166 0
141 160 0
146 166 0
143 163 0
152 171 0
149 168 0
148 168 0
143 163 0
150 169 0
152 172 0
153 173 0
148 168 0
143 162 0
139 158 0
144 163 0
151 171 0
145 165 0
147 166 0
153 174 0
150 169 0
146 166 0
146 166 0
147 167 0
153 173 0
153 173 0
147 166 0
143 163 0
139 157 0
143 163 0
147 166 0
146 168 0
146 166 0
153 173 0
141 161 0
157 179 0
147 168 0
142 161 0
145 166 0
144 163 0
144 163 0
149 170 0
145 165 0
137 157 0
141 161 0
142 162 0
138 158 0
146 165 0
145 164 0
147 167 0
147 168 0
139 160 0
146 167 0
136 156 0
142 163 0
145 166 0
146 166 0
142 163 0
140 160 0
141 161 0
150 170 0
144 165 0
144 165 0
141 162 0
141 162 0
140 160 0
145 166 0
145 167 0
146 166 0
142 163 0
144 163 0
149 170 0
144 164 0
146 167 0
145 166 0
146 167 0
136 156 0
142 164 0
141 162 0
145 165 0
147 167 0
141 163 0
141 162 0
137 159 0
146 166 0
145 165 0
148 168 0
139 159 0
146 166 0
146 167 0
147 168 0
142 162 0
146 167 0
140 161 0
138 158 0
134 154 0
144 164 0
141 162 0
136 156 0
144 166 0
143 164 0
139 160 0
142 163 0
137 157 0
142 163 0
143 164 0
139 159 0
135 157 0
139 160 0
139 160 0
137 158 0
138 159 0
133 154 0
139 159 0
139 159 0
143 163 0
141 162 0
135 156 0
134 155 0
135 155 0
142 163 0
138 157 0
136 157 0
132 151 0
135 156 0
137 158 0
130 150 0
132 152 0
135 156 0
135 155 0
135 155 0
128 148 0
132 152 0
126 146 0
136 156 0
138 160 0
136 156 0
119 139 0
132 154 0
140 160 0
126 147 0
139 159 0
134 156 0
128 148 0
128 148 0
134 154 0
133 152 0
124 144 0
130 150 0
127 146 0
135 153 0
138 158 0
128 148 0
137 157 0
129 149 0
126 146 0
139 159 0
126 145 0
135 155 0
136 156 0
129 149 0
123 143 0
124 144 0
133 153 0
135 154 0
133 153 0
128 147 0
130 149 0
133 151 0
140 159 0
130 149 0
126 146 0
132 150 0
120 139 0
120 139 0
120 139 0
126 146 0
135 155 0
127 143 0
133 154 0
128 148 0
135 154 0
129 148 0
130 148 0
124 142 0
130 150 0
133 152 0
124 143 0
131 149 0
126 144 0
121 139 0
131 151 0
128 148 0
132 150 0
129 149 0
146 166 0
129 147 0
131 149 0
135 153 0
126 144 0
129 148 0
127 145 0
136 154 0
125 145 0
132 149 0
125 141 0
135 154 0
127 143 0
125 144 0
139 157 0
135 153 0
128 147 0
134 153 0
129 147 0
132 150 0
136 154 0
137 156 0
124 142 0
142 163 0
135 152 0
132 150 0
139 158 0
140 157 0
129 149 0
126 139 0
143 162 0
132 148 0
134 150 0
133 151 0
134 149 0
134 150 0
134 153 0
131 148 0
124 141 0
138 156 0
139 158 0
136 154 0
135 152 0
131 148 0
135 152 0
150 167 0
137 152 0
139 157 0
140 152 0
144 160 0
138 154 0
138 155 0
142 158 0
139 156 0
130 146 0
142 159 0
134 151 0
138 154 0
138 155 0
131 146 0
139 155 0
146 164 0
145 162 0
136 151 0
142 157 0
132 145 0
143 159 0
146 160 0
143 159 0
146 163 0
138 153 0
145 160 0
133 148 0
148 162 0
142 157 0
143 158 0
142 155 0
142 157 0
145 159 0
147 161 0
141 157 0
147 161 0
148 164 0
144 157 0
144 158 0
145 160 0
143 158 0
142 158 0
138 151 0
142 157 0
148 164 0
136 149 0
143 156 0
143 157 0
149 161 0
148 161 0
153 167 0
149 165 0
148 160 0
141 154 0
141 156 0
140 154 0
143 155 0
148 162 0
142 155 0
147 161 0
147 161 0
154 170 0
144 157 0
149 160 0
140 150 0
140 150 0
135 144 0
146 158 0
145 157 0
148 161 0
146 160 0
136 145 0
153 164 0
141 151 0
145 158 0
154 167 0
145 157 0
150 159 0
144 155 0
152 163 0
144 156 0
144 153 0
147 160 0
148 159 0
142 152 0
145 155 0
150 157 0
150 162 0
150 161 0
147 159 0
145 153 0
151 160 0
148 158 0
147 154 0
146 153 0
139 149 0
146 157 0
144 151 0
149 159 0
146 154 0
149 158 0
144 155 0
151 159 0
149 158 0
144 154 0
147 157 0
143 148 0
147 155 0
153 160 0
151 158 0
153 165 0
145 152 0
149 155 0
149 159 0
150 158 0
143 147 0
143 145 0
152 156 0
152 165 0
151 158 0
145 152 0
152 160 0
147 155 0
150 160 0
152 161 0
159 169 0
148 157 0
145 151 0
151 163 0
153 162 0
154 162 0
152 163 0
148 154 0
150 157 0
151 157 0
155 174 0
142 160 0
147 166 0
147 167 0
152 171 0
150 170 0
152 171 0
150 169 0
148 166 0
155 175 0
146 166 0
152 172 0
147 167 0
141 160 0
145 163 0
155 175 0
153 172 0
150 169 0
151 172 0
153 174 0
143 162 0
144 163 0
149 168 0
144 163 0
147 166 0
149 169 0
150 168 0
151 170 0
141 161 0
149 168 0
144 164 0
147 166 0
152 172 0
145 164 0
146 166 0
141 161 0
150 169 0
145 165 0
155 175 0
145 165 0
149 170 0
146 165 0
145 163 0
144 164 0
146 166 0
146 166 0
145 165 0
142 162 0
145 165 0
149 169 0
140 161 0
141 161 0
144 163 0
143 163 0
137 157 0
141 160 0
144 164 0
144 164 0
138 158 0
140 159 0
145 165 0
145 165 0
149 169 0
152 173 0
147 167 0
144 164 0
149 169 0
148 169 0
147 168 0
151 172 0
147 167 0
151 172 0
140 160 0
145 165 0
146 167 0
137 158 0
141 161 0
147 168 0
147 168 0
143 163 0
144 165 0
141 162 0
149 169 0
149 170 0
141 161 0
141 160 0
146 165 0
144 164 0
140 160 0
139 159 0
148 169 0
147 167 0
138 158 0
145 167 0
142 163 0
144 166 0
145 166 0
141 161 0
144 165 0
146 168 0
139 160 0
145 165 0
149 170 0
148 169 0
132 153 0
137 158 0
144 165 0
149 170 0
146 167 0
144 165 0
140 162 0
138 158 0
142 163 0
142 163 0
128 149 0
140 161 0
142 162 0
136 157 0
140 161 0
140 161 0
139 160 0
143 165 0
143 164 0
145 166 0
146 166 0
144 164 0
134 155 0
132 152 0
145 165 0
140 160 0
136 155 0
133 153 0
140 161 0
130 150 0
142 163 0
127 148 0
145 165 0
139 159 0
137 157 0
139 158 0
138 159 0
133 153 0
140 160 0
139 160 0
143 164 0
144 164 0
140 161 0
138 159 0
128 148 0
134 155 0
141 162 0
129 149 0
141 163 0
138 158 0
132 152 0
133 154 0
130 150 0
132 152 0
135 155 0
134 156 0
129 148 0
132 154 0
132 152 0
127 149 0
135 154 0
133 151 0
131 150 0
133 152 0
137 157 0
139 158 0
133 153 0
132 152 0
133 152 0
136 156 0
129 149 0
135 155 0
126 145 0
131 150 0
127 148 0
136 156 0
126 146 0
132 151 0
124 143 0
132 152 0
130 150 0
127 148 0
134 154 0
136 156 0
134 152 0
127 148 0
133 152 0
139 157 0
133 151 0
124 142 0
134 154 0
129 151 0
129 149 0
136 156 0
133 152 0
126 145 0
140 160 0
124 144 0
132 150 0
139 158 0
120 139 0
127 147 0
136 156 0
125 144 0
131 152 0
135 154 0
138 157 0
117 136 0
149 168 0
122 142 0
124 143 0
127 145 0
130 148 0
125 145 0
127 146 0
126 146 0
123 141 0
134 152 0
129 147 0
129 147 0
129 145 0
142 161 0
126 145 0
127 143 0
135 154 0
131 149 0
128 147 0
133 152 0
143 160 0
133 152 0
133 150 0
135 154 0
130 148 0
126 144 0
131 149 0
134 152 0
132 152 0
134 151 0
140 160 0
132 150 0
133 152 0
139 158 0
131 148 0
131 147 0
129 147 0
137 156 0
129 145 0
134 151 0
134 151 0
140 158 0
139 157 0
131 149 0
146 164 0
138 155 0
143 162 0
132 148 0
139 156 0
142 158 0
136 152 0
140 159 0
142 157 0
137 155 0
137 153 0
139 155 0
136 152 0
145 162 0
139 154 0
133 149 0
138 155 0
142 159 0
138 154 0
133 150 0
136 151 0
143 160 0
153 170 0
137 154 0
141 156 0
143 160 0
146 162 0
143 158 0
141 156 0
133 148 0
141 157 0
142 158 0
139 155 0
132 147 0
138 155 0
140 158 0
146 161 0
146 164 0
149 165 0
142 157 0
146 163 0
148 163 0
150 168 0
141 158 0
135 147 0
143 156 0
150 164 0
138 151 0
145 160 0
140 154 0
144 159 0
137 153 0
144 158 0
147 161 0
145 159 0
139 153 0
142 157 0
151 167 0
147 162 0
150 164 0
150 167 0
139 153 0
150 164 0
146 159 0
148 165 0
144 160 0
148 162 0
145 158 0
148 163 0
146 161 0
145 160 0
150 162 0
149 165 0
149 160 0
137 152 0
147 160 0
145 157 0
137 147 0
138 151 0
141 151 0
139 149 0
138 147 0
140 150 0
152 167 0
137 146 0
148 159 0
150 160 0
147 158 0
143 155 0
147 157 0
149 162 0
150 163 0
149 161 0
148 159 0
137 146 0
146 154 0
145 155 0
144 153 0
147 155 0
149 161 0
147 159 0
146 155 0
144 152 0
149 159 0
146 155 0
146 158 0
149 158 0
142 152 0
156 167 0
149 161 0
145 159 0
141 148 0
157 167 0
146 152 0
148 157 0
148 158 0
148 156 0
150 158 0
141 145 0
147 157 0
147 157 0
151 161 0
147 156 0
148 154 0
148 157 0
149 157 0
147 155 0
149 159 0
145 153 0
152 162 0
148 156 0
149 157 0
143 152 0
145 152 0
144 152 0
145 153 0
150 159 0
146 152 0
146 156 0
150 159 0
148 155 0
147 157 0
148 156 0
148 156 0
144 163 0
150 170 0
148 166 0
149 168 0
161 182 0
150 169 0
153 173 0
148 167 0
146 165 0
153 173 0
145 164 0
150 169 0
155 175 0
147 165 0
148 168 0
147 166 0
147 166 0
152 170 0
155 175 0
152 171 0
150 169 0
150 169 0
149 168 0
151 171 0
148 168 0
146 166 0
148 168 0
150 170 0
143 162 0
146 165 0
149 170 0
151 171 0
151 171 0
139 158 0
151 171 0
150 170 0
149 169 0
143 162 0
144 163 0
147 166 0
142 161 0
144 163 0
146 166 0
151 171 0
149 168 0
150 169 0
144 164 0
151 171 0
146 165 0
152 173 0
143 163 0
148 168 0
149 170 0
144 163 0
144 164 0
138 158 0
148 168 0
143 164 0
149 170 0
150 171 0
151 171 0
149 170 0
149 170 0
145 165 0
141 161 0
140 160 0
146 167 0
144 164 0
147 168 0
149 169 0
145 167 0
146 165 0
145 166 0
145 164 0
142 162 0
149 169 0
146 167 0
142 163 0
142 162 0
147 167 0
144 163 0
138 157 0
143 164 0
150 171 0
144 164 0
139 160 0
142 163 0
136 157 0
145 166 0
144 164 0
139 157 0
151 172 0
136 157 0
144 165 0
149 170 0
140 160 0
134 154 0
143 164 0
134 154 0
154 176 0
147 167 0
142 163 0
147 167 0
130 151 0
145 166 0
148 169 0
147 168 0
138 158 0
143 164 0
139 160 0
142 162 0
140 160 0
147 167 0
142 162 0
138 160 0
150 172 0
138 160 0
137 157 0
139 159 0
138 158 0
146 167 0
142 163 0
143 164 0
134 154 0
135 155 0
141 162 0
144 166 0
139 160 0
135 156 0
139 161 0
139 160 0
127 148 0
139 160 0
144 165 0
141 163 0
139 160 0
143 165 0
142 163 0
137 157 0
141 162 0
140 159 0
131 151 0
142 162 0
140 161 0
144 165 0
142 162 0
140 161 0
137 158 0
134 154 0
144 165 0
134 154 0
132 151 0
139 159 0
140 159 0
131 151 0
131 151 0
132 154 0
133 153 0
129 149 0
135 157 0
139 159 0
135 155 0
134 154 0
141 160 0
135 155 0
139 160 0
134 154 0
133 152 0
136 156 0
137 156 0
126 146 0
138 160 0
129 150 0
142 162 0
135 155 0
134 155 0
132 152 0
125 145 0
132 152 0
132 151 0
132 153 0
136 155 0
136 157 0
124 143 0
128 148 0
131 150 0
124 144 0
141 160 0
133 152 0
131 149 0
138 159 0
125 145 0
134 153 0
129 149 0
137 158 0
136 155 0
132 151 0
136 156 0
140 160 0
133 151 0
135 154 0
136 155 0
127 148 0
121 140 0
132 152 0
133 151 0
137 158 0
135 154 0
132 152 0
133 152 0
136 155 0
126 145 0
129 148 0
133 151 0
138 158 0
134 154 0
135 155 0
128 145 0
144 162 0
141 162 0
134 153 0
129 148 0
137 155 0
142 160 0
134 151 0
137 156 0
132 150 0
132 151 0
128 145 0
141 161 0
134 152 0
129 148 0
130 147 0
132 150 0
133 151 0
139 156 0
137 155 0
127 144 0
139 159 0
137 156 0
140 158 0
137 155 0
125 143 0
135 151 0
135 154 0
137 156 0
138 155 0
137 154 0
134 152 0
132 147 0
136 154 0
142 158 0
131 149 0
139 156 0
148 166 0
129 146 0
138 158 0
135 154 0
143 160 0
130 146 0
148 167 0
133 148 0
129 145 0
144 162 0
133 152 0
139 156 0
138 155 0
148 164 0
137 153 0
139 158 0
139 153 0
136 152 0
133 148 0
145 160 0
138 156 0
145 163 0
141 158 0
144 160 0
138 154 0
134 150 0
139 155 0
146 162 0
139 152 0
133 148 0
139 155 0
149 164 0
143 160 0
149 165 0
140 155 0
138 154 0
142 159 0
140 156 0
142 161 0
148 165 0
141 156 0
144 161 0
142 154 0
141 155 0
141 155 0
151 167 0
143 156 0
133 146 0
148 163 0
147 159 0
137 153 0
142 155 0
148 164 0
137 150 0
145 157 0
141 157 0
140 153 0
143 158 0
142 157 0
145 160 0
140 153 0
146 162 0
148 163 0
141 153 0
140 151 0
137 151 0
142 156 0
140 153 0
148 161 0
148 164 0
143 153 0
143 155 0
141 153 0
146 159 0
140 149 0
158 173 0
146 160 0
149 162 0
147 162 0
148 158 0
149 162 0
147 157 0
148 159 0
145 154 0
149 162 0
145 157 0
145 156 0
140 151 0
142 149 0
150 163 0
146 156 0
145 157 0
146 158 0
149 160 0
142 153 0
141 151 0
144 155 0
146 156 0
143 150 0
148 159 0
150 164 0
140 151 0
147 162 0
150 161 0
143 152 0
148 159 0
151 164 0
148 157 0
150 159 0
146 155 0
146 155 0
148 156 0
148 155 0
150 160 0
151 162 0
152 162 0
149 159 0
146 158 0
153 164 0
151 166 0
147 155 0
149 161 0
145 153 0
144 150 0
147 158 0
145 154 0
144 154 0
143 149 0
143 149 0
148 159 0
148 157 0
152 159 0
152 162 0
149 159 0
150 158 0
150 157 0
144 154 0
144 154 0
144 150 0
154 164 0
145 152 0
150 153 0
150 159 0
144 149 0
146 152 0
145 150 0
159 179 0
151 170 0
154 174 0
148 167 0
153 173 0
148 167 0
147 166 0
148 166 0
146 165 0
148 168 0
148 167 0
150 170 0
147 167 0
143 164 0
147 166 0
153 173 0
150 170 0
147 167 0
144 163 0
151 171 0
148 168 0
145 165 0
153 173 0
142 161 0
153 173 0
150 170 0
151 171 0
152 171 0
141 160 0
144 164 0
150 170 0
149 169 0
136 154 0
145 165 0
149 169 0
148 168 0
151 171 0
144 164 0
146 166 0
146 166 0
150 171 0
143 163 0
152 172 0
153 173 0
147 168 0
145 165 0
149 169 0
141 161 0
151 172 0
147 167 0
156 176 0
155 176 0
146 167 0
151 172 0
147 167 0
149 170 0
153 174 0
151 170 0
148 168 0
141 162 0
140 161 0
146 166 0
143 163 0
149 169 0
149 170 0
142 163 0
146 166 0
148 170 0
146 166 0
147 166 0
149 169 0
148 168 0
150 171 0
145 166 0
153 172 0
142 161 0
147 168 0
151 172 0
147 168 0
144 165 0
152 173 0
147 168 0
145 165 0
140 162 0
146 167 0
153 173 0
148 170 0
141 161 0
140 159 0
150 172 0
151 172 0
142 164 0
146 166 0
152 173 0
145 166 0
151 172 0
141 161 0
144 165 0
143 165 0
141 162 0
142 162 0
139 159 0
140 161 0
146 165 0
142 162 0
143 165 0
143 164 0
140 160 0
147 169 0
143 164 0
147 167 0
140 160 0
142 164 0
144 165 0
141 162 0
142 162 0
139 161 0
145 166 0
143 163 0
147 167 0
148 169 0
147 168 0
131 150 0
142 162 0
134 154 0
140 159 0
136 158 0
144 166 0
142 163 0
144 165 0
138 158 0
140 160 0
135 156 0
143 164 0
147 168 0
132 151 0
140 160 0
142 163 0
131 152 0
137 158 0
148 169 0
142 162 0
143 163 0
128 148 0
134 155 0
143 164 0
139 159 0
139 161 0
151 172 0
140 161 0
137 157 0
140 161 0
127 148 0
139 160 0
137 157 0
138 158 0
129 150 0
145 165 0
130 150 0
136 155 0
139 158 0
131 152 0
134 154 0
145 165 0
137 158 0
126 145 0
135 155 0
139 160 0
140 160 0
134 153 0
141 159 0
126 146 0
145 164 0
131 150 0
134 154 0
125 145 0
135 157 0
136 156 0
139 159 0
136 155 0
135 154 0
147 168 0
135 156 0
137 157 0
133 152 0
127 148 0
126 145 0
132 152 0
139 160 0
130 149 0
135 155 0
133 154 0
131 150 0
129 148 0
134 154 0
132 152 0
128 148 0
131 149 0
130 150 0
133 152 0
133 151 0
127 147 0
139 158 0
125 142 0
134 154 0
138 157 0
130 148 0
143 161 0
129 145 0
134 153 0
130 147 0
128 146 0
130 149 0
134 154 0
129 149 0
131 150 0
133 151 0
134 153 0
137 157 0
139 155 0
141 159 0
134 153 0
131 149 0
130 148 0
121 138 0
135 156 0
135 153 0
131 150 0
133 152 0
133 150 0
130 147 0
133 150 0
137 154 0
134 154 0
133 152 0
130 150 0
129 146 0
138 157 0
137 154 0
137 154 0
134 151 0
131 146 0
131 149 0
124 141 0
133 152 0
136 152 0
133 151 0
128 143 0
140 159 0
141 160 0
138 155 0
134 153 0
139 156 0
130 146 0
143 159 0
135 152 0
130 148 0
142 159 0
143 160 0
143 162 0
142 159 0
130 147 0
132 148 0
143 161 0
143 161 0
131 148 0
133 150 0
143 162 0
142 159 0
141 159 0
139 156 0
131 148 0
144 161 0
135 154 0
145 161 0
136 150 0
141 158 0
144 162 0
140 156 0
137 152 0
138 154 0
128 143 0
147 165 0
143 159 0
140 158 0
140 155 0
145 161 0
142 156 0
144 161 0
146 163 0
143 157 0
144 161 0
132 148 0
138 153 0
148 163 0
142 158 0
143 158 0
137 152 0
147 163 0
146 161 0
144 158 0
145 160 0
144 160 0
140 155 0
142 158 0
142 156 0
141 155 0
153 169 0
150 166 0
146 161 0
141 157 0
142 155 0
146 161 0
146 160 0
145 160 0
140 152 0
143 153 0
145 160 0
145 159 0
140 156 0
142 151 0
145 160 0
145 158 0
144 159 0
143 160 0
147 159 0
144 157 0
151 165 0
145 157 0
136 147 0
146 160 0
143 155 0
145 157 0
147 161 0
146 158 0
144 153 0
151 165 0
144 158 0
142 152 0
144 157 0
147 163 0
146 158 0
141 151 0
154 170 0
140 148 0
149 158 0
148 161 0
144 151 0
144 154 0
150 159 0
143 152 0
149 162 0
151 163 0
150 164 0
147 157 0
154 168 0
149 159 0
145 155 0
148 159 0
145 153 0
142 151 0
149 158 0
142 148 0
146 160 0
147 158 0
149 163 0
151 166 0
152 165 0
149 159 0
149 162 0
146 153 0
143 152 0
151 162 0
145 156 0
144 152 0
149 158 0
148 153 0
145 154 0
149 157 0
141 151 0
148 156 0
143 153 0
144 151 0
150 157 0
151 162 0
149 159 0
153 163 0
151 160 0
150 160 0
145 152 0
152 162 0
146 157 0
148 154 0
151 162 0
144 150 0
151 162 0
151 162 0
154 165 0
151 162 0
151 164 0
148 167 0
153 172 0
153 173 0
146 167 0
146 165 0
145 164 0
155 174 0
150 169 0
147 167 0
147 166 0
155 174 0
149 168 0
152 171 0
151 170 0
150 170 0
148 168 0
151 170 0
157 177 0
153 173 0
151 170 0
141 159 0
144 164 0
141 161 0
153 172 0
141 162 0
150 170 0
149 170 0
148 168 0
151 171 0
144 163 0
143 164 0
151 170 0
146 167 0
152 172 0
142 162 0
151 171 0
147 167 0
144 163 0
153 172 0
147 167 0
156 176 0
145 166 0
148 167 0
150 171 0
150 171 0
149 169 0
142 162 0
149 170 0
144 164 0
148 167 0
142 161 0
148 168 0
145 166 0
149 169 0
141 161 0
146 166 0
151 171 0
149 170 0
142 162 0
150 171 0
149 170 0
148 168 0
149 169 0
148 169 0
141 161 0
144 164 0
144 164 0
146 166 0
151 171 0
147 168 0
151 171 0
145 165 0
147 168 0
147 167 0
146 166 0
149 169 0
147 169 0
144 164 0
145 165 0
142 163 0
147 168 0
143 163 0
144 164 0
143 164 0
146 166 0
140 161 0
149 170 0
149 170 0
147 168 0
141 162 0
145 166 0
145 166 0
146 166 0
147 168 0
142 164 0
152 173 0
138 158 0
137 157 0
128 148 0
145 165 0
148 169 0
150 172 0
148 170 0
147 167 0
135 156 0
136 157 0
138 159 0
143 163 0
143 165 0
144 164 0
131 150 0
137 158 0
142 163 0
145 165 0
140 163 0
141 161 0
145 167 0
142 162 0
150 171 0
142 162 0
138 159 0
142 162 0
143 165 0
134 155 0
146 167 0
147 169 0
133 153 0
136 157 0
132 153 0
144 165 0
136 156 0
142 163 0
145 167 0
141 162 0
138 159 0
146 167 0
133 155 0
147 168 0
139 159 0
131 153 0
132 152 0
132 153 0
154 176 0
140 161 0
135 156 0
142 162 0
130 151 0
136 156 0
145 167 0
138 159 0
136 157 0
130 149 0
133 153 0
130 150 0
128 149 0
121 141 0
145 165 0
130 151 0
129 149 0
140 161 0
140 160 0
133 152 0
134 155 0
135 156 0
131 152 0
138 159 0
136 157 0
137 157 0
138 158 0
125 143 0
136 156 0
132 153 0
138 159 0
134 153 0
137 158 0
127 147 0
135 156 0
136 156 0
138 159 0
138 158 0
133 155 0
133 152 0
140 160 0
137 157 0
125 145 0
132 153 0
125 144 0
140 161 0
130 149 0
130 148 0
121 139 0
132 153 0
140 159 0
133 153 0
132 153 0
129 150 0
122 143 0
135 156 0
141 160 0
134 153 0
134 154 0
130 151 0
135 154 0
128 146 0
130 149 0
127 147 0
130 148 0
138 157 0
133 154 0
138 158 0
131 151 0
132 151 0
133 152 0
136 155 0
128 146 0
137 157 0
143 164 0
132 149 0
138 158 0
137 156 0
121 138 0
129 146 0
128 145 0
132 150 0
131 151 0
133 152 0
128 146 0
125 144 0
133 150 0
140 158 0
135 155 0
127 145 0
132 149 0
128 145 0
137 156 0
133 151 0
138 157 0
137 155 0
133 151 0
136 153 0
136 154 0
135 151 0
140 157 0
138 156 0
133 148 0
135 153 0
138 156 0
134 153 0
142 160 0
140 160 0
128 146 0
136 154 0
138 155 0
146 164 0
135 155 0
142 160 0
131 149 0
149 167 0
136 155 0
134 150 0
140 156 0
142 159 0
131 147 0
141 158 0
140 158 0
138 153 0
137 155 0
138 154 0
141 159 0
136 153 0
136 155 0
143 160 0
136 152 0
147 166 0
141 156 0
137 153 0
145 164 0
148 165 0
140 159 0
135 153 0
141 156 0
137 154 0
147 162 0
137 153 0
146 163 0
146 163 0
138 152 0
144 161 0
145 162 0
147 163 0
137 151 0
141 157 0
129 146 0
142 159 0
143 159 0
149 166 0
142 158 0
139 152 0
132 145 0
143 155 0
145 161 0
144 161 0
145 162 0
140 153 0
147 164 0
140 154 0
143 156 0
138 154 0
150 166 0
135 148 0
135 144 0
147 162 0
150 164 0
138 151 0
143 159 0
145 162 0
144 158 0
150 163 0
137 149 0
149 163 0
143 156 0
150 167 0
135 147 0
144 159 0
143 160 0
143 156 0
141 155 0
148 158 0
150 166 0
147 159 0
147 162 0
149 162 0
147 158 0
149 162 0
146 159 0
148 161 0
150 161 0
154 169 0
155 167 0
146 156 0
144 155 0
147 159 0
149 162 0
144 155 0
148 158 0
147 159 0
149 163 0
143 152 0
148 160 0
144 153 0
144 157 0
150 162 0
150 163 0
148 158 0
138 146 0
149 161 0
145 155 0
143 151 0
148 158 0
144 154 0
148 158 0
144 153 0
151 163 0
147 159 0
147 157 0
141 150 0
152 163 0
149 159 0
148 159 0
150 164 0
152 164 0
149 158 0
151 160 0
146 155 0
148 157 0
155 166 0
150 160 0
140 146 0
148 158 0
151 161 0
150 160 0
150 160 0
141 151 0
151 162 0
149 156 0
156 168 0
151 161 0
147 153 0
152 161 0
151 160 0
148 156 0
155 165 0
155 164 0
146 155 0
143 149 0
152 160 0
149 159 0
147 154 0
150 158 0
148 158 0
151 170 0
151 170 0
151 170 0
155 175 0
148 168 0
152 173 0
147 167 0
154 175 0
146 166 0
151 170 0
150 169 0
151 171 0
145 164 0
142 161 0
151 171 0
145 164 0
148 167 0
148 168 0
149 169 0
145 165 0
146 165 0
144 163 0
148 167 0
146 166 0
154 174 0
146 165 0
149 169 0
148 168 0
150 169 0
148 168 0
143 163 0
146 166 0
142 162 0
145 165 0
152 172 0
148 167 0
147 168 0
153 174 0
147 167 0
147 166 0
147 168 0
156 176 0
146 166 0
154 174 0
151 171 0
148 168 0
154 174 0
150 170 0
149 169 0
145 165 0
152 172 0
146 165 0
144 165 0
144 164 0
137 156 0
144 164 0
150 171 0
148 169 0
145 164 0
154 175 0
149 169 0
149 168 0
147 166 0
146 166 0
144 165 0
142 162 0
145 166 0
150 172 0
153 174 0
141 160 0
148 168 0
148 168 0
151 172 0
143 164 0
147 168 0
143 164 0
139 160 0
142 164 0
141 161 0
146 167 0
146 167 0
137 158 0
142 162 0
154 176 0
145 165 0
136 156 0
143 164 0
143 163 0
143 165 0
147 168 0
153 175 0
143 165 0
136 155 0
135 155 0
140 162 0
145 166 0
144 165 0
149 170 0
146 167 0
145 167 0
142 162 0
142 163 0
149 170 0
139 159 0
145 166 0
145 167 0
148 170 0
141 162 0
138 160 0
143 166 0
138 158 0
147 167 0
143 164 0
141 161 0
147 168 0
145 166 0
144 165 0
146 167 0
137 157 0
138 158 0
143 164 0
137 158 0
143 164 0
145 167 0
139 159 0
142 164 0
137 159 0
138 159 0
144 166 0
141 162 0
133 154 0
135 156 0
138 159 0
142 163 0
139 161 0
141 162 0
138 160 0
144 164 0
143 164 0
135 156 0
145 167 0
143 163 0
140 161 0
137 158 0
135 155 0
142 162 0
135 157 0
132 152 0
134 154 0
138 158 0
139 159 0
141 162 0
136 157 0
136 156 0
142 163 0
131 152 0
138 159 0
131 151 0
138 160 0
142 162 0
131 152 0
144 166 0
136 155 0
138 158 0
133 154 0
137 158 0
130 150 0
129 148 0
126 147 0
143 163 0
137 157 0
142 161 0
144 163 0
138 158 0
122 142 0
132 153 0
133 154 0
128 147 0
126 147 0
132 153 0
123 142 0
138 159 0
136 156 0
135 156 0
130 149 0
132 152 0
133 154 0
129 149 0
131 150 0
134 153 0
139 160 0
127 147 0
128 148 0
141 162 0
126 147 0
133 151 0
119 139 0
141 161 0
122 142 0
138 159 0
126 145 0
135 156 0
136 156 0
131 148 0
123 142 0
140 158 0
138 158 0
131 150 0
123 143 0
131 150 0
127 147 0
136 156 0
134 153 0
131 150 0
135 153 0
117 136 0
128 148 0
137 157 0
134 153 0
136 155 0
136 157 0
138 159 0
132 152 0
144 165 0
133 152 0
134 152 0
134 153 0
136 155 0
140 159 0
131 150 0
145 165 0
136 155 0
129 146 0
130 147 0
141 161 0
124 144 0
134 151 0
143 163 0
137 156 0
134 150 0
136 154 0
133 152 0
139 157 0
134 151 0
136 155 0
140 158 0
141 158 0
130 147 0
142 160 0
141 157 0
143 162 0
142 161 0
131 148 0
133 150 0
146 164 0
145 161 0
137 154 0
132 149 0
143 161 0
138 156 0
142 160 0
142 161 0
136 156 0
134 152 0
144 162 0
133 149 0
150 165 0
135 152 0
140 157 0
134 148 0
143 161 0
141 160 0
144 159 0
139 156 0
146 166 0
143 161 0
140 156 0
136 154 0
139 157 0
148 167 0
142 161 0
143 159 0
143 160 0
143 158 0
152 171 0
146 165 0
142 158 0
141 156 0
141 158 0
142 158 0
138 154 0
149 165 0
142 159 0
149 164 0
144 160 0
140 155 0
146 161 0
151 166 0
140 156 0
151 165 0
139 156 0
138 153 0
143 158 0
140 154 0
143 159 0
143 158 0
145 162 0
143 160 0
136 152 0
147 159 0
145 159 0
132 146 0
142 157 0
147 165 0
148 163 0
150 163 0
147 164 0
139 155 0
151 167 0
151 169 0
142 155 0
152 169 0
144 158 0
151 165 0
150 165 0
147 160 0
144 160 0
147 164 0
142 156 0
141 151 0
147 160 0
145 158 0
143 157 0
145 159 0
148 161 0
143 156 0
148 160 0
144 156 0
145 157 0
154 171 0
152 165 0
149 161 0
145 157 0
145 156 0
151 165 0
142 157 0
145 158 0
145 158 0
154 168 0
144 153 0
151 164 0
149 163 0
152 164 0
151 165 0
144 154 0
146 157 0
152 164 0
148 165 0
152 164 0
150 161 0
147 159 0
147 156 0
151 160 0
143 153 0
146 157 0
144 155 0
150 160 0
154 165 0
146 155 0
150 161 0
154 167 0
148 161 0
153 163 0
154 167 0
153 165 0
148 158 0
153 166 0
156 169 0
148 156 0
142 149 0
147 157 0
149 161 0
152 163 0
147 156 0
144 150 0
150 158 0
150 156 0
153 164 0
146 153 0
154 161 0
152 162 0
149 159 0
147 155 0
148 161 0
154 165 0
148 158 0
152 163 0
146 158 0
153 160 0
156 164 0
150 170 0
148 167 0
150 170 0
150 170 0
150 170 0
148 168 0
146 165 0
149 169 0
152 171 0
149 168 0
151 171 0
151 171 0
147 167 0
152 172 0
147 166 0
153 172 0
154 173 0
148 167 0
151 170 0
149 169 0
150 169 0
149 169 0
144 164 0
150 169 0
147 167 0
144 163 0
150 171 0
148 169 0
144 163 0
152 171 0
151 170 0
153 173 0
151 172 0
154 174 0
151 172 0
151 171 0
148 169 0
150 171 0
153 173 0
148 167 0
151 171 0
150 171 0
147 167 0
148 168 0
149 170 0
144 164 0
151 172 0
145 166 0
149 169 0
149 170 0
146 167 0
146 166 0
153 173 0
150 171 0
144 164 0
150 171 0
145 166 0
149 170 0
144 164 0
142 163 0
149 170 0
143 164 0
143 164 0
145 166 0
147 167 0
157 177 0
147 168 0
151 173 0
147 168 0
151 173 0
149 170 0
149 170 0
141 162 0
138 158 0
150 170 0
153 173 0
145 167 0
140 161 0
152 174 0
143 163 0
150 172 0
146 168 0
148 168 0
149 170 0
150 171 0
141 161 0
143 164 0
146 166 0
155 176 0
139 159 0
140 160 0
154 176 0
141 161 0
132 152 0
143 164 0
142 163 0
148 168 0
148 168 0
150 170 0
144 165 0
149 171 0
146 167 0
146 167 0
148 169 0
142 163 0
138 158 0
147 168 0
147 167 0
139 159 0
143 164 0
131 151 0
151 172 0
144 165 0
147 168 0
143 163 0
139 159 0
143 163 0
142 162 0
142 164 0
142 164 0
136 156 0
143 163 0
137 157 0
142 163 0
141 160 0
140 161 0
144 165 0
129 149 0
141 162 0
140 160 0
131 151 0
140 160 0
139 161 0
134 156 0
133 155 0
148 169 0
143 164 0
139 161 0
139 160 0
136 158 0
146 168 0
135 156 0
144 166 0
144 165 0
143 165 0
132 152 0
129 149 0
125 146 0
135 156 0
129 150 0
141 163 0
140 161 0
135 154 0
146 167 0
139 160 0
138 159 0
131 151 0
142 164 0
151 171 0
133 152 0
132 153 0
137 159 0
134 154 0
127 146 0
130 149 0
137 157 0
136 158 0
140 161 0
136 156 0
139 159 0
141 161 0
133 153 0
130 150 0
132 153 0
135 155 0
139 159 0
133 153 0
134 154 0
138 158 0
136 157 0
135 154 0
133 154 0
135 155 0
134 153 0
137 158 0
143 163 0
127 147 0
134 154 0
141 163 0
136 156 0
141 159 0
142 162 0
125 143 0
134 155 0
137 157 0
134 154 0
132 150 0
136 157 0
140 159 0
136 157 0
122 142 0
127 146 0
134 154 0
136 155 0
128 147 0
135 154 0
135 154 0
133 154 0
135 155 0
128 148 0
123 142 0
139 158 0
137 157 0
132 149 0
128 147 0
134 153 0
137 156 0
136 156 0
142 162 0
131 151 0
134 153 0
143 163 0
138 154 0
140 159 0
124 142 0
137 157 0
134 152 0
126 143 0
130 147 0
136 155 0
134 153 0
142 159 0
131 151 0
131 149 0
132 150 0
137 157 0
136 156 0
131 149 0
132 151 0
126 142 0
139 158 0
143 162 0
137 156 0
148 167 0
134 150 0
143 161 0
141 159 0
126 142 0
143 160 0
143 161 0
143 161 0
137 154 0
134 150 0
138 156 0
145 162 0
142 161 0
136 154 0
146 166 0
139 157 0
143 160 0
140 156 0
137 153 0
121 139 0
139 156 0
138 155 0
138 155 0
147 165 0
143 161 0
138 155 0
144 161 0
142 156 0
144 162 0
135 152 0
146 166 0
137 151 0
138 154 0
137 155 0
142 158 0
144 161 0
136 154 0
139 155 0
132 148 0
150 167 0
141 158 0
149 167 0
147 163 0
140 156 0
145 160 0
141 154 0
149 166 0
151 168 0
148 164 0
141 157 0
139 157 0
146 163 0
145 160 0
146 163 0
139 155 0
135 151 0
145 163 0
149 166 0
144 159 0
143 159 0
151 167 0
144 156 0
145 161 0
142 158 0
149 164 0
146 161 0
140 154 0
147 165 0
150 165 0
139 154 0
148 165 0
146 161 0
144 158 0
150 166 0
144 160 0
153 168 0
146 159 0
143 160 0
148 161 0
152 165 0
147 161 0
147 161 0
141 156 0
148 163 0
145 157 0
139 153 0
149 166 0
148 162 0
150 166 0
148 161 0
141 153 0
142 156 0
143 156 0
151 165 0
142 155 0
148 162 0
145 157 0
140 153 0
149 161 0
151 164 0
141 153 0
144 157 0
147 160 0
148 166 0
140 148 0
146 156 0
148 161 0
146 156 0
149 165 0
145 156 0
150 166 0
144 156 0
144 154 0
150 163 0
145 155 0
147 159 0
147 156 0
149 163 0
148 160 0
146 155 0
153 163 0
145 154 0
151 164 0
152 164 0
147 157 0
149 160 0
154 166 0
141 149 0
141 150 0
148 161 0
152 164 0
142 150 0
146 157 0
149 161 0
149 158 0
144 152 0
145 154 0
144 157 0
149 159 0
148 156 0
144 152 0
154 164 0
149 157 0
152 164 0
148 157 0
152 164 0
152 162 0
147 156 0
149 160 0
143 153 0
153 163 0
152 162 0
146 154 0
153 165 0
152 161 0
153 164 0
153 163 0
157 177 0
154 175 0
148 167 0
153 172 0
152 172 0
147 166 0
147 166 0
152 172 0
151 171 0
147 167 0
150 169 0
152 173 0
154 174 0
149 169 0
150 172 0
149 169 0
152 172 0
154 174 0
150 170 0
147 167 0
146 166 0
139 160 0
152 172 0
141 160 0
143 162 0
149 169 0
146 165 0
135 154 0
145 165 0
147 167 0
154 175 0
148 169 0
147 167 0
153 173 0
145 165 0
149 168 0
143 163 0
149 169 0
147 167 0
145 163 0
141 161 0
148 169 0
146 166 0
141 160 0
143 164 0
147 167 0
146 166 0
146 168 0
145 165 0
151 172 0
150 171 0
146 166 0
144 165 0
147 168 0
152 173 0
151 171 0
144 164 0
149 170 0
143 164 0
150 171 0
151 171 0
151 171 0
144 165 0
144 165 0
145 166 0
155 177 0
152 173 0
146 167 0
148 168 0
146 167 0
146 167 0
144 164 0
143 164 0
150 171 0
148 169 0
150 171 0
149 169 0
145 165 0
140 160 0
143 164 0
147 169 0
151 172 0
145 165 0
146 167 0
154 174 0
149 171 0
144 164 0
149 170 0
143 164 0
153 175 0
142 163 0
146 167 0
147 169 0
145 165 0
139 159 0
140 162 0
139 160 0
148 169 0
143 164 0
150 172 0
147 169 0
135 155 0
153 174 0
143 164 0
145 165 0
144 166 0
142 163 0
144 165 0
151 172 0
137 157 0
140 162 0
140 159 0
137 158 0
138 158 0
145 167 0
134 154 0
139 160 0
137 158 0
144 167 0
136 156 0
143 165 0
148 169 0
148 169 0
150 170 0
144 165 0
142 162 0
134 155 0
139 159 0
141 162 0
136 155 0
146 168 0
142 164 0
139 160 0
145 166 0
144 165 0
149 169 0
137 156 0
132 153 0
138 159 0
140 160 0
138 159 0
134 154 0
139 159 0
148 169 0
142 162 0
121 143 0
134 156 0
134 155 0
134 154 0
131 151 0
137 159 0
140 160 0
137 158 0
139 159 0
136 156 0
141 162 0
130 151 0
131 153 0
133 154 0
138 158 0
137 158 0
136 157 0
138 159 0
130 150 0
135 154 0
147 168 0
133 153 0
135 155 0
129 150 0
141 161 0
133 153 0
126 147 0
137 158 0
129 150 0
132 151 0
138 157 0
133 152 0
132 153 0
136 156 0
131 151 0
140 160 0
131 152 0
123 143 0
134 155 0
136 155 0
134 154 0
144 165 0
142 162 0
131 151 0
137 157 0
134 154 0
134 155 0
132 151 0
140 159 0
129 149 0
130 149 0
128 147 0
127 145 0
128 147 0
123 143 0
130 152 0
130 150 0
143 161 0
133 150 0
126 147 0
137 158 0
136 155 0
136 155 0
128 145 0
132 150 0
133 153 0
137 154 0
143 162 0
135 153 0
136 155 0
129 149 0
136 155 0
137 156 0
139 159 0
138 157 0
137 156 0
136 155 0
137 155 0
139 157 0
132 149 0
137 156 0
140 158 0
136 154 0
141 161 0
126 146 0
133 152 0
136 154 0
143 161 0
138 158 0
135 153 0
127 145 0
139 158 0
135 152 0
136 155 0
142 162 0
136 154 0
139 155 0
140 158 0
135 153 0
144 164 0
139 159 0
137 156 0
143 161 0
139 158 0
137 156 0
146 164 0
141 157 0
134 153 0
140 157 0
140 158 0
134 150 0
136 153 0
140 158 0
130 147 0
142 160 0
142 158 0
146 166 0
130 146 0
131 148 0
135 154 0
133 149 0
140 156 0
147 165 0
143 159 0
140 158 0
133 148 0
143 160 0
136 154 0
146 163 0
142 158 0
140 158 0
140 157 0
140 158 0
143 160 0
140 157 0
140 155 0
141 159 0
146 160 0
141 157 0
141 156 0
152 169 0
145 162 0
139 156 0
143 159 0
142 156 0
145 160 0
141 159 0
147 164 0
147 165 0
144 160 0
141 159 0
146 163 0
147 163 0
151 168 0
141 155 0
142 156 0
149 167 0
152 170 0
138 156 0
148 164 0
144 158 0
143 161 0
136 150 0
146 162 0
137 155 0
153 169 0
146 163 0
152 168 0
144 158 0
147 161 0
150 166 0
148 165 0
146 162 0
143 159 0
148 163 0
151 165 0
148 163 0
147 162 0
151 166 0
147 162 0
146 163 0
141 152 0
140 154 0
149 162 0
146 160 0
140 154 0
157 172 0
142 156 0
147 162 0
146 160 0
145 159 0
149 164 0
148 162 0
147 160 0
149 160 0
148 159 0
145 158 0
150 164 0
143 157 0
141 154 0
145 161 0
149 164 0
155 170 0
153 168 0
147 160 0
141 151 0
152 164 0
142 153 0
142 151 0
142 153 0
146 157 0
145 156 0
143 154 0
149 159 0
146 156 0
149 162 0
145 160 0
152 164 0
156 169 0
147 158 0
153 165 0
145 151 0
148 159 0
148 158 0
152 165 0
148 157 0
141 149 0
147 156 0
151 164 0
152 166 0
150 160 0
152 166 0
155 169 0
147 156 0
140 145 0
152 166 0
155 167 0
157 170 0
151 161 0
149 158 0
150 162 0
154 165 0
146 154 0
147 158 0
152 163 0
151 163 0
146 152 0
148 154 0
147 155 0
148 160 0
152 163 0
156 166 0
146 152 0
155 167 0
151 161 0
147 167 0
152 172 0
148 168 0
150 170 0
145 164 0
158 179 0
155 175 0
155 176 0
146 166 0
155 176 0
148 169 0
154 175 0
155 174 0
149 169 0
150 170 0
150 169 0
144 163 0
147 166 0
149 168 0
149 169 0
150 170 0
145 165 0
152 172 0
146 166 0
152 172 0
147 168 0
143 163 0
143 164 0
146 166 0
145 165 0
151 172 0
150 171 0
142 162 0
147 166 0
150 171 0
144 164 0
146 167 0
150 170 0
147 167 0
151 170 0
149 169 0
150 170 0
149 170 0
152 172 0
156 177 0
154 175 0
151 170 0
146 167 0
151 172 0
149 170 0
144 165 0
147 167 0
150 172 0
146 166 0
147 167 0
149 170 0
151 171 0
145 165 0
144 165 0
138 157 0
145 165 0
146 166 0
147 167 0
148 168 0
154 175 0
152 172 0
149 170 0
146 167 0
146 167 0
141 162 0
151 171 0
140 160 0
144 165 0
151 171 0
144 165 0
143 163 0
139 159 0
142 163 0
144 165 0
140 162 0
150 172 0
146 166 0
147 169 0
150 172 0
145 166 0
149 170 0
149 169 0
145 166 0
147 167 0
148 170 0
142 163 0
144 165 0
152 173 0
139 161 0
146 167 0
148 169 0
149 170 0
141 162 0
134 154 0
145 166 0
144 164 0
149 169 0
144 165 0
144 165 0
145 166 0
143 165 0
151 171 0
149 170 0
133 154 0
136 157 0
134 155 0
142 163 0
144 165 0
140 161 0
154 175 0
147 169 0
138 159 0
143 164 0
138 159 0
148 169 0
140 161 0
140 161 0
140 161 0
134 154 0
140 162 0
134 154 0
129 150 0
143 165 0
140 162 0
141 161 0
139 160 0
140 161 0
145 167 0
146 167 0
137 157 0
141 161 0
143 163 0
140 161 0
145 166 0
146 167 0
132 153 0
144 165 0
148 169 0
134 155 0
139 161 0
136 156 0
147 167 0
139 159 0
133 153 0
129 150 0
137 158 0
134 155 0
132 153 0
133 155 0
150 170 0
138 158 0
143 165 0
144 165 0
144 164 0
144 164 0
137 157 0
144 165 0
135 156 0
136 156 0
136 155 0
144 164 0
146 167 0
144 167 0
130 150 0
139 159 0
139 160 0
136 157 0
137 158 0
138 159 0
134 155 0
133 154 0
143 164 0
137 158 0
145 165 0
134 155 0
142 163 0
134 153 0
128 149 0
131 152 0
126 145 0
140 159 0
132 152 0
132 152 0
136 157 0
133 152 0
146 166 0
145 164 0
138 159 0
129 147 0
124 144 0
139 160 0
137 156 0
139 159 0
133 151 0
131 150 0
140 159 0
142 161 0
144 166 0
138 158 0
132 153 0
144 163 0
137 156 0
138 157 0
131 152 0
131 150 0
141 162 0
131 151 0
128 147 0
134 154 0
142 163 0
134 152 0
131 148 0
136 155 0
145 166 0
129 147 0
138 157 0
141 162 0
139 158 0
143 161 0
139 157 0
133 153 0
131 148 0
129 149 0
140 161 0
144 164 0
134 152 0
131 151 0
137 155 0
134 152 0
131 150 0
142 160 0
132 150 0
150 169 0
139 159 0
137 157 0
137 155 0
144 162 0
128 144 0
145 164 0
133 150 0
133 150 0
128 144 0
142 160 0
133 151 0
142 161 0
133 150 0
147 166 0
136 154 0
139 157 0
133 151 0
140 159 0
145 163 0
133 153 0
136 153 0
118 134 0
134 150 0
132 150 0
139 158 0
139 156 0
137 156 0
144 161 0
144 160 0
135 151 0
132 146 0
134 152 0
147 165 0
129 147 0
142 160 0
139 157 0
148 164 0
135 154 0
150 169 0
143 160 0
139 156 0
143 160 0
136 153 0
137 150 0
140 154 0
138 154 0
141 155 0
146 162 0
143 161 0
130 146 0
146 164 0
143 159 0
147 162 0
135 152 0
141 157 0
140 156 0
143 159 0
147 165 0
146 164 0
143 159 0
143 158 0
140 156 0
152 168 0
143 157 0
150 166 0
150 168 0
142 156 0
144 160 0
148 163 0
145 157 0
139 155 0
140 156 0
147 163 0
151 166 0
154 173 0
147 162 0
142 155 0
147 162 0
144 160 0
144 159 0
151 166 0
153 169 0
146 160 0
148 166 0
148 166 0
140 158 0
140 152 0
144 160 0
149 166 0
147 163 0
139 157 0
145 159 0
144 158 0
151 166 0
144 155 0
149 163 0
148 163 0
148 164 0
146 160 0
149 163 0
151 166 0
147 159 0
147 159 0
144 156 0
151 166 0
142 155 0
146 159 0
153 167 0
149 163 0
150 164 0
149 162 0
143 153 0
147 161 0
151 164 0
147 161 0
140 151 0
151 163 0
143 155 0
150 165 0
148 160 0
151 161 0
146 156 0
146 158 0
152 165 0
150 163 0
140 149 0
143 153 0
144 155 0
152 162 0
148 158 0
147 156 0
148 158 0
147 157 0
147 159 0
157 170 0
146 157 0
155 164 0
157 170 0
146 159 0
156 169 0
148 159 0
147 157 0
146 157 0
159 173 0
154 166 0
147 158 0
147 156 0
145 154 0
148 160 0
149 157 0
149 161 0
147 157 0
155 167 0
146 156 0
150 159 0
157 169 0
149 160 0
154 167 0
153 164 0
150 163 0
152 162 0
152 161 0
154 174 0
154 174 0
156 176 0
149 169 0
154 175 0
151 172 0
146 167 0
150 169 0
154 174 0
149 169 0
152 173 0
146 167 0
146 167 0
154 174 0
149 169 0
149 168 0
149 169 0
151 172 0
159 179 0
146 166 0
149 169 0
157 177 0
143 163 0
145 164 0
148 168 0
148 168 0
149 170 0
150 171 0
148 167 0
150 171 0
148 168 0
144 164 0
151 171 0
145 165 0
148 169 0
145 164 0
154 175 0
148 169 0
146 167 0
151 171 0
148 169 0
152 172 0
147 168 0
143 163 0
142 164 0
148 169 0
148 168 0
148 168 0
146 166 0
146 167 0
147 167 0
150 171 0
142 161 0
147 169 0
149 170 0
144 164 0
151 171 0
149 169 0
147 168 0
148 169 0
146 167 0
145 166 0
152 173 0
145 167 0
154 175 0
149 170 0
147 167 0
148 169 0
150 171 0
144 164 0
146 167 0
146 165 0
137 157 0
149 170 0
149 171 0
142 164 0
141 162 0
150 171 0
140 160 0
151 172 0
144 165 0
148 170 0
146 168 0
134 156 0
146 168 0
147 168 0
147 168 0
142 164 0
153 175 0
151 172 0
140 161 0
143 163 0
145 167 0
143 164 0
147 168 0
147 169 0
138 160 0
151 172 0
149 171 0
149 170 0
139 159 0
143 163 0
154 175 0
150 172 0
145 167 0
152 173 0
152 174 0
142 164 0
141 162 0
145 167 0
146 167 0
140 162 0
147 168 0
150 172 0
142 164 0
149 169 0
136 157 0
141 162 0
141 162 0
143 164 0
145 166 0
135 156 0
149 170 0
139 160 0
138 160 0
136 157 0
138 158 0
141 163 0
140 161 0
141 162 0
142 162 0
139 160 0
146 168 0
147 169 0
135 156 0
136 156 0
142 163 0
146 168 0
142 163 0
140 161 0
135 157 0
141 162 0
136 157 0
144 165 0
141 161 0
142 164 0
146 167 0
143 164 0
142 163 0
133 153 0
140 161 0
143 164 0
136 155 0
132 153 0
139 159 0
144 166 0
141 162 0
132 152 0
138 159 0
143 164 0
143 162 0
131 151 0
141 161 0
131 151 0
133 153 0
138 158 0
141 161 0
137 157 0
142 162 0
136 158 0
136 158 0
141 162 0
137 158 0
143 164 0
137 157 0
137 157 0
141 161 0
128 148 0
145 166 0
137 158 0
121 140 0
140 161 0
127 148 0
140 159 0
149 170 0
137 157 0
135 157 0
135 155 0
132 151 0
131 152 0
134 154 0
126 146 0
135 154 0
142 162 0
130 149 0
137 157 0
140 161 0
137 158 0
133 152 0
141 161 0
136 156 0
137 157 0
130 151 0
140 161 0
136 156 0
125 146 0
136 156 0
131 151 0
128 147 0
139 159 0
133 151 0
135 152 0
133 151 0
124 142 0
138 158 0
135 153 0
140 159 0
145 163 0
130 149 0
137 154 0
146 165 0
148 167 0
140 158 0
135 156 0
132 151 0
139 159 0
136 157 0
142 160 0
146 165 0
137 156 0
145 162 0
136 155 0
130 149 0
140 160 0
131 148 0
137 155 0
131 147 0
141 159 0
144 165 0
136 153 0
135 154 0
140 158 0
140 160 0
142 161 0
141 160 0
138 156 0
142 161 0
135 155 0
150 170 0
138 157 0
140 157 0
142 161 0
138 154 0
133 148 0
144 162 0
131 146 0
144 164 0
145 165 0
135 154 0
138 154 0
142 160 0
140 159 0
131 149 0
147 164 0
142 159 0
136 153 0
144 162 0
139 157 0
144 163 0
133 152 0
142 160 0
145 163 0
150 170 0
137 153 0
141 158 0
143 162 0
137 153 0
134 153 0
145 160 0
143 160 0
143 158 0
139 156 0
141 158 0
140 157 0
143 159 0
139 156 0
143 160 0
141 159 0
136 155 0
147 164 0
143 160 0
137 153 0
143 161 0
145 162 0
143 160 0
145 161 0
136 151 0
144 159 0
144 160 0
148 164 0
139 153 0
137 150 0
146 163 0
140 156 0
147 167 0
150 166 0
142 159 0
145 161 0
149 166 0
143 156 0
152 169 0
145 162 0
153 167 0
149 163 0
144 160 0
147 163 0
150 167 0
138 153 0
149 166 0
152 169 0
149 166 0
143 158 0
150 166 0
149 165 0
150 167 0
148 164 0
142 153 0
142 155 0
142 156 0
145 157 0
152 169 0
146 158 0
152 169 0
146 161 0
151 168 0
151 164 0
149 164 0
140 151 0
143 156 0
151 164 0
148 160 0
146 160 0
153 167 0
147 160 0
146 160 0
147 161 0
155 167 0
144 158 0
151 164 0
147 161 0
150 164 0
150 165 0
153 166 0
149 160 0
153 169 0
151 165 0
148 159 0
142 154 0
141 151 0
156 170 0
145 160 0
150 164 0
150 164 0
147 161 0
152 168 0
140 148 0
146 161 0
148 161 0
148 160 0
155 165 0
152 162 0
141 151 0
150 164 0
157 172 0
148 163 0
153 167 0
151 163 0
148 159 0
156 168 0
149 159 0
149 156 0
145 153 0
150 159 0
154 165 0
147 157 0
149 159 0
142 153 0
149 158 0
149 159 0
151 163 0
147 160 0
150 160 0
145 155 0
146 154 0
149 159 0
156 170 0
146 155 0
148 158 0
151 161 0
151 164 0
152 173 0
151 171 0
153 174 0
150 170 0
156 176 0
143 163 0
152 172 0
146 167 0
150 171 0
155 176 0
150 171 0
152 173 0
149 170 0
156 177 0
155 175 0
147 167 0
150 169 0
145 165 0
153 173 0
143 162 0
150 170 0
155 175 0
152 171 0
152 172 0
150 170 0
146 166 0
149 169 0
150 170 0
149 169 0
148 169 0
145 165 0
146 166 0
147 167 0
150 170 0
150 170 0
141 161 0
142 162 0
148 168 0
152 173 0
151 172 0
150 170 0
155 177 0
147 168 0
145 166 0
148 170 0
149 170 0
145 166 0
148 169 0
148 168 0
149 170 0
151 172 0
145 167 0
146 165 0
148 169 0
153 173 0
143 162 0
147 168 0
142 162 0
143 163 0
153 174 0
148 170 0
146 167 0
152 173 0
149 169 0
146 167 0
142 163 0
154 175 0
147 169 0
152 173 0
143 163 0
142 162 0
145 166 0
149 170 0
151 171 0
150 170 0
147 169 0
145 166 0
143 164 0
141 163 0
142 162 0
148 168 0
150 171 0
147 168 0
152 174 0
151 173 0
150 172 0
141 162 0
145 167 0
150 170 0
146 168 0
139 159 0
143 163 0
153 174 0
146 167 0
142 164 0
140 160 0
139 160 0
141 162 0
147 167 0
145 167 0
146 168 0
141 162 0
140 161 0
143 163 0
147 169 0
145 166 0
152 174 0
152 171 0
145 166 0
143 164 0
146 168 0
139 160 0
150 171 0
143 164 0
148 170 0
138 159 0
140 160 0
138 159 0
137 158 0
138 157 0
144 165 0
143 164 0
137 157 0
133 154 0
139 160 0
142 164 0
144 165 0
137 157 0
142 162 0
140 161 0
144 166 0
137 158 0
141 163 0
141 161 0
139 160 0
147 169 0
140 160 0
132 154 0
143 164 0
132 152 0
145 166 0
145 165 0
137 159 0
142 163 0
143 163 0
143 164 0
136 156 0
138 159 0
131 152 0
142 163 0
135 154 0
139 159 0
140 162 0
128 148 0
137 158 0
137 157 0
136 156 0
135 156 0
137 157 0
146 167 0
134 154 0
138 160 0
137 157 0
137 157 0
136 157 0
137 157 0
148 168 0
141 161 0
147 168 0
139 159 0
133 154 0
139 159 0
132 153 0
131 151 0
136 155 0
138 159 0
138 158 0
139 160 0
130 150 0
128 150 0
140 160 0
135 156 0
134 154 0
127 147 0
136 155 0
130 150 0
136 156 0
133 152 0
134 154 0
131 150 0
133 151 0
128 147 0
125 145 0
133 152 0
130 151 0
133 152 0
131 151 0
129 150 0
128 149 0
139 158 0
137 157 0
138 156 0
137 157 0
136 155 0
137 159 0
131 151 0
134 154 0
140 160 0
140 159 0
136 154 0
133 154 0
135 155 0
130 150 0
137 154 0
144 164 0
127 148 0
122 142 0
141 162 0
132 149 0
134 153 0
139 157 0
135 154 0
136 154 0
137 152 0
135 156 0
131 151 0
130 150 0
137 157 0
136 156 0
130 151 0
139 155 0
127 146 0
134 153 0
140 161 0
142 159 0
131 149 0
132 150 0
138 158 0
134 153 0
145 164 0
126 145 0
138 155 0
140 158 0
147 165 0
136 155 0
134 152 0
138 156 0
132 151 0
134 153 0
147 164 0
131 146 0
140 158 0
148 167 0
143 162 0
142 161 0
139 155 0
145 165 0
142 159 0
137 155 0
140 157 0
139 158 0
145 164 0
136 155 0
137 157 0
133 153 0
148 167 0
136 153 0
136 153 0
126 144 0
130 147 0
145 164 0
137 153 0
140 159 0
143 159 0
132 149 0
151 170 0
148 167 0
145 163 0
140 157 0
138 158 0
147 163 0
137 155 0
145 163 0
147 164 0
147 162 0
142 160 0
147 165 0
135 151 0
142 158 0
139 157 0
151 171 0
150 168 0
143 160 0
143 160 0
150 167 0
146 163 0
135 150 0
145 161 0
145 163 0
144 163 0
149 165 0
146 161 0
150 165 0
150 167 0
148 165 0
141 158 0
145 162 0
152 169 0
138 153 0
149 164 0
144 160 0
140 156 0
153 172 0
150 167 0
156 172 0
140 155 0
147 163 0
135 151 0
142 158 0
144 160 0
144 159 0
141 155 0
145 159 0
146 163 0
153 169 0
147 162 0
150 164 0
143 158 0
151 164 0
150 163 0
153 167 0
150 166 0
144 157 0
147 161 0
147 161 0
145 161 0
154 167 0
146 161 0
153 170 0
156 174 0
145 160 0
151 164 0
148 163 0
148 163 0
144 157 0
150 163 0
147 161 0
143 158 0
155 167 0
152 167 0
153 165 0
150 162 0
155 171 0
149 163 0
148 161 0
147 158 0
145 155 0
143 154 0
146 157 0
148 158 0
144 157 0
147 161 0
149 164 0
149 163 0
154 168 0
146 156 0
150 162 0
154 165 0
154 166 0
156 170 0
151 164 0
147 159 0
146 154 0
147 155 0
146 158 0
149 163 0
150 164 0
152 165 0
151 164 0
151 163 0
152 163 0
153 167 0
144 154 0
147 157 0
149 161 0
149 159 0
149 160 0
148 161 0
154 168 0
152 162 0
146 155 0
159 172 0
148 161 0
151 163 0
152 163 0
152 162 0
150 162 0
146 155 0
147 156 0
149 162 0
150 170 0
150 171 0
160 180 0
148 168 0
158 179 0
149 169 0
148 169 0
151 170 0
161 180 0
149 169 0
144 164 0
151 172 0
148 168 0
146 166 0
146 166 0
154 175 0
155 176 0
152 173 0
140 160 0
152 172 0
142 162 0
152 172 0
157 176 0
148 169 0
151 172 0
156 175 0
149 169 0
150 170 0
148 168 0
144 164 0
146 167 0
149 169 0
147 167 0
149 170 0
143 163 0
148 169 0
145 165 0
150 171 0
148 169 0
150 171 0
153 174 0
148 168 0
146 165 0
143 163 0
148 169 0
143 163 0
141 162 0
148 170 0
151 171 0
159 180 0
149 169 0
158 179 0
144 165 0
146 166 0
154 174 0
151 172 0
150 171 0
157 177 0
150 170 0
150 171 0
154 175 0
149 169 0
151 173 0
154 175 0
149 169 0
138 157 0
145 167 0
150 170 0
146 166 0
142 163 0
148 170 0
154 176 0
147 169 0
149 171 0
149 170 0
141 162 0
147 168 0
143 163 0
145 167 0
148 169 0
149 170 0
151 172 0
152 174 0
143 164 0
148 169 0
146 167 0
152 175 0
140 161 0
148 169 0
149 171 0
140 160 0
146 167 0
152 173 0
147 168 0
150 171 0
142 162 0
148 169 0
146 167 0
147 169 0
149 169 0
154 176 0
148 168 0
132 153 0
142 163 0
148 169 0
144 164 0
150 172 0
145 167 0
142 164 0
139 160 0
148 170 0
139 159 0
147 169 0
146 167 0
146 168 0
135 157 0
139 160 0
140 161 0
150 172 0
142 165 0
140 162 0
142 163 0
143 164 0
147 168 0
142 164 0
141 163 0
139 161 0
151 172 0
139 160 0
135 156 0
142 163 0
132 153 0
138 159 0
143 164 0
125 145 0
133 154 0
151 173 0
138 160 0
151 173 0
140 161 0
138 159 0
139 160 0
133 154 0
145 166 0
140 162 0
143 164 0
137 158 0
142 162 0
139 160 0
145 166 0
137 157 0
142 162 0
143 165 0
138 159 0
148 170 0
134 155 0
145 166 0
135 155 0
140 161 0
136 157 0
137 157 0
143 163 0
138 159 0
133 153 0
133 153 0
145 166 0
143 165 0
140 160 0
133 154 0
133 154 0
133 153 0
139 160 0
135 157 0
138 159 0
133 152 0
132 153 0
135 155 0
131 151 0
141 161 0
137 158 0
144 164 0
134 155 0
127 147 0
139 157 0
142 164 0
139 157 0
132 153 0
130 150 0
136 156 0
136 157 0
141 162 0
129 149 0
129 150 0
144 165 0
134 154 0
142 163 0
136 157 0
138 159 0
131 153 0
135 155 0
128 146 0
135 154 0
134 154 0
143 162 0
142 163 0
142 163 0
141 161 0
144 166 0
133 154 0
134 154 0
135 153 0
138 157 0
139 160 0
141 162 0
138 157 0
130 149 0
134 153 0
139 158 0
130 149 0
128 148 0
136 155 0
144 165 0
143 163 0
134 155 0
131 147 0
137 156 0
143 161 0
135 152 0
132 151 0
137 156 0
141 160 0
129 146 0
143 161 0
145 165 0
135 152 0
138 157 0
130 148 0
137 155 0
140 159 0
142 162 0
141 158 0
147 166 0
134 154 0
137 158 0
147 165 0
139 158 0
140 160 0
138 157 0
145 164 0
143 162 0
140 158 0
136 153 0
133 150 0
144 163 0
139 158 0
135 154 0
140 158 0
134 154 0
144 161 0
150 168 0
143 159 0
142 159 0
142 159 0
152 169 0
147 163 0
144 162 0
140 159 0
141 159 0
140 158 0
143 161 0
147 163 0
130 145 0
132 146 0
145 163 0
146 165 0
145 162 0
141 155 0
147 164 0
145 162 0
137 157 0
136 151 0
141 159 0
138 153 0
145 160 0
140 157 0
144 160 0
140 158 0
146 164 0
148 166 0
143 159 0
141 159 0
145 162 0
147 167 0
143 158 0
146 160 0
153 171 0
140 157 0
144 162 0
148 164 0
150 167 0
139 157 0
138 158 0
141 157 0
146 164 0
142 160 0
149 163 0
146 163 0
151 171 0
147 163 0
143 161 0
148 163 0
140 156 0
148 167 0
150 168 0
153 168 0
144 161 0
147 164 0
153 172 0
142 160 0
148 164 0
144 158 0
145 163 0
153 169 0
147 163 0
144 159 0
148 160 0
139 151 0
154 170 0
144 159 0
153 170 0
146 159 0
152 167 0
147 164 0
145 157 0
154 171 0
152 166 0
150 165 0
139 153 0
144 156 0
151 166 0
141 155 0
151 164 0
150 164 0
154 170 0
150 163 0
147 158 0
149 165 0
147 160 0
154 171 0
145 158 0
157 172 0
150 164 0
148 162 0
144 154 0
147 157 0
147 157 0
153 168 0
149 162 0
151 165 0
149 163 0
145 157 0
146 157 0
145 156 0
148 161 0
157 171 0
153 166 0
150 161 0
151 166 0
151 162 0
154 168 0
153 164 0
151 162 0
148 160 0
150 162 0
145 156 0
153 165 0
150 159 0
150 161 0
149 164 0
154 166 0
147 160 0
150 162 0
154 168 0
144 156 0
155 169 0
145 156 0
150 161 0
144 152 0
153 165 0
152 162 0
143 151 0
146 155 0
151 160 0
151 162 0
148 160 0
152 164 0
148 157 0
147 158 0
153 163 0
150 159 0
146 167 0
152 172 0
154 175 0
149 169 0
153 174 0
152 171 0
143 163 0
149 169 0
151 171 0
144 163 0
151 171 0
153 174 0
147 167 0
149 169 0
150 169 0
144 163 0
153 173 0
154 174 0
151 172 0
153 174 0
149 169 0
150 171 0
153 173 0
143 163 0
149 169 0
151 172 0
149 170 0
150 171 0
151 172 0
153 173 0
148 167 0
151 172 0
148 168 0
149 169 0
151 172 0
155 177 0
153 173 0
153 174 0
150 171 0
149 170 0
145 165 0
149 169 0
148 169 0
149 169 0
147 169 0
151 172 0
159 180 0
154 174 0
149 169 0
147 167 0
151 172 0
147 168 0
147 169 0
147 168 0
153 175 0
149 170 0
148 169 0
145 166 0
158 179 0
151 172 0
151 171 0
144 165 0
150 171 0
143 163 0
152 173 0
146 168 0
148 168 0
147 168 0
154 175 0
148 169 0
151 171 0
142 163 0
145 165 0
142 163 0
146 167 0
145 166 0
154 175 0
148 169 0
147 167 0
152 174 0
157 178 0
144 164 0
147 168 0
149 171 0
146 166 0
138 158 0
152 174 0
146 168 0
150 172 0
147 169 0
149 171 0
143 163 0
147 168 0
147 168 0
142 163 0
145 165 0
144 165 0
147 167 0
149 169 0
149 171 0
145 166 0
147 168 0
147 168 0
136 157 0
151 172 0
143 164 0
154 176 0
149 171 0
145 166 0
152 173 0
145 166 0
140 162 0
140 162 0
143 164 0
137 158 0
141 161 0
149 170 0
141 162 0
150 171 0
142 162 0
146 166 0
142 163 0
149 171 0
150 170 0
143 164 0
140 161 0
144 166 0
146 167 0
135 157 0
142 162 0
142 164 0
138 159 0
148 169 0
151 173 0
149 169 0
137 157 0
147 168 0
146 166 0
144 165 0
138 159 0
140 160 0
138 158 0
136 156 0
134 155 0
143 165 0
137 157 0
139 160 0
126 147 0
137 159 0
149 170 0
135 156 0
138 157 0
134 154 0
140 161 0
133 154 0
142 162 0
140 160 0
138 159 0
134 153 0
141 161 0
135 156 0
143 164 0
139 160 0
135 155 0
142 163 0
133 154 0
131 152 0
141 161 0
143 162 0
138 157 0
135 157 0
136 158 0
139 159 0
132 153 0
138 158 0
130 150 0
139 159 0
141 161 0
138 157 0
141 162 0
134 155 0
141 161 0
133 154 0
135 153 0
136 156 0
140 161 0
144 165 0
145 164 0
139 160 0
131 151 0
140 161 0
126 144 0
142 162 0
138 158 0
134 155 0
138 157 0
135 154 0
132 152 0
123 141 0
139 159 0
132 152 0
142 162 0
141 162 0
144 164 0
140 157 0
140 160 0
137 156 0
135 155 0
138 157 0
138 157 0
144 163 0
137 157 0
136 156 0
137 155 0
135 155 0
135 156 0
144 163 0
139 159 0
130 151 0
137 156 0
132 152 0
143 161 0
138 157 0
136 156 0
136 155 0
145 164 0
133 151 0
143 163 0
146 166 0
136 155 0
139 159 0
134 153 0
144 163 0
135 155 0
137 156 0
133 153 0
137 157 0
131 151 0
139 157 0
139 159 0
139 158 0
133 149 0
145 165 0
140 159 0
139 158 0
139 157 0
140 160 0
136 155 0
130 148 0
138 157 0
136 154 0
145 163 0
132 150 0
137 156 0
129 146 0
132 153 0
151 170 0
134 152 0
134 153 0
142 159 0
136 152 0
144 163 0
138 156 0
140 158 0
142 159 0
151 170 0
142 160 0
142 158 0
146 165 0
141 159 0
145 164 0
146 164 0
149 166 0
139 157 0
143 161 0
141 157 0
139 157 0
135 153 0
142 156 0
139 156 0
141 159 0
145 163 0
139 158 0
144 161 0
137 154 0
150 168 0
143 159 0
144 160 0
138 156 0
145 160 0
149 164 0
143 162 0
146 163 0
133 150 0
139 152 0
144 160 0
146 163 0
144 162 0
152 173 0
145 164 0
144 160 0
147 164 0
150 168 0
142 156 0
143 160 0
144 163 0
138 153 0
139 156 0
138 154 0
151 165 0
140 156 0
145 159 0
144 161 0
139 153 0
142 158 0
148 166 0
141 156 0
142 157 0
143 160 0
143 159 0
151 169 0
145 160 0
149 166 0
150 168 0
146 160 0
150 169 0
142 154 0
144 159 0
153 168 0
144 159 0
138 151 0
147 163 0
147 164 0
155 173 0
150 167 0
149 165 0
151 164 0
143 160 0
141 152 0
143 155 0
151 165 0
149 160 0
148 160 0
144 156 0
147 161 0
147 160 0
153 170 0
144 156 0
151 166 0
148 164 0
147 159 0
147 161 0
137 144 0
145 159 0
148 162 0
148 160 0
153 168 0
149 163 0
151 163 0
145 157 0
147 158 0
152 167 0
148 160 0
150 163 0
151 162 0
150 166 0
151 163 0
145 157 0
151 163 0
148 159 0
154 167 0
140 151 0
148 160 0
152 165 0
149 161 0
152 166 0
147 159 0
155 169 0
149 161 0
152 162 0
158 169 0
155 169 0
150 164 0
152 164 0
150 163 0
140 150 0
149 160 0
150 163 0
152 163 0
151 164 0
156 167 0
151 163 0
149 160 0
155 168 0
150 158 0
155 169 0
154 167 0
151 161 0
150 161 0
147 155 0
151 171 0
158 179 0
150 170 0
148 168 0
155 176 0
148 168 0
152 173 0
151 171 0
151 172 0
149 170 0
155 176 0
154 175 0
150 170 0
152 173 0
149 169 0
155 175 0
144 164 0
151 171 0
147 167 0
152 172 0
151 173 0
158 178 0
151 170 0
157 178 0
155 176 0
153 174 0
143 163 0
145 166 0
146 167 0
154 174 0
150 171 0
147 168 0
154 174 0
152 173 0
149 168 0
149 169 0
148 168 0
145 165 0
147 167 0
154 175 0
142 162 0
155 177 0
154 174 0
157 177 0
152 173 0
148 169 0
149 169 0
146 166 0
157 178 0
151 173 0
151 173 0
153 174 0
150 171 0
146 168 0
151 173 0
148 169 0
142 163 0
149 170 0
149 171 0
145 166 0
140 160 0
148 170 0
148 169 0
141 162 0
141 162 0
152 173 0
144 164 0
144 165 0
139 160 0
142 163 0
151 173 0
145 165 0
155 176 0
142 162 0
146 167 0
146 167 0
148 170 0
146 166 0
150 171 0
148 169 0
154 176 0
154 175 0
144 166 0
147 169 0
144 166 0
144 165 0
150 171 0
140 162 0
138 158 0
152 174 0
147 167 0
147 169 0
142 162 0
152 174 0
147 169 0
149 170 0
144 165 0
148 170 0
140 161 0
151 172 0
149 172 0
151 173 0
140 161 0
143 164 0
150 172 0
146 168 0
148 170 0
151 171 0
142 163 0
155 176 0
140 161 0
146 168 0
140 161 0
143 164 0
142 163 0
147 168 0
141 161 0
139 159 0
145 167 0
146 167 0
144 166 0
137 158 0
139 159 0
147 169 0
137 158 0
142 162 0
141 162 0
147 168 0
142 163 0
141 162 0
142 162 0
141 163 0
140 162 0
138 158 0
135 155 0
135 157 0
132 152 0
137 158 0
139 159 0
138 158 0
144 165 0
142 162 0
143 164 0
132 151 0
140 161 0
145 166 0
147 167 0
142 163 0
145 168 0
147 168 0
148 169 0
140 161 0
135 155 0
128 148 0
146 168 0
147 169 0
136 155 0
136 158 0
142 161 0
137 157 0
136 156 0
134 154 0
143 164 0
138 158 0
142 164 0
143 166 0
140 161 0
146 166 0
135 154 0
140 159 0
141 162 0
143 163 0
134 156 0
141 162 0
141 161 0
138 159 0
139 160 0
145 166 0
138 158 0
125 145 0
137 156 0
143 163 0
133 152 0
137 158 0
137 157 0
145 166 0
140 162 0
138 159 0
145 166 0
125 145 0
140 159 0
129 148 0
133 153 0
130 150 0
133 153 0
145 167 0
142 161 0
138 158 0
149 168 0
141 162 0
143 161 0
141 162 0
130 148 0
144 164 0
147 168 0
135 153 0
141 159 0
139 160 0
139 159 0
140 159 0
136 156 0
134 154 0
138 158 0
139 158 0
134 154 0
136 156 0
136 156 0
129 149 0
135 156 0
131 150 0
133 152 0
144 165 0
144 164 0
131 152 0
143 162 0
138 160 0
148 169 0
138 157 0
135 155 0
136 157 0
132 150 0
145 165 0
140 160 0
147 166 0
136 156 0
139 159 0
139 159 0
138 157 0
144 163 0
150 171 0
144 164 0
140 158 0
137 154 0
145 164 0
138 157 0
141 161 0
141 160 0
139 157 0
144 160 0
138 155 0
137 156 0
136 155 0
147 166 0
141 159 0
147 165 0
145 165 0
134 151 0
145 162 0
144 162 0
142 161 0
145 164 0
136 153 0
139 156 0
136 155 0
143 163 0
142 160 0
139 156 0
139 156 0
144 160 0
146 165 0
139 158 0
139 156 0
141 158 0
144 165 0
144 162 0
142 160 0
139 156 0
142 159 0
142 158 0
139 156 0
152 171 0
147 166 0
149 169 0
145 162 0
145 161 0
139 154 0
142 159 0
151 170 0
144 160 0
146 164 0
150 168 0
144 162 0
141 159 0
147 160 0
155 174 0
147 164 0
155 171 0
145 161 0
138 153 0
140 156 0
150 168 0
147 165 0
143 161 0
147 165 0
148 167 0
151 166 0
145 162 0
148 166 0
142 158 0
143 157 0
142 155 0
152 167 0
149 166 0
144 161 0
151 167 0
153 169 0
150 165 0
148 166 0
140 155 0
149 167 0
140 157 0
153 171 0
145 160 0
151 167 0
148 163 0
144 159 0
152 169 0
149 165 0
150 166 0
146 163 0
149 166 0
151 164 0
143 153 0
146 163 0
142 156 0
149 164 0
152 166 0
145 160 0
153 170 0
146 161 0
151 166 0
147 164 0
150 163 0
150 166 0
144 157 0
145 158 0
146 159 0
142 158 0
146 160 0
154 169 0
152 166 0
144 158 0
146 158 0
148 161 0
148 161 0
154 167 0
151 167 0
148 162 0
154 169 0
143 154 0
143 158 0
157 171 0
153 170 0
148 159 0
144 158 0
146 159 0
153 167 0
147 162 0
152 166 0
146 157 0
152 167 0
161 174 0
151 163 0
155 169 0
153 167 0
155 170 0
144 155 0
150 161 0
147 158 0
150 162 0
152 168 0
153 164 0
153 165 0
146 159 0
146 157 0
154 168 0
151 163 0
145 155 0
152 164 0
151 160 0
152 160 0
155 170 0
147 157 0
151 163 0
153 163 0
154 165 0
157 171 0
148 160 0
152 165 0
149 157 0
