P3
400 225
255
204 226 255
204 226 255
204 226 255
204 226 255
204 226 255
204 226 255
204 226 255
204 226 255
204 226 255
204 226 255
204 226 255
204 226 255
204 226 255
204 226 255
204 226 255
203 226 255
203 226 255
203 226 255
203 226 255
203 226 255
203 226 255
203 226 255
203 226 255
203 225 255
203 225 255
203 225 255
203 225 255
203 225 255
203 225 255
203 225 255
203 225 255
203 225 255
202 225 255
202 225 255
202 225 255
202 225 255
202 225 255
202 225 255
202 225 255
202 225 255
202 225 255
202 225 255
202 225 255
202 225 255
202 225 255
202 225 255
202 225 255
202 225 255
201 225 255
201 225 255
201 225 255
201 225 255
201 224 255
201 224 255
201 224 255
201 224 255
201 224 255
201 224 255
201 224 255
201 224 255
201 224 255
201 224 255
201 224 255
200 224 255
200 224 255
200 224 255
200 224 255
200 224 255
200 224 255
200 224 255
200 224 255
200 224 255
200 224 255
200 224 255
200 224 255
200 224 255
200 224 255
200 224 255
199 224 255
199 224 255
199 223 255
199 223 255
199 223 255
199 223 255
199 223 255
199 223 255
199 223 255
199 223 255
199 223 255
199 223 255
199 223 255
199 223 255
198 223 255
198 223 255
198 223 255
198 223 255
198 223 255
198 223 255
198 223 255
198 223 255
198 223 255
198 223 255
198 223 255
198 223 255
198 223 255
198 223 255
197 222 255
197 222 255
197 222 255
197 222 255
197 222 255
197 222 255
197 222 255
197 222 255
197 222 255
197 222 255
197 222 255
197 222 255
197 222 255
197 222 255
197 222 255
196 222 255
196 222 255
196 222 255
196 222 255
196 222 255
196 222 255
196 222 255
196 222 255
196 222 255
196 222 255
196 222 255
196 222 255
196 222 255
196 222 255
196 221 255
196 221 255
195 221 255
195 221 255
195 221 255
195 221 255
195 221 255
195 221 255
195 221 255
195 221 255
195 221 255
195 221 255
195 221 255
195 221 255
195 221 255
195 221 255
195 221 255
195 221 255
195 221 255
195 221 255
194 221 255
194 221 255
194 221 255
194 221 255
194 221 255
194 221 255
194 221 255
194 221 255
194 221 255
194 221 255
194 221 255
194 221 255
194 221 255
194 221 255
194 221 255
194 221 255
194 221 255
194 221 255
194 221 255
194 221 255
194 221 255
194 221 255
194 220 255
194 220 255
194 220 255
194 220 255
194 220 255
194 220 255
194 220 255
194 220 255
194 220 255
193 220 255
193 220 255
193 220 255
193 220 255
193 220 255
193 220 255
193 220 255
193 220 255
193 220 255
193 220 255
193 220 255
193 220 255
193 220 255
193 220 255
193 220 255
193 220 255
193 220 255
193 220 255
193 220 255
193 220 255
193 220 255
193 220 255
193 220 255
193 220 255
193 220 255
193 220 255
193 220 255
193 220 255
194 220 255
194 220 255
194 220 255
194 220 255
194 220 255
194 220 255
194 220 255
194 220 255
194 220 255
194 221 255
194 221 255
194 221 255
194 221 255
194 221 255
194 221 255
194 221 255
194 221 255
194 221 255
194 221 255
194 221 255
194 221 255
194 221 255
194 221 255
194 221 255
194 221 255
194 221 255
194 221 255
194 221 255
194 221 255
194 221 255
194 221 255
195 221 255
195 221 255
195 221 255
195 221 255
195 221 255
195 221 255
195 221 255
195 221 255
195 221 255
195 221 255
195 221 255
195 221 255
195 221 255
195 221 255
195 221 255
195 221 255
195 221 255
195 221 255
196 221 255
196 221 255
196 222 255
196 222 255
196 222 255
196 222 255
196 222 255
196 222 255
196 222 255
196 222 255
196 222 255
196 222 255
196 222 255
196 222 255
196 222 255
196 222 255
197 222 255
197 222 255
197 222 255
197 222 255
197 222 255
197 222 255
197 222 255
197 222 255
197 222 255
197 222 255
197 222 255
197 222 255
197 222 255
197 222 255
197 223 255
198 223 255
198 223 255
198 223 255
198 223 255
198 223 255
198 223 255
198 223 255
198 223 255
198 223 255
198 223 255
198 223 255
198 223 255
198 223 255
198 223 255
199 223 255
199 223 255
199 223 255
199 223 255
199 223 255
199 223 255
199 223 255
199 223 255
199 223 255
199 223 255
199 223 255
199 223 255
199 224 255
199 224 255
199 224 255
200 224 255
200 224 255
200 224 255
200 224 255
200 224 255
200 224 255
200 224 255
200 224 255
200 224 255
200 224 255
200 224 255
200 224 255
200 224 255
200 224 255
201 224 255
201 224 255
201 224 255
201 224 255
201 224 255
201 224 255
201 224 255
201 224 255
201 224 255
201 224 255
201 225 255
201 225 255
201 225 255
201 225 255
201 225 255
202 225 255
202 225 255
202 225 255
202 225 255
202 225 255
202 225 255
202 225 255
202 225 255
202 225 255
202 225 255
202 225 255
202 225 255
202 225 255
202 225 255
202 225 255
202 225 255
203 225 255
203 225 255
203 225 255
203 225 255
203 225 255
203 225 255
203 225 255
203 225 255
203 225 255
203 226 255
203 226 255
203 226 255
203 226 255
203 226 255
203 226 255
203 226 255
203 226 255
204 226 255
204 226 255
204 226 255
204 226 255
204 226 255
204 226 255
204 226 255
204 226 255
204 226 255
204 226 255
204 226 255
204 226 255
204 226 255
204 226 255
204 226 255
204 226 255
204 226 255
204 226 255
204 226 255
204 226 255
204 226 255
204 226 255
204 226 255
204 226 255
204 226 255
204 226 255
204 226 255
204 226 255
204 226 255
204 226 255
204 226 255
204 226 255
204 226 255
203 226 255
203 226 255
203 226 255
203 226 255
203 226 255
203 226 255
203 226 255
203 225 255
203 225 255
203 225 255
203 225 255
203 225 255
203 225 255
203 225 255
203 225 255
203 225 255
202 225 255
202 225 255
202 225 255
202 225 255
202 225 255
202 225 255
202 225 255
202 225 255
202 225 255
202 225 255
202 225 255
202 225 255
202 225 255
202 225 255
202 225 255
202 225 255
201 225 255
201 225 255
201 225 255
201 225 255
201 224 255
201 224 255
201 224 255
201 224 255
201 224 255
201 224 255
201 224 255
201 224 255
201 224 255
201 224 255
201 224 255
200 224 255
200 224 255
200 224 255
200 224 255
200 224 255
200 224 255
200 224 255
200 224 255
200 224 255
200 224 255
200 224 255
200 224 255
200 224 255
200 224 255
200 224 255
199 224 255
199 224 255
199 223 255
199 223 255
199 223 255
199 223 255
199 223 255
199 223 255
199 223 255
199 223 255
199 223 255
199 223 255
199 223 255
199 223 255
198 223 255
198 223 255
198 223 255
198 223 255
198 223 255
198 223 255
198 223 255
198 223 255
198 223 255
198 223 255
198 223 255
198 223 255
198 223 255
198 223 255
197 223 255
197 222 255
197 222 255
197 222 255
197 222 255
197 222 255
197 222 255
197 222 255
197 222 255
197 222 255
197 222 255
197 222 255
197 222 255
197 222 255
197 222 255
196 222 255
196 222 255
196 222 255
196 222 255
196 222 255
196 222 255
196 222 255
196 222 255
196 222 255
196 222 255
196 222 255
196 222 255
196 222 255
196 222 255
196 222 255
196 221 255
195 221 255
195 221 255
195 221 255
195 221 255
195 221 255
195 221 255
195 221 255
195 221 255
195 221 255
195 221 255
195 221 255
195 221 255
195 221 255
195 221 255
195 221 255
195 221 255
195 221 255
195 221 255
195 221 255
194 221 255
194 221 255
194 221 255
194 221 255
194 221 255
194 221 255
194 221 255
194 221 255
194 221 255
194 221 255
194 221 255
194 221 255
194 221 255
194 221 255
194 221 255
194 221 255
194 221 255
194 221 255
194 221 255
194 221 255
194 221 255
194 221 255
194 221 255
194 221 255
194 221 255
194 220 255
194 220 255
194 220 255
194 220 255
194 220 255
194 220 255
194 220 255
194 220 255
194 220 255
194 220 255
194 220 255
194 220 255
194 220 255
194 220 255
194 220 255
194 220 255
194 220 255
194 220 255
194 220 255
194 220 255
194 220 255
194 220 255
194 220 255
194 220 255
194 220 255
194 220 255
194 220 255
194 220 255
194 220 255
194 220 255
194 220 255
194 220 255
194 220 255
194 220 255
194 221 255
194 221 255
194 221 255
194 221 255
194 221 255
194 221 255
194 221 255
194 221 255
194 221 255
194 221 255
194 221 255
194 221 255
194 221 255
194 221 255
194 221 255
194 221 255
194 221 255
194 221 255
194 221 255
194 221 255
194 221 255
194 221 255
194 221 255
194 221 255
194 221 255
195 221 255
195 221 255
195 221 255
195 221 255
195 221 255
195 221 255
195 221 255
195 221 255
195 221 255
195 221 255
195 221 255
195 221 255
195 221 255
195 221 255
195 221 255
195 221 255
195 221 255
195 221 255
195 221 255
196 221 255
196 222 255
196 222 255
196 222 255
196 222 255
196 222 255
196 222 255
196 222 255
196 222 255
196 222 255
196 222 255
196 222 255
196 222 255
196 222 255
196 222 255
196 222 255
197 222 255
197 222 255
197 222 255
197 222 255
197 222 255
197 222 255
197 222 255
197 222 255
197 222 255
197 222 255
197 222 255
197 222 255
197 222 255
197 222 255
197 223 255
198 223 255
198 223 255
198 223 255
198 223 255
198 223 255
198 223 255
198 223 255
198 223 255
198 223 255
198 223 255
198 223 255
198 223 255
198 223 255
198 223 255
199 223 255
199 223 255
199 223 255
199 223 255
199 223 255
199 223 255
199 223 255
199 223 255
199 223 255
199 223 255
199 223 255
199 223 255
199 224 255
199 224 255
199 224 255
200 224 255
200 224 255
200 224 255
200 224 255
200 224 255
200 224 255
200 224 255
200 224 255
200 224 255
200 224 255
200 224 255
200 224 255
200 224 255
200 224 255
201 224 255
201 224 255
201 224 255
201 224 255
201 224 255
201 224 255
201 224 255
201 224 255
201 224 255
201 224 255
201 225 255
201 225 255
201 225 255
201 225 255
201 225 255
202 225 255
202 225 255
202 225 255
202 225 255
202 225 255
202 225 255
202 225 255
202 225 255
202 225 255
202 225 255
202 225 255
202 225 255
202 225 255
202 225 255
202 225 255
202 225 255
203 225 255
203 225 255
203 225 255
203 225 255
203 225 255
203 225 255
203 225 255
203 225 255
203 225 255
203 226 255
203 226 255
203 226 255
203 226 255
203 226 255
203 226 255
203 226 255
204 226 255
204 226 255
204 226 255
204 226 255
204 226 255
204 226 255
204 226 255
204 226 255
204 226 255
204 226 255
204 226 255
204 226 255
204 226 255
204 226 255
204 226 255
204 226 255
204 226 255
204 226 255
205 226 255
205 226 255
204 226 255
204 226 255
204 226 255
204 226 255
204 226 255
204 226 255
204 226 255
204 226 255
204 226 255
204 226 255
204 226 255
204 226 255
204 226 255
204 226 255
204 226 255
204 226 255
204 226 255
204 226 255
203 226 255
203 226 255
203 226 255
203 226 255
203 226 255
203 226 255
203 226 255
203 225 255
203 225 255
203 225 255
203 225 255
203 225 255
203 225 255
203 225 255
203 225 255
203 225 255
203 225 255
202 225 255
202 225 255
202 225 255
202 225 255
202 225 255
202 225 255
202 225 255
202 225 255
202 225 255
202 225 255
202 225 255
202 225 255
202 225 255
202 225 255
202 225 255
201 225 255
201 225 255
201 225 255
201 225 255
201 225 255
201 224 255
201 224 255
201 224 255
201 224 255
201 224 255
201 224 255
201 224 255
201 224 255
201 224 255
201 224 255
200 224 255
200 224 255
200 224 255
200 224 255
200 224 255
200 224 255
200 224 255
200 224 255
200 224 255
200 224 255
200 224 255
200 224 255
200 224 255
200 224 255
200 224 255
199 224 255
199 224 255
199 223 255
199 223 255
199 223 255
199 223 255
199 223 255
199 223 255
199 223 255
199 223 255
199 223 255
199 223 255
199 223 255
199 223 255
198 223 255
198 223 255
198 223 255
198 223 255
198 223 255
198 223 255
198 223 255
198 223 255
198 223 255
198 223 255
198 223 255
198 223 255
198 223 255
198 223 255
197 223 255
197 222 255
197 222 255
197 222 255
197 222 255
197 222 255
197 222 255
197 222 255
197 222 255
197 222 255
197 222 255
197 222 255
197 222 255
197 222 255
197 222 255
196 222 255
196 222 255
196 222 255
196 222 255
196 222 255
196 222 255
196 222 255
196 222 255
196 222 255
196 222 255
196 222 255
196 222 255
196 222 255
196 222 255
196 222 255
196 221 255
195 221 255
195 221 255
195 221 255
195 221 255
195 221 255
195 221 255
195 221 255
195 221 255
195 221 255
195 221 255
195 221 255
195 221 255
195 221 255
195 221 255
195 221 255
195 221 255
195 221 255
195 221 255
195 221 255
195 221 255
195 221 255
194 221 255
194 221 255
194 221 255
194 221 255
194 221 255
194 221 255
194 221 255
194 221 255
194 221 255
194 221 255
194 221 255
194 221 255
194 221 255
194 221 255
194 221 255
194 221 255
194 221 255
194 221 255
194 221 255
194 221 255
194 221 255
194 221 255
194 221 255
194 221 255
194 221 255
194 221 255
194 221 255
194 221 255
194 221 255
194 221 255
194 221 255
194 220 255
194 220 255
194 220 255
194 220 255
194 220 255
194 220 255
194 220 255
194 220 255
194 220 255
194 220 255
194 220 255
194 220 255
194 220 255
194 220 255
194 220 255
194 221 255
194 221 255
194 221 255
194 221 255
194 221 255
194 221 255
194 221 255
194 221 255
194 221 255
194 221 255
194 221 255
194 221 255
194 221 255
194 221 255
194 221 255
194 221 255
194 221 255
194 221 255
194 221 255
194 221 255
194 221 255
194 221 255
194 221 255
194 221 255
194 221 255
194 221 255
194 221 255
194 221 255
194 221 255
194 221 255
194 221 255
195 221 255
195 221 255
195 221 255
195 221 255
195 221 255
195 221 255
195 221 255
195 221 255
195 221 255
195 221 255
195 221 255
195 221 255
195 221 255
195 221 255
195 221 255
195 221 255
195 221 255
195 221 255
195 221 255
195 221 255
196 221 255
196 222 255
196 222 255
196 222 255
196 222 255
196 222 255
196 222 255
196 222 255
196 222 255
196 222 255
196 222 255
196 222 255
196 222 255
196 222 255
196 222 255
196 222 255
197 222 255
197 222 255
197 222 255
197 222 255
197 222 255
197 222 255
197 222 255
197 222 255
197 222 255
197 222 255
197 222 255
197 222 255
197 222 255
197 222 255
197 223 255
198 223 255
198 223 255
198 223 255
198 223 255
198 223 255
198 223 255
198 223 255
198 223 255
198 223 255
198 223 255
198 223 255
198 223 255
198 223 255
198 223 255
199 223 255
199 223 255
199 223 255
199 223 255
199 223 255
199 223 255
199 223 255
199 223 255
199 223 255
199 223 255
199 223 255
199 223 255
199 224 255
199 224 255
200 224 255
200 224 255
200 224 255
200 224 255
200 224 255
200 224 255
200 224 255
200 224 255
200 224 255
200 224 255
200 224 255
200 224 255
200 224 255
200 224 255
200 224 255
201 224 255
201 224 255
201 224 255
201 224 255
201 224 255
201 224 255
201 224 255
201 224 255
201 224 255
201 224 255
201 225 255
201 225 255
201 225 255
201 225 255
201 225 255
202 225 255
202 225 255
202 225 255
202 225 255
202 225 255
202 225 255
202 225 255
202 225 255
202 225 255
202 225 255
202 225 255
202 225 255
202 225 255
202 225 255
202 225 255
203 225 255
203 225 255
203 225 255
203 225 255
203 225 255
203 225 255
203 225 255
203 225 255
203 225 255
203 225 255
203 226 255
203 226 255
203 226 255
203 226 255
203 226 255
203 226 255
203 226 255
204 226 255
204 226 255
204 226 255
204 226 255
204 226 255
204 226 255
204 226 255
204 226 255
204 226 255
204 226 255
204 226 255
204 226 255
204 226 255
204 226 255
204 226 255
204 226 255
204 226 255
204 226 255
205 226 255
205 226 255
205 226 255
205 226 255
205 226 255
205 226 255
204 226 255
204 226 255
204 226 255
204 226 255
204 226 255
204 226 255
204 226 255
204 226 255
204 226 255
204 226 255
204 226 255
204 226 255
204 226 255
204 226 255
204 226 255
204 226 255
204 226 255
204 226 255
203 226 255
203 226 255
203 226 255
203 226 255
203 226 255
203 226 255
203 226 255
203 226 255
203 225 255
203 225 255
203 225 255
203 225 255
203 225 255
203 225 255
203 225 255
203 225 255
203 225 255
202 225 255
202 225 255
202 225 255
202 225 255
202 225 255
202 225 255
202 225 255
202 225 255
202 225 255
202 225 255
202 225 255
202 225 255
202 225 255
202 225 255
202 225 255
201 225 255
201 225 255
201 225 255
201 225 255
201 225 255
201 224 255
201 224 255
201 224 255
201 224 255
201 224 255
201 224 255
201 224 255
201 224 255
201 224 255
201 224 255
200 224 255
200 224 255
200 224 255
200 224 255
200 224 255
200 224 255
200 224 255
200 224 255
200 224 255
200 224 255
200 224 255
200 224 255
200 224 255
200 224 255
200 224 255
199 224 255
199 224 255
199 223 255
199 223 255
199 223 255
199 223 255
199 223 255
199 223 255
199 223 255
199 223 255
199 223 255
199 223 255
199 223 255
199 223 255
198 223 255
198 223 255
198 223 255
198 223 255
198 223 255
198 223 255
198 223 255
198 223 255
198 223 255
198 223 255
198 223 255
198 223 255
198 223 255
198 223 255
197 223 255
197 222 255
197 222 255
197 222 255
197 222 255
197 222 255
197 222 255
197 222 255
197 222 255
197 222 255
197 222 255
197 222 255
197 222 255
197 222 255
197 222 255
196 222 255
196 222 255
196 222 255
196 222 255
196 222 255
196 222 255
196 222 255
196 222 255
196 222 255
196 222 255
196 222 255
196 222 255
196 222 255
196 222 255
196 222 255
196 221 255
196 221 255
195 221 255
195 221 255
195 221 255
195 221 255
195 221 255
195 221 255
195 221 255
195 221 255
195 221 255
195 221 255
195 221 255
195 221 255
195 221 255
195 221 255
195 221 255
195 221 255
195 221 255
195 221 255
195 221 255
195 221 255
195 221 255
194 221 255
194 221 255
194 221 255
194 221 255
194 221 255
194 221 255
194 221 255
194 221 255
194 221 255
194 221 255
194 221 255
194 221 255
194 221 255
194 221 255
194 221 255
194 221 255
194 221 255
194 221 255
194 221 255
194 221 255
194 221 255
194 221 255
194 221 255
194 221 255
194 221 255
194 221 255
194 221 255
194 221 255
194 221 255
194 221 255
194 221 255
194 221 255
194 221 255
194 221 255
194 221 255
194 221 255
194 221 255
194 221 255
194 221 255
194 221 255
194 221 255
194 221 255
194 221 255
194 221 255
194 221 255
194 221 255
194 221 255
194 221 255
194 221 255
194 221 255
194 221 255
194 221 255
194 221 255
194 221 255
194 221 255
194 221 255
194 221 255
194 221 255
194 221 255
194 221 255
194 221 255
194 221 255
194 221 255
194 221 255
194 221 255
194 221 255
194 221 255
194 221 255
194 221 255
194 221 255
195 221 255
195 221 255
195 221 255
195 221 255
195 221 255
195 221 255
195 221 255
195 221 255
195 221 255
195 221 255
195 221 255
195 221 255
195 221 255
195 221 255
195 221 255
195 221 255
195 221 255
195 221 255
195 221 255
195 221 255
195 221 255
196 221 255
196 222 255
196 222 255
196 222 255
196 222 255
196 222 255
196 222 255
196 222 255
196 222 255
196 222 255
196 222 255
196 222 255
196 222 255
196 222 255
196 222 255
196 222 255
196 222 255
197 222 255
197 222 255
197 222 255
197 222 255
197 222 255
197 222 255
197 222 255
197 222 255
197 222 255
197 222 255
197 222 255
197 222 255
197 222 255
197 222 255
197 223 255
198 223 255
198 223 255
198 223 255
198 223 255
198 223 255
198 223 255
198 223 255
198 223 255
198 223 255
198 223 255
198 223 255
198 223 255
198 223 255
198 223 255
199 223 255
199 223 255
199 223 255
199 223 255
199 223 255
199 223 255
199 223 255
199 223 255
199 223 255
199 223 255
199 223 255
199 223 255
199 224 255
199 224 255
200 224 255
200 224 255
200 224 255
200 224 255
200 224 255
200 224 255
200 224 255
200 224 255
200 224 255
200 224 255
200 224 255
200 224 255
200 224 255
200 224 255
200 224 255
201 224 255
201 224 255
201 224 255
201 224 255
201 224 255
201 224 255
201 224 255
201 224 255
201 224 255
201 224 255
201 225 255
201 225 255
201 225 255
201 225 255
201 225 255
202 225 255
202 225 255
202 225 255
202 225 255
202 225 255
202 225 255
202 225 255
202 225 255
202 225 255
202 225 255
202 225 255
202 225 255
202 225 255
202 225 255
202 225 255
203 225 255
203 225 255
203 225 255
203 225 255
203 225 255
203 225 255
203 225 255
203 225 255
203 225 255
203 226 255
203 226 255
203 226 255
203 226 255
203 226 255
203 226 255
203 226 255
203 226 255
204 226 255
204 226 255
204 226 255
204 226 255
204 226 255
204 226 255
204 226 255
204 226 255
204 226 255
204 226 255
204 226 255
204 226 255
204 226 255
204 226 255
204 226 255
204 226 255
204 226 255
204 226 255
205 226 255
205 226 255
205 226 255
205 226 255
205 226 255
205 226 255
205 226 255
205 226 255
205 226 255
205 226 255
205 226 255
204 226 255
204 226 255
204 226 255
204 226 255
204 226 255
204 226 255
204 226 255
204 226 255
204 226 255
204 226 255
204 226 255
204 226 255
204 226 255
204 226 255
204 226 255
204 226 255
204 226 255
204 226 255
203 226 255
203 226 255
203 226 255
203 226 255
203 226 255
203 226 255
203 226 255
203 225 255
203 225 255
203 225 255
203 225 255
203 225 255
203 225 255
203 225 255
203 225 255
203 225 255
202 225 255
202 225 255
202 225 255
202 225 255
202 225 255
202 225 255
202 225 255
202 225 255
202 225 255
202 225 255
202 225 255
202 225 255
202 225 255
202 225 255
202 225 255
202 225 255
201 225 255
201 225 255
201 225 255
201 225 255
201 224 255
201 224 255
201 224 255
201 224 255
201 224 255
201 224 255
201 224 255
201 224 255
201 224 255
201 224 255
200 224 255
200 224 255
200 224 255
200 224 255
200 224 255
200 224 255
200 224 255
200 224 255
200 224 255
200 224 255
200 224 255
200 224 255
200 224 255
200 224 255
200 224 255
199 224 255
199 224 255
199 223 255
199 223 255
199 223 255
199 223 255
199 223 255
199 223 255
199 223 255
199 223 255
199 223 255
199 223 255
199 223 255
199 223 255
198 223 255
198 223 255
198 223 255
198 223 255
198 223 255
198 223 255
198 223 255
198 223 255
198 223 255
198 223 255
198 223 255
198 223 255
198 223 255
198 223 255
197 223 255
197 222 255
197 222 255
197 222 255
197 222 255
197 222 255
197 222 255
197 222 255
197 222 255
197 222 255
197 222 255
197 222 255
197 222 255
197 222 255
197 222 255
197 222 255
196 222 255
196 222 255
196 222 255
196 222 255
196 222 255
196 222 255
196 222 255
196 222 255
196 222 255
196 222 255
196 222 255
196 222 255
196 222 255
196 222 255
196 222 255
196 221 255
196 221 255
195 221 255
195 221 255
195 221 255
195 221 255
195 221 255
195 221 255
195 221 255
195 221 255
195 221 255
195 221 255
195 221 255
195 221 255
195 221 255
195 221 255
195 221 255
195 221 255
195 221 255
195 221 255
195 221 255
195 221 255
195 221 255
195 221 255
194 221 255
194 221 255
194 221 255
194 221 255
194 221 255
194 221 255
194 221 255
194 221 255
194 221 255
194 221 255
194 221 255
194 221 255
194 221 255
194 221 255
194 221 255
194 221 255
194 221 255
194 221 255
194 221 255
194 221 255
194 221 255
194 221 255
194 221 255
194 221 255
194 221 255
194 221 255
194 221 255
194 221 255
194 221 255
194 221 255
194 221 255
194 221 255
194 221 255
194 221 255
194 221 255
194 221 255
194 221 255
194 221 255
194 221 255
194 221 255
194 221 255
194 221 255
194 221 255
194 221 255
194 221 255
194 221 255
194 221 255
194 221 255
194 221 255
194 221 255
194 221 255
194 221 255
194 221 255
194 221 255
194 221 255
194 221 255
194 221 255
194 221 255
194 221 255
194 221 255
194 221 255
194 221 255
195 221 255
195 221 255
195 221 255
195 221 255
195 221 255
195 221 255
195 221 255
195 221 255
195 221 255
195 221 255
195 221 255
195 221 255
195 221 255
195 221 255
195 221 255
195 221 255
195 221 255
195 221 255
195 221 255
195 221 255
195 221 255
195 221 255
196 221 255
196 221 255
196 222 255
196 222 255
196 222 255
196 222 255
196 222 255
196 222 255
196 222 255
196 222 255
196 222 255
196 222 255
196 222 255
196 222 255
196 222 255
196 222 255
196 222 255
197 222 255
197 222 255
197 222 255
197 222 255
197 222 255
197 222 255
197 222 255
197 222 255
197 222 255
197 222 255
197 222 255
197 222 255
197 222 255
197 222 255
197 222 255
197 223 255
198 223 255
198 223 255
198 223 255
198 223 255
198 223 255
198 223 255
198 223 255
198 223 255
198 223 255
198 223 255
198 223 255
198 223 255
198 223 255
198 223 255
199 223 255
199 223 255
199 223 255
199 223 255
199 223 255
199 223 255
199 223 255
199 223 255
199 223 255
199 223 255
199 223 255
199 223 255
199 224 255
199 224 255
200 224 255
200 224 255
200 224 255
200 224 255
200 224 255
200 224 255
200 224 255
200 224 255
200 224 255
200 224 255
200 224 255
200 224 255
200 224 255
200 224 255
200 224 255
201 224 255
201 224 255
201 224 255
201 224 255
201 224 255
201 224 255
201 224 255
201 224 255
201 224 255
201 224 255
201 225 255
201 225 255
201 225 255
201 225 255
202 225 255
202 225 255
202 225 255
202 225 255
202 225 255
202 225 255
202 225 255
202 225 255
202 225 255
202 225 255
202 225 255
202 225 255
202 225 255
202 225 255
202 225 255
202 225 255
203 225 255
203 225 255
203 225 255
203 225 255
203 225 255
203 225 255
203 225 255
203 225 255
203 225 255
203 226 255
203 226 255
203 226 255
203 226 255
203 226 255
203 226 255
203 226 255
203 226 255
204 226 255
204 226 255
204 226 255
204 226 255
204 226 255
204 226 255
204 226 255
204 226 255
204 226 255
204 226 255
204 226 255
204 226 255
204 226 255
204 226 255
204 226 255
204 226 255
204 226 255
205 226 255
205 226 255
205 226 255
205 226 255
205 226 255
205 226 255
205 226 255
205 227 255
205 227 255
205 226 255
205 226 255
205 226 255
205 226 255
205 226 255
205 226 255
205 226 255
204 226 255
204 226 255
204 226 255
204 226 255
204 226 255
204 226 255
204 226 255
204 226 255
204 226 255
204 226 255
204 226 255
204 226 255
204 226 255
204 226 255
204 226 255
204 226 255
204 226 255
204 226 255
203 226 255
203 226 255
203 226 255
203 226 255
203 226 255
203 226 255
203 226 255
203 225 255
203 225 255
203 225 255
203 225 255
203 225 255
203 225 255
203 225 255
203 225 255
203 225 255
202 225 255
202 225 255
202 225 255
202 225 255
202 225 255
202 225 255
202 225 255
202 225 255
202 225 255
202 225 255
202 225 255
202 225 255
202 225 255
202 225 255
202 225 255
202 225 255
201 225 255
201 225 255
201 225 255
201 225 255
201 224 255
201 224 255
201 224 255
201 224 255
201 224 255
201 224 255
201 224 255
201 224 255
201 224 255
201 224 255
200 224 255
200 224 255
200 224 255
200 224 255
200 224 255
200 224 255
200 224 255
200 224 255
200 224 255
200 224 255
200 224 255
200 224 255
200 224 255
200 224 255
200 224 255
199 224 255
199 224 255
199 223 255
199 223 255
199 223 255
199 223 255
199 223 255
199 223 255
199 223 255
199 223 255
199 223 255
199 223 255
199 223 255
199 223 255
198 223 255
198 223 255
198 223 255
198 223 255
198 223 255
198 223 255
198 223 255
198 223 255
198 223 255
198 223 255
198 223 255
198 223 255
198 223 255
198 223 255
198 223 255
197 222 255
197 222 255
197 222 255
197 222 255
197 222 255
197 222 255
197 222 255
197 222 255
197 222 255
197 222 255
197 222 255
197 222 255
197 222 255
197 222 255
197 222 255
196 222 255
196 222 255
196 222 255
196 222 255
196 222 255
196 222 255
196 222 255
196 222 255
196 222 255
196 222 255
196 222 255
196 222 255
196 222 255
196 222 255
196 222 255
196 222 255
196 221 255
195 221 255
195 221 255
195 221 255
195 221 255
195 221 255
195 221 255
195 221 255
195 221 255
195 221 255
195 221 255
195 221 255
195 221 255
195 221 255
195 221 255
195 221 255
195 221 255
195 221 255
195 221 255
195 221 255
195 221 255
195 221 255
195 221 255
195 221 255
195 221 255
194 221 255
194 221 255
194 221 255
194 221 255
194 221 255
194 221 255
194 221 255
194 221 255
194 221 255
194 221 255
194 221 255
194 221 255
194 221 255
194 221 255
194 221 255
194 221 255
194 221 255
194 221 255
194 221 255
194 221 255
194 221 255
194 221 255
194 221 255
194 221 255
194 221 255
194 221 255
194 221 255
194 221 255
194 221 255
194 221 255
194 221 255
194 221 255
194 221 255
194 221 255
194 221 255
194 221 255
194 221 255
194 221 255
194 221 255
194 221 255
194 221 255
194 221 255
194 221 255
194 221 255
194 221 255
194 221 255
194 221 255
194 221 255
194 221 255
194 221 255
194 221 255
194 221 255
194 221 255
194 221 255
195 221 255
195 221 255
195 221 255
195 221 255
195 221 255
195 221 255
195 221 255
195 221 255
195 221 255
195 221 255
195 221 255
195 221 255
195 221 255
195 221 255
195 221 255
195 221 255
195 221 255
195 221 255
195 221 255
195 221 255
195 221 255
195 221 255
195 221 255
195 221 255
196 221 255
196 222 255
196 222 255
196 222 255
196 222 255
196 222 255
196 222 255
196 222 255
196 222 255
196 222 255
196 222 255
196 222 255
196 222 255
196 222 255
196 222 255
196 222 255
196 222 255
197 222 255
197 222 255
197 222 255
197 222 255
197 222 255
197 222 255
197 222 255
197 222 255
197 222 255
197 222 255
197 222 255
197 222 255
197 222 255
197 222 255
197 222 255
198 223 255
198 223 255
198 223 255
198 223 255
198 223 255
198 223 255
198 223 255
198 223 255
198 223 255
198 223 255
198 223 255
198 223 255
198 223 255
198 223 255
198 223 255
199 223 255
199 223 255
199 223 255
199 223 255
199 223 255
199 223 255
199 223 255
199 223 255
199 223 255
199 223 255
199 223 255
199 223 255
199 224 255
199 224 255
200 224 255
200 224 255
200 224 255
200 224 255
200 224 255
200 224 255
200 224 255
200 224 255
200 224 255
200 224 255
200 224 255
200 224 255
200 224 255
200 224 255
200 224 255
201 224 255
201 224 255
201 224 255
201 224 255
201 224 255
201 224 255
201 224 255
201 224 255
201 224 255
201 224 255
201 225 255
201 225 255
201 225 255
201 225 255
202 225 255
202 225 255
202 225 255
202 225 255
202 225 255
202 225 255
202 225 255
202 225 255
202 225 255
202 225 255
202 225 255
202 225 255
202 225 255
202 225 255
202 225 255
202 225 255
203 225 255
203 225 255
203 225 255
203 225 255
203 225 255
203 225 255
203 225 255
203 225 255
203 225 255
203 226 255
203 226 255
203 226 255
203 226 255
203 226 255
203 226 255
203 226 255
204 226 255
204 226 255
204 226 255
204 226 255
204 226 255
204 226 255
204 226 255
204 226 255
204 226 255
204 226 255
204 226 255
204 226 255
204 226 255
204 226 255
204 226 255
204 226 255
204 226 255
204 226 255
205 226 255
205 226 255
205 226 255
205 226 255
205 226 255
205 226 255
205 226 255
205 227 255
205 227 255
205 227 255
205 227 255
205 227 255
205 227 255
205 226 255
205 226 255
205 226 255
205 226 255
205 226 255
205 226 255
205 226 255
205 226 255
204 226 255
204 226 255
204 226 255
204 226 255
204 226 255
204 226 255
204 226 255
204 226 255
204 226 255
204 226 255
204 226 255
204 226 255
204 226 255
204 226 255
204 226 255
204 226 255
204 226 255
203 226 255
203 226 255
203 226 255
203 226 255
203 226 255
203 226 255
203 226 255
203 225 255
203 225 255
203 225 255
203 225 255
203 225 255
203 225 255
203 225 255
203 225 255
203 225 255
202 225 255
202 225 255
202 225 255
202 225 255
202 225 255
202 225 255
202 225 255
202 225 255
202 225 255
202 225 255
202 225 255
202 225 255
202 225 255
202 225 255
202 225 255
202 225 255
201 225 255
201 225 255
201 225 255
201 225 255
201 224 255
201 224 255
201 224 255
201 224 255
201 224 255
201 224 255
201 224 255
201 224 255
201 224 255
201 224 255
200 224 255
200 224 255
200 224 255
200 224 255
200 224 255
200 224 255
200 224 255
200 224 255
200 224 255
200 224 255
200 224 255
200 224 255
200 224 255
200 224 255
200 224 255
199 224 255
199 224 255
199 223 255
199 223 255
199 223 255
199 223 255
199 223 255
199 223 255
199 223 255
199 223 255
199 223 255
199 223 255
199 223 255
199 223 255
198 223 255
198 223 255
198 223 255
198 223 255
198 223 255
198 223 255
198 223 255
198 223 255
198 223 255
198 223 255
198 223 255
198 223 255
198 223 255
198 223 255
198 223 255
197 222 255
197 222 255
197 222 255
197 222 255
197 222 255
197 222 255
197 222 255
197 222 255
197 222 255
197 222 255
197 222 255
197 222 255
197 222 255
197 222 255
197 222 255
196 222 255
196 222 255
196 222 255
196 222 255
196 222 255
196 222 255
196 222 255
196 222 255
196 222 255
196 222 255
196 222 255
196 222 255
196 222 255
196 222 255
196 222 255
196 222 255
196 222 255
196 221 255
195 221 255
195 221 255
195 221 255
195 221 255
195 221 255
195 221 255
195 221 255
195 221 255
195 221 255
195 221 255
195 221 255
195 221 255
195 221 255
195 221 255
195 221 255
195 221 255
195 221 255
195 221 255
195 221 255
195 221 255
195 221 255
195 221 255
195 221 255
195 221 255
195 221 255
195 221 255
194 221 255
194 221 255
194 221 255
194 221 255
194 221 255
194 221 255
194 221 255
194 221 255
194 221 255
194 221 255
194 221 255
194 221 255
194 221 255
194 221 255
194 221 255
194 221 255
194 221 255
194 221 255
194 221 255
194 221 255
194 221 255
194 221 255
194 221 255
194 221 255
194 221 255
194 221 255
194 221 255
194 221 255
194 221 255
194 221 255
194 221 255
194 221 255
194 221 255
194 221 255
194 221 255
194 221 255
194 221 255
194 221 255
194 221 255
194 221 255
194 221 255
194 221 255
194 221 255
194 221 255
195 221 255
195 221 255
195 221 255
195 221 255
195 221 255
195 221 255
195 221 255
195 221 255
195 221 255
195 221 255
195 221 255
195 221 255
195 221 255
195 221 255
195 221 255
195 221 255
195 221 255
195 221 255
195 221 255
195 221 255
195 221 255
195 221 255
195 221 255
195 221 255
195 221 255
195 221 255
196 221 255
196 222 255
196 222 255
196 222 255
196 222 255
196 222 255
196 222 255
196 222 255
196 222 255
196 222 255
196 222 255
196 222 255
196 222 255
196 222 255
196 222 255
196 222 255
196 222 255
196 222 255
197 222 255
197 222 255
197 222 255
197 222 255
197 222 255
197 222 255
197 222 255
197 222 255
197 222 255
197 222 255
197 222 255
197 222 255
197 222 255
197 222 255
197 222 255
198 223 255
198 223 255
198 223 255
198 223 255
198 223 255
198 223 255
198 223 255
198 223 255
198 223 255
198 223 255
198 223 255
198 223 255
198 223 255
198 223 255
198 223 255
199 223 255
199 223 255
199 223 255
199 223 255
199 223 255
199 223 255
199 223 255
199 223 255
199 223 255
199 223 255
199 223 255
199 223 255
199 224 255
199 224 255
200 224 255
200 224 255
200 224 255
200 224 255
200 224 255
200 224 255
200 224 255
200 224 255
200 224 255
200 224 255
200 224 255
200 224 255
200 224 255
200 224 255
200 224 255
201 224 255
201 224 255
201 224 255
201 224 255
201 224 255
201 224 255
201 224 255
201 224 255
201 224 255
201 224 255
201 225 255
201 225 255
201 225 255
201 225 255
202 225 255
202 225 255
202 225 255
202 225 255
202 225 255
202 225 255
202 225 255
202 225 255
202 225 255
202 225 255
202 225 255
202 225 255
202 225 255
202 225 255
202 225 255
202 225 255
203 225 255
203 225 255
203 225 255
203 225 255
203 225 255
203 225 255
203 225 255
203 225 255
203 225 255
203 226 255
203 226 255
203 226 255
203 226 255
203 226 255
203 226 255
203 226 255
204 226 255
204 226 255
204 226 255
204 226 255
204 226 255
204 226 255
204 226 255
204 226 255
204 226 255
204 226 255
204 226 255
204 226 255
204 226 255
204 226 255
204 226 255
204 226 255
204 226 255
204 226 255
205 226 255
205 226 255
205 226 255
205 226 255
205 226 255
205 226 255
205 226 255
205 227 255
205 227 255
205 227 255
205 227 255
205 227 255
205 227 255
205 227 255
205 227 255
205 227 255
205 227 255
205 227 255
205 226 255
205 226 255
205 226 255
205 226 255
205 226 255
205 226 255
205 226 255
204 226 255
204 226 255
204 226 255
204 226 255
204 226 255
204 226 255
204 226 255
204 226 255
204 226 255
204 226 255
204 226 255
204 226 255
204 226 255
204 226 255
204 226 255
204 226 255
204 226 255
203 226 255
203 226 255
203 226 255
203 226 255
203 226 255
203 226 255
203 226 255
203 226 255
203 225 255
203 225 255
203 225 255
203 225 255
203 225 255
203 225 255
203 225 255
203 225 255
202 225 255
202 225 255
202 225 255
202 225 255
202 225 255
202 225 255
202 225 255
202 225 255
202 225 255
202 225 255
202 225 255
202 225 255
202 225 255
202 225 255
202 225 255
202 225 255
201 225 255
201 225 255
201 225 255
201 225 255
201 224 255
201 224 255
201 224 255
201 224 255
201 224 255
201 224 255
201 224 255
201 224 255
201 224 255
201 224 255
201 224 255
200 224 255
200 224 255
200 224 255
200 224 255
200 224 255
200 224 255
200 224 255
200 224 255
200 224 255
200 224 255
200 224 255
200 224 255
200 224 255
200 224 255
199 224 255
199 224 255
199 223 255
199 223 255
199 223 255
199 223 255
199 223 255
199 223 255
199 223 255
199 223 255
199 223 255
199 223 255
199 223 255
199 223 255
198 223 255
198 223 255
198 223 255
198 223 255
198 223 255
198 223 255
198 223 255
198 223 255
198 223 255
198 223 255
198 223 255
198 223 255
198 223 255
198 223 255
198 223 255
197 223 255
197 222 255
197 222 255
197 222 255
197 222 255
197 222 255
197 222 255
197 222 255
197 222 255
197 222 255
197 222 255
197 222 255
197 222 255
197 222 255
197 222 255
197 222 255
196 222 255
196 222 255
196 222 255
196 222 255
196 222 255
196 222 255
196 222 255
196 222 255
196 222 255
196 222 255
196 222 255
196 222 255
196 222 255
196 222 255
196 222 255
196 222 255
196 222 255
196 221 255
195 221 255
195 221 255
195 221 255
195 221 255
195 221 255
195 221 255
195 221 255
195 221 255
195 221 255
195 221 255
195 221 255
195 221 255
195 221 255
195 221 255
195 221 255
195 221 255
195 221 255
195 221 255
195 221 255
195 221 255
195 221 255
195 221 255
195 221 255
195 221 255
195 221 255
195 221 255
195 221 255
195 221 255
195 221 255
195 221 255
194 221 255
194 221 255
194 221 255
194 221 255
194 221 255
194 221 255
194 221 255
194 221 255
194 221 255
194 221 255
194 221 255
194 221 255
194 221 255
194 221 255
194 221 255
194 221 255
194 221 255
194 221 255
194 221 255
194 221 255
194 221 255
194 221 255
194 221 255
194 221 255
194 221 255
194 221 255
194 221 255
194 221 255
194 221 255
194 221 255
195 221 255
195 221 255
195 221 255
195 221 255
195 221 255
195 221 255
195 221 255
195 221 255
195 221 255
195 221 255
195 221 255
195 221 255
195 221 255
195 221 255
195 221 255
195 221 255
195 221 255
195 221 255
195 221 255
195 221 255
195 221 255
195 221 255
195 221 255
195 221 255
195 221 255
195 221 255
195 221 255
195 221 255
195 221 255
195 221 255
196 221 255
196 222 255
196 222 255
196 222 255
196 222 255
196 222 255
196 222 255
196 222 255
196 222 255
196 222 255
196 222 255
196 222 255
196 222 255
196 222 255
196 222 255
196 222 255
196 222 255
196 222 255
197 222 255
197 222 255
197 222 255
197 222 255
197 222 255
197 222 255
197 222 255
197 222 255
197 222 255
197 222 255
197 222 255
197 222 255
197 222 255
197 222 255
197 222 255
197 223 255
198 223 255
198 223 255
198 223 255
198 223 255
198 223 255
198 223 255
198 223 255
198 223 255
198 223 255
198 223 255
198 223 255
198 223 255
198 223 255
198 223 255
198 223 255
199 223 255
199 223 255
199 223 255
199 223 255
199 223 255
199 223 255
199 223 255
199 223 255
199 223 255
199 223 255
199 223 255
199 223 255
199 224 255
199 224 255
200 224 255
200 224 255
200 224 255
200 224 255
200 224 255
200 224 255
200 224 255
200 224 255
200 224 255
200 224 255
200 224 255
200 224 255
200 224 255
200 224 255
201 224 255
201 224 255
201 224 255
201 224 255
201 224 255
201 224 255
201 224 255
201 224 255
201 224 255
201 224 255
201 224 255
201 225 255
201 225 255
201 225 255
201 225 255
202 225 255
202 225 255
202 225 255
202 225 255
202 225 255
202 225 255
202 225 255
202 225 255
202 225 255
202 225 255
202 225 255
202 225 255
202 225 255
202 225 255
202 225 255
203 225 255
203 225 255
203 225 255
203 225 255
203 225 255
203 225 255
203 225 255
203 225 255
203 225 255
203 226 255
203 226 255
203 226 255
203 226 255
203 226 255
203 226 255
203 226 255
203 226 255
204 226 255
204 226 255
204 226 255
204 226 255
204 226 255
204 226 255
204 226 255
204 226 255
204 226 255
204 226 255
204 226 255
204 226 255
204 226 255
204 226 255
204 226 255
204 226 255
204 226 255
205 226 255
205 226 255
205 226 255
205 226 255
205 226 255
205 226 255
205 226 255
205 227 255
205 227 255
205 227 255
205 227 255
205 227 255
205 227 255
205 227 255
205 227 255
205 227 255
205 227 255
205 227 255
205 227 255
205 227 255
205 227 255
205 227 255
205 227 255
205 226 255
205 226 255
205 226 255
205 226 255
205 226 255
205 226 255
205 226 255
204 226 255
204 226 255
204 226 255
204 226 255
204 226 255
204 226 255
204 226 255
204 226 255
204 226 255
204 226 255
204 226 255
204 226 255
204 226 255
204 226 255
204 226 255
204 226 255
204 226 255
204 226 255
203 226 255
203 226 255
203 226 255
203 226 255
203 226 255
203 226 255
203 226 255
203 225 255
203 225 255
203 225 255
203 225 255
203 225 255
203 225 255
203 225 255
203 225 255
203 225 255
202 225 255
202 225 255
202 225 255
202 225 255
202 225 255
202 225 255
202 225 255
202 225 255
202 225 255
202 225 255
202 225 255
202 225 255
202 225 255
202 225 255
202 225 255
201 225 255
201 225 255
201 225 255
201 225 255
201 224 255
201 224 255
201 224 255
201 224 255
201 224 255
201 224 255
201 224 255
201 224 255
201 224 255
201 224 255
201 224 255
200 224 255
200 224 255
200 224 255
200 224 255
200 224 255
200 224 255
200 224 255
200 224 255
200 224 255
200 224 255
200 224 255
200 224 255
200 224 255
200 224 255
199 224 255
199 224 255
199 223 255
199 223 255
199 223 255
199 223 255
199 223 255
199 223 255
199 223 255
199 223 255
199 223 255
199 223 255
199 223 255
199 223 255
199 223 255
198 223 255
198 223 255
198 223 255
198 223 255
198 223 255
198 223 255
198 223 255
198 223 255
198 223 255
198 223 255
198 223 255
198 223 255
198 223 255
198 223 255
197 223 255
197 222 255
197 222 255
197 222 255
197 222 255
197 222 255
197 222 255
197 222 255
197 222 255
197 222 255
197 222 255
197 222 255
197 222 255
197 222 255
197 222 255
197 222 255
197 222 255
196 222 255
196 222 255
196 222 255
196 222 255
196 222 255
196 222 255
196 222 255
196 222 255
196 222 255
196 222 255
196 222 255
196 222 255
196 222 255
196 222 255
196 222 255
196 222 255
196 222 255
196 221 255
196 221 255
195 221 255
195 221 255
195 221 255
195 221 255
195 221 255
195 221 255
195 221 255
195 221 255
195 221 255
195 221 255
195 221 255
195 221 255
195 221 255
195 221 255
195 221 255
195 221 255
195 221 255
195 221 255
195 221 255
195 221 255
195 221 255
195 221 255
195 221 255
195 221 255
195 221 255
195 221 255
195 221 255
195 221 255
195 221 255
195 221 255
195 221 255
195 221 255
195 221 255
195 221 255
195 221 255
195 221 255
195 221 255
195 221 255
195 221 255
195 221 255
195 221 255
195 221 255
195 221 255
195 221 255
195 221 255
195 221 255
195 221 255
195 221 255
195 221 255
195 221 255
195 221 255
195 221 255
195 221 255
195 221 255
195 221 255
195 221 255
195 221 255
195 221 255
195 221 255
195 221 255
195 221 255
195 221 255
195 221 255
195 221 255
195 221 255
195 221 255
195 221 255
195 221 255
195 221 255
195 221 255
195 221 255
195 221 255
195 221 255
195 221 255
195 221 255
195 221 255
195 221 255
195 221 255
195 221 255
195 221 255
195 221 255
195 221 255
196 221 255
196 221 255
196 222 255
196 222 255
196 222 255
196 222 255
196 222 255
196 222 255
196 222 255
196 222 255
196 222 255
196 222 255
196 222 255
196 222 255
196 222 255
196 222 255
196 222 255
196 222 255
196 222 255
197 222 255
197 222 255
197 222 255
197 222 255
197 222 255
197 222 255
197 222 255
197 222 255
197 222 255
197 222 255
197 222 255
197 222 255
197 222 255
197 222 255
197 222 255
197 222 255
197 223 255
198 223 255
198 223 255
198 223 255
198 223 255
198 223 255
198 223 255
198 223 255
198 223 255
198 223 255
198 223 255
198 223 255
198 223 255
198 223 255
198 223 255
199 223 255
199 223 255
199 223 255
199 223 255
199 223 255
199 223 255
199 223 255
199 223 255
199 223 255
199 223 255
199 223 255
199 223 255
199 223 255
199 224 255
199 224 255
200 224 255
200 224 255
200 224 255
200 224 255
200 224 255
200 224 255
200 224 255
200 224 255
200 224 255
200 224 255
200 224 255
200 224 255
200 224 255
200 224 255
201 224 255
201 224 255
201 224 255
201 224 255
201 224 255
201 224 255
201 224 255
201 224 255
201 224 255
201 224 255
201 225 255
201 225 255
201 225 255
201 225 255
201 225 255
202 225 255
202 225 255
202 225 255
202 225 255
202 225 255
202 225 255
202 225 255
202 225 255
202 225 255
202 225 255
202 225 255
202 225 255
202 225 255
202 225 255
202 225 255
203 225 255
203 225 255
203 225 255
203 225 255
203 225 255
203 225 255
203 225 255
203 225 255
203 225 255
203 226 255
203 226 255
203 226 255
203 226 255
203 226 255
203 226 255
203 226 255
204 226 255
204 226 255
204 226 255
204 226 255
204 226 255
204 226 255
204 226 255
204 226 255
204 226 255
204 226 255
204 226 255
204 226 255
204 226 255
204 226 255
204 226 255
204 226 255
204 226 255
204 226 255
205 226 255
205 226 255
205 226 255
205 226 255
205 226 255
205 226 255
205 226 255
205 227 255
205 227 255
205 227 255
205 227 255
205 227 255
205 227 255
205 227 255
205 227 255
205 227 255
205 227 255
205 227 255
205 227 255
205 227 255
205 227 255
205 227 255
205 227 255
205 227 255
205 227 255
205 227 255
205 227 255
205 227 255
205 226 255
205 226 255
205 226 255
205 226 255
205 226 255
205 226 255
205 226 255
204 226 255
204 226 255
204 226 255
204 226 255
204 226 255
204 226 255
204 226 255
204 226 255
204 226 255
204 226 255
204 226 255
204 226 255
204 226 255
204 226 255
204 226 255
204 226 255
204 226 255
203 226 255
203 226 255
203 226 255
203 226 255
203 226 255
203 226 255
203 226 255
203 225 255
203 225 255
203 225 255
203 225 255
203 225 255
203 225 255
203 225 255
203 225 255
203 225 255
202 225 255
202 225 255
202 225 255
202 225 255
202 225 255
202 225 255
202 225 255
202 225 255
202 225 255
202 225 255
202 225 255
202 225 255
202 225 255
202 225 255
202 225 255
201 225 255
201 225 255
201 225 255
201 225 255
201 225 255
201 224 255
201 224 255
201 224 255
201 224 255
201 224 255
201 224 255
201 224 255
201 224 255
201 224 255
201 224 255
200 224 255
200 224 255
200 224 255
200 224 255
200 224 255
200 224 255
200 224 255
200 224 255
200 224 255
200 224 255
200 224 255
200 224 255
200 224 255
200 224 255
199 224 255
199 224 255
199 224 255
199 223 255
199 223 255
199 223 255
199 223 255
199 223 255
199 223 255
199 223 255
199 223 255
199 223 255
199 223 255
199 223 255
199 223 255
198 223 255
198 223 255
198 223 255
198 223 255
198 223 255
198 223 255
198 223 255
198 223 255
198 223 255
198 223 255
198 223 255
198 223 255
198 223 255
198 223 255
198 223 255
197 222 255
197 222 255
197 222 255
197 222 255
197 222 255
197 222 255
197 222 255
197 222 255
197 222 255
197 222 255
197 222 255
197 222 255
197 222 255
197 222 255
197 222 255
197 222 255
196 222 255
196 222 255
196 222 255
196 222 255
196 222 255
196 222 255
196 222 255
196 222 255
196 222 255
196 222 255
196 222 255
196 222 255
196 222 255
196 222 255
196 222 255
196 222 255
196 222 255
196 222 255
196 221 255
196 221 255
195 221 255
195 221 255
195 221 255
195 221 255
195 221 255
195 221 255
195 221 255
195 221 255
195 221 255
195 221 255
195 221 255
195 221 255
195 221 255
195 221 255
195 221 255
195 221 255
195 221 255
195 221 255
195 221 255
195 221 255
195 221 255
195 221 255
195 221 255
195 221 255
195 221 255
195 221 255
195 221 255
195 221 255
195 221 255
195 221 255
195 221 255
195 221 255
195 221 255
195 221 255
195 221 255
195 221 255
195 221 255
195 221 255
195 221 255
195 221 255
195 221 255
195 221 255
195 221 255
195 221 255
195 221 255
195 221 255
195 221 255
195 221 255
195 221 255
195 221 255
195 221 255
195 221 255
195 221 255
195 221 255
195 221 255
195 221 255
195 221 255
195 221 255
195 221 255
195 221 255
195 221 255
195 221 255
195 221 255
195 221 255
195 221 255
195 221 255
195 221 255
195 221 255
195 221 255
195 221 255
195 221 255
195 221 255
195 221 255
195 221 255
195 221 255
195 221 255
196 221 255
196 221 255
196 222 255
196 222 255
196 222 255
196 222 255
196 222 255
196 222 255
196 222 255
196 222 255
196 222 255
196 222 255
196 222 255
196 222 255
196 222 255
196 222 255
196 222 255
196 222 255
196 222 255
196 222 255
197 222 255
197 222 255
197 222 255
197 222 255
197 222 255
197 222 255
197 222 255
197 222 255
197 222 255
197 222 255
197 222 255
197 222 255
197 222 255
197 222 255
197 222 255
197 222 255
198 223 255
198 223 255
198 223 255
198 223 255
198 223 255
198 223 255
198 223 255
198 223 255
198 223 255
198 223 255
198 223 255
198 223 255
198 223 255
198 223 255
198 223 255
199 223 255
199 223 255
199 223 255
199 223 255
199 223 255
199 223 255
199 223 255
199 223 255
199 223 255
199 223 255
199 223 255
199 223 255
199 224 255
199 224 255
199 224 255
200 224 255
200 224 255
200 224 255
200 224 255
200 224 255
200 224 255
200 224 255
200 224 255
200 224 255
200 224 255
200 224 255
200 224 255
200 224 255
200 224 255
201 224 255
201 224 255
201 224 255
201 224 255
201 224 255
201 224 255
201 224 255
201 224 255
201 224 255
201 224 255
201 225 255
201 225 255
201 225 255
201 225 255
201 225 255
202 225 255
202 225 255
202 225 255
202 225 255
202 225 255
202 225 255
202 225 255
202 225 255
202 225 255
202 225 255
202 225 255
202 225 255
202 225 255
202 225 255
202 225 255
203 225 255
203 225 255
203 225 255
203 225 255
203 225 255
203 225 255
203 225 255
203 225 255
203 225 255
203 226 255
203 226 255
203 226 255
203 226 255
203 226 255
203 226 255
203 226 255
204 226 255
204 226 255
204 226 255
204 226 255
204 226 255
204 226 255
204 226 255
204 226 255
204 226 255
204 226 255
204 226 255
204 226 255
204 226 255
204 226 255
204 226 255
204 226 255
204 226 255
205 226 255
205 226 255
205 226 255
205 226 255
205 226 255
205 226 255
205 226 255
205 227 255
205 227 255
205 227 255
205 227 255
205 227 255
205 227 255
205 227 255
205 227 255
205 227 255
205 227 255
205 227 255
205 227 255
206 227 255
206 227 255
206 227 255
205 227 255
205 227 255
205 227 255
205 227 255
205 227 255
205 227 255
205 227 255
205 227 255
205 227 255
205 227 255
205 227 255
205 226 255
205 226 255
205 226 255
205 226 255
205 226 255
205 226 255
205 226 255
204 226 255
204 226 255
204 226 255
204 226 255
204 226 255
204 226 255
204 226 255
204 226 255
204 226 255
204 226 255
204 226 255
204 226 255
204 226 255
204 226 255
204 226 255
204 226 255
204 226 255
203 226 255
203 226 255
203 226 255
203 226 255
203 226 255
203 226 255
203 226 255
203 226 255
203 225 255
203 225 255
203 225 255
203 225 255
203 225 255
203 225 255
203 225 255
203 225 255
202 225 255
202 225 255
202 225 255
202 225 255
202 225 255
202 225 255
202 225 255
202 225 255
202 225 255
202 225 255
202 225 255
202 225 255
202 225 255
202 225 255
202 225 255
202 225 255
201 225 255
201 225 255
201 225 255
201 225 255
201 224 255
201 224 255
201 224 255
201 224 255
201 224 255
201 224 255
201 224 255
201 224 255
201 224 255
201 224 255
200 224 255
200 224 255
200 224 255
200 224 255
200 224 255
200 224 255
200 224 255
200 224 255
200 224 255
200 224 255
200 224 255
200 224 255
200 224 255
200 224 255
200 224 255
199 224 255
199 224 255
199 223 255
199 223 255
199 223 255
199 223 255
199 223 255
199 223 255
199 223 255
199 223 255
199 223 255
199 223 255
199 223 255
199 223 255
198 223 255
198 223 255
198 223 255
198 223 255
198 223 255
198 223 255
198 223 255
198 223 255
198 223 255
198 223 255
198 223 255
198 223 255
198 223 255
198 223 255
198 223 255
197 223 255
197 222 255
197 222 255
197 222 255
197 222 255
197 222 255
197 222 255
197 222 255
197 222 255
197 222 255
197 222 255
197 222 255
197 222 255
197 222 255
197 222 255
197 222 255
197 222 255
196 222 255
196 222 255
196 222 255
196 222 255
196 222 255
196 222 255
196 222 255
196 222 255
196 222 255
196 222 255
196 222 255
196 222 255
196 222 255
196 222 255
196 222 255
196 222 255
196 222 255
196 222 255
196 222 255
196 221 255
196 221 255
195 221 255
195 221 255
195 221 255
195 221 255
195 221 255
195 221 255
195 221 255
195 221 255
195 221 255
195 221 255
195 221 255
195 221 255
195 221 255
195 221 255
195 221 255
195 221 255
195 221 255
195 221 255
195 221 255
195 221 255
195 221 255
195 221 255
195 221 255
195 221 255
195 221 255
195 221 255
195 221 255
195 221 255
195 221 255
195 221 255
195 221 255
195 221 255
195 221 255
195 221 255
195 221 255
195 221 255
195 221 255
195 221 255
195 221 255
195 221 255
195 221 255
195 221 255
195 221 255
195 221 255
195 221 255
195 221 255
195 221 255
195 221 255
195 221 255
195 221 255
195 221 255
195 221 255
195 221 255
195 221 255
195 221 255
195 221 255
195 221 255
195 221 255
195 221 255
195 221 255
195 221 255
195 221 255
195 221 255
195 221 255
195 221 255
195 221 255
195 221 255
195 221 255
196 221 255
196 221 255
196 222 255
196 222 255
196 222 255
196 222 255
196 222 255
196 222 255
196 222 255
196 222 255
196 222 255
196 222 255
196 222 255
196 222 255
196 222 255
196 222 255
196 222 255
196 222 255
196 222 255
196 222 255
196 222 255
197 222 255
197 222 255
197 222 255
197 222 255
197 222 255
197 222 255
197 222 255
197 222 255
197 222 255
197 222 255
197 222 255
197 222 255
197 222 255
197 222 255
197 222 255
197 222 255
197 223 255
198 223 255
198 223 255
198 223 255
198 223 255
198 223 255
198 223 255
198 223 255
198 223 255
198 223 255
198 223 255
198 223 255
198 223 255
198 223 255
198 223 255
198 223 255
199 223 255
199 223 255
199 223 255
199 223 255
199 223 255
199 223 255
199 223 255
199 223 255
199 223 255
199 223 255
199 223 255
199 223 255
199 224 255
199 224 255
200 224 255
200 224 255
200 224 255
200 224 255
200 224 255
200 224 255
200 224 255
200 224 255
200 224 255
200 224 255
200 224 255
200 224 255
200 224 255
200 224 255
200 224 255
201 224 255
201 224 255
201 224 255
201 224 255
201 224 255
201 224 255
201 224 255
201 224 255
201 224 255
201 224 255
201 225 255
201 225 255
201 225 255
201 225 255
202 225 255
202 225 255
202 225 255
202 225 255
202 225 255
202 225 255
202 225 255
202 225 255
202 225 255
202 225 255
202 225 255
202 225 255
202 225 255
202 225 255
202 225 255
202 225 255
203 225 255
203 225 255
203 225 255
203 225 255
203 225 255
203 225 255
203 225 255
203 225 255
203 226 255
203 226 255
203 226 255
203 226 255
203 226 255
203 226 255
203 226 255
203 226 255
204 226 255
204 226 255
204 226 255
204 226 255
204 226 255
204 226 255
204 226 255
204 226 255
204 226 255
204 226 255
204 226 255
204 226 255
204 226 255
204 226 255
204 226 255
204 226 255
204 226 255
205 226 255
205 226 255
205 226 255
205 226 255
205 226 255
205 226 255
205 226 255
205 227 255
205 227 255
205 227 255
205 227 255
205 227 255
205 227 255
205 227 255
205 227 255
205 227 255
205 227 255
205 227 255
206 227 255
206 227 255
206 227 255
206 227 255
206 227 255
206 227 255
206 227 255
206 227 255
205 227 255
205 227 255
205 227 255
205 227 255
205 227 255
205 227 255
205 227 255
205 227 255
205 227 255
205 227 255
205 227 255
205 226 255
205 226 255
205 226 255
205 226 255
205 226 255
205 226 255
205 226 255
205 226 255
204 226 255
204 226 255
204 226 255
204 226 255
204 226 255
204 226 255
204 226 255
204 226 255
204 226 255
204 226 255
204 226 255
204 226 255
204 226 255
204 226 255
204 226 255
204 226 255
204 226 255
203 226 255
203 226 255
203 226 255
203 226 255
203 226 255
203 226 255
203 226 255
203 225 255
203 225 255
203 225 255
203 225 255
203 225 255
203 225 255
203 225 255
203 225 255
203 225 255
202 225 255
202 225 255
202 225 255
202 225 255
202 225 255
202 225 255
202 225 255
202 225 255
202 225 255
202 225 255
202 225 255
202 225 255
202 225 255
202 225 255
202 225 255
201 225 255
201 225 255
201 225 255
201 225 255
201 224 255
201 224 255
201 224 255
201 224 255
201 224 255
201 224 255
201 224 255
201 224 255
201 224 255
201 224 255
201 224 255
200 224 255
200 224 255
200 224 255
200 224 255
200 224 255
200 224 255
200 224 255
200 224 255
200 224 255
200 224 255
200 224 255
200 224 255
200 224 255
200 224 255
199 224 255
199 224 255
199 223 255
199 223 255
199 223 255
199 223 255
199 223 255
199 223 255
199 223 255
199 223 255
199 223 255
199 223 255
199 223 255
199 223 255
198 223 255
198 223 255
198 223 255
198 223 255
198 223 255
198 223 255
198 223 255
198 223 255
198 223 255
198 223 255
198 223 255
198 223 255
198 223 255
198 223 255
198 223 255
198 223 255
197 222 255
197 222 255
197 222 255
197 222 255
197 222 255
197 222 255
197 222 255
197 222 255
197 222 255
197 222 255
197 222 255
197 222 255
197 222 255
197 222 255
197 222 255
197 222 255
197 222 255
196 222 255
196 222 255
196 222 255
196 222 255
196 222 255
196 222 255
196 222 255
196 222 255
196 222 255
196 222 255
196 222 255
196 222 255
196 222 255
196 222 255
196 222 255
196 222 255
196 222 255
196 222 255
196 222 255
196 222 255
196 221 255
196 221 255
195 221 255
195 221 255
195 221 255
195 221 255
195 221 255
195 221 255
195 221 255
195 221 255
195 221 255
195 221 255
195 221 255
195 221 255
195 221 255
195 221 255
195 221 255
195 221 255
195 221 255
195 221 255
195 221 255
195 221 255
195 221 255
195 221 255
195 221 255
195 221 255
195 221 255
195 221 255
195 221 255
195 221 255
195 221 255
195 221 255
195 221 255
195 221 255
195 221 255
195 221 255
195 221 255
195 221 255
195 221 255
195 221 255
195 221 255
195 221 255
195 221 255
195 221 255
195 221 255
195 221 255
195 221 255
195 221 255
195 221 255
195 221 255
195 221 255
195 221 255
195 221 255
195 221 255
195 221 255
195 221 255
195 221 255
195 221 255
195 221 255
195 221 255
195 221 255
195 221 255
196 221 255
196 221 255
196 222 255
196 222 255
196 222 255
196 222 255
196 222 255
196 222 255
196 222 255
196 222 255
196 222 255
196 222 255
196 222 255
196 222 255
196 222 255
196 222 255
196 222 255
196 222 255
196 222 255
196 222 255
196 222 255
196 222 255
197 222 255
197 222 255
197 222 255
197 222 255
197 222 255
197 222 255
197 222 255
197 222 255
197 222 255
197 222 255
197 222 255
197 222 255
197 222 255
197 222 255
197 222 255
197 222 255
197 222 255
198 223 255
198 223 255
198 223 255
198 223 255
198 223 255
198 223 255
198 223 255
198 223 255
198 223 255
198 223 255
198 223 255
198 223 255
198 223 255
198 223 255
198 223 255
198 223 255
199 223 255
199 223 255
199 223 255
199 223 255
199 223 255
199 223 255
199 223 255
199 223 255
199 223 255
199 223 255
199 223 255
199 223 255
199 224 255
199 224 255
200 224 255
200 224 255
200 224 255
200 224 255
200 224 255
200 224 255
200 224 255
200 224 255
200 224 255
200 224 255
200 224 255
200 224 255
200 224 255
200 224 255
200 224 255
201 224 255
201 224 255
201 224 255
201 224 255
201 224 255
201 224 255
201 224 255
201 224 255
201 224 255
201 224 255
201 225 255
201 225 255
201 225 255
201 225 255
202 225 255
202 225 255
202 225 255
202 225 255
202 225 255
202 225 255
202 225 255
202 225 255
202 225 255
202 225 255
202 225 255
202 225 255
202 225 255
202 225 255
202 225 255
203 225 255
203 225 255
203 225 255
203 225 255
203 225 255
203 225 255
203 225 255
203 225 255
203 225 255
203 226 255
203 226 255
203 226 255
203 226 255
203 226 255
203 226 255
203 226 255
204 226 255
204 226 255
204 226 255
204 226 255
204 226 255
204 226 255
204 226 255
204 226 255
204 226 255
204 226 255
204 226 255
204 226 255
204 226 255
204 226 255
204 226 255
204 226 255
204 226 255
205 226 255
205 226 255
205 226 255
205 226 255
205 226 255
205 226 255
205 226 255
205 226 255
205 227 255
205 227 255
205 227 255
205 227 255
205 227 255
205 227 255
205 227 255
205 227 255
205 227 255
205 227 255
205 227 255
206 227 255
206 227 255
206 227 255
206 227 255
206 227 255
206 227 255
206 227 255
206 227 255
206 227 255
206 227 255
206 227 255
206 227 255
206 227 255
205 227 255
205 227 255
205 227 255
205 227 255
205 227 255
205 227 255
205 227 255
205 227 255
205 227 255
205 227 255
205 227 255
205 226 255
205 226 255
205 226 255
205 226 255
205 226 255
205 226 255
205 226 255
204 226 255
204 226 255
204 226 255
204 226 255
204 226 255
204 226 255
204 226 255
204 226 255
204 226 255
204 226 255
204 226 255
204 226 255
204 226 255
204 226 255
204 226 255
204 226 255
204 226 255
203 226 255
203 226 255
203 226 255
203 226 255
203 226 255
203 226 255
203 226 255
203 225 255
203 225 255
203 225 255
203 225 255
203 225 255
203 225 255
203 225 255
203 225 255
203 225 255
202 225 255
202 225 255
202 225 255
202 225 255
202 225 255
202 225 255
202 225 255
202 225 255
202 225 255
202 225 255
202 225 255
202 225 255
202 225 255
202 225 255
202 225 255
201 225 255
201 225 255
201 225 255
201 225 255
201 224 255
201 224 255
201 224 255
201 224 255
201 224 255
201 224 255
201 224 255
201 224 255
201 224 255
201 224 255
201 224 255
200 224 255
200 224 255
200 224 255
200 224 255
200 224 255
200 224 255
200 224 255
200 224 255
200 224 255
200 224 255
200 224 255
200 224 255
200 224 255
200 224 255
199 224 255
199 224 255
199 223 255
199 223 255
199 223 255
199 223 255
199 223 255
199 223 255
199 223 255
199 223 255
199 223 255
199 223 255
199 223 255
199 223 255
199 223 255
198 223 255
198 223 255
198 223 255
198 223 255
198 223 255
198 223 255
198 223 255
198 223 255
198 223 255
198 223 255
198 223 255
198 223 255
198 223 255
198 223 255
198 223 255
197 223 255
197 222 255
197 222 255
197 222 255
197 222 255
197 222 255
197 222 255
197 222 255
197 222 255
197 222 255
197 222 255
197 222 255
197 222 255
197 222 255
197 222 255
197 222 255
197 222 255
197 222 255
196 222 255
196 222 255
196 222 255
196 222 255
196 222 255
196 222 255
196 222 255
196 222 255
196 222 255
196 222 255
196 222 255
196 222 255
196 222 255
196 222 255
196 222 255
196 222 255
196 222 255
196 222 255
196 222 255
196 222 255
196 222 255
196 221 255
196 221 255
196 221 255
195 221 255
195 221 255
195 221 255
195 221 255
195 221 255
195 221 255
195 221 255
195 221 255
195 221 255
195 221 255
195 221 255
195 221 255
195 221 255
195 221 255
195 221 255
195 221 255
195 221 255
195 221 255
195 221 255
195 221 255
195 221 255
195 221 255
195 221 255
195 221 255
195 221 255
195 221 255
195 221 255
195 221 255
195 221 255
195 221 255
195 221 255
195 221 255
195 221 255
195 221 255
195 221 255
195 221 255
195 221 255
195 221 255
195 221 255
195 221 255
195 221 255
195 221 255
195 221 255
195 221 255
195 221 255
195 221 255
195 221 255
195 221 255
195 221 255
195 221 255
196 221 255
196 221 255
196 221 255
196 222 255
196 222 255
196 222 255
196 222 255
196 222 255
196 222 255
196 222 255
196 222 255
196 222 255
196 222 255
196 222 255
196 222 255
196 222 255
196 222 255
196 222 255
196 222 255
196 222 255
196 222 255
196 222 255
196 222 255
196 222 255
197 222 255
197 222 255
197 222 255
197 222 255
197 222 255
197 222 255
197 222 255
197 222 255
197 222 255
197 222 255
197 222 255
197 222 255
197 222 255
197 222 255
197 222 255
197 222 255
197 222 255
197 223 255
198 223 255
198 223 255
198 223 255
198 223 255
198 223 255
198 223 255
198 223 255
198 223 255
198 223 255
198 223 255
198 223 255
198 223 255
198 223 255
198 223 255
198 223 255
199 223 255
199 223 255
199 223 255
199 223 255
199 223 255
199 223 255
199 223 255
199 223 255
199 223 255
199 223 255
199 223 255
199 223 255
199 223 255
199 224 255
199 224 255
200 224 255
200 224 255
200 224 255
200 224 255
200 224 255
200 224 255
200 224 255
200 224 255
200 224 255
200 224 255
200 224 255
200 224 255
200 224 255
200 224 255
201 224 255
201 224 255
201 224 255
201 224 255
201 224 255
201 224 255
201 224 255
201 224 255
201 224 255
201 224 255
201 225 255
201 225 255
201 225 255
201 225 255
201 225 255
202 225 255
202 225 255
202 225 255
202 225 255
202 225 255
202 225 255
202 225 255
202 225 255
202 225 255
202 225 255
202 225 255
202 225 255
202 225 255
202 225 255
202 225 255
203 225 255
203 225 255
203 225 255
203 225 255
203 225 255
203 225 255
203 225 255
203 225 255
203 225 255
203 226 255
203 226 255
203 226 255
203 226 255
203 226 255
203 226 255
203 226 255
204 226 255
204 226 255
204 226 255
204 226 255
204 226 255
204 226 255
204 226 255
204 226 255
204 226 255
204 226 255
204 226 255
204 226 255
204 226 255
204 226 255
204 226 255
204 226 255
204 226 255
205 226 255
205 226 255
205 226 255
205 226 255
205 226 255
205 226 255
205 226 255
205 227 255
205 227 255
205 227 255
205 227 255
205 227 255
205 227 255
205 227 255
205 227 255
205 227 255
205 227 255
205 227 255
206 227 255
206 227 255
206 227 255
206 227 255
206 227 255
206 227 255
206 227 255
206 227 255
206 227 255
206 227 255
206 227 255
206 227 255
206 227 255
206 227 255
206 227 255
206 227 255
206 227 255
206 227 255
206 227 255
205 227 255
205 227 255
205 227 255
205 227 255
205 227 255
205 227 255
205 227 255
205 227 255
205 227 255
205 227 255
205 226 255
205 226 255
205 226 255
205 226 255
205 226 255
205 226 255
205 226 255
205 226 255
204 226 255
204 226 255
204 226 255
204 226 255
204 226 255
204 226 255
204 226 255
204 226 255
204 226 255
204 226 255
204 226 255
204 226 255
204 226 255
204 226 255
204 226 255
204 226 255
203 226 255
203 226 255
203 226 255
203 226 255
203 226 255
203 226 255
203 226 255
203 226 255
203 225 255
203 225 255
203 225 255
203 225 255
203 225 255
203 225 255
203 225 255
203 225 255
202 225 255
202 225 255
202 225 255
202 225 255
202 225 255
202 225 255
202 225 255
202 225 255
202 225 255
202 225 255
202 225 255
202 225 255
202 225 255
202 225 255
202 225 255
201 225 255
201 225 255
201 225 255
201 225 255
201 225 255
201 224 255
201 224 255
201 224 255
201 224 255
201 224 255
201 224 255
201 224 255
201 224 255
201 224 255
201 224 255
200 224 255
200 224 255
200 224 255
200 224 255
200 224 255
200 224 255
200 224 255
200 224 255
200 224 255
200 224 255
200 224 255
200 224 255
200 224 255
200 224 255
199 224 255
199 224 255
199 224 255
199 223 255
199 223 255
199 223 255
199 223 255
199 223 255
199 223 255
199 223 255
199 223 255
199 223 255
199 223 255
199 223 255
199 223 255
198 223 255
198 223 255
198 223 255
198 223 255
198 223 255
198 223 255
198 223 255
198 223 255
198 223 255
198 223 255
198 223 255
198 223 255
198 223 255
198 223 255
198 223 255
198 223 255
197 222 255
197 222 255
197 222 255
197 222 255
197 222 255
197 222 255
197 222 255
197 222 255
197 222 255
197 222 255
197 222 255
197 222 255
197 222 255
197 222 255
197 222 255
197 222 255
197 222 255
197 222 255
196 222 255
196 222 255
196 222 255
196 222 255
196 222 255
196 222 255
196 222 255
196 222 255
196 222 255
196 222 255
196 222 255
196 222 255
196 222 255
196 222 255
196 222 255
196 222 255
196 222 255
196 222 255
196 222 255
196 222 255
196 222 255
196 222 255
196 222 255
196 222 255
196 221 255
196 221 255
196 221 255
195 221 255
195 221 255
195 221 255
195 221 255
195 221 255
195 221 255
195 221 255
195 221 255
195 221 255
195 221 255
195 221 255
195 221 255
195 221 255
195 221 255
195 221 255
195 221 255
195 221 255
195 221 255
195 221 255
195 221 255
195 221 255
195 221 255
195 221 255
195 221 255
195 221 255
195 221 255
195 221 255
195 221 255
195 221 255
195 221 255
195 221 255
195 221 255
195 221 255
195 221 255
195 221 255
195 221 255
195 221 255
195 221 255
196 221 255
196 221 255
196 221 255
196 221 255
196 222 255
196 222 255
196 222 255
196 222 255
196 222 255
196 222 255
196 222 255
196 222 255
196 222 255
196 222 255
196 222 255
196 222 255
196 222 255
196 222 255
196 222 255
196 222 255
196 222 255
196 222 255
196 222 255
196 222 255
196 222 255
196 222 255
196 222 255
197 222 255
197 222 255
197 222 255
197 222 255
197 222 255
197 222 255
197 222 255
197 222 255
197 222 255
197 222 255
197 222 255
197 222 255
197 222 255
197 222 255
197 222 255
197 222 255
197 222 255
197 222 255
198 223 255
198 223 255
198 223 255
198 223 255
198 223 255
198 223 255
198 223 255
198 223 255
198 223 255
198 223 255
198 223 255
198 223 255
198 223 255
198 223 255
198 223 255
198 223 255
199 223 255
199 223 255
199 223 255
199 223 255
199 223 255
199 223 255
199 223 255
199 223 255
199 223 255
199 223 255
199 223 255
199 223 255
199 224 255
199 224 255
199 224 255
200 224 255
200 224 255
200 224 255
200 224 255
200 224 255
200 224 255
200 224 255
200 224 255
200 224 255
200 224 255
200 224 255
200 224 255
200 224 255
200 224 255
201 224 255
201 224 255
201 224 255
201 224 255
201 224 255
201 224 255
201 224 255
201 224 255
201 224 255
201 224 255
201 225 255
201 225 255
201 225 255
201 225 255
201 225 255
202 225 255
202 225 255
202 225 255
202 225 255
202 225 255
202 225 255
202 225 255
202 225 255
202 225 255
202 225 255
202 225 255
202 225 255
202 225 255
202 225 255
202 225 255
203 225 255
203 225 255
203 225 255
203 225 255
203 225 255
203 225 255
203 225 255
203 225 255
203 226 255
203 226 255
203 226 255
203 226 255
203 226 255
203 226 255
203 226 255
204 226 255
204 226 255
204 226 255
204 226 255
204 226 255
204 226 255
204 226 255
204 226 255
204 226 255
204 226 255
204 226 255
204 226 255
204 226 255
204 226 255
204 226 255
204 226 255
204 226 255
205 226 255
205 226 255
205 226 255
205 226 255
205 226 255
205 226 255
205 226 255
205 227 255
205 227 255
205 227 255
205 227 255
205 227 255
205 227 255
205 227 255
205 227 255
205 227 255
205 227 255
205 227 255
206 227 255
206 227 255
206 227 255
206 227 255
206 227 255
206 227 255
206 227 255
206 227 255
206 227 255
206 227 255
206 227 255
206 227 255
206 227 255
206 227 255
206 227 255
206 227 255
206 227 255
206 227 255
206 227 255
206 227 255
206 227 255
206 227 255
206 227 255
206 227 255
205 227 255
205 227 255
205 227 255
205 227 255
205 227 255
205 227 255
205 227 255
205 227 255
205 227 255
205 227 255
205 227 255
205 226 255
205 226 255
205 226 255
205 226 255
205 226 255
205 226 255
205 226 255
204 226 255
204 226 255
204 226 255
204 226 255
204 226 255
204 226 255
204 226 255
204 226 255
204 226 255
204 226 255
204 226 255
204 226 255
204 226 255
204 226 255
204 226 255
204 226 255
204 226 255
203 226 255
203 226 255
203 226 255
203 226 255
203 226 255
203 226 255
203 226 255
203 225 255
203 225 255
203 225 255
203 225 255
203 225 255
203 225 255
203 225 255
203 225 255
203 225 255
202 225 255
202 225 255
202 225 255
202 225 255
202 225 255
202 225 255
202 225 255
202 225 255
202 225 255
202 225 255
202 225 255
202 225 255
202 225 255
202 225 255
201 225 255
201 225 255
201 225 255
201 225 255
201 225 255
201 224 255
201 224 255
201 224 255
201 224 255
201 224 255
201 224 255
201 224 255
201 224 255
201 224 255
201 224 255
200 224 255
200 224 255
200 224 255
200 224 255
200 224 255
200 224 255
200 224 255
200 224 255
200 224 255
200 224 255
200 224 255
200 224 255
200 224 255
200 224 255
200 224 255
199 224 255
199 224 255
199 223 255
199 223 255
199 223 255
199 223 255
199 223 255
199 223 255
199 223 255
199 223 255
199 223 255
199 223 255
199 223 255
199 223 255
198 223 255
198 223 255
198 223 255
198 223 255
198 223 255
198 223 255
198 223 255
198 223 255
198 223 255
198 223 255
198 223 255
198 223 255
198 223 255
198 223 255
198 223 255
198 223 255
198 223 255
197 222 255
197 222 255
197 222 255
197 222 255
197 222 255
197 222 255
197 222 255
197 222 255
197 222 255
197 222 255
197 222 255
197 222 255
197 222 255
197 222 255
197 222 255
197 222 255
197 222 255
197 222 255
196 222 255
196 222 255
196 222 255
196 222 255
196 222 255
196 222 255
196 222 255
196 222 255
196 222 255
196 222 255
196 222 255
196 222 255
196 222 255
196 222 255
196 222 255
196 222 255
196 222 255
196 222 255
196 222 255
196 222 255
196 222 255
196 222 255
196 222 255
196 222 255
196 222 255
196 222 255
196 222 255
196 222 255
196 221 255
196 221 255
196 221 255
196 221 255
196 221 255
195 221 255
195 221 255
195 221 255
195 221 255
195 221 255
195 221 255
195 221 255
195 221 255
195 221 255
195 221 255
195 221 255
195 221 255
195 221 255
195 221 255
195 221 255
195 221 255
195 221 255
195 221 255
195 221 255
195 221 255
196 221 255
196 221 255
196 221 255
196 221 255
196 221 255
196 222 255
196 222 255
196 222 255
196 222 255
196 222 255
196 222 255
196 222 255
196 222 255
196 222 255
196 222 255
196 222 255
196 222 255
196 222 255
196 222 255
196 222 255
196 222 255
196 222 255
196 222 255
196 222 255
196 222 255
196 222 255
196 222 255
196 222 255
196 222 255
196 222 255
196 222 255
196 222 255
196 222 255
197 222 255
197 222 255
197 222 255
197 222 255
197 222 255
197 222 255
197 222 255
197 222 255
197 222 255
197 222 255
197 222 255
197 222 255
197 222 255
197 222 255
197 222 255
197 222 255
197 222 255
197 222 255
197 223 255
198 223 255
198 223 255
198 223 255
198 223 255
198 223 255
198 223 255
198 223 255
198 223 255
198 223 255
198 223 255
198 223 255
198 223 255
198 223 255
198 223 255
198 223 255
199 223 255
199 223 255
199 223 255
199 223 255
199 223 255
199 223 255
199 223 255
199 223 255
199 223 255
199 223 255
199 223 255
199 223 255
199 223 255
199 224 255
199 224 255
200 224 255
200 224 255
200 224 255
200 224 255
200 224 255
200 224 255
200 224 255
200 224 255
200 224 255
200 224 255
200 224 255
200 224 255
200 224 255
200 224 255
200 224 255
201 224 255
201 224 255
201 224 255
201 224 255
201 224 255
201 224 255
201 224 255
201 224 255
201 224 255
201 224 255
201 225 255
201 225 255
201 225 255
201 225 255
202 225 255
202 225 255
202 225 255
202 225 255
202 225 255
202 225 255
202 225 255
202 225 255
202 225 255
202 225 255
202 225 255
202 225 255
202 225 255
202 225 255
202 225 255
203 225 255
203 225 255
203 225 255
203 225 255
203 225 255
203 225 255
203 225 255
203 225 255
203 225 255
203 226 255
203 226 255
203 226 255
203 226 255
203 226 255
203 226 255
203 226 255
204 226 255
204 226 255
204 226 255
204 226 255
204 226 255
204 226 255
204 226 255
204 226 255
204 226 255
204 226 255
204 226 255
204 226 255
204 226 255
204 226 255
204 226 255
204 226 255
204 226 255
205 226 255
205 226 255
205 226 255
205 226 255
205 226 255
205 226 255
205 226 255
205 227 255
205 227 255
205 227 255
205 227 255
205 227 255
205 227 255
205 227 255
205 227 255
205 227 255
205 227 255
205 227 255
206 227 255
206 227 255
206 227 255
206 227 255
206 227 255
206 227 255
206 227 255
206 227 255
206 227 255
206 227 255
206 227 255
206 227 255
206 227 255
206 227 255
206 227 255
206 227 255
206 227 255
206 227 255
206 227 255
206 227 255
206 227 255
206 227 255
206 227 255
206 227 255
206 227 255
206 227 255
206 227 255
206 227 255
206 227 255
205 227 255
205 227 255
205 227 255
205 227 255
205 227 255
205 227 255
205 227 255
205 227 255
205 227 255
205 227 255
205 227 255
205 226 255
205 226 255
205 226 255
205 226 255
205 226 255
205 226 255
205 226 255
204 226 255
204 226 255
204 226 255
204 226 255
204 226 255
204 226 255
204 226 255
204 226 255
204 226 255
204 226 255
204 226 255
204 226 255
204 226 255
204 226 255
204 226 255
204 226 255
203 226 255
203 226 255
203 226 255
203 226 255
203 226 255
203 226 255
203 226 255
203 225 255
203 225 255
203 225 255
203 225 255
203 225 255
203 225 255
203 225 255
203 225 255
203 225 255
202 225 255
202 225 255
202 225 255
202 225 255
202 225 255
202 225 255
202 225 255
202 225 255
202 225 255
202 225 255
202 225 255
202 225 255
202 225 255
202 225 255
202 225 255
201 225 255
201 225 255
201 225 255
201 225 255
201 224 255
201 224 255
201 224 255
201 224 255
201 224 255
201 224 255
201 224 255
201 224 255
201 224 255
201 224 255
201 224 255
200 224 255
200 224 255
200 224 255
200 224 255
200 224 255
200 224 255
200 224 255
200 224 255
200 224 255
200 224 255
200 224 255
200 224 255
200 224 255
200 224 255
199 224 255
199 224 255
199 223 255
199 223 255
199 223 255
199 223 255
199 223 255
199 223 255
199 223 255
199 223 255
199 223 255
199 223 255
199 223 255
199 223 255
199 223 255
198 223 255
198 223 255
198 223 255
198 223 255
198 223 255
198 223 255
198 223 255
198 223 255
198 223 255
198 223 255
198 223 255
198 223 255
198 223 255
198 223 255
198 223 255
198 223 255
197 223 255
197 222 255
197 222 255
197 222 255
197 222 255
197 222 255
197 222 255
197 222 255
197 222 255
197 222 255
197 222 255
197 222 255
197 222 255
197 222 255
197 222 255
197 222 255
197 222 255
197 222 255
197 222 255
197 222 255
196 222 255
196 222 255
196 222 255
196 222 255
196 222 255
196 222 255
196 222 255
196 222 255
196 222 255
196 222 255
196 222 255
196 222 255
196 222 255
196 222 255
196 222 255
196 222 255
196 222 255
196 222 255
196 222 255
196 222 255
196 222 255
196 222 255
196 222 255
196 222 255
196 222 255
196 222 255
196 222 255
196 222 255
196 222 255
196 222 255
196 222 255
196 222 255
196 222 255
196 222 255
196 222 255
196 222 255
196 222 255
196 222 255
196 222 255
196 222 255
196 222 255
196 222 255
196 222 255
196 222 255
196 222 255
196 222 255
196 222 255
196 222 255
196 222 255
196 222 255
196 222 255
196 222 255
196 222 255
196 222 255
196 222 255
196 222 255
196 222 255
196 222 255
196 222 255
196 222 255
196 222 255
196 222 255
196 222 255
196 222 255
196 222 255
196 222 255
196 222 255
196 222 255
196 222 255
196 222 255
196 222 255
196 222 255
196 222 255
196 222 255
196 222 255
196 222 255
196 222 255
196 222 255
197 222 255
197 222 255
197 222 255
197 222 255
197 222 255
197 222 255
197 222 255
197 222 255
197 222 255
197 222 255
197 222 255
197 222 255
197 222 255
197 222 255
197 222 255
197 222 255
197 222 255
197 222 255
197 222 255
197 223 255
198 223 255
198 223 255
198 223 255
198 223 255
198 223 255
198 223 255
198 223 255
198 223 255
198 223 255
198 223 255
198 223 255
198 223 255
198 223 255
198 223 255
198 223 255
198 223 255
199 223 255
199 223 255
199 223 255
199 223 255
199 223 255
199 223 255
199 223 255
199 223 255
199 223 255
199 223 255
199 223 255
199 223 255
199 223 255
199 224 255
199 224 255
200 224 255
200 224 255
200 224 255
200 224 255
200 224 255
200 224 255
200 224 255
200 224 255
200 224 255
200 224 255
200 224 255
200 224 255
200 224 255
200 224 255
201 224 255
201 224 255
201 224 255
201 224 255
201 224 255
201 224 255
201 224 255
201 224 255
201 224 255
201 224 255
201 224 255
201 225 255
201 225 255
201 225 255
201 225 255
202 225 255
202 225 255
202 225 255
202 225 255
202 225 255
202 225 255
202 225 255
202 225 255
202 225 255
202 225 255
202 225 255
202 225 255
202 225 255
202 225 255
202 225 255
203 225 255
203 225 255
203 225 255
203 225 255
203 225 255
203 225 255
203 225 255
203 225 255
203 225 255
203 226 255
203 226 255
203 226 255
203 226 255
203 226 255
203 226 255
203 226 255
204 226 255
204 226 255
204 226 255
204 226 255
204 226 255
204 226 255
204 226 255
204 226 255
204 226 255
204 226 255
204 226 255
204 226 255
204 226 255
204 226 255
204 226 255
204 226 255
205 226 255
205 226 255
205 226 255
205 226 255
205 226 255
205 226 255
205 226 255
205 227 255
205 227 255
205 227 255
205 227 255
205 227 255
205 227 255
205 227 255
205 227 255
205 227 255
205 227 255
205 227 255
206 227 255
206 227 255
206 227 255
206 227 255
206 227 255
206 227 255
206 227 255
206 227 255
206 227 255
206 227 255
206 227 255
206 227 255
206 227 255
206 227 255
206 227 255
206 227 255
206 227 255
206 227 255
206 227 255
206 227 255
206 227 255
206 227 255
206 227 255
206 227 255
206 227 255
206 227 255
206 227 255
206 227 255
206 227 255
206 227 255
206 227 255
206 227 255
206 227 255
206 227 255
205 227 255
205 227 255
205 227 255
205 227 255
205 227 255
205 227 255
205 227 255
205 227 255
205 227 255
205 227 255
205 227 255
205 226 255
205 226 255
205 226 255
205 226 255
205 226 255
205 226 255
205 226 255
204 226 255
204 226 255
204 226 255
204 226 255
204 226 255
204 226 255
204 226 255
204 226 255
204 226 255
204 226 255
204 226 255
204 226 255
204 226 255
204 226 255
204 226 255
204 226 255
204 226 255
203 226 255
203 226 255
203 226 255
203 226 255
203 226 255
203 226 255
203 226 255
203 225 255
203 225 255
203 225 255
203 225 255
203 225 255
203 225 255
203 225 255
203 225 255
202 225 255
202 225 255
202 225 255
202 225 255
202 225 255
202 225 255
202 225 255
202 225 255
202 225 255
202 225 255
202 225 255
202 225 255
202 225 255
202 225 255
202 225 255
201 225 255
201 225 255
201 225 255
201 225 255
201 225 255
201 224 255
201 224 255
201 224 255
201 224 255
201 224 255
201 224 255
201 224 255
201 224 255
201 224 255
201 224 255
200 224 255
200 224 255
200 224 255
200 224 255
200 224 255
200 224 255
200 224 255
200 224 255
200 224 255
200 224 255
200 224 255
200 224 255
200 224 255
200 224 255
199 224 255
199 224 255
199 224 255
199 223 255
199 223 255
199 223 255
199 223 255
199 223 255
199 223 255
199 223 255
199 223 255
199 223 255
199 223 255
199 223 255
199 223 255
199 223 255
198 223 255
198 223 255
198 223 255
198 223 255
198 223 255
198 223 255
198 223 255
198 223 255
198 223 255
198 223 255
198 223 255
198 223 255
198 223 255
198 223 255
198 223 255
198 223 255
197 223 255
197 222 255
197 222 255
197 222 255
197 222 255
197 222 255
197 222 255
197 222 255
197 222 255
197 222 255
197 222 255
197 222 255
197 222 255
197 222 255
197 222 255
197 222 255
197 222 255
197 222 255
197 222 255
197 222 255
197 222 255
196 222 255
196 222 255
196 222 255
196 222 255
196 222 255
196 222 255
196 222 255
196 222 255
196 222 255
196 222 255
196 222 255
196 222 255
196 222 255
196 222 255
196 222 255
196 222 255
196 222 255
196 222 255
196 222 255
196 222 255
196 222 255
196 222 255
196 222 255
196 222 255
196 222 255
196 222 255
196 222 255
196 222 255
196 222 255
196 222 255
196 222 255
196 222 255
196 222 255
196 222 255
196 222 255
196 222 255
196 222 255
196 222 255
196 222 255
196 222 255
196 222 255
196 222 255
196 222 255
196 222 255
196 222 255
196 222 255
196 222 255
196 222 255
196 222 255
196 222 255
196 222 255
196 222 255
196 222 255
196 222 255
196 222 255
196 222 255
196 222 255
196 222 255
196 222 255
196 222 255
196 222 255
196 222 255
196 222 255
196 222 255
196 222 255
196 222 255
196 222 255
196 222 255
196 222 255
196 222 255
197 222 255
197 222 255
197 222 255
197 222 255
197 222 255
197 222 255
197 222 255
197 222 255
197 222 255
197 222 255
197 222 255
197 222 255
197 222 255
197 222 255
197 222 255
197 222 255
197 222 255
197 222 255
197 222 255
197 222 255
197 223 255
198 223 255
198 223 255
198 223 255
198 223 255
198 223 255
198 223 255
198 223 255
198 223 255
198 223 255
198 223 255
198 223 255
198 223 255
198 223 255
198 223 255
198 223 255
198 223 255
199 223 255
199 223 255
199 223 255
199 223 255
199 223 255
199 223 255
199 223 255
199 223 255
199 223 255
199 223 255
199 223 255
199 223 255
199 223 255
199 224 255
199 224 255
199 224 255
200 224 255
200 224 255
200 224 255
200 224 255
200 224 255
200 224 255
200 224 255
200 224 255
200 224 255
200 224 255
200 224 255
200 224 255
200 224 255
200 224 255
201 224 255
201 224 255
201 224 255
201 224 255
201 224 255
201 224 255
201 224 255
201 224 255
201 224 255
201 224 255
201 225 255
201 225 255
201 225 255
201 225 255
201 225 255
202 225 255
202 225 255
202 225 255
202 225 255
202 225 255
202 225 255
202 225 255
202 225 255
202 225 255
202 225 255
202 225 255
202 225 255
202 225 255
202 225 255
202 225 255
203 225 255
203 225 255
203 225 255
203 225 255
203 225 255
203 225 255
203 225 255
203 225 255
203 226 255
203 226 255
203 226 255
203 226 255
203 226 255
203 226 255
203 226 255
204 226 255
204 226 255
204 226 255
204 226 255
204 226 255
204 226 255
204 226 255
204 226 255
204 226 255
204 226 255
204 226 255
204 226 255
204 226 255
204 226 255
204 226 255
204 226 255
204 226 255
205 226 255
205 226 255
205 226 255
205 226 255
205 226 255
205 226 255
205 226 255
205 227 255
205 227 255
205 227 255
205 227 255
205 227 255
205 227 255
205 227 255
205 227 255
205 227 255
205 227 255
205 227 255
206 227 255
206 227 255
206 227 255
206 227 255
206 227 255
206 227 255
206 227 255
206 227 255
206 227 255
206 227 255
206 227 255
206 227 255
206 227 255
206 227 255
206 227 255
206 227 255
206 227 255
206 227 255
207 227 255
207 227 255
206 227 255
206 227 255
206 227 255
206 227 255
206 227 255
206 227 255
206 227 255
206 227 255
206 227 255
206 227 255
206 227 255
206 227 255
206 227 255
206 227 255
206 227 255
206 227 255
206 227 255
206 227 255
206 227 255
205 227 255
205 227 255
205 227 255
205 227 255
205 227 255
205 227 255
205 227 255
205 227 255
205 227 255
205 227 255
205 227 255
205 226 255
205 226 255
205 226 255
205 226 255
205 226 255
205 226 255
205 226 255
204 226 255
204 226 255
204 226 255
204 226 255
204 226 255
204 226 255
204 226 255
204 226 255
204 226 255
204 226 255
204 226 255
204 226 255
204 226 255
204 226 255
204 226 255
204 226 255
203 226 255
203 226 255
203 226 255
203 226 255
203 226 255
203 226 255
203 226 255
203 225 255
203 225 255
203 225 255
203 225 255
203 225 255
203 225 255
203 225 255
203 225 255
203 225 255
202 225 255
202 225 255
202 225 255
202 225 255
202 225 255
202 225 255
202 225 255
202 225 255
202 225 255
202 225 255
202 225 255
202 225 255
202 225 255
202 225 255
202 225 255
201 225 255
201 225 255
201 225 255
201 225 255
201 224 255
201 224 255
201 224 255
201 224 255
201 224 255
201 224 255
201 224 255
201 224 255
201 224 255
201 224 255
200 224 255
200 224 255
200 224 255
200 224 255
200 224 255
200 224 255
200 224 255
200 224 255
200 224 255
200 224 255
200 224 255
200 224 255
200 224 255
200 224 255
200 224 255
199 224 255
199 224 255
199 223 255
199 223 255
199 223 255
199 223 255
199 223 255
199 223 255
199 223 255
199 223 255
199 223 255
199 223 255
199 223 255
199 223 255
199 223 255
198 223 255
198 223 255
198 223 255
198 223 255
198 223 255
198 223 255
198 223 255
198 223 255
198 223 255
198 223 255
198 223 255
198 223 255
198 223 255
198 223 255
198 223 255
198 223 255
198 223 255
197 223 255
197 222 255
197 222 255
197 222 255
197 222 255
197 222 255
197 222 255
197 222 255
197 222 255
197 222 255
197 222 255
197 222 255
197 222 255
197 222 255
197 222 255
197 222 255
197 222 255
197 222 255
197 222 255
197 222 255
197 222 255
197 222 255
196 222 255
196 222 255
196 222 255
196 222 255
196 222 255
196 222 255
196 222 255
196 222 255
196 222 255
196 222 255
196 222 255
196 222 255
196 222 255
196 222 255
196 222 255
196 222 255
196 222 255
196 222 255
196 222 255
196 222 255
196 222 255
196 222 255
196 222 255
196 222 255
196 222 255
196 222 255
196 222 255
196 222 255
196 222 255
196 222 255
196 222 255
196 222 255
196 222 255
196 222 255
196 222 255
196 222 255
196 222 255
196 222 255
196 222 255
196 222 255
196 222 255
196 222 255
196 222 255
196 222 255
196 222 255
196 222 255
196 222 255
196 222 255
196 222 255
196 222 255
196 222 255
196 222 255
196 222 255
196 222 255
196 222 255
196 222 255
196 222 255
196 222 255
196 222 255
196 222 255
196 222 255
196 222 255
197 222 255
197 222 255
197 222 255
197 222 255
197 222 255
197 222 255
197 222 255
197 222 255
197 222 255
197 222 255
197 222 255
197 222 255
197 222 255
197 222 255
197 222 255
197 222 255
197 222 255
197 222 255
197 222 255
197 222 255
197 222 255
197 223 255
198 223 255
198 223 255
198 223 255
198 223 255
198 223 255
198 223 255
198 223 255
198 223 255
198 223 255
198 223 255
198 223 255
198 223 255
198 223 255
198 223 255
198 223 255
198 223 255
198 223 255
199 223 255
199 223 255
199 223 255
199 223 255
199 223 255
199 223 255
199 223 255
199 223 255
199 223 255
199 223 255
199 223 255
199 223 255
199 223 255
199 224 255
199 224 255
200 224 255
200 224 255
200 224 255
200 224 255
200 224 255
200 224 255
200 224 255
200 224 255
200 224 255
200 224 255
200 224 255
200 224 255
200 224 255
200 224 255
200 224 255
201 224 255
201 224 255
201 224 255
201 224 255
201 224 255
201 224 255
201 224 255
201 224 255
201 224 255
201 224 255
201 225 255
201 225 255
201 225 255
201 225 255
202 225 255
202 225 255
202 225 255
202 225 255
202 225 255
202 225 255
202 225 255
202 225 255
202 225 255
202 225 255
202 225 255
202 225 255
202 225 255
202 225 255
202 225 255
203 225 255
203 225 255
203 225 255
203 225 255
203 225 255
203 225 255
203 225 255
203 225 255
203 225 255
203 226 255
203 226 255
203 226 255
203 226 255
203 226 255
203 226 255
203 226 255
204 226 255
204 226 255
204 226 255
204 226 255
204 226 255
204 226 255
204 226 255
204 226 255
204 226 255
204 226 255
204 226 255
204 226 255
204 226 255
204 226 255
204 226 255
204 226 255
205 226 255
205 226 255
205 226 255
205 226 255
205 226 255
205 226 255
205 226 255
205 227 255
205 227 255
205 227 255
205 227 255
205 227 255
205 227 255
205 227 255
205 227 255
205 227 255
205 227 255
205 227 255
206 227 255
206 227 255
206 227 255
206 227 255
206 227 255
206 227 255
206 227 255
206 227 255
206 227 255
206 227 255
206 227 255
206 227 255
206 227 255
206 227 255
206 227 255
206 227 255
206 227 255
206 227 255
206 227 255
207 227 255
207 227 255
207 227 255
207 227 255
207 227 255
207 227 255
206 227 255
206 227 255
206 227 255
206 227 255
206 227 255
206 227 255
206 227 255
206 227 255
206 227 255
206 227 255
206 227 255
206 227 255
206 227 255
206 227 255
206 227 255
206 227 255
206 227 255
206 227 255
206 227 255
206 227 255
205 227 255
205 227 255
205 227 255
205 227 255
205 227 255
205 227 255
205 227 255
205 227 255
205 227 255
205 227 255
205 226 255
205 226 255
205 226 255
205 226 255
205 226 255
205 226 255
205 226 255
204 226 255
204 226 255
204 226 255
204 226 255
204 226 255
204 226 255
204 226 255
204 226 255
204 226 255
204 226 255
204 226 255
204 226 255
204 226 255
204 226 255
204 226 255
204 226 255
204 226 255
203 226 255
203 226 255
203 226 255
203 226 255
203 226 255
203 226 255
203 225 255
203 225 255
203 225 255
203 225 255
203 225 255
203 225 255
203 225 255
203 225 255
203 225 255
202 225 255
202 225 255
202 225 255
202 225 255
202 225 255
202 225 255
202 225 255
202 225 255
202 225 255
202 225 255
202 225 255
202 225 255
202 225 255
202 225 255
202 225 255
201 225 255
201 225 255
201 225 255
201 225 255
201 224 255
201 224 255
201 224 255
201 224 255
201 224 255
201 224 255
201 224 255
201 224 255
201 224 255
201 224 255
201 224 255
200 224 255
200 224 255
200 224 255
200 224 255
200 224 255
200 224 255
200 224 255
200 224 255
200 224 255
200 224 255
200 224 255
200 224 255
200 224 255
200 224 255
199 224 255
199 224 255
199 224 255
199 223 255
199 223 255
199 223 255
199 223 255
199 223 255
199 223 255
199 223 255
199 223 255
199 223 255
199 223 255
199 223 255
199 223 255
199 223 255
198 223 255
198 223 255
198 223 255
198 223 255
198 223 255
198 223 255
198 223 255
198 223 255
198 223 255
198 223 255
198 223 255
198 223 255
198 223 255
198 223 255
198 223 255
198 223 255
198 223 255
197 223 255
197 222 255
197 222 255
197 222 255
197 222 255
197 222 255
197 222 255
197 222 255
197 222 255
197 222 255
197 222 255
197 222 255
197 222 255
197 222 255
197 222 255
197 222 255
197 222 255
197 222 255
197 222 255
197 222 255
197 222 255
197 222 255
197 222 255
197 222 255
196 222 255
196 222 255
196 222 255
196 222 255
196 222 255
196 222 255
196 222 255
196 222 255
196 222 255
196 222 255
196 222 255
196 222 255
196 222 255
196 222 255
196 222 255
196 222 255
196 222 255
196 222 255
196 222 255
196 222 255
196 222 255
196 222 255
196 222 255
196 222 255
196 222 255
196 222 255
196 222 255
196 222 255
196 222 255
196 222 255
196 222 255
196 222 255
196 222 255
196 222 255
196 222 255
196 222 255
196 222 255
196 222 255
196 222 255
196 222 255
196 222 255
196 222 255
196 222 255
196 222 255
196 222 255
196 222 255
196 222 255
196 222 255
196 222 255
196 222 255
196 222 255
196 222 255
197 222 255
197 222 255
197 222 255
197 222 255
197 222 255
197 222 255
197 222 255
197 222 255
197 222 255
197 222 255
197 222 255
197 222 255
197 222 255
197 222 255
197 222 255
197 222 255
197 222 255
197 222 255
197 222 255
197 222 255
197 222 255
197 222 255
197 222 255
197 223 255
198 223 255
198 223 255
198 223 255
198 223 255
198 223 255
198 223 255
198 223 255
198 223 255
198 223 255
198 223 255
198 223 255
198 223 255
198 223 255
198 223 255
198 223 255
198 223 255
198 223 255
199 223 255
199 223 255
199 223 255
199 223 255
199 223 255
199 223 255
199 223 255
199 223 255
199 223 255
199 223 255
199 223 255
199 223 255
199 223 255
199 224 255
199 224 255
199 224 255
200 224 255
200 224 255
200 224 255
200 224 255
200 224 255
200 224 255
200 224 255
200 224 255
200 224 255
200 224 255
200 224 255
200 224 255
200 224 255
200 224 255
201 224 255
201 224 255
201 224 255
201 224 255
201 224 255
201 224 255
201 224 255
201 224 255
201 224 255
201 224 255
201 224 255
201 225 255
201 225 255
201 225 255
201 225 255
202 225 255
202 225 255
202 225 255
202 225 255
202 225 255
202 225 255
202 225 255
202 225 255
202 225 255
202 225 255
202 225 255
202 225 255
202 225 255
202 225 255
202 225 255
203 225 255
203 225 255
203 225 255
203 225 255
203 225 255
203 225 255
203 225 255
203 225 255
203 226 255
203 226 255
203 226 255
203 226 255
203 226 255
203 226 255
203 226 255
204 226 255
204 226 255
204 226 255
204 226 255
204 226 255
204 226 255
204 226 255
204 226 255
204 226 255
204 226 255
204 226 255
204 226 255
204 226 255
204 226 255
204 226 255
204 226 255
204 226 255
205 226 255
205 226 255
205 226 255
205 226 255
205 226 255
205 226 255
205 226 255
205 227 255
205 227 255
205 227 255
205 227 255
205 227 255
205 227 255
205 227 255
205 227 255
205 227 255
205 227 255
206 227 255
206 227 255
206 227 255
206 227 255
206 227 255
206 227 255
206 227 255
206 227 255
206 227 255
206 227 255
206 227 255
206 227 255
206 227 255
206 227 255
206 227 255
206 227 255
206 227 255
206 227 255
206 227 255
207 227 255
207 227 255
207 227 255
207 227 255
207 227 255
207 228 255
207 228 255
207 227 255
207 227 255
207 227 255
207 227 255
207 227 255
206 227 255
206 227 255
206 227 255
206 227 255
206 227 255
206 227 255
206 227 255
206 227 255
206 227 255
206 227 255
206 227 255
206 227 255
206 227 255
206 227 255
206 227 255
206 227 255
206 227 255
206 227 255
206 227 255
205 227 255
205 227 255
205 227 255
205 227 255
205 227 255
205 227 255
205 227 255
205 227 255
205 227 255
205 227 255
205 227 255
205 226 255
205 226 255
205 226 255
205 226 255
205 226 255
205 226 255
205 226 255
204 226 255
204 226 255
204 226 255
204 226 255
204 226 255
204 226 255
204 226 255
204 226 255
204 226 255
204 226 255
204 226 255
204 226 255
204 226 255
204 226 255
204 226 255
204 226 255
203 226 255
203 226 255
203 226 255
203 226 255
203 226 255
203 226 255
203 226 255
203 225 255
203 225 255
203 225 255
203 225 255
203 225 255
203 225 255
203 225 255
203 225 255
203 225 255
202 225 255
202 225 255
202 225 255
202 225 255
202 225 255
202 225 255
202 225 255
202 225 255
202 225 255
202 225 255
202 225 255
202 225 255
202 225 255
202 225 255
201 225 255
201 225 255
201 225 255
201 225 255
201 225 255
201 224 255
201 224 255
201 224 255
201 224 255
201 224 255
201 224 255
201 224 255
201 224 255
201 224 255
201 224 255
200 224 255
200 224 255
200 224 255
200 224 255
200 224 255
200 224 255
200 224 255
200 224 255
200 224 255
200 224 255
200 224 255
200 224 255
200 224 255
200 224 255
200 224 255
199 224 255
199 224 255
199 223 255
199 223 255
199 223 255
199 223 255
199 223 255
199 223 255
199 223 255
199 223 255
199 223 255
199 223 255
199 223 255
199 223 255
199 223 255
198 223 255
198 223 255
198 223 255
198 223 255
198 223 255
198 223 255
198 223 255
198 223 255
198 223 255
198 223 255
198 223 255
198 223 255
198 223 255
198 223 255
198 223 255
198 223 255
198 223 255
198 223 255
198 223 255
197 222 255
197 222 255
197 222 255
197 222 255
197 222 255
197 222 255
197 222 255
197 222 255
197 222 255
197 222 255
197 222 255
197 222 255
197 222 255
197 222 255
197 222 255
197 222 255
197 222 255
197 222 255
197 222 255
197 222 255
197 222 255
197 222 255
197 222 255
197 222 255
197 222 255
197 222 255
196 222 255
196 222 255
196 222 255
196 222 255
196 222 255
196 222 255
196 222 255
196 222 255
196 222 255
196 222 255
196 222 255
196 222 255
196 222 255
196 222 255
196 222 255
196 222 255
196 222 255
196 222 255
196 222 255
196 222 255
196 222 255
196 222 255
196 222 255
196 222 255
196 222 255
196 222 255
196 222 255
196 222 255
196 222 255
196 222 255
196 222 255
196 222 255
196 222 255
196 222 255
196 222 255
196 222 255
196 222 255
196 222 255
196 222 255
196 222 255
197 222 255
197 222 255
197 222 255
197 222 255
197 222 255
197 222 255
197 222 255
197 222 255
197 222 255
197 222 255
197 222 255
197 222 255
197 222 255
197 222 255
197 222 255
197 222 255
197 222 255
197 222 255
197 222 255
197 222 255
197 222 255
197 222 255
197 222 255
197 222 255
197 222 255
197 222 255
198 223 255
198 223 255
198 223 255
198 223 255
198 223 255
198 223 255
198 223 255
198 223 255
198 223 255
198 223 255
198 223 255
198 223 255
198 223 255
198 223 255
198 223 255
198 223 255
198 223 255
198 223 255
199 223 255
199 223 255
199 223 255
199 223 255
199 223 255
199 223 255
199 223 255
199 223 255
199 223 255
199 223 255
199 223 255
199 223 255
199 223 255
199 223 255
199 224 255
199 224 255
200 224 255
200 224 255
200 224 255
200 224 255
200 224 255
200 224 255
200 224 255
200 224 255
200 224 255
200 224 255
200 224 255
200 224 255
200 224 255
200 224 255
200 224 255
201 224 255
201 224 255
201 224 255
201 224 255
201 224 255
201 224 255
201 224 255
201 224 255
201 224 255
201 224 255
201 225 255
201 225 255
201 225 255
201 225 255
201 225 255
202 225 255
202 225 255
202 225 255
202 225 255
202 225 255
202 225 255
202 225 255
202 225 255
202 225 255
202 225 255
202 225 255
202 225 255
202 225 255
202 225 255
202 225 255
203 225 255
203 225 255
203 225 255
203 225 255
203 225 255
203 225 255
203 225 255
203 225 255
203 226 255
203 226 255
203 226 255
203 226 255
203 226 255
203 226 255
203 226 255
204 226 255
204 226 255
204 226 255
204 226 255
204 226 255
204 226 255
204 226 255
204 226 255
204 226 255
204 226 255
204 226 255
204 226 255
204 226 255
204 226 255
204 226 255
204 226 255
205 226 255
205 226 255
205 226 255
205 226 255
205 226 255
205 226 255
205 226 255
205 227 255
205 227 255
205 227 255
205 227 255
205 227 255
205 227 255
205 227 255
205 227 255
205 227 255
205 227 255
205 227 255
206 227 255
206 227 255
206 227 255
206 227 255
206 227 255
206 227 255
206 227 255
206 227 255
206 227 255
206 227 255
206 227 255
206 227 255
206 227 255
206 227 255
206 227 255
206 227 255
206 227 255
206 227 255
206 227 255
207 227 255
207 227 255
207 227 255
207 227 255
207 227 255
207 228 255
207 228 255
207 228 255
207 228 255
207 228 255
207 228 255
207 228 255
207 227 255
207 227 255
207 227 255
207 227 255
207 227 255
206 227 255
206 227 255
206 227 255
206 227 255
206 227 255
206 227 255
206 227 255
206 227 255
206 227 255
206 227 255
206 227 255
206 227 255
206 227 255
206 227 255
206 227 255
206 227 255
206 227 255
206 227 255
206 227 255
205 227 255
205 227 255
205 227 255
205 227 255
205 227 255
205 227 255
205 227 255
205 227 255
205 227 255
205 227 255
205 226 255
205 226 255
205 226 255
205 226 255
205 226 255
205 226 255
205 226 255
204 226 255
204 226 255
204 226 255
204 226 255
204 226 255
204 226 255
204 226 255
204 226 255
204 226 255
204 226 255
204 226 255
204 226 255
204 226 255
204 226 255
204 226 255
204 226 255
204 226 255
203 226 255
203 226 255
203 226 255
203 226 255
203 226 255
203 226 255
203 225 255
203 225 255
203 225 255
203 225 255
203 225 255
203 225 255
203 225 255
203 225 255
203 225 255
202 225 255
202 225 255
202 225 255
202 225 255
202 225 255
202 225 255
202 225 255
202 225 255
202 225 255
202 225 255
202 225 255
202 225 255
202 225 255
202 225 255
202 225 255
201 225 255
201 225 255
201 225 255
201 225 255
201 224 255
201 224 255
201 224 255
201 224 255
201 224 255
201 224 255
201 224 255
201 224 255
201 224 255
201 224 255
200 224 255
200 224 255
200 224 255
200 224 255
200 224 255
200 224 255
200 224 255
200 224 255
200 224 255
200 224 255
200 224 255
200 224 255
200 224 255
200 224 255
200 224 255
199 224 255
199 224 255
199 224 255
199 223 255
199 223 255
199 223 255
199 223 255
199 223 255
199 223 255
199 223 255
199 223 255
199 223 255
199 223 255
199 223 255
199 223 255
199 223 255
199 223 255
198 223 255
198 223 255
198 223 255
198 223 255
198 223 255
198 223 255
198 223 255
198 223 255
198 223 255
198 223 255
198 223 255
198 223 255
198 223 255
198 223 255
198 223 255
198 223 255
198 223 255
198 223 255
197 223 255
197 222 255
197 222 255
197 222 255
197 222 255
197 222 255
197 222 255
197 222 255
197 222 255
197 222 255
197 222 255
197 222 255
197 222 255
197 222 255
197 222 255
197 222 255
197 222 255
197 222 255
197 222 255
197 222 255
197 222 255
197 222 255
197 222 255
197 222 255
197 222 255
197 222 255
197 222 255
197 222 255
197 222 255
197 222 255
197 222 255
197 222 255
196 222 255
196 222 255
196 222 255
196 222 255
196 222 255
196 222 255
196 222 255
196 222 255
196 222 255
196 222 255
196 222 255
196 222 255
196 222 255
196 222 255
196 222 255
196 222 255
196 222 255
196 222 255
196 222 255
196 222 255
196 222 255
197 222 255
197 222 255
197 222 255
197 222 255
197 222 255
197 222 255
197 222 255
197 222 255
197 222 255
197 222 255
197 222 255
197 222 255
197 222 255
197 222 255
197 222 255
197 222 255
197 222 255
197 222 255
197 222 255
197 222 255
197 222 255
197 222 255
197 222 255
197 222 255
197 222 255
197 222 255
197 222 255
197 222 255
197 222 255
197 222 255
197 222 255
197 222 255
197 223 255
198 223 255
198 223 255
198 223 255
198 223 255
198 223 255
198 223 255
198 223 255
198 223 255
198 223 255
198 223 255
198 223 255
198 223 255
198 223 255
198 223 255
198 223 255
198 223 255
198 223 255
198 223 255
198 223 255
199 223 255
199 223 255
199 223 255
199 223 255
199 223 255
199 223 255
199 223 255
199 223 255
199 223 255
199 223 255
199 223 255
199 223 255
199 223 255
199 224 255
199 224 255
200 224 255
200 224 255
200 224 255
200 224 255
200 224 255
200 224 255
200 224 255
200 224 255
200 224 255
200 224 255
200 224 255
200 224 255
200 224 255
200 224 255
200 224 255
201 224 255
201 224 255
201 224 255
201 224 255
201 224 255
201 224 255
201 224 255
201 224 255
201 224 255
201 224 255
201 224 255
201 225 255
201 225 255
201 225 255
201 225 255
202 225 255
202 225 255
202 225 255
202 225 255
202 225 255
202 225 255
202 225 255
202 225 255
202 225 255
202 225 255
202 225 255
202 225 255
202 225 255
202 225 255
202 225 255
203 225 255
203 225 255
203 225 255
203 225 255
203 225 255
203 225 255
203 225 255
203 225 255
203 225 255
203 226 255
203 226 255
203 226 255
203 226 255
203 226 255
203 226 255
204 226 255
204 226 255
204 226 255
204 226 255
204 226 255
204 226 255
204 226 255
204 226 255
204 226 255
204 226 255
204 226 255
204 226 255
204 226 255
204 226 255
204 226 255
204 226 255
204 226 255
205 226 255
205 226 255
205 226 255
205 226 255
205 226 255
205 226 255
205 227 255
205 227 255
205 227 255
205 227 255
205 227 255
205 227 255
205 227 255
205 227 255
205 227 255
205 227 255
205 227 255
206 227 255
206 227 255
206 227 255
206 227 255
206 227 255
206 227 255
206 227 255
206 227 255
206 227 255
206 227 255
206 227 255
206 227 255
206 227 255
206 227 255
206 227 255
206 227 255
206 227 255
206 227 255
206 227 255
207 227 255
207 227 255
207 227 255
207 227 255
207 227 255
207 228 255
207 228 255
207 228 255
207 228 255
207 228 255
207 228 255
207 228 255
207 228 255
207 228 255
207 228 255
207 228 255
207 228 255
207 228 255
207 227 255
207 227 255
207 227 255
207 227 255
207 227 255
206 227 255
206 227 255
206 227 255
206 227 255
206 227 255
206 227 255
206 227 255
206 227 255
206 227 255
206 227 255
206 227 255
206 227 255
206 227 255
206 227 255
206 227 255
206 227 255
206 227 255
206 227 255
206 227 255
205 227 255
205 227 255
205 227 255
205 227 255
205 227 255
205 227 255
205 227 255
205 227 255
205 227 255
205 227 255
205 226 255
205 226 255
205 226 255
205 226 255
205 226 255
205 226 255
205 226 255
204 226 255
204 226 255
204 226 255
204 226 255
204 226 255
204 226 255
204 226 255
204 226 255
204 226 255
204 226 255
204 226 255
204 226 255
204 226 255
204 226 255
204 226 255
204 226 255
203 226 255
203 226 255
203 226 255
203 226 255
203 226 255
203 226 255
203 226 255
203 225 255
203 225 255
203 225 255
203 225 255
203 225 255
203 225 255
203 225 255
203 225 255
203 225 255
202 225 255
202 225 255
202 225 255
202 225 255
202 225 255
202 225 255
202 225 255
202 225 255
202 225 255
202 225 255
202 225 255
202 225 255
202 225 255
202 225 255
201 225 255
201 225 255
201 225 255
201 225 255
201 225 255
201 224 255
201 224 255
201 224 255
201 224 255
201 224 255
201 224 255
201 224 255
201 224 255
201 224 255
201 224 255
200 224 255
200 224 255
200 224 255
200 224 255
200 224 255
200 224 255
200 224 255
200 224 255
200 224 255
200 224 255
200 224 255
200 224 255
200 224 255
200 224 255
200 224 255
199 224 255
199 224 255
199 224 255
199 223 255
199 223 255
199 223 255
199 223 255
199 223 255
199 223 255
199 223 255
199 223 255
199 223 255
199 223 255
199 223 255
199 223 255
199 223 255
198 223 255
198 223 255
198 223 255
198 223 255
198 223 255
198 223 255
198 223 255
198 223 255
198 223 255
198 223 255
198 223 255
198 223 255
198 223 255
198 223 255
198 223 255
198 223 255
198 223 255
198 223 255
198 223 255
198 223 255
197 223 255
197 222 255
197 222 255
197 222 255
197 222 255
197 222 255
197 222 255
197 222 255
197 222 255
197 222 255
197 222 255
197 222 255
197 222 255
197 222 255
197 222 255
197 222 255
197 222 255
197 222 255
197 222 255
197 222 255
197 222 255
197 222 255
197 222 255
197 222 255
197 222 255
197 222 255
197 222 255
197 222 255
197 222 255
197 222 255
197 222 255
197 222 255
197 222 255
197 222 255
197 222 255
197 222 255
197 222 255
197 222 255
197 222 255
197 222 255
197 222 255
197 222 255
197 222 255
197 222 255
197 222 255
197 222 255
197 222 255
197 222 255
197 222 255
197 222 255
197 222 255
197 222 255
197 222 255
197 222 255
197 222 255
197 222 255
197 222 255
197 222 255
197 222 255
197 222 255
197 222 255
197 222 255
197 222 255
197 222 255
197 222 255
197 222 255
197 222 255
197 222 255
197 222 255
197 222 255
197 222 255
197 222 255
197 222 255
197 222 255
197 222 255
197 222 255
197 222 255
197 223 255
198 223 255
198 223 255
198 223 255
198 223 255
198 223 255
198 223 255
198 223 255
198 223 255
198 223 255
198 223 255
198 223 255
198 223 255
198 223 255
198 223 255
198 223 255
198 223 255
198 223 255
198 223 255
198 223 255
199 223 255
199 223 255
199 223 255
199 223 255
199 223 255
199 223 255
199 223 255
199 223 255
199 223 255
199 223 255
199 223 255
199 223 255
199 223 255
199 223 255
199 224 255
199 224 255
199 224 255
200 224 255
200 224 255
200 224 255
200 224 255
200 224 255
200 224 255
200 224 255
200 224 255
200 224 255
200 224 255
200 224 255
200 224 255
200 224 255
200 224 255
200 224 255
201 224 255
201 224 255
201 224 255
201 224 255
201 224 255
201 224 255
201 224 255
201 224 255
201 224 255
201 224 255
201 224 255
201 225 255
201 225 255
201 225 255
201 225 255
202 225 255
202 225 255
202 225 255
202 225 255
202 225 255
202 225 255
202 225 255
202 225 255
202 225 255
202 225 255
202 225 255
202 225 255
202 225 255
202 225 255
202 225 255
203 225 255
203 225 255
203 225 255
203 225 255
203 225 255
203 225 255
203 225 255
203 225 255
203 226 255
203 226 255
203 226 255
203 226 255
203 226 255
203 226 255
203 226 255
204 226 255
204 226 255
204 226 255
204 226 255
204 226 255
204 226 255
204 226 255
204 226 255
204 226 255
204 226 255
204 226 255
204 226 255
204 226 255
204 226 255
204 226 255
204 226 255
205 226 255
205 226 255
205 226 255
205 226 255
205 226 255
205 226 255
205 226 255
205 227 255
205 227 255
205 227 255
205 227 255
205 227 255
205 227 255
205 227 255
205 227 255
205 227 255
205 227 255
206 227 255
206 227 255
206 227 255
206 227 255
206 227 255
206 227 255
206 227 255
206 227 255
206 227 255
206 227 255
206 227 255
206 227 255
206 227 255
206 227 255
206 227 255
206 227 255
206 227 255
206 227 255
206 227 255
207 227 255
207 227 255
207 227 255
207 227 255
207 227 255
207 228 255
207 228 255
207 228 255
207 228 255
207 228 255
207 228 255
207 228 255
207 228 255
207 228 255
207 228 255
207 228 255
207 228 255
207 228 255
207 228 255
207 228 255
207 228 255
207 228 255
207 228 255
207 228 255
207 227 255
207 227 255
207 227 255
207 227 255
207 227 255
206 227 255
206 227 255
206 227 255
206 227 255
206 227 255
206 227 255
206 227 255
206 227 255
206 227 255
206 227 255
206 227 255
206 227 255
206 227 255
206 227 255
206 227 255
206 227 255
206 227 255
206 227 255
205 227 255
205 227 255
205 227 255
205 227 255
205 227 255
205 227 255
205 227 255
205 227 255
205 227 255
205 227 255
205 227 255
205 226 255
205 226 255
205 226 255
205 226 255
205 226 255
205 226 255
205 226 255
204 226 255
204 226 255
204 226 255
204 226 255
204 226 255
204 226 255
204 226 255
204 226 255
204 226 255
204 226 255
204 226 255
204 226 255
204 226 255
204 226 255
204 226 255
204 226 255
203 226 255
203 226 255
203 226 255
203 226 255
203 226 255
203 226 255
203 225 255
203 225 255
203 225 255
203 225 255
203 225 255
203 225 255
203 225 255
203 225 255
203 225 255
202 225 255
202 225 255
202 225 255
202 225 255
202 225 255
202 225 255
202 225 255
202 225 255
202 225 255
202 225 255
202 225 255
202 225 255
202 225 255
202 225 255
202 225 255
201 225 255
201 225 255
201 225 255
201 225 255
201 224 255
201 224 255
201 224 255
201 224 255
201 224 255
201 224 255
201 224 255
201 224 255
201 224 255
201 224 255
201 224 255
200 224 255
200 224 255
200 224 255
200 224 255
200 224 255
200 224 255
200 224 255
200 224 255
200 224 255
200 224 255
200 224 255
200 224 255
200 224 255
200 224 255
200 224 255
199 224 255
199 224 255
199 223 255
199 223 255
199 223 255
199 223 255
199 223 255
199 223 255
199 223 255
199 223 255
199 223 255
199 223 255
199 223 255
199 223 255
199 223 255
199 223 255
198 223 255
198 223 255
198 223 255
198 223 255
198 223 255
198 223 255
198 223 255
198 223 255
198 223 255
198 223 255
198 223 255
198 223 255
198 223 255
198 223 255
198 223 255
198 223 255
198 223 255
198 223 255
198 223 255
198 223 255
198 223 255
197 223 255
197 222 255
197 222 255
197 222 255
197 222 255
197 222 255
197 222 255
197 222 255
197 222 255
197 222 255
197 222 255
197 222 255
197 222 255
197 222 255
197 222 255
197 222 255
197 222 255
197 222 255
197 222 255
197 222 255
197 222 255
197 222 255
197 222 255
197 222 255
197 222 255
197 222 255
197 222 255
197 222 255
197 222 255
197 222 255
197 222 255
197 222 255
197 222 255
197 222 255
197 222 255
197 222 255
197 222 255
197 222 255
197 222 255
197 222 255
197 222 255
197 222 255
197 222 255
197 222 255
197 222 255
197 222 255
197 222 255
197 222 255
197 222 255
197 222 255
197 222 255
197 222 255
197 222 255
197 222 255
197 222 255
197 222 255
197 222 255
197 222 255
197 222 255
197 222 255
197 222 255
197 222 255
197 222 255
197 222 255
197 222 255
197 222 255
197 222 255
197 222 255
197 222 255
197 223 255
198 223 255
198 223 255
198 223 255
198 223 255
198 223 255
198 223 255
198 223 255
198 223 255
198 223 255
198 223 255
198 223 255
198 223 255
198 223 255
198 223 255
198 223 255
198 223 255
198 223 255
198 223 255
198 223 255
198 223 255
198 223 255
199 223 255
199 223 255
199 223 255
199 223 255
199 223 255
199 223 255
199 223 255
199 223 255
199 223 255
199 223 255
199 223 255
199 223 255
199 223 255
199 223 255
199 224 255
199 224 255
200 224 255
200 224 255
200 224 255
200 224 255
200 224 255
200 224 255
200 224 255
200 224 255
200 224 255
200 224 255
200 224 255
200 224 255
200 224 255
200 224 255
200 224 255
201 224 255
201 224 255
201 224 255
201 224 255
201 224 255
201 224 255
201 224 255
201 224 255
201 224 255
201 224 255
201 224 255
201 225 255
201 225 255
201 225 255
201 225 255
202 225 255
202 225 255
202 225 255
202 225 255
202 225 255
202 225 255
202 225 255
202 225 255
202 225 255
202 225 255
202 225 255
202 225 255
202 225 255
202 225 255
202 225 255
203 225 255
203 225 255
203 225 255
203 225 255
203 225 255
203 225 255
203 225 255
203 225 255
203 225 255
203 226 255
203 226 255
203 226 255
203 226 255
203 226 255
203 226 255
204 226 255
204 226 255
204 226 255
204 226 255
204 226 255
204 226 255
204 226 255
204 226 255
204 226 255
204 226 255
204 226 255
204 226 255
204 226 255
204 226 255
204 226 255
204 226 255
205 226 255
205 226 255
205 226 255
205 226 255
205 226 255
205 226 255
205 226 255
205 227 255
205 227 255
205 227 255
205 227 255
205 227 255
205 227 255
205 227 255
205 227 255
205 227 255
205 227 255
205 227 255
206 227 255
206 227 255
206 227 255
206 227 255
206 227 255
206 227 255
206 227 255
206 227 255
206 227 255
206 227 255
206 227 255
206 227 255
206 227 255
206 227 255
206 227 255
206 227 255
206 227 255
206 227 255
207 227 255
207 227 255
207 227 255
207 227 255
207 227 255
207 228 255
207 228 255
207 228 255
207 228 255
207 228 255
207 228 255
207 228 255
207 228 255
207 228 255
207 228 255
207 228 255
207 228 255
207 228 255
207 228 255
207 228 255
207 228 255
207 228 255
207 228 255
207 228 255
207 228 255
207 228 255
207 228 255
207 228 255
207 228 255
207 228 255
207 227 255
207 227 255
207 227 255
207 227 255
206 227 255
206 227 255
206 227 255
206 227 255
206 227 255
206 227 255
206 227 255
206 227 255
206 227 255
206 227 255
206 227 255
206 227 255
206 227 255
206 227 255
206 227 255
206 227 255
206 227 255
206 227 255
206 227 255
205 227 255
205 227 255
205 227 255
205 227 255
205 227 255
205 227 255
205 227 255
205 227 255
205 227 255
205 227 255
205 226 255
205 226 255
205 226 255
205 226 255
205 226 255
205 226 255
205 226 255
204 226 255
204 226 255
204 226 255
204 226 255
204 226 255
204 226 255
204 226 255
204 226 255
204 226 255
204 226 255
204 226 255
204 226 255
204 226 255
204 226 255
204 226 255
204 226 255
203 226 255
203 226 255
203 226 255
203 226 255
203 226 255
203 226 255
203 226 255
203 225 255
203 225 255
203 225 255
203 225 255
203 225 255
203 225 255
203 225 255
203 225 255
202 225 255
202 225 255
202 225 255
202 225 255
202 225 255
202 225 255
202 225 255
202 225 255
202 225 255
202 225 255
202 225 255
202 225 255
202 225 255
202 225 255
202 225 255
201 225 255
201 225 255
201 225 255
201 225 255
201 225 255
201 224 255
201 224 255
201 224 255
201 224 255
201 224 255
201 224 255
201 224 255
201 224 255
201 224 255
201 224 255
200 224 255
200 224 255
200 224 255
200 224 255
200 224 255
200 224 255
200 224 255
200 224 255
200 224 255
200 224 255
200 224 255
200 224 255
200 224 255
200 224 255
200 224 255
200 224 255
199 224 255
199 224 255
199 223 255
199 223 255
199 223 255
199 223 255
199 223 255
199 223 255
199 223 255
199 223 255
199 223 255
199 223 255
199 223 255
199 223 255
199 223 255
199 223 255
199 223 255
198 223 255
198 223 255
198 223 255
198 223 255
198 223 255
198 223 255
198 223 255
198 223 255
198 223 255
198 223 255
198 223 255
198 223 255
198 223 255
198 223 255
198 223 255
198 223 255
198 223 255
198 223 255
198 223 255
198 223 255
198 223 255
198 223 255
197 223 255
197 222 255
197 222 255
197 222 255
197 222 255
197 222 255
197 222 255
197 222 255
197 222 255
197 222 255
197 222 255
197 222 255
197 222 255
197 222 255
197 222 255
197 222 255
197 222 255
197 222 255
197 222 255
197 222 255
197 222 255
197 222 255
197 222 255
197 222 255
197 222 255
197 222 255
197 222 255
197 222 255
197 222 255
197 222 255
197 222 255
197 222 255
197 222 255
197 222 255
197 222 255
197 222 255
197 222 255
197 222 255
197 222 255
197 222 255
197 222 255
197 222 255
197 222 255
197 222 255
197 222 255
197 222 255
197 222 255
197 222 255
197 222 255
197 222 255
197 222 255
197 222 255
197 222 255
197 222 255
197 222 255
197 222 255
197 222 255
197 222 255
197 222 255
197 223 255
198 223 255
198 223 255
198 223 255
198 223 255
198 223 255
198 223 255
198 223 255
198 223 255
198 223 255
198 223 255
198 223 255
198 223 255
198 223 255
198 223 255
198 223 255
198 223 255
198 223 255
198 223 255
198 223 255
198 223 255
198 223 255
198 223 255
199 223 255
199 223 255
199 223 255
199 223 255
199 223 255
199 223 255
199 223 255
199 223 255
199 223 255
199 223 255
199 223 255
199 223 255
199 223 255
199 223 255
199 223 255
199 224 255
199 224 255
200 224 255
200 224 255
200 224 255
200 224 255
200 224 255
200 224 255
200 224 255
200 224 255
200 224 255
200 224 255
200 224 255
200 224 255
200 224 255
200 224 255
200 224 255
200 224 255
201 224 255
201 224 255
201 224 255
201 224 255
201 224 255
201 224 255
201 224 255
201 224 255
201 224 255
201 224 255
201 225 255
201 225 255
201 225 255
201 225 255
201 225 255
202 225 255
202 225 255
202 225 255
202 225 255
202 225 255
202 225 255
202 225 255
202 225 255
202 225 255
202 225 255
202 225 255
202 225 255
202 225 255
202 225 255
202 225 255
203 225 255
203 225 255
203 225 255
203 225 255
203 225 255
203 225 255
203 225 255
203 225 255
203 226 255
203 226 255
203 226 255
203 226 255
203 226 255
203 226 255
203 226 255
204 226 255
204 226 255
204 226 255
204 226 255
204 226 255
204 226 255
204 226 255
204 226 255
204 226 255
204 226 255
204 226 255
204 226 255
204 226 255
204 226 255
204 226 255
204 226 255
205 226 255
205 226 255
205 226 255
205 226 255
205 226 255
205 226 255
205 226 255
205 227 255
205 227 255
205 227 255
205 227 255
205 227 255
205 227 255
205 227 255
205 227 255
205 227 255
205 227 255
206 227 255
206 227 255
206 227 255
206 227 255
206 227 255
206 227 255
206 227 255
206 227 255
206 227 255
206 227 255
206 227 255
206 227 255
206 227 255
206 227 255
206 227 255
206 227 255
206 227 255
206 227 255
206 227 255
207 227 255
207 227 255
207 227 255
207 227 255
207 228 255
207 228 255
207 228 255
207 228 255
207 228 255
207 228 255
207 228 255
207 228 255
207 228 255
207 228 255
207 228 255
207 228 255
207 228 255
207 228 255
208 228 255
207 228 255
207 228 255
207 228 255
207 228 255
207 228 255
207 228 255
207 228 255
207 228 255
207 228 255
207 228 255
207 228 255
207 228 255
207 228 255
207 228 255
207 228 255
207 228 255
207 227 255
207 227 255
207 227 255
207 227 255
206 227 255
206 227 255
206 227 255
206 227 255
206 227 255
206 227 255
206 227 255
206 227 255
206 227 255
206 227 255
206 227 255
206 227 255
206 227 255
206 227 255
206 227 255
206 227 255
206 227 255
206 227 255
206 227 255
205 227 255
205 227 255
205 227 255
205 227 255
205 227 255
205 227 255
205 227 255
205 227 255
205 227 255
205 227 255
205 226 255
205 226 255
205 226 255
205 226 255
205 226 255
205 226 255
205 226 255
204 226 255
204 226 255
204 226 255
204 226 255
204 226 255
204 226 255
204 226 255
204 226 255
204 226 255
204 226 255
204 226 255
204 226 255
204 226 255
204 226 255
204 226 255
204 226 255
203 226 255
203 226 255
203 226 255
203 226 255
203 226 255
203 226 255
203 226 255
203 225 255
203 225 255
203 225 255
203 225 255
203 225 255
203 225 255
203 225 255
203 225 255
202 225 255
202 225 255
202 225 255
202 225 255
202 225 255
202 225 255
202 225 255
202 225 255
202 225 255
202 225 255
202 225 255
202 225 255
202 225 255
202 225 255
202 225 255
201 225 255
201 225 255
201 225 255
201 225 255
201 224 255
201 224 255
201 224 255
201 224 255
201 224 255
201 224 255
201 224 255
201 224 255
201 224 255
201 224 255
201 224 255
200 224 255
200 224 255
200 224 255
200 224 255
200 224 255
200 224 255
200 224 255
200 224 255
200 224 255
200 224 255
200 224 255
200 224 255
200 224 255
200 224 255
200 224 255
199 224 255
199 224 255
199 224 255
199 223 255
199 223 255
199 223 255
199 223 255
199 223 255
199 223 255
199 223 255
199 223 255
199 223 255
199 223 255
199 223 255
199 223 255
199 223 255
199 223 255
199 223 255
198 223 255
198 223 255
198 223 255
198 223 255
198 223 255
198 223 255
198 223 255
198 223 255
198 223 255
198 223 255
198 223 255
198 223 255
198 223 255
198 223 255
198 223 255
198 223 255
198 223 255
198 223 255
198 223 255
198 223 255
198 223 255
198 223 255
198 223 255
198 223 255
198 223 255
197 223 255
197 222 255
197 222 255
197 222 255
197 222 255
197 222 255
197 222 255
197 222 255
197 222 255
197 222 255
197 222 255
197 222 255
197 222 255
197 222 255
197 222 255
197 222 255
197 222 255
197 222 255
197 222 255
197 222 255
197 222 255
197 222 255
197 222 255
197 222 255
197 222 255
197 222 255
197 222 255
197 222 255
197 222 255
197 222 255
197 222 255
197 222 255
197 222 255
197 222 255
197 222 255
197 222 255
197 222 255
197 222 255
197 222 255
197 222 255
197 222 255
197 222 255
197 222 255
197 222 255
197 222 255
197 222 255
197 222 255
197 223 255
197 223 255
198 223 255
198 223 255
198 223 255
198 223 255
198 223 255
198 223 255
198 223 255
198 223 255
198 223 255
198 223 255
198 223 255
198 223 255
198 223 255
198 223 255
198 223 255
198 223 255
198 223 255
198 223 255
198 223 255
198 223 255
198 223 255
198 223 255
198 223 255
198 223 255
199 223 255
199 223 255
199 223 255
199 223 255
199 223 255
199 223 255
199 223 255
199 223 255
199 223 255
199 223 255
199 223 255
199 223 255
199 223 255
199 223 255
199 223 255
199 224 255
199 224 255
199 224 255
200 224 255
200 224 255
200 224 255
200 224 255
200 224 255
200 224 255
200 224 255
200 224 255
200 224 255
200 224 255
200 224 255
200 224 255
200 224 255
200 224 255
200 224 255
201 224 255
201 224 255
201 224 255
201 224 255
201 224 255
201 224 255
201 224 255
201 224 255
201 224 255
201 224 255
201 224 255
201 225 255
201 225 255
201 225 255
201 225 255
202 225 255
202 225 255
202 225 255
202 225 255
202 225 255
202 225 255
202 225 255
202 225 255
202 225 255
202 225 255
202 225 255
202 225 255
202 225 255
202 225 255
202 225 255
203 225 255
203 225 255
203 225 255
203 225 255
203 225 255
203 225 255
203 225 255
203 225 255
203 226 255
203 226 255
203 226 255
203 226 255
203 226 255
203 226 255
203 226 255
204 226 255
204 226 255
204 226 255
204 226 255
204 226 255
204 226 255
204 226 255
204 226 255
204 226 255
204 226 255
204 226 255
204 226 255
204 226 255
204 226 255
204 226 255
204 226 255
205 226 255
205 226 255
205 226 255
205 226 255
205 226 255
205 226 255
205 226 255
205 227 255
205 227 255
205 227 255
205 227 255
205 227 255
205 227 255
205 227 255
205 227 255
205 227 255
205 227 255
206 227 255
206 227 255
206 227 255
206 227 255
206 227 255
206 227 255
206 227 255
206 227 255
206 227 255
206 227 255
206 227 255
206 227 255
206 227 255
206 227 255
206 227 255
206 227 255
206 227 255
206 227 255
206 227 255
207 227 255
207 227 255
207 227 255
207 227 255
207 228 255
207 228 255
207 228 255
207 228 255
207 228 255
207 228 255
207 228 255
207 228 255
207 228 255
207 228 255
207 228 255
207 228 255
207 228 255
207 228 255
207 228 255
207 228 255
208 228 255
208 228 255
208 228 255
208 228 255
208 228 255
207 228 255
207 228 255
207 228 255
207 228 255
207 228 255
207 228 255
207 228 255
207 228 255
207 228 255
207 228 255
207 228 255
207 228 255
207 228 255
207 228 255
207 228 255
207 228 255
207 227 255
207 227 255
207 227 255
207 227 255
206 227 255
206 227 255
206 227 255
206 227 255
206 227 255
206 227 255
206 227 255
206 227 255
206 227 255
206 227 255
206 227 255
206 227 255
206 227 255
206 227 255
206 227 255
206 227 255
206 227 255
206 227 255
205 227 255
205 227 255
205 227 255
205 227 255
205 227 255
205 227 255
205 227 255
205 227 255
205 227 255
205 227 255
205 227 255
205 226 255
205 226 255
205 226 255
205 226 255
205 226 255
205 226 255
204 226 255
204 226 255
204 226 255
204 226 255
204 226 255
204 226 255
204 226 255
204 226 255
204 226 255
204 226 255
204 226 255
204 226 255
204 226 255
204 226 255
204 226 255
204 226 255
203 226 255
203 226 255
203 226 255
203 226 255
203 226 255
203 226 255
203 226 255
203 225 255
203 225 255
203 225 255
203 225 255
203 225 255
203 225 255
203 225 255
203 225 255
202 225 255
202 225 255
202 225 255
202 225 255
202 225 255
202 225 255
202 225 255
202 225 255
202 225 255
202 225 255
202 225 255
202 225 255
202 225 255
202 225 255
202 225 255
202 225 255
201 225 255
201 225 255
201 225 255
201 225 255
201 224 255
201 224 255
201 224 255
201 224 255
201 224 255
201 224 255
201 224 255
201 224 255
201 224 255
201 224 255
201 224 255
200 224 255
200 224 255
200 224 255
200 224 255
200 224 255
200 224 255
200 224 255
200 224 255
200 224 255
200 224 255
200 224 255
200 224 255
200 224 255
200 224 255
200 224 255
199 224 255
199 224 255
199 224 255
199 223 255
199 223 255
199 223 255
199 223 255
199 223 255
199 223 255
199 223 255
199 223 255
199 223 255
199 223 255
199 223 255
199 223 255
199 223 255
199 223 255
199 223 255
199 223 255
198 223 255
198 223 255
198 223 255
198 223 255
198 223 255
198 223 255
198 223 255
198 223 255
198 223 255
198 223 255
198 223 255
198 223 255
198 223 255
198 223 255
198 223 255
198 223 255
198 223 255
198 223 255
198 223 255
198 223 255
198 223 255
198 223 255
198 223 255
198 223 255
198 223 255
198 223 255
198 223 255
197 223 255
197 223 255
197 223 255
197 222 255
197 222 255
197 222 255
197 222 255
197 222 255
197 222 255
197 222 255
197 222 255
197 222 255
197 222 255
197 222 255
197 222 255
197 222 255
197 222 255
197 222 255
197 222 255
197 222 255
197 222 255
197 222 255
197 222 255
197 222 255
197 222 255
197 222 255
197 222 255
197 222 255
197 222 255
197 222 255
197 222 255
197 222 255
197 222 255
197 223 255
197 223 255
198 223 255
198 223 255
198 223 255
198 223 255
198 223 255
198 223 255
198 223 255
198 223 255
198 223 255
198 223 255
198 223 255
198 223 255
198 223 255
198 223 255
198 223 255
198 223 255
198 223 255
198 223 255
198 223 255
198 223 255
198 223 255
198 223 255
198 223 255
198 223 255
198 223 255
198 223 255
198 223 255
198 223 255
199 223 255
199 223 255
199 223 255
199 223 255
199 223 255
199 223 255
199 223 255
199 223 255
199 223 255
199 223 255
199 223 255
199 223 255
199 223 255
199 223 255
199 223 255
199 223 255
199 224 255
199 224 255
199 224 255
200 224 255
200 224 255
200 224 255
200 224 255
200 224 255
200 224 255
200 224 255
200 224 255
200 224 255
200 224 255
200 224 255
200 224 255
200 224 255
200 224 255
200 224 255
201 224 255
201 224 255
201 224 255
201 224 255
201 224 255
201 224 255
201 224 255
201 224 255
201 224 255
201 224 255
201 224 255
201 225 255
201 225 255
201 225 255
201 225 255
201 225 255
202 225 255
202 225 255
202 225 255
202 225 255
202 225 255
202 225 255
202 225 255
202 225 255
202 225 255
202 225 255
202 225 255
202 225 255
202 225 255
202 225 255
202 225 255
203 225 255
203 225 255
203 225 255
203 225 255
203 225 255
203 225 255
203 225 255
203 225 255
203 226 255
203 226 255
203 226 255
203 226 255
203 226 255
203 226 255
203 226 255
204 226 255
204 226 255
204 226 255
204 226 255
204 226 255
204 226 255
204 226 255
204 226 255
204 226 255
204 226 255
204 226 255
204 226 255
204 226 255
204 226 255
204 226 255
204 226 255
205 226 255
205 226 255
205 226 255
205 226 255
205 226 255
205 226 255
205 227 255
205 227 255
205 227 255
205 227 255
205 227 255
205 227 255
205 227 255
205 227 255
205 227 255
205 227 255
205 227 255
206 227 255
206 227 255
206 227 255
206 227 255
206 227 255
206 227 255
206 227 255
206 227 255
206 227 255
206 227 255
206 227 255
206 227 255
206 227 255
206 227 255
206 227 255
206 227 255
206 227 255
206 227 255
207 227 255
207 227 255
207 227 255
207 227 255
207 228 255
207 228 255
207 228 255
207 228 255
207 228 255
207 228 255
207 228 255
207 228 255
207 228 255
207 228 255
207 228 255
207 228 255
207 228 255
207 228 255
207 228 255
207 228 255
208 228 255
208 228 255
208 228 255
208 228 255
208 228 255
208 228 255
208 228 255
208 228 255
208 228 255
208 228 255
208 228 255
207 228 255
207 228 255
207 228 255
207 228 255
207 228 255
207 228 255
207 228 255
207 228 255
207 228 255
207 228 255
207 228 255
207 228 255
207 228 255
207 228 255
207 228 255
207 227 255
207 227 255
207 227 255
207 227 255
207 227 255
206 227 255
206 227 255
206 227 255
206 227 255
206 227 255
206 227 255
206 227 255
206 227 255
206 227 255
206 227 255
206 227 255
206 227 255
206 227 255
206 227 255
206 227 255
206 227 255
206 227 255
206 227 255
205 227 255
205 227 255
205 227 255
205 227 255
205 227 255
205 227 255
205 227 255
205 227 255
205 227 255
205 227 255
205 226 255
205 226 255
205 226 255
205 226 255
205 226 255
205 226 255
205 226 255
204 226 255
204 226 255
204 226 255
204 226 255
204 226 255
204 226 255
204 226 255
204 226 255
204 226 255
204 226 255
204 226 255
204 226 255
204 226 255
204 226 255
204 226 255
204 226 255
203 226 255
203 226 255
203 226 255
203 226 255
203 226 255
203 226 255
203 226 255
203 225 255
203 225 255
203 225 255
203 225 255
203 225 255
203 225 255
203 225 255
203 225 255
202 225 255
202 225 255
202 225 255
202 225 255
202 225 255
202 225 255
202 225 255
202 225 255
202 225 255
202 225 255
202 225 255
202 225 255
202 225 255
202 225 255
202 225 255
201 225 255
201 225 255
201 225 255
201 225 255
201 225 255
201 224 255
201 224 255
201 224 255
201 224 255
201 224 255
201 224 255
201 224 255
201 224 255
201 224 255
201 224 255
200 224 255
200 224 255
200 224 255
200 224 255
200 224 255
200 224 255
200 224 255
200 224 255
200 224 255
200 224 255
200 224 255
200 224 255
200 224 255
200 224 255
200 224 255
200 224 255
200 224 255
199 224 255
199 224 255
199 223 255
199 223 255
199 223 255
199 223 255
199 223 255
199 223 255
199 223 255
199 223 255
199 223 255
199 223 255
199 223 255
199 223 255
199 223 255
199 223 255
199 223 255
199 223 255
199 223 255
198 223 255
198 223 255
198 223 255
198 223 255
198 223 255
198 223 255
198 223 255
198 223 255
198 223 255
198 223 255
198 223 255
198 223 255
198 223 255
198 223 255
198 223 255
198 223 255
198 223 255
198 223 255
198 223 255
198 223 255
198 223 255
198 223 255
198 223 255
198 223 255
198 223 255
198 223 255
198 223 255
198 223 255
198 223 255
198 223 255
198 223 255
198 223 255
198 223 255
198 223 255
198 223 255
198 223 255
198 223 255
198 223 255
198 223 255
197 223 255
197 223 255
197 223 255
198 223 255
197 223 255
197 223 255
198 223 255
198 223 255
198 223 255
198 223 255
198 223 255
198 223 255
198 223 255
198 223 255
198 223 255
198 223 255
198 223 255
198 223 255
198 223 255
198 223 255
198 223 255
198 223 255
198 223 255
198 223 255
198 223 255
198 223 255
198 223 255
198 223 255
198 223 255
198 223 255
198 223 255
198 223 255
198 223 255
198 223 255
198 223 255
198 223 255
198 223 255
198 223 255
198 223 255
198 223 255
198 223 255
198 223 255
198 223 255
199 223 255
199 223 255
199 223 255
199 223 255
199 223 255
199 223 255
199 223 255
199 223 255
199 223 255
199 223 255
199 223 255
199 223 255
199 223 255
199 223 255
199 223 255
199 223 255
199 223 255
199 224 255
199 224 255
199 224 255
200 224 255
200 224 255
200 224 255
200 224 255
200 224 255
200 224 255
200 224 255
200 224 255
200 224 255
200 224 255
200 224 255
200 224 255
200 224 255
200 224 255
200 224 255
200 224 255
201 224 255
201 224 255
201 224 255
201 224 255
201 224 255
201 224 255
201 224 255
201 224 255
201 224 255
201 224 255
201 224 255
201 225 255
201 225 255
201 225 255
201 225 255
202 225 255
202 225 255
202 225 255
202 225 255
202 225 255
202 225 255
202 225 255
202 225 255
202 225 255
202 225 255
202 225 255
202 225 255
202 225 255
202 225 255
202 225 255
203 225 255
203 225 255
203 225 255
203 225 255
203 225 255
203 225 255
203 225 255
203 225 255
203 226 255
203 226 255
203 226 255
203 226 255
203 226 255
203 226 255
203 226 255
204 226 255
204 226 255
204 226 255
204 226 255
204 226 255
204 226 255
204 226 255
204 226 255
204 226 255
204 226 255
204 226 255
204 226 255
204 226 255
204 226 255
204 226 255
204 226 255
205 226 255
205 226 255
205 226 255
205 226 255
205 226 255
205 226 255
205 226 255
205 227 255
205 227 255
205 227 255
205 227 255
205 227 255
205 227 255
205 227 255
205 227 255
205 227 255
205 227 255
206 227 255
206 227 255
206 227 255
206 227 255
206 227 255
206 227 255
206 227 255
206 227 255
206 227 255
206 227 255
206 227 255
206 227 255
206 227 255
206 227 255
206 227 255
206 227 255
206 227 255
206 227 255
207 227 255
207 227 255
207 227 255
207 227 255
207 227 255
207 228 255
207 228 255
207 228 255
207 228 255
207 228 255
207 228 255
207 228 255
207 228 255
207 228 255
207 228 255
207 228 255
207 228 255
207 228 255
207 228 255
207 228 255
208 228 255
208 228 255
208 228 255
208 228 255
208 228 255
208 228 255
208 228 255
208 228 255
208 228 255
208 228 255
208 228 255
208 228 255
208 228 255
208 228 255
208 228 255
208 228 255
208 228 255
207 228 255
207 228 255
207 228 255
207 228 255
207 228 255
207 228 255
207 228 255
207 228 255
207 228 255
207 228 255
207 228 255
207 228 255
207 228 255
207 228 255
207 228 255
207 227 255
207 227 255
207 227 255
207 227 255
207 227 255
206 227 255
206 227 255
206 227 255
206 227 255
206 227 255
206 227 255
206 227 255
206 227 255
206 227 255
206 227 255
206 227 255
206 227 255
206 227 255
206 227 255
206 227 255
206 227 255
206 227 255
206 227 255
205 227 255
205 227 255
205 227 255
205 227 255
205 227 255
205 227 255
205 227 255
205 227 255
205 227 255
205 227 255
205 226 255
205 226 255
205 226 255
205 226 255
205 226 255
205 226 255
205 226 255
204 226 255
204 226 255
204 226 255
204 226 255
204 226 255
204 226 255
204 226 255
204 226 255
204 226 255
204 226 255
204 226 255
204 226 255
204 226 255
204 226 255
204 226 255
204 226 255
203 226 255
203 226 255
203 226 255
203 226 255
203 226 255
203 226 255
203 225 255
203 225 255
203 225 255
203 225 255
203 225 255
203 225 255
203 225 255
203 225 255
203 225 255
202 225 255
202 225 255
202 225 255
202 225 255
202 225 255
202 225 255
202 225 255
202 225 255
202 225 255
202 225 255
202 225 255
202 225 255
202 225 255
202 225 255
202 225 255
201 225 255
201 225 255
201 225 255
201 225 255
201 224 255
201 224 255
201 224 255
201 224 255
201 224 255
201 224 255
201 224 255
201 224 255
201 224 255
201 224 255
201 224 255
200 224 255
200 224 255
200 224 255
200 224 255
200 224 255
200 224 255
200 224 255
200 224 255
200 224 255
200 224 255
200 224 255
200 224 255
200 224 255
200 224 255
200 224 255
200 224 255
200 224 255
199 224 255
199 224 255
199 224 255
199 223 255
199 223 255
199 223 255
199 223 255
199 223 255
199 223 255
199 223 255
199 223 255
199 223 255
199 223 255
199 223 255
199 223 255
199 223 255
199 223 255
199 223 255
199 223 255
199 223 255
198 223 255
198 223 255
198 223 255
198 223 255
198 223 255
198 223 255
198 223 255
198 223 255
198 223 255
198 223 255
198 223 255
198 223 255
198 223 255
198 223 255
198 223 255
198 223 255
198 223 255
198 223 255
198 223 255
198 223 255
198 223 255
198 223 255
198 223 255
198 223 255
198 223 255
198 223 255
198 223 255
198 223 255
198 223 255
198 223 255
198 223 255
198 223 255
198 223 255
198 223 255
198 223 255
198 223 255
198 223 255
198 223 255
198 223 255
198 223 255
198 223 255
198 223 255
198 223 255
198 223 255
198 223 255
198 223 255
198 223 255
198 223 255
198 223 255
198 223 255
198 223 255
198 223 255
198 223 255
198 223 255
198 223 255
198 223 255
198 223 255
198 223 255
198 223 255
198 223 255
198 223 255
198 223 255
198 223 255
198 223 255
198 223 255
198 223 255
198 223 255
198 223 255
198 223 255
198 223 255
198 223 255
198 223 255
198 223 255
198 223 255
199 223 255
199 223 255
199 223 255
199 223 255
199 223 255
199 223 255
199 223 255
199 223 255
199 223 255
199 223 255
199 223 255
199 223 255
199 223 255
199 223 255
199 223 255
199 223 255
199 223 255
199 224 255
199 224 255
199 224 255
200 224 255
200 224 255
200 224 255
200 224 255
200 224 255
200 224 255
200 224 255
200 224 255
200 224 255
200 224 255
200 224 255
200 224 255
200 224 255
200 224 255
200 224 255
200 224 255
200 224 255
201 224 255
201 224 255
201 224 255
201 224 255
201 224 255
201 224 255
201 224 255
201 224 255
201 224 255
201 224 255
201 224 255
201 225 255
201 225 255
201 225 255
201 225 255
202 225 255
202 225 255
202 225 255
202 225 255
202 225 255
202 225 255
202 225 255
202 225 255
202 225 255
202 225 255
202 225 255
202 225 255
202 225 255
202 225 255
202 225 255
203 225 255
203 225 255
203 225 255
203 225 255
203 225 255
203 225 255
203 225 255
203 225 255
203 225 255
203 226 255
203 226 255
203 226 255
203 226 255
203 226 255
203 226 255
204 226 255
204 226 255
204 226 255
204 226 255
204 226 255
204 226 255
204 226 255
204 226 255
204 226 255
204 226 255
204 226 255
204 226 255
204 226 255
204 226 255
204 226 255
204 226 255
205 226 255
205 226 255
205 226 255
205 226 255
205 226 255
205 226 255
205 226 255
205 227 255
205 227 255
205 227 255
205 227 255
205 227 255
205 227 255
205 227 255
205 227 255
205 227 255
205 227 255
206 227 255
206 227 255
206 227 255
206 227 255
206 227 255
206 227 255
206 227 255
206 227 255
206 227 255
206 227 255
206 227 255
206 227 255
206 227 255
206 227 255
206 227 255
206 227 255
206 227 255
206 227 255
207 227 255
207 227 255
207 227 255
207 227 255
207 227 255
207 228 255
207 228 255
207 228 255
207 228 255
207 228 255
207 228 255
207 228 255
207 228 255
207 228 255
207 228 255
207 228 255
207 228 255
207 228 255
207 228 255
207 228 255
208 228 255
208 228 255
208 228 255
208 228 255
208 228 255
208 228 255
208 228 255
208 228 255
208 228 255
208 228 255
208 228 255
208 228 255
208 228 255
208 228 255
208 228 255
208 228 255
208 228 255
208 228 255
208 228 255
208 228 255
208 228 255
208 228 255
208 228 255
207 228 255
207 228 255
207 228 255
207 228 255
207 228 255
207 228 255
207 228 255
207 228 255
207 228 255
207 228 255
207 228 255
207 228 255
207 228 255
207 228 255
207 228 255
207 227 255
207 227 255
207 227 255
207 227 255
207 227 255
206 227 255
206 227 255
206 227 255
206 227 255
206 227 255
206 227 255
206 227 255
206 227 255
206 227 255
206 227 255
206 227 255
206 227 255
206 227 255
206 227 255
206 227 255
206 227 255
206 227 255
206 227 255
205 227 255
205 227 255
205 227 255
205 227 255
205 227 255
205 227 255
205 227 255
205 227 255
205 227 255
205 227 255
205 226 255
205 226 255
205 226 255
205 226 255
205 226 255
205 226 255
204 226 255
204 226 255
204 226 255
204 226 255
204 226 255
204 226 255
204 226 255
204 226 255
204 226 255
204 226 255
204 226 255
204 226 255
204 226 255
204 226 255
204 226 255
204 226 255
203 226 255
203 226 255
203 226 255
203 226 255
203 226 255
203 226 255
203 226 255
203 225 255
203 225 255
203 225 255
203 225 255
203 225 255
203 225 255
203 225 255
203 225 255
202 225 255
202 225 255
202 225 255
202 225 255
202 225 255
202 225 255
202 225 255
202 225 255
202 225 255
202 225 255
202 225 255
202 225 255
202 225 255
202 225 255
202 225 255
202 225 255
201 225 255
201 225 255
201 225 255
201 225 255
201 224 255
201 224 255
201 224 255
201 224 255
201 224 255
201 224 255
201 224 255
201 224 255
201 224 255
201 224 255
201 224 255
200 224 255
200 224 255
200 224 255
200 224 255
200 224 255
200 224 255
200 224 255
200 224 255
200 224 255
200 224 255
200 224 255
200 224 255
200 224 255
200 224 255
200 224 255
200 224 255
200 224 255
199 224 255
199 224 255
199 224 255
199 223 255
199 223 255
199 223 255
199 223 255
199 223 255
199 223 255
199 223 255
199 223 255
199 223 255
199 223 255
199 223 255
199 223 255
199 223 255
199 223 255
199 223 255
199 223 255
199 223 255
199 223 255
198 223 255
198 223 255
198 223 255
198 223 255
198 223 255
198 223 255
198 223 255
198 223 255
198 223 255
198 223 255
198 223 255
198 223 255
198 223 255
198 223 255
198 223 255
198 223 255
198 223 255
198 223 255
198 223 255
198 223 255
198 223 255
198 223 255
198 223 255
198 223 255
198 223 255
198 223 255
198 223 255
198 223 255
198 223 255
198 223 255
198 223 255
198 223 255
198 223 255
198 223 255
198 223 255
198 223 255
198 223 255
198 223 255
198 223 255
198 223 255
198 223 255
198 223 255
198 223 255
198 223 255
198 223 255
198 223 255
198 223 255
198 223 255
198 223 255
198 223 255
198 223 255
198 223 255
198 223 255
198 223 255
198 223 255
198 223 255
198 223 255
198 223 255
198 223 255
198 223 255
198 223 255
198 223 255
198 223 255
198 223 255
198 223 255
199 223 255
199 223 255
199 223 255
199 223 255
199 223 255
199 223 255
199 223 255
199 223 255
199 223 255
199 223 255
199 223 255
199 223 255
199 223 255
199 223 255
199 223 255
199 223 255
199 223 255
199 223 255
199 223 255
199 224 255
199 224 255
199 224 255
200 224 255
200 224 255
200 224 255
200 224 255
200 224 255
200 224 255
200 224 255
200 224 255
200 224 255
200 224 255
200 224 255
200 224 255
200 224 255
200 224 255
200 224 255
200 224 255
200 224 255
201 224 255
201 224 255
201 224 255
201 224 255
201 224 255
201 224 255
201 224 255
201 224 255
201 224 255
201 224 255
201 224 255
201 225 255
201 225 255
201 225 255
201 225 255
202 225 255
202 225 255
202 225 255
202 225 255
202 225 255
202 225 255
202 225 255
202 225 255
202 225 255
202 225 255
202 225 255
202 225 255
202 225 255
202 225 255
202 225 255
203 225 255
203 225 255
203 225 255
203 225 255
203 225 255
203 225 255
203 225 255
203 225 255
203 225 255
203 226 255
203 226 255
203 226 255
203 226 255
203 226 255
203 226 255
203 226 255
204 226 255
204 226 255
204 226 255
204 226 255
204 226 255
204 226 255
204 226 255
204 226 255
204 226 255
204 226 255
204 226 255
204 226 255
204 226 255
204 226 255
204 226 255
204 226 255
205 226 255
205 226 255
205 226 255
205 226 255
205 226 255
205 226 255
205 227 255
205 227 255
205 227 255
205 227 255
205 227 255
205 227 255
205 227 255
205 227 255
205 227 255
205 227 255
206 227 255
206 227 255
206 227 255
206 227 255
206 227 255
206 227 255
206 227 255
206 227 255
206 227 255
206 227 255
206 227 255
206 227 255
206 227 255
206 227 255
206 227 255
206 227 255
206 227 255
206 227 255
207 227 255
207 227 255
207 227 255
207 227 255
207 227 255
207 228 255
207 228 255
207 228 255
207 228 255
207 228 255
207 228 255
207 228 255
207 228 255
207 228 255
207 228 255
207 228 255
207 228 255
207 228 255
207 228 255
207 228 255
208 228 255
208 228 255
208 228 255
208 228 255
208 228 255
208 228 255
208 228 255
208 228 255
208 228 255
208 228 255
208 228 255
208 228 255
208 228 255
208 228 255
208 228 255
208 228 255
208 228 255
208 228 255
208 228 255
208 228 255
208 228 255
208 228 255
208 228 255
208 228 255
208 228 255
208 228 255
208 228 255
208 228 255
208 228 255
207 228 255
207 228 255
207 228 255
207 228 255
207 228 255
207 228 255
207 228 255
207 228 255
207 228 255
207 228 255
207 228 255
207 228 255
207 228 255
207 228 255
207 228 255
207 227 255
207 227 255
207 227 255
207 227 255
206 227 255
206 227 255
206 227 255
206 227 255
206 227 255
206 227 255
206 227 255
206 227 255
206 227 255
206 227 255
206 227 255
206 227 255
206 227 255
206 227 255
206 227 255
206 227 255
206 227 255
206 227 255
206 227 255
205 227 255
205 227 255
205 227 255
205 227 255
205 227 255
205 227 255
205 227 255
205 227 255
205 227 255
205 227 255
205 226 255
205 226 255
205 226 255
205 226 255
205 226 255
205 226 255
204 226 255
204 226 255
204 226 255
204 226 255
204 226 255
204 226 255
204 226 255
204 226 255
204 226 255
204 226 255
204 226 255
204 226 255
204 226 255
204 226 255
204 226 255
204 226 255
203 226 255
203 226 255
203 226 255
203 226 255
203 226 255
203 226 255
203 226 255
203 225 255
203 225 255
203 225 255
203 225 255
203 225 255
203 225 255
203 225 255
203 225 255
202 225 255
202 225 255
202 225 255
202 225 255
202 225 255
202 225 255
202 225 255
202 225 255
202 225 255
202 225 255
202 225 255
202 225 255
202 225 255
202 225 255
202 225 255
201 225 255
201 225 255
201 225 255
201 225 255
201 225 255
201 224 255
201 224 255
201 224 255
201 224 255
201 224 255
201 224 255
201 224 255
201 224 255
201 224 255
201 224 255
201 224 255
200 224 255
200 224 255
200 224 255
200 224 255
200 224 255
200 224 255
200 224 255
200 224 255
200 224 255
200 224 255
200 224 255
200 224 255
200 224 255
200 224 255
200 224 255
200 224 255
200 224 255
200 224 255
199 224 255
199 224 255
199 224 255
199 223 255
199 223 255
199 223 255
199 223 255
199 223 255
199 223 255
199 223 255
199 223 255
199 223 255
199 223 255
199 223 255
199 223 255
199 223 255
199 223 255
199 223 255
199 223 255
199 223 255
199 223 255
199 223 255
199 223 255
198 223 255
198 223 255
198 223 255
198 223 255
198 223 255
198 223 255
198 223 255
198 223 255
198 223 255
198 223 255
198 223 255
198 223 255
198 223 255
198 223 255
198 223 255
198 223 255
198 223 255
198 223 255
198 223 255
198 223 255
198 223 255
198 223 255
198 223 255
198 223 255
198 223 255
198 223 255
198 223 255
198 223 255
198 223 255
198 223 255
198 223 255
198 223 255
198 223 255
198 223 255
198 223 255
198 223 255
198 223 255
198 223 255
198 223 255
198 223 255
198 223 255
198 223 255
198 223 255
198 223 255
198 223 255
198 223 255
198 223 255
198 223 255
198 223 255
198 223 255
198 223 255
198 223 255
198 223 255
198 223 255
199 223 255
199 223 255
199 223 255
199 223 255
199 223 255
199 223 255
199 223 255
199 223 255
199 223 255
199 223 255
199 223 255
199 223 255
199 223 255
199 223 255
199 223 255
199 223 255
199 223 255
199 223 255
199 223 255
199 223 255
199 224 255
199 224 255
199 224 255
200 224 255
200 224 255
200 224 255
200 224 255
200 224 255
200 224 255
200 224 255
200 224 255
200 224 255
200 224 255
200 224 255
200 224 255
200 224 255
200 224 255
200 224 255
200 224 255
200 224 255
200 224 255
201 224 255
201 224 255
201 224 255
201 224 255
201 224 255
201 224 255
201 224 255
201 224 255
201 224 255
201 224 255
201 224 255
201 225 255
201 225 255
201 225 255
201 225 255
201 225 255
202 225 255
202 225 255
202 225 255
202 225 255
202 225 255
202 225 255
202 225 255
202 225 255
202 225 255
202 225 255
202 225 255
202 225 255
202 225 255
202 225 255
202 225 255
203 225 255
203 225 255
203 225 255
203 225 255
203 225 255
203 225 255
203 225 255
203 225 255
203 226 255
203 226 255
203 226 255
203 226 255
203 226 255
203 226 255
203 226 255
204 226 255
204 226 255
204 226 255
204 226 255
204 226 255
204 226 255
204 226 255
204 226 255
204 226 255
204 226 255
204 226 255
204 226 255
204 226 255
204 226 255
204 226 255
204 226 255
205 226 255
205 226 255
205 226 255
205 226 255
205 226 255
205 226 255
205 226 255
205 227 255
205 227 255
205 227 255
205 227 255
205 227 255
205 227 255
205 227 255
205 227 255
205 227 255
206 227 255
206 227 255
206 227 255
206 227 255
206 227 255
206 227 255
206 227 255
206 227 255
206 227 255
206 227 255
206 227 255
206 227 255
206 227 255
206 227 255
206 227 255
206 227 255
206 227 255
206 227 255
207 227 255
207 227 255
207 227 255
207 227 255
207 227 255
207 228 255
207 228 255
207 228 255
207 228 255
207 228 255
207 228 255
207 228 255
207 228 255
207 228 255
207 228 255
207 228 255
207 228 255
207 228 255
207 228 255
207 228 255
208 228 255
208 228 255
208 228 255
208 228 255
208 228 255
208 228 255
208 228 255
208 228 255
208 228 255
208 228 255
208 228 255
208 228 255
208 228 255
208 228 255
208 228 255
208 228 255
208 228 255
208 228 255
208 228 255
208 228 255
208 228 255
208 228 255
208 228 255
208 228 255
208 228 255
208 228 255
208 228 255
208 228 255
208 228 255
208 228 255
208 228 255
208 228 255
208 228 255
208 228 255
208 228 255
207 228 255
207 228 255
207 228 255
207 228 255
207 228 255
207 228 255
207 228 255
207 228 255
207 228 255
207 228 255
207 228 255
207 228 255
207 228 255
207 228 255
207 228 255
207 227 255
207 227 255
207 227 255
207 227 255
206 227 255
206 227 255
206 227 255
206 227 255
206 227 255
206 227 255
206 227 255
206 227 255
206 227 255
206 227 255
206 227 255
206 227 255
206 227 255
206 227 255
206 227 255
206 227 255
206 227 255
206 227 255
205 227 255
205 227 255
205 227 255
205 227 255
205 227 255
205 227 255
205 227 255
205 227 255
205 227 255
205 227 255
205 226 255
205 226 255
205 226 255
205 226 255
205 226 255
205 226 255
205 226 255
204 226 255
204 226 255
204 226 255
204 226 255
204 226 255
204 226 255
204 226 255
204 226 255
204 226 255
204 226 255
204 226 255
204 226 255
204 226 255
204 226 255
204 226 255
204 226 255
203 226 255
203 226 255
203 226 255
203 226 255
203 226 255
203 226 255
203 225 255
203 225 255
203 225 255
203 225 255
203 225 255
203 225 255
203 225 255
203 225 255
203 225 255
202 225 255
202 225 255
202 225 255
202 225 255
202 225 255
202 225 255
202 225 255
202 225 255
202 225 255
202 225 255
202 225 255
202 225 255
202 225 255
202 225 255
202 225 255
201 225 255
201 225 255
201 225 255
201 225 255
201 225 255
201 224 255
201 224 255
201 224 255
201 224 255
201 224 255
201 224 255
201 224 255
201 224 255
201 224 255
201 224 255
201 224 255
200 224 255
200 224 255
200 224 255
200 224 255
200 224 255
200 224 255
200 224 255
200 224 255
200 224 255
200 224 255
200 224 255
200 224 255
200 224 255
200 224 255
200 224 255
200 224 255
200 224 255
200 224 255
199 224 255
199 224 255
199 224 255
199 224 255
199 223 255
199 223 255
199 223 255
199 223 255
199 223 255
199 223 255
199 223 255
199 223 255
199 223 255
199 223 255
199 223 255
199 223 255
199 223 255
199 223 255
199 223 255
199 223 255
199 223 255
199 223 255
199 223 255
199 223 255
199 223 255
199 223 255
199 223 255
198 223 255
198 223 255
198 223 255
198 223 255
198 223 255
198 223 255
198 223 255
198 223 255
198 223 255
198 223 255
198 223 255
198 223 255
198 223 255
198 223 255
198 223 255
198 223 255
198 223 255
198 223 255
198 223 255
198 223 255
198 223 255
198 223 255
198 223 255
198 223 255
198 223 255
198 223 255
198 223 255
198 223 255
198 223 255
198 223 255
198 223 255
198 223 255
198 223 255
198 223 255
198 223 255
198 223 255
198 223 255
198 223 255
198 223 255
198 223 255
199 223 255
199 223 255
199 223 255
199 223 255
199 223 255
199 223 255
199 223 255
199 223 255
199 223 255
199 223 255
199 223 255
199 223 255
199 223 255
199 223 255
199 223 255
199 223 255
199 223 255
199 223 255
199 223 255
199 223 255
199 223 255
199 223 255
199 223 255
199 224 255
199 224 255
199 224 255
199 224 255
200 224 255
200 224 255
200 224 255
200 224 255
200 224 255
200 224 255
200 224 255
200 224 255
200 224 255
200 224 255
200 224 255
200 224 255
200 224 255
200 224 255
200 224 255
200 224 255
200 224 255
200 224 255
201 224 255
201 224 255
201 224 255
201 224 255
201 224 255
201 224 255
201 224 255
201 224 255
201 224 255
201 224 255
201 224 255
201 225 255
201 225 255
201 225 255
201 225 255
201 225 255
202 225 255
202 225 255
202 225 255
202 225 255
202 225 255
202 225 255
202 225 255
202 225 255
202 225 255
202 225 255
202 225 255
202 225 255
202 225 255
202 225 255
202 225 255
203 225 255
203 225 255
203 225 255
203 225 255
203 225 255
203 225 255
203 225 255
203 225 255
203 226 255
203 226 255
203 226 255
203 226 255
203 226 255
203 226 255
203 226 255
204 226 255
204 226 255
204 226 255
204 226 255
204 226 255
204 226 255
204 226 255
204 226 255
204 226 255
204 226 255
204 226 255
204 226 255
204 226 255
204 226 255
204 226 255
204 226 255
205 226 255
205 226 255
205 226 255
205 226 255
205 226 255
205 226 255
205 226 255
205 227 255
205 227 255
205 227 255
205 227 255
205 227 255
205 227 255
205 227 255
205 227 255
205 227 255
205 227 255
206 227 255
206 227 255
206 227 255
206 227 255
206 227 255
206 227 255
206 227 255
206 227 255
206 227 255
206 227 255
206 227 255
206 227 255
206 227 255
206 227 255
206 227 255
206 227 255
206 227 255
207 227 255
207 227 255
207 227 255
207 227 255
207 227 255
207 228 255
207 228 255
207 228 255
207 228 255
207 228 255
207 228 255
207 228 255
207 228 255
207 228 255
207 228 255
207 228 255
207 228 255
207 228 255
207 228 255
207 228 255
208 228 255
208 228 255
208 228 255
208 228 255
208 228 255
208 228 255
208 228 255
208 228 255
208 228 255
208 228 255
208 228 255
208 228 255
208 228 255
208 228 255
208 228 255
208 228 255
208 228 255
208 228 255
208 228 255
209 228 255
208 228 255
208 228 255
208 228 255
208 228 255
208 228 255
208 228 255
208 228 255
208 228 255
208 228 255
208 228 255
208 228 255
208 228 255
208 228 255
208 228 255
208 228 255
208 228 255
208 228 255
208 228 255
208 228 255
208 228 255
208 228 255
207 228 255
207 228 255
207 228 255
207 228 255
207 228 255
207 228 255
207 228 255
207 228 255
207 228 255
207 228 255
207 228 255
207 228 255
207 228 255
207 228 255
207 228 255
207 227 255
207 227 255
207 227 255
207 227 255
207 227 255
206 227 255
206 227 255
206 227 255
206 227 255
206 227 255
206 227 255
206 227 255
206 227 255
206 227 255
206 227 255
206 227 255
206 227 255
206 227 255
206 227 255
206 227 255
206 227 255
206 227 255
205 227 255
205 227 255
205 227 255
205 227 255
205 227 255
205 227 255
205 227 255
205 227 255
205 227 255
205 227 255
205 226 255
205 226 255
205 226 255
205 226 255
205 226 255
205 226 255
205 226 255
204 226 255
204 226 255
204 226 255
204 226 255
204 226 255
204 226 255
204 226 255
204 226 255
204 226 255
204 226 255
204 226 255
204 226 255
204 226 255
204 226 255
204 226 255
203 226 255
203 226 255
203 226 255
203 226 255
203 226 255
203 226 255
203 226 255
203 225 255
203 225 255
203 225 255
203 225 255
203 225 255
203 225 255
203 225 255
203 225 255
203 225 255
202 225 255
202 225 255
202 225 255
202 225 255
202 225 255
202 225 255
202 225 255
202 225 255
202 225 255
202 225 255
202 225 255
202 225 255
202 225 255
202 225 255
202 225 255
201 225 255
201 225 255
201 225 255
201 225 255
201 225 255
201 224 255
201 224 255
201 224 255
201 224 255
201 224 255
201 224 255
201 224 255
201 224 255
201 224 255
201 224 255
201 224 255
201 224 255
200 224 255
200 224 255
200 224 255
200 224 255
200 224 255
200 224 255
200 224 255
200 224 255
200 224 255
200 224 255
200 224 255
200 224 255
200 224 255
200 224 255
200 224 255
200 224 255
200 224 255
200 224 255
199 224 255
199 224 255
199 224 255
199 224 255
199 223 255
199 223 255
199 223 255
199 223 255
199 223 255
199 223 255
199 223 255
199 223 255
199 223 255
199 223 255
199 223 255
199 223 255
199 223 255
199 223 255
199 223 255
199 223 255
199 223 255
199 223 255
199 223 255
199 223 255
199 223 255
199 223 255
199 223 255
199 223 255
199 223 255
199 223 255
199 223 255
199 223 255
199 223 255
199 223 255
198 223 255
198 223 255
198 223 255
198 223 255
198 223 255
198 223 255
198 223 255
198 223 255
198 223 255
198 223 255
198 223 255
198 223 255
198 223 255
198 223 255
198 223 255
198 223 255
198 223 255
198 223 255
198 223 255
199 223 255
199 223 255
199 223 255
199 223 255
199 223 255
199 223 255
199 223 255
199 223 255
199 223 255
199 223 255
199 223 255
199 223 255
199 223 255
199 223 255
199 223 255
199 223 255
199 223 255
199 223 255
199 223 255
199 223 255
199 223 255
199 223 255
199 223 255
199 223 255
199 223 255
199 223 255
199 223 255
199 223 255
199 223 255
199 224 255
199 224 255
199 224 255
199 224 255
200 224 255
200 224 255
200 224 255
200 224 255
200 224 255
200 224 255
200 224 255
200 224 255
200 224 255
200 224 255
200 224 255
200 224 255
200 224 255
200 224 255
200 224 255
200 224 255
200 224 255
200 224 255
201 224 255
201 224 255
201 224 255
201 224 255
201 224 255
201 224 255
201 224 255
201 224 255
201 224 255
201 224 255
201 224 255
201 224 255
201 225 255
201 225 255
201 225 255
201 225 255
201 225 255
202 225 255
202 225 255
202 225 255
202 225 255
202 225 255
202 225 255
202 225 255
202 225 255
202 225 255
202 225 255
202 225 255
202 225 255
202 225 255
202 225 255
202 225 255
203 225 255
203 225 255
203 225 255
203 225 255
203 225 255
203 225 255
203 225 255
203 225 255
203 225 255
203 226 255
203 226 255
203 226 255
203 226 255
203 226 255
203 226 255
203 226 255
204 226 255
204 226 255
204 226 255
204 226 255
204 226 255
204 226 255
204 226 255
204 226 255
204 226 255
204 226 255
204 226 255
204 226 255
204 226 255
204 226 255
204 226 255
205 226 255
205 226 255
205 226 255
205 226 255
205 226 255
205 226 255
205 226 255
205 227 255
205 227 255
205 227 255
205 227 255
205 227 255
205 227 255
205 227 255
205 227 255
205 227 255
205 227 255
206 227 255
206 227 255
206 227 255
206 227 255
206 227 255
206 227 255
206 227 255
206 227 255
206 227 255
206 227 255
206 227 255
206 227 255
206 227 255
206 227 255
206 227 255
206 227 255
206 227 255
207 227 255
207 227 255
207 227 255
207 227 255
207 227 255
207 228 255
207 228 255
207 228 255
207 228 255
207 228 255
207 228 255
207 228 255
207 228 255
207 228 255
207 228 255
207 228 255
207 228 255
207 228 255
207 228 255
207 228 255
208 228 255
208 228 255
208 228 255
208 228 255
208 228 255
208 228 255
208 228 255
208 228 255
208 228 255
208 228 255
208 228 255
208 228 255
208 228 255
208 228 255
208 228 255
208 228 255
208 228 255
208 228 255
208 228 255
208 228 255
208 228 255
209 228 255
209 229 255
209 229 255
209 228 255
209 228 255
208 228 255
208 228 255
208 228 255
208 228 255
208 228 255
208 228 255
208 228 255
208 228 255
208 228 255
208 228 255
208 228 255
208 228 255
208 228 255
208 228 255
208 228 255
208 228 255
208 228 255
208 228 255
208 228 255
208 228 255
208 228 255
208 228 255
207 228 255
207 228 255
207 228 255
207 228 255
207 228 255
207 228 255
207 228 255
207 228 255
207 228 255
207 228 255
207 228 255
207 228 255
207 228 255
207 228 255
207 227 255
207 227 255
207 227 255
207 227 255
207 227 255
206 227 255
206 227 255
206 227 255
206 227 255
206 227 255
206 227 255
206 227 255
206 227 255
206 227 255
206 227 255
206 227 255
206 227 255
206 227 255
206 227 255
206 227 255
206 227 255
206 227 255
205 227 255
205 227 255
205 227 255
205 227 255
205 227 255
205 227 255
205 227 255
205 227 255
205 227 255
205 227 255
205 226 255
205 226 255
205 226 255
205 226 255
205 226 255
205 226 255
205 226 255
204 226 255
204 226 255
204 226 255
204 226 255
204 226 255
204 226 255
204 226 255
204 226 255
204 226 255
204 226 255
204 226 255
204 226 255
204 226 255
204 226 255
204 226 255
203 226 255
203 226 255
203 226 255
203 226 255
203 226 255
203 226 255
203 226 255
203 225 255
203 225 255
203 225 255
203 225 255
203 225 255
203 225 255
203 225 255
203 225 255
203 225 255
202 225 255
202 225 255
202 225 255
202 225 255
202 225 255
202 225 255
202 225 255
202 225 255
202 225 255
202 225 255
202 225 255
202 225 255
202 225 255
202 225 255
202 225 255
201 225 255
201 225 255
201 225 255
201 225 255
201 225 255
201 224 255
201 224 255
201 224 255
201 224 255
201 224 255
201 224 255
201 224 255
201 224 255
201 224 255
201 224 255
201 224 255
201 224 255
200 224 255
200 224 255
200 224 255
200 224 255
200 224 255
200 224 255
200 224 255
200 224 255
200 224 255
200 224 255
200 224 255
200 224 255
200 224 255
200 224 255
200 224 255
200 224 255
200 224 255
200 224 255
200 224 255
200 224 255
199 224 255
199 224 255
199 224 255
199 224 255
199 223 255
199 223 255
199 223 255
199 223 255
199 223 255
199 223 255
199 223 255
199 223 255
199 223 255
199 223 255
199 223 255
199 223 255
199 223 255
199 223 255
199 223 255
199 223 255
199 223 255
199 223 255
199 223 255
199 223 255
199 223 255
199 223 255
199 223 255
199 223 255
199 223 255
199 223 255
199 223 255
199 223 255
199 223 255
199 223 255
199 223 255
199 223 255
199 223 255
199 223 255
199 223 255
199 223 255
199 223 255
199 223 255
199 223 255
199 223 255
199 223 255
199 223 255
199 223 255
199 223 255
199 223 255
199 223 255
199 223 255
199 223 255
199 223 255
199 223 255
199 223 255
199 223 255
199 223 255
199 223 255
199 223 255
199 223 255
199 223 255
199 223 255
199 223 255
199 223 255
199 223 255
199 223 255
199 223 255
199 223 255
199 223 255
199 223 255
199 223 255
199 223 255
199 224 255
199 224 255
199 224 255
199 224 255
200 224 255
200 224 255
200 224 255
200 224 255
200 224 255
200 224 255
200 224 255
200 224 255
200 224 255
200 224 255
200 224 255
200 224 255
200 224 255
200 224 255
200 224 255
200 224 255
200 224 255
200 224 255
200 224 255
200 224 255
201 224 255
201 224 255
201 224 255
201 224 255
201 224 255
201 224 255
201 224 255
201 224 255
201 224 255
201 224 255
201 224 255
201 224 255
201 225 255
201 225 255
201 225 255
201 225 255
201 225 255
202 225 255
202 225 255
202 225 255
202 225 255
202 225 255
202 225 255
202 225 255
202 225 255
202 225 255
202 225 255
202 225 255
202 225 255
202 225 255
202 225 255
202 225 255
203 225 255
203 225 255
203 225 255
203 225 255
203 225 255
203 225 255
203 225 255
203 225 255
203 225 255
203 226 255
203 226 255
203 226 255
203 226 255
203 226 255
203 226 255
203 226 255
204 226 255
204 226 255
204 226 255
204 226 255
204 226 255
204 226 255
204 226 255
204 226 255
204 226 255
204 226 255
204 226 255
204 226 255
204 226 255
204 226 255
204 226 255
205 226 255
205 226 255
205 226 255
205 226 255
205 226 255
205 226 255
205 226 255
205 227 255
205 227 255
205 227 255
205 227 255
205 227 255
205 227 255
205 227 255
205 227 255
205 227 255
205 227 255
206 227 255
206 227 255
206 227 255
206 227 255
206 227 255
206 227 255
206 227 255
206 227 255
206 227 255
206 227 255
206 227 255
206 227 255
206 227 255
206 227 255
206 227 255
206 227 255
206 227 255
207 227 255
207 227 255
207 227 255
207 227 255
207 227 255
207 228 255
207 228 255
207 228 255
207 228 255
207 228 255
207 228 255
207 228 255
207 228 255
207 228 255
207 228 255
207 228 255
207 228 255
207 228 255
207 228 255
207 228 255
208 228 255
208 228 255
208 228 255
208 228 255
208 228 255
208 228 255
208 228 255
208 228 255
208 228 255
208 228 255
208 228 255
208 228 255
208 228 255
208 228 255
208 228 255
208 228 255
208 228 255
208 228 255
208 228 255
208 228 255
208 228 255
209 228 255
209 229 255
209 229 255
209 229 255
209 229 255
209 229 255
209 229 255
209 229 255
209 229 255
209 229 255
209 228 255
208 228 255
208 228 255
208 228 255
208 228 255
208 228 255
208 228 255
208 228 255
208 228 255
208 228 255
208 228 255
208 228 255
208 228 255
208 228 255
208 228 255
208 228 255
208 228 255
208 228 255
208 228 255
208 228 255
208 228 255
208 228 255
207 228 255
207 228 255
207 228 255
207 228 255
207 228 255
207 228 255
207 228 255
207 228 255
207 228 255
207 228 255
207 228 255
207 228 255
207 228 255
207 228 255
207 228 255
207 227 255
207 227 255
207 227 255
207 227 255
206 227 255
206 227 255
206 227 255
206 227 255
206 227 255
206 227 255
206 227 255
206 227 255
206 227 255
206 227 255
206 227 255
206 227 255
206 227 255
206 227 255
206 227 255
206 227 255
206 227 255
206 227 255
205 227 255
205 227 255
205 227 255
205 227 255
205 227 255
205 227 255
205 227 255
205 227 255
205 227 255
205 227 255
205 226 255
205 226 255
205 226 255
205 226 255
205 226 255
205 226 255
204 226 255
204 226 255
204 226 255
204 226 255
204 226 255
204 226 255
204 226 255
204 226 255
204 226 255
204 226 255
204 226 255
204 226 255
204 226 255
204 226 255
204 226 255
204 226 255
203 226 255
203 226 255
203 226 255
203 226 255
203 226 255
203 226 255
203 226 255
203 225 255
203 225 255
203 225 255
203 225 255
203 225 255
203 225 255
203 225 255
203 225 255
203 225 255
202 225 255
202 225 255
202 225 255
202 225 255
202 225 255
202 225 255
202 225 255
202 225 255
202 225 255
202 225 255
202 225 255
202 225 255
202 225 255
202 225 255
202 225 255
201 225 255
201 225 255
201 225 255
201 225 255
201 225 255
201 224 255
201 224 255
201 224 255
201 224 255
201 224 255
201 224 255
201 224 255
201 224 255
201 224 255
201 224 255
201 224 255
201 224 255
201 224 255
200 224 255
200 224 255
200 224 255
200 224 255
200 224 255
200 224 255
200 224 255
200 224 255
200 224 255
200 224 255
200 224 255
200 224 255
200 224 255
200 224 255
200 224 255
200 224 255
200 224 255
200 224 255
200 224 255
200 224 255
200 224 255
199 224 255
199 224 255
199 224 255
199 224 255
199 223 255
199 223 255
199 223 255
199 223 255
199 223 255
199 223 255
199 223 255
199 223 255
199 223 255
199 223 255
199 223 255
199 223 255
199 223 255
199 223 255
199 223 255
199 223 255
199 223 255
199 223 255
199 223 255
199 223 255
199 223 255
199 223 255
199 223 255
199 223 255
199 223 255
199 223 255
199 223 255
199 223 255
199 223 255
199 223 255
199 223 255
199 223 255
199 223 255
199 223 255
199 223 255
199 223 255
199 223 255
199 223 255
199 223 255
199 223 255
199 223 255
199 223 255
199 223 255
199 223 255
199 223 255
199 223 255
199 223 255
199 223 255
199 223 255
199 223 255
199 223 255
199 223 255
199 223 255
199 223 255
199 223 255
199 223 255
199 223 255
199 223 255
199 224 255
199 224 255
199 224 255
199 224 255
200 224 255
200 224 255
200 224 255
200 224 255
200 224 255
200 224 255
200 224 255
200 224 255
200 224 255
200 224 255
200 224 255
200 224 255
200 224 255
200 224 255
200 224 255
200 224 255
200 224 255
200 224 255
200 224 255
200 224 255
200 224 255
200 224 255
201 224 255
201 224 255
201 224 255
201 224 255
201 224 255
201 224 255
201 224 255
201 224 255
201 224 255
201 224 255
201 224 255
201 224 255
201 225 255
201 225 255
201 225 255
201 225 255
201 225 255
202 225 255
202 225 255
202 225 255
202 225 255
202 225 255
202 225 255
202 225 255
202 225 255
202 225 255
202 225 255
202 225 255
202 225 255
202 225 255
202 225 255
202 225 255
203 225 255
203 225 255
203 225 255
203 225 255
203 225 255
203 225 255
203 225 255
203 225 255
203 225 255
203 226 255
203 226 255
203 226 255
203 226 255
203 226 255
203 226 255
203 226 255
204 226 255
204 226 255
204 226 255
204 226 255
204 226 255
204 226 255
204 226 255
204 226 255
204 226 255
204 226 255
204 226 255
204 226 255
204 226 255
204 226 255
204 226 255
204 226 255
205 226 255
205 226 255
205 226 255
205 226 255
205 226 255
205 226 255
205 227 255
205 227 255
205 227 255
205 227 255
205 227 255
205 227 255
205 227 255
205 227 255
205 227 255
205 227 255
206 227 255
206 227 255
206 227 255
206 227 255
206 227 255
206 227 255
206 227 255
206 227 255
206 227 255
206 227 255
206 227 255
206 227 255
206 227 255
206 227 255
206 227 255
206 227 255
206 227 255
207 227 255
207 227 255
207 227 255
207 227 255
207 227 255
207 228 255
207 228 255
207 228 255
207 228 255
207 228 255
207 228 255
207 228 255
207 228 255
207 228 255
207 228 255
207 228 255
207 228 255
207 228 255
207 228 255
208 228 255
208 228 255
208 228 255
208 228 255
208 228 255
208 228 255
208 228 255
208 228 255
208 228 255
208 228 255
208 228 255
208 228 255
208 228 255
208 228 255
208 228 255
208 228 255
208 228 255
208 228 255
208 228 255
208 228 255
208 228 255
208 228 255
209 228 255
209 229 255
209 229 255
209 229 255
209 229 255
209 229 255
209 229 255
209 229 255
209 229 255
209 229 255
209 229 255
209 229 255
209 229 255
209 229 255
209 229 255
209 229 255
209 228 255
209 228 255
208 228 255
208 228 255
208 228 255
208 228 255
208 228 255
208 228 255
208 228 255
208 228 255
208 228 255
208 228 255
208 228 255
208 228 255
208 228 255
208 228 255
208 228 255
208 228 255
208 228 255
208 228 255
208 228 255
208 228 255
208 228 255
207 228 255
207 228 255
207 228 255
207 228 255
207 228 255
207 228 255
207 228 255
207 228 255
207 228 255
207 228 255
207 228 255
207 228 255
207 228 255
207 228 255
207 227 255
207 227 255
207 227 255
207 227 255
206 227 255
206 227 255
206 227 255
206 227 255
206 227 255
206 227 255
206 227 255
206 227 255
206 227 255
206 227 255
206 227 255
206 227 255
206 227 255
206 227 255
206 227 255
206 227 255
206 227 255
206 227 255
205 227 255
205 227 255
205 227 255
205 227 255
205 227 255
205 227 255
205 227 255
205 227 255
205 227 255
205 227 255
205 226 255
205 226 255
205 226 255
205 226 255
205 226 255
205 226 255
204 226 255
204 226 255
204 226 255
204 226 255
204 226 255
204 226 255
204 226 255
204 226 255
204 226 255
204 226 255
204 226 255
204 226 255
204 226 255
204 226 255
204 226 255
204 226 255
203 226 255
203 226 255
203 226 255
203 226 255
203 226 255
203 226 255
203 226 255
203 225 255
203 225 255
203 225 255
203 225 255
203 225 255
203 225 255
203 225 255
203 225 255
203 225 255
202 225 255
202 225 255
202 225 255
202 225 255
202 225 255
202 225 255
202 225 255
202 225 255
202 225 255
202 225 255
202 225 255
202 225 255
202 225 255
202 225 255
202 225 255
201 225 255
201 225 255
201 225 255
201 225 255
201 225 255
201 224 255
201 224 255
201 224 255
201 224 255
201 224 255
201 224 255
201 224 255
201 224 255
201 224 255
201 224 255
201 224 255
201 224 255
201 224 255
200 224 255
200 224 255
200 224 255
200 224 255
200 224 255
200 224 255
200 224 255
200 224 255
200 224 255
200 224 255
200 224 255
200 224 255
200 224 255
200 224 255
200 224 255
200 224 255
200 224 255
200 224 255
200 224 255
200 224 255
200 224 255
200 224 255
200 224 255
200 224 255
199 224 255
199 224 255
199 224 255
199 224 255
199 224 255
199 223 255
199 223 255
199 223 255
199 223 255
199 223 255
199 223 255
199 223 255
199 223 255
199 223 255
199 223 255
199 223 255
199 223 255
199 223 255
199 223 255
199 223 255
199 223 255
199 223 255
199 223 255
199 223 255
199 223 255
199 223 255
199 223 255
199 223 255
199 223 255
199 223 255
199 223 255
199 223 255
199 223 255
199 223 255
199 223 255
199 223 255
199 223 255
199 223 255
199 223 255
199 223 255
199 223 255
199 223 255
199 223 255
199 223 255
199 223 255
199 223 255
199 223 255
199 223 255
199 223 255
199 224 255
199 224 255
199 224 255
199 224 255
199 224 255
200 224 255
200 224 255
200 224 255
200 224 255
200 224 255
200 224 255
200 224 255
200 224 255
200 224 255
200 224 255
200 224 255
200 224 255
200 224 255
200 224 255
200 224 255
200 224 255
200 224 255
200 224 255
200 224 255
200 224 255
200 224 255
200 224 255
200 224 255
200 224 255
201 224 255
201 224 255
201 224 255
201 224 255
201 224 255
201 224 255
201 224 255
201 224 255
201 224 255
201 224 255
201 224 255
201 224 255
201 224 255
201 225 255
201 225 255
201 225 255
201 225 255
201 225 255
202 225 255
202 225 255
202 225 255
202 225 255
202 225 255
202 225 255
202 225 255
202 225 255
202 225 255
202 225 255
202 225 255
202 225 255
202 225 255
202 225 255
202 225 255
202 225 255
203 225 255
203 225 255
203 225 255
203 225 255
203 225 255
203 225 255
203 225 255
203 225 255
203 226 255
203 226 255
203 226 255
203 226 255
203 226 255
203 226 255
203 226 255
204 226 255
204 226 255
204 226 255
204 226 255
204 226 255
204 226 255
204 226 255
204 226 255
204 226 255
204 226 255
204 226 255
204 226 255
204 226 255
204 226 255
204 226 255
204 226 255
205 226 255
205 226 255
205 226 255
205 226 255
205 226 255
205 226 255
205 227 255
205 227 255
205 227 255
205 227 255
205 227 255
205 227 255
205 227 255
205 227 255
205 227 255
205 227 255
206 227 255
206 227 255
206 227 255
206 227 255
206 227 255
206 227 255
206 227 255
206 227 255
206 227 255
206 227 255
206 227 255
206 227 255
206 227 255
206 227 255
206 227 255
206 227 255
206 227 255
206 227 255
207 227 255
207 227 255
207 227 255
207 227 255
207 228 255
207 228 255
207 228 255
207 228 255
207 228 255
207 228 255
207 228 255
207 228 255
207 228 255
207 228 255
207 228 255
207 228 255
207 228 255
207 228 255
208 228 255
208 228 255
208 228 255
208 228 255
208 228 255
208 228 255
208 228 255
208 228 255
208 228 255
208 228 255
208 228 255
208 228 255
208 228 255
208 228 255
208 228 255
208 228 255
208 228 255
208 228 255
208 228 255
208 228 255
208 228 255
209 228 255
209 228 255
209 229 255
209 229 255
209 229 255
209 229 255
209 229 255
209 229 255
209 229 255
209 229 255
209 229 255
209 229 255
209 229 255
209 229 255
209 229 255
209 229 255
209 229 255
209 229 255
209 229 255
209 229 255
209 229 255
209 229 255
209 229 255
209 228 255
209 228 255
208 228 255
208 228 255
208 228 255
208 228 255
208 228 255
208 228 255
208 228 255
208 228 255
208 228 255
208 228 255
208 228 255
208 228 255
208 228 255
208 228 255
208 228 255
208 228 255
208 228 255
208 228 255
208 228 255
208 228 255
208 228 255
207 228 255
207 228 255
207 228 255
207 228 255
207 228 255
207 228 255
207 228 255
207 228 255
207 228 255
207 228 255
207 228 255
207 228 255
207 228 255
207 228 255
207 227 255
207 227 255
207 227 255
207 227 255
206 227 255
206 227 255
206 227 255
206 227 255
206 227 255
206 227 255
206 227 255
206 227 255
206 227 255
206 227 255
206 227 255
206 227 255
206 227 255
206 227 255
206 227 255
206 227 255
206 227 255
206 227 255
205 227 255
205 227 255
205 227 255
205 227 255
205 227 255
205 227 255
205 227 255
205 227 255
205 227 255
205 227 255
205 226 255
205 226 255
205 226 255
205 226 255
205 226 255
205 226 255
204 226 255
204 226 255
204 226 255
204 226 255
204 226 255
204 226 255
204 226 255
204 226 255
204 226 255
204 226 255
204 226 255
204 226 255
204 226 255
204 226 255
204 226 255
204 226 255
203 226 255
203 226 255
203 226 255
203 226 255
203 226 255
203 226 255
203 226 255
203 225 255
203 225 255
203 225 255
203 225 255
203 225 255
203 225 255
203 225 255
203 225 255
203 225 255
202 225 255
202 225 255
202 225 255
202 225 255
202 225 255
202 225 255
202 225 255
202 225 255
202 225 255
202 225 255
202 225 255
202 225 255
202 225 255
202 225 255
202 225 255
202 225 255
201 225 255
201 225 255
201 225 255
201 225 255
201 225 255
201 224 255
201 224 255
201 224 255
201 224 255
201 224 255
201 224 255
201 224 255
201 224 255
201 224 255
201 224 255
201 224 255
201 224 255
201 224 255
200 224 255
200 224 255
200 224 255
200 224 255
200 224 255
200 224 255
200 224 255
200 224 255
200 224 255
200 224 255
200 224 255
200 224 255
200 224 255
200 224 255
200 224 255
200 224 255
200 224 255
200 224 255
200 224 255
200 224 255
200 224 255
200 224 255
200 224 255
200 224 255
200 224 255
200 224 255
200 224 255
199 224 255
199 224 255
199 224 255
199 224 255
199 224 255
199 224 255
199 224 255
199 223 255
199 223 255
199 223 255
199 223 255
199 223 255
199 223 255
199 223 255
199 223 255
199 223 255
199 223 255
199 223 255
199 223 255
199 223 255
199 223 255
199 223 255
199 223 255
199 223 255
199 223 255
199 223 255
199 223 255
199 223 255
199 223 255
199 223 255
199 223 255
199 223 255
199 224 255
199 224 255
199 224 255
199 224 255
199 224 255
199 224 255
199 224 255
199 224 255
199 224 255
200 224 255
200 224 255
200 224 255
200 224 255
200 224 255
200 224 255
200 224 255
200 224 255
200 224 255
200 224 255
200 224 255
200 224 255
200 224 255
200 224 255
200 224 255
200 224 255
200 224 255
200 224 255
200 224 255
200 224 255
200 224 255
200 224 255
200 224 255
200 224 255
200 224 255
200 224 255
201 224 255
201 224 255
201 224 255
201 224 255
201 224 255
201 224 255
201 224 255
201 224 255
201 224 255
201 224 255
201 224 255
201 224 255
201 224 255
201 225 255
201 225 255
201 225 255
201 225 255
201 225 255
202 225 255
202 225 255
202 225 255
202 225 255
202 225 255
202 225 255
202 225 255
202 225 255
202 225 255
202 225 255
202 225 255
202 225 255
202 225 255
202 225 255
202 225 255
202 225 255
202 225 255
203 225 255
203 225 255
203 225 255
203 225 255
203 225 255
203 225 255
203 225 255
203 225 255
203 226 255
203 226 255
203 226 255
203 226 255
203 226 255
203 226 255
203 226 255
204 226 255
204 226 255
204 226 255
204 226 255
204 226 255
204 226 255
204 226 255
204 226 255
204 226 255
204 226 255
204 226 255
204 226 255
204 226 255
204 226 255
204 226 255
204 226 255
205 226 255
205 226 255
205 226 255
205 226 255
205 226 255
205 226 255
205 227 255
205 227 255
205 227 255
205 227 255
205 227 255
205 227 255
205 227 255
205 227 255
205 227 255
205 227 255
206 227 255
206 227 255
206 227 255
206 227 255
206 227 255
206 227 255
206 227 255
206 227 255
206 227 255
206 227 255
206 227 255
206 227 255
206 227 255
206 227 255
206 227 255
206 227 255
206 227 255
207 227 255
207 227 255
207 227 255
207 227 255
207 227 255
207 228 255
207 228 255
207 228 255
207 228 255
207 228 255
207 228 255
207 228 255
207 228 255
207 228 255
207 228 255
207 228 255
207 228 255
207 228 255
207 228 255
208 228 255
208 228 255
208 228 255
208 228 255
208 228 255
208 228 255
208 228 255
208 228 255
208 228 255
208 228 255
208 228 255
208 228 255
208 228 255
208 228 255
208 228 255
208 228 255
208 228 255
208 228 255
208 228 255
208 228 255
208 228 255
209 228 255
209 229 255
209 229 255
209 229 255
209 229 255
209 229 255
209 229 255
209 229 255
209 229 255
209 229 255
209 229 255
209 229 255
209 229 255
209 229 255
209 229 255
209 229 255
209 229 255
209 229 255
209 229 255
209 229 255
209 229 255
209 229 255
209 229 255
209 229 255
209 229 255
209 229 255
209 229 255
209 229 255
209 229 255
209 229 255
209 228 255
208 228 255
208 228 255
208 228 255
208 228 255
208 228 255
208 228 255
208 228 255
208 228 255
208 228 255
208 228 255
208 228 255
208 228 255
208 228 255
208 228 255
208 228 255
208 228 255
208 228 255
208 228 255
208 228 255
208 228 255
208 228 255
207 228 255
207 228 255
207 228 255
207 228 255
207 228 255
207 228 255
207 228 255
207 228 255
207 228 255
207 228 255
207 228 255
207 228 255
207 228 255
207 228 255
207 227 255
207 227 255
207 227 255
207 227 255
207 227 255
206 227 255
206 227 255
206 227 255
206 227 255
206 227 255
206 227 255
206 227 255
206 227 255
206 227 255
206 227 255
206 227 255
206 227 255
206 227 255
206 227 255
206 227 255
206 227 255
206 227 255
205 227 255
205 227 255
205 227 255
205 227 255
205 227 255
205 227 255
205 227 255
205 227 255
205 227 255
205 227 255
205 226 255
205 226 255
205 226 255
205 226 255
205 226 255
205 226 255
204 226 255
204 226 255
204 226 255
204 226 255
204 226 255
204 226 255
204 226 255
204 226 255
204 226 255
204 226 255
204 226 255
204 226 255
204 226 255
204 226 255
204 226 255
204 226 255
203 226 255
203 226 255
203 226 255
203 226 255
203 226 255
203 226 255
203 226 255
203 225 255
203 225 255
203 225 255
203 225 255
203 225 255
203 225 255
203 225 255
203 225 255
203 225 255
202 225 255
202 225 255
202 225 255
202 225 255
202 225 255
202 225 255
202 225 255
202 225 255
202 225 255
202 225 255
202 225 255
202 225 255
202 225 255
202 225 255
202 225 255
202 225 255
201 225 255
201 225 255
201 225 255
201 225 255
201 225 255
201 225 255
201 224 255
201 224 255
201 224 255
201 224 255
201 224 255
201 224 255
201 224 255
201 224 255
201 224 255
201 224 255
201 224 255
201 224 255
201 224 255
200 224 255
200 224 255
200 224 255
200 224 255
200 224 255
200 224 255
200 224 255
200 224 255
200 224 255
200 224 255
200 224 255
200 224 255
200 224 255
200 224 255
200 224 255
200 224 255
200 224 255
200 224 255
200 224 255
200 224 255
200 224 255
200 224 255
200 224 255
200 224 255
200 224 255
200 224 255
200 224 255
200 224 255
200 224 255
200 224 255
200 224 255
200 224 255
200 224 255
200 224 255
199 224 255
199 224 255
199 224 255
199 224 255
199 224 255
199 224 255
199 224 255
199 224 255
199 224 255
199 224 255
199 224 255
199 224 255
199 224 255
199 224 255
199 224 255
199 224 255
199 224 255
199 224 255
199 224 255
200 224 255
200 224 255
200 224 255
200 224 255
200 224 255
200 224 255
200 224 255
200 224 255
200 224 255
200 224 255
200 224 255
200 224 255
200 224 255
200 224 255
200 224 255
200 224 255
200 224 255
200 224 255
200 224 255
200 224 255
200 224 255
200 224 255
200 224 255
200 224 255
200 224 255
200 224 255
200 224 255
200 224 255
200 224 255
200 224 255
200 224 255
200 224 255
200 224 255
201 224 255
201 224 255
201 224 255
201 224 255
201 224 255
201 224 255
201 224 255
201 224 255
201 224 255
201 224 255
201 224 255
201 224 255
201 224 255
201 224 255
201 225 255
201 225 255
201 225 255
201 225 255
201 225 255
202 225 255
202 225 255
202 225 255
202 225 255
202 225 255
202 225 255
202 225 255
202 225 255
202 225 255
202 225 255
202 225 255
202 225 255
202 225 255
202 225 255
202 225 255
202 225 255
203 225 255
203 225 255
203 225 255
203 225 255
203 225 255
203 225 255
203 225 255
203 225 255
203 225 255
203 226 255
203 226 255
203 226 255
203 226 255
203 226 255
203 226 255
203 226 255
204 226 255
204 226 255
204 226 255
204 226 255
204 226 255
204 226 255
204 226 255
204 226 255
204 226 255
204 226 255
204 226 255
204 226 255
204 226 255
204 226 255
204 226 255
204 226 255
205 226 255
205 226 255
205 226 255
205 226 255
205 226 255
205 226 255
205 227 255
205 227 255
205 227 255
205 227 255
205 227 255
205 227 255
205 227 255
205 227 255
205 227 255
205 227 255
206 227 255
206 227 255
206 227 255
206 227 255
206 227 255
206 227 255
206 227 255
206 227 255
206 227 255
206 227 255
206 227 255
206 227 255
206 227 255
206 227 255
206 227 255
206 227 255
206 227 255
206 227 255
207 227 255
207 227 255
207 227 255
207 227 255
207 228 255
207 228 255
207 228 255
207 228 255
207 228 255
207 228 255
207 228 255
207 228 255
207 228 255
207 228 255
207 228 255
207 228 255
207 228 255
207 228 255
208 228 255
208 228 255
208 228 255
208 228 255
208 228 255
208 228 255
208 228 255
208 228 255
208 228 255
208 228 255
208 228 255
208 228 255
208 228 255
208 228 255
208 228 255
208 228 255
208 228 255
208 228 255
208 228 255
208 228 255
208 228 255
209 228 255
209 229 255
209 229 255
209 229 255
209 229 255
209 229 255
209 229 255
209 229 255
209 229 255
209 229 255
209 229 255
209 229 255
209 229 255
209 229 255
209 229 255
209 229 255
209 229 255
209 229 255
209 229 255
209 229 255
209 229 255
209 229 255
209 229 255
209 229 255
209 229 255
209 229 255
209 229 255
209 229 255
209 229 255
209 229 255
209 229 255
209 229 255
209 229 255
209 229 255
209 229 255
209 229 255
209 228 255
208 228 255
208 228 255
208 228 255
208 228 255
208 228 255
208 228 255
208 228 255
208 228 255
208 228 255
208 228 255
208 228 255
208 228 255
208 228 255
208 228 255
208 228 255
208 228 255
208 228 255
208 228 255
208 228 255
208 228 255
208 228 255
207 228 255
207 228 255
207 228 255
207 228 255
207 228 255
207 228 255
207 228 255
207 228 255
207 228 255
207 228 255
207 228 255
207 228 255
207 228 255
207 228 255
207 227 255
207 227 255
207 227 255
207 227 255
206 227 255
206 227 255
206 227 255
206 227 255
206 227 255
206 227 255
206 227 255
206 227 255
206 227 255
206 227 255
206 227 255
206 227 255
206 227 255
206 227 255
206 227 255
206 227 255
206 227 255
206 227 255
205 227 255
205 227 255
205 227 255
205 227 255
205 227 255
205 227 255
205 227 255
205 227 255
205 227 255
205 227 255
205 226 255
205 226 255
205 226 255
205 226 255
205 226 255
205 226 255
204 226 255
204 226 255
204 226 255
204 226 255
204 226 255
204 226 255
204 226 255
204 226 255
204 226 255
204 226 255
204 226 255
204 226 255
204 226 255
204 226 255
204 226 255
204 226 255
203 226 255
203 226 255
203 226 255
203 226 255
203 226 255
203 226 255
203 226 255
203 225 255
203 225 255
203 225 255
203 225 255
203 225 255
203 225 255
203 225 255
203 225 255
203 225 255
202 225 255
202 225 255
202 225 255
202 225 255
202 225 255
202 225 255
202 225 255
202 225 255
202 225 255
202 225 255
202 225 255
202 225 255
202 225 255
202 225 255
202 225 255
202 225 255
202 225 255
201 225 255
201 225 255
201 225 255
201 225 255
201 225 255
201 224 255
201 224 255
201 224 255
201 224 255
201 224 255
201 224 255
201 224 255
201 224 255
201 224 255
201 224 255
201 224 255
201 224 255
201 224 255
201 224 255
201 224 255
200 224 255
200 224 255
200 224 255
200 224 255
200 224 255
200 224 255
200 224 255
200 224 255
200 224 255
200 224 255
200 224 255
200 224 255
200 224 255
200 224 255
200 224 255
200 224 255
200 224 255
200 224 255
200 224 255
200 224 255
200 224 255
200 224 255
200 224 255
200 224 255
200 224 255
200 224 255
200 224 255
200 224 255
200 224 255
200 224 255
200 224 255
200 224 255
200 224 255
200 224 255
200 224 255
200 224 255
200 224 255
200 224 255
200 224 255
200 224 255
200 224 255
200 224 255
200 224 255
200 224 255
200 224 255
200 224 255
200 224 255
200 224 255
200 224 255
200 224 255
200 224 255
200 224 255
200 224 255
200 224 255
200 224 255
200 224 255
200 224 255
200 224 255
200 224 255
200 224 255
200 224 255
200 224 255
200 224 255
200 224 255
200 224 255
200 224 255
200 224 255
200 224 255
200 224 255
200 224 255
200 224 255
200 224 255
200 224 255
200 224 255
200 224 255
200 224 255
201 224 255
201 224 255
201 224 255
201 224 255
201 224 255
201 224 255
201 224 255
201 224 255
201 224 255
201 224 255
201 224 255
201 224 255
201 224 255
201 224 255
201 224 255
201 225 255
201 225 255
201 225 255
201 225 255
201 225 255
202 225 255
202 225 255
202 225 255
202 225 255
202 225 255
202 225 255
202 225 255
202 225 255
202 225 255
202 225 255
202 225 255
202 225 255
202 225 255
202 225 255
202 225 255
202 225 255
202 225 255
203 225 255
203 225 255
203 225 255
203 225 255
203 225 255
203 225 255
203 225 255
203 225 255
203 225 255
203 226 255
203 226 255
203 226 255
203 226 255
203 226 255
203 226 255
203 226 255
204 226 255
204 226 255
204 226 255
204 226 255
204 226 255
204 226 255
204 226 255
204 226 255
204 226 255
204 226 255
204 226 255
204 226 255
204 226 255
204 226 255
204 226 255
204 226 255
205 226 255
205 226 255
205 226 255
205 226 255
205 226 255
205 226 255
205 226 255
205 227 255
205 227 255
205 227 255
205 227 255
205 227 255
205 227 255
205 227 255
205 227 255
205 227 255
206 227 255
206 227 255
206 227 255
206 227 255
206 227 255
206 227 255
206 227 255
206 227 255
206 227 255
206 227 255
206 227 255
206 227 255
206 227 255
206 227 255
206 227 255
206 227 255
206 227 255
207 227 255
207 227 255
207 227 255
207 227 255
207 227 255
207 228 255
207 228 255
207 228 255
207 228 255
207 228 255
207 228 255
207 228 255
207 228 255
207 228 255
207 228 255
207 228 255
207 228 255
207 228 255
207 228 255
208 228 255
208 228 255
208 228 255
208 228 255
208 228 255
208 228 255
208 228 255
208 228 255
208 228 255
208 228 255
208 228 255
208 228 255
208 228 255
208 228 255
208 228 255
208 228 255
208 228 255
208 228 255
208 228 255
208 228 255
209 228 255
209 228 255
209 229 255
209 229 255
209 229 255
209 229 255
209 229 255
209 229 255
209 229 255
209 229 255
209 229 255
209 229 255
209 229 255
209 229 255
209 229 255
209 229 255
209 229 255
209 229 255
209 229 255
209 229 255
209 229 255
210 229 255
209 229 255
209 229 255
209 229 255
209 229 255
209 229 255
209 229 255
209 229 255
209 229 255
209 229 255
209 229 255
209 229 255
209 229 255
209 229 255
209 229 255
209 229 255
209 229 255
209 229 255
209 229 255
209 229 255
209 229 255
209 229 255
209 228 255
209 228 255
208 228 255
208 228 255
208 228 255
208 228 255
208 228 255
208 228 255
208 228 255
208 228 255
208 228 255
208 228 255
208 228 255
208 228 255
208 228 255
208 228 255
208 228 255
208 228 255
208 228 255
208 228 255
208 228 255
208 228 255
207 228 255
207 228 255
207 228 255
207 228 255
207 228 255
207 228 255
207 228 255
207 228 255
207 228 255
207 228 255
207 228 255
207 228 255
207 228 255
207 228 255
207 227 255
207 227 255
207 227 255
207 227 255
207 227 255
206 227 255
206 227 255
206 227 255
206 227 255
206 227 255
206 227 255
206 227 255
206 227 255
206 227 255
206 227 255
206 227 255
206 227 255
206 227 255
206 227 255
206 227 255
206 227 255
206 227 255
205 227 255
205 227 255
205 227 255
205 227 255
205 227 255
205 227 255
205 227 255
205 227 255
205 227 255
205 227 255
205 226 255
205 226 255
205 226 255
205 226 255
205 226 255
205 226 255
204 226 255
204 226 255
204 226 255
204 226 255
204 226 255
204 226 255
204 226 255
204 226 255
204 226 255
204 226 255
204 226 255
204 226 255
204 226 255
204 226 255
204 226 255
204 226 255
203 226 255
203 226 255
203 226 255
203 226 255
203 226 255
203 226 255
203 226 255
203 225 255
203 225 255
203 225 255
203 225 255
203 225 255
203 225 255
203 225 255
203 225 255
203 225 255
202 225 255
202 225 255
202 225 255
202 225 255
202 225 255
202 225 255
202 225 255
202 225 255
202 225 255
202 225 255
202 225 255
202 225 255
202 225 255
202 225 255
202 225 255
202 225 255
202 225 255
202 225 255
201 225 255
201 225 255
201 225 255
201 225 255
201 225 255
201 224 255
201 224 255
201 224 255
201 224 255
201 224 255
201 224 255
201 224 255
201 224 255
201 224 255
201 224 255
201 224 255
201 224 255
201 224 255
201 224 255
201 224 255
201 224 255
200 224 255
200 224 255
200 224 255
200 224 255
200 224 255
200 224 255
200 224 255
200 224 255
200 224 255
200 224 255
200 224 255
200 224 255
200 224 255
200 224 255
200 224 255
200 224 255
200 224 255
200 224 255
200 224 255
200 224 255
200 224 255
200 224 255
200 224 255
200 224 255
200 224 255
200 224 255
200 224 255
200 224 255
200 224 255
200 224 255
200 224 255
200 224 255
200 224 255
200 224 255
200 224 255
200 224 255
200 224 255
200 224 255
200 224 255
200 224 255
200 224 255
200 224 255
200 224 255
200 224 255
200 224 255
200 224 255
200 224 255
200 224 255
200 224 255
200 224 255
200 224 255
200 224 255
200 224 255
200 224 255
200 224 255
200 224 255
200 224 255
200 224 255
200 224 255
200 224 255
200 224 255
200 224 255
200 224 255
200 224 255
200 224 255
200 224 255
201 224 255
201 224 255
201 224 255
201 224 255
201 224 255
201 224 255
201 224 255
201 224 255
201 224 255
201 224 255
201 224 255
201 224 255
201 224 255
201 224 255
201 224 255
201 224 255
201 225 255
201 225 255
201 225 255
201 225 255
201 225 255
201 225 255
202 225 255
202 225 255
202 225 255
202 225 255
202 225 255
202 225 255
202 225 255
202 225 255
202 225 255
202 225 255
202 225 255
202 225 255
202 225 255
202 225 255
202 225 255
202 225 255
202 225 255
203 225 255
203 225 255
203 225 255
203 225 255
203 225 255
203 225 255
203 225 255
203 225 255
203 225 255
203 226 255
203 226 255
203 226 255
203 226 255
203 226 255
203 226 255
203 226 255
204 226 255
204 226 255
204 226 255
204 226 255
204 226 255
204 226 255
204 226 255
204 226 255
204 226 255
204 226 255
204 226 255
204 226 255
204 226 255
204 226 255
204 226 255
204 226 255
205 226 255
205 226 255
205 226 255
205 226 255
205 226 255
205 226 255
205 227 255
205 227 255
205 227 255
205 227 255
205 227 255
205 227 255
205 227 255
205 227 255
205 227 255
205 227 255
206 227 255
206 227 255
206 227 255
206 227 255
206 227 255
206 227 255
206 227 255
206 227 255
206 227 255
206 227 255
206 227 255
206 227 255
206 227 255
206 227 255
206 227 255
206 227 255
206 227 255
207 227 255
207 227 255
207 227 255
207 227 255
207 227 255
207 228 255
207 228 255
207 228 255
207 228 255
207 228 255
207 228 255
207 228 255
207 228 255
207 228 255
207 228 255
207 228 255
207 228 255
207 228 255
207 228 255
208 228 255
208 228 255
208 228 255
208 228 255
208 228 255
208 228 255
208 228 255
208 228 255
208 228 255
208 228 255
208 228 255
208 228 255
208 228 255
208 228 255
208 228 255
208 228 255
208 228 255
208 228 255
208 228 255
208 228 255
209 228 255
209 228 255
209 229 255
209 229 255
209 229 255
209 229 255
209 229 255
209 229 255
209 229 255
209 229 255
209 229 255
209 229 255
209 229 255
209 229 255
209 229 255
209 229 255
209 229 255
209 229 255
209 229 255
209 229 255
209 229 255
209 229 255
209 229 255
210 229 255
210 229 255
210 229 255
210 229 255
210 229 255
210 229 255
209 229 255
209 229 255
209 229 255
209 229 255
209 229 255
209 229 255
209 229 255
209 229 255
209 229 255
209 229 255
209 229 255
209 229 255
209 229 255
209 229 255
209 229 255
209 229 255
209 229 255
209 229 255
209 229 255
209 229 255
209 229 255
209 228 255
209 228 255
208 228 255
208 228 255
208 228 255
208 228 255
208 228 255
208 228 255
208 228 255
208 228 255
208 228 255
208 228 255
208 228 255
208 228 255
208 228 255
208 228 255
208 228 255
208 228 255
208 228 255
208 228 255
208 228 255
207 228 255
207 228 255
207 228 255
207 228 255
207 228 255
207 228 255
207 228 255
207 228 255
207 228 255
207 228 255
207 228 255
207 228 255
207 228 255
207 228 255
207 228 255
207 227 255
207 227 255
207 227 255
207 227 255
206 227 255
206 227 255
206 227 255
206 227 255
206 227 255
206 227 255
206 227 255
206 227 255
206 227 255
206 227 255
206 227 255
206 227 255
206 227 255
206 227 255
206 227 255
206 227 255
206 227 255
205 227 255
205 227 255
205 227 255
205 227 255
205 227 255
205 227 255
205 227 255
205 227 255
205 227 255
205 227 255
205 226 255
205 226 255
205 226 255
205 226 255
205 226 255
205 226 255
204 226 255
204 226 255
204 226 255
204 226 255
204 226 255
204 226 255
204 226 255
204 226 255
204 226 255
204 226 255
204 226 255
204 226 255
204 226 255
204 226 255
204 226 255
204 226 255
203 226 255
203 226 255
203 226 255
203 226 255
203 226 255
203 226 255
203 226 255
203 225 255
203 225 255
203 225 255
203 225 255
203 225 255
203 225 255
203 225 255
203 225 255
203 225 255
203 225 255
202 225 255
202 225 255
202 225 255
202 225 255
202 225 255
202 225 255
202 225 255
202 225 255
202 225 255
202 225 255
202 225 255
202 225 255
202 225 255
202 225 255
202 225 255
202 225 255
202 225 255
202 225 255
201 225 255
201 225 255
201 225 255
201 225 255
201 225 255
201 225 255
201 224 255
201 224 255
201 224 255
201 224 255
201 224 255
201 224 255
201 224 255
201 224 255
201 224 255
201 224 255
201 224 255
201 224 255
201 224 255
201 224 255
201 224 255
201 224 255
201 224 255
201 224 255
200 224 255
200 224 255
200 224 255
200 224 255
200 224 255
200 224 255
200 224 255
200 224 255
200 224 255
200 224 255
200 224 255
200 224 255
200 224 255
200 224 255
200 224 255
200 224 255
200 224 255
200 224 255
200 224 255
200 224 255
200 224 255
200 224 255
200 224 255
200 224 255
200 224 255
200 224 255
200 224 255
200 224 255
200 224 255
200 224 255
200 224 255
200 224 255
200 224 255
200 224 255
200 224 255
200 224 255
200 224 255
200 224 255
200 224 255
200 224 255
200 224 255
200 224 255
200 224 255
200 224 255
200 224 255
200 224 255
200 224 255
200 224 255
200 224 255
200 224 255
200 224 255
200 224 255
200 224 255
201 224 255
201 224 255
201 224 255
201 224 255
201 224 255
201 224 255
201 224 255
201 224 255
201 224 255
201 224 255
201 224 255
201 224 255
201 224 255
201 224 255
201 224 255
201 224 255
201 224 255
201 225 255
201 225 255
201 225 255
201 225 255
201 225 255
201 225 255
202 225 255
202 225 255
202 225 255
202 225 255
202 225 255
202 225 255
202 225 255
202 225 255
202 225 255
202 225 255
202 225 255
202 225 255
202 225 255
202 225 255
202 225 255
202 225 255
202 225 255
202 225 255
203 225 255
203 225 255
203 225 255
203 225 255
203 225 255
203 225 255
203 225 255
203 225 255
203 225 255
203 225 255
203 226 255
203 226 255
203 226 255
203 226 255
203 226 255
203 226 255
203 226 255
204 226 255
204 226 255
204 226 255
204 226 255
204 226 255
204 226 255
204 226 255
204 226 255
204 226 255
204 226 255
204 226 255
204 226 255
204 226 255
204 226 255
204 226 255
204 226 255
205 226 255
205 226 255
205 226 255
205 226 255
205 226 255
205 226 255
205 226 255
205 227 255
205 227 255
205 227 255
205 227 255
205 227 255
205 227 255
205 227 255
205 227 255
205 227 255
206 227 255
206 227 255
206 227 255
206 227 255
206 227 255
206 227 255
206 227 255
206 227 255
206 227 255
206 227 255
206 227 255
206 227 255
206 227 255
206 227 255
206 227 255
206 227 255
206 227 255
207 227 255
207 227 255
207 227 255
207 227 255
207 227 255
207 228 255
207 228 255
207 228 255
207 228 255
207 228 255
207 228 255
207 228 255
207 228 255
207 228 255
207 228 255
207 228 255
207 228 255
207 228 255
207 228 255
208 228 255
208 228 255
208 228 255
208 228 255
208 228 255
208 228 255
208 228 255
208 228 255
208 228 255
208 228 255
208 228 255
208 228 255
208 228 255
208 228 255
208 228 255
208 228 255
208 228 255
208 228 255
208 228 255
208 228 255
209 228 255
209 229 255
209 229 255
209 229 255
209 229 255
209 229 255
209 229 255
209 229 255
209 229 255
209 229 255
209 229 255
209 229 255
209 229 255
209 229 255
209 229 255
209 229 255
209 229 255
209 229 255
209 229 255
209 229 255
209 229 255
209 229 255
210 229 255
210 229 255
210 229 255
210 229 255
210 229 255
210 229 255
210 229 255
210 229 255
210 229 255
210 229 255
210 229 255
210 229 255
210 229 255
209 229 255
209 229 255
209 229 255
209 229 255
209 229 255
209 229 255
209 229 255
209 229 255
209 229 255
209 229 255
209 229 255
209 229 255
209 229 255
209 229 255
209 229 255
209 229 255
209 229 255
209 229 255
209 229 255
209 229 255
209 229 255
209 228 255
209 228 255
208 228 255
208 228 255
208 228 255
208 228 255
208 228 255
208 228 255
208 228 255
208 228 255
208 228 255
208 228 255
208 228 255
208 228 255
208 228 255
208 228 255
208 228 255
208 228 255
208 228 255
208 228 255
208 228 255
208 228 255
207 228 255
207 228 255
207 228 255
207 228 255
207 228 255
207 228 255
207 228 255
207 228 255
207 228 255
207 228 255
207 228 255
207 228 255
207 228 255
207 228 255
207 227 255
207 227 255
207 227 255
207 227 255
206 227 255
206 227 255
206 227 255
206 227 255
206 227 255
206 227 255
206 227 255
206 227 255
206 227 255
206 227 255
206 227 255
206 227 255
206 227 255
206 227 255
206 227 255
206 227 255
206 227 255
205 227 255
205 227 255
205 227 255
205 227 255
205 227 255
205 227 255
205 227 255
205 227 255
205 227 255
205 227 255
205 226 255
205 226 255
205 226 255
205 226 255
205 226 255
205 226 255
204 226 255
204 226 255
204 226 255
204 226 255
204 226 255
204 226 255
204 226 255
204 226 255
204 226 255
204 226 255
204 226 255
204 226 255
204 226 255
204 226 255
204 226 255
204 226 255
203 226 255
203 226 255
203 226 255
203 226 255
203 226 255
203 226 255
203 226 255
203 226 255
203 225 255
203 225 255
203 225 255
203 225 255
203 225 255
203 225 255
203 225 255
203 225 255
203 225 255
202 225 255
202 225 255
202 225 255
202 225 255
202 225 255
202 225 255
202 225 255
202 225 255
202 225 255
202 225 255
202 225 255
202 225 255
202 225 255
202 225 255
202 225 255
202 225 255
202 225 255
202 225 255
202 225 255
201 225 255
201 225 255
201 225 255
201 225 255
201 225 255
201 225 255
201 224 255
201 224 255
201 224 255
201 224 255
201 224 255
201 224 255
201 224 255
201 224 255
201 224 255
201 224 255
201 224 255
201 224 255
201 224 255
201 224 255
201 224 255
201 224 255
201 224 255
201 224 255
201 224 255
201 224 255
201 224 255
200 224 255
200 224 255
200 224 255
200 224 255
200 224 255
200 224 255
200 224 255
200 224 255
200 224 255
200 224 255
200 224 255
200 224 255
200 224 255
200 224 255
200 224 255
200 224 255
200 224 255
200 224 255
200 224 255
200 224 255
200 224 255
200 224 255
200 224 255
200 224 255
200 224 255
200 224 255
200 224 255
200 224 255
200 224 255
200 224 255
200 224 255
200 224 255
200 224 255
200 224 255
200 224 255
200 224 255
200 224 255
201 224 255
201 224 255
201 224 255
201 224 255
201 224 255
201 224 255
201 224 255
201 224 255
201 224 255
201 224 255
201 224 255
201 224 255
201 224 255
201 224 255
201 224 255
201 224 255
201 224 255
201 224 255
201 224 255
201 224 255
201 224 255
201 224 255
201 225 255
201 225 255
201 225 255
201 225 255
201 225 255
201 225 255
202 225 255
202 225 255
202 225 255
202 225 255
202 225 255
202 225 255
202 225 255
202 225 255
202 225 255
202 225 255
202 225 255
202 225 255
202 225 255
202 225 255
202 225 255
202 225 255
202 225 255
202 225 255
202 225 255
203 225 255
203 225 255
203 225 255
203 225 255
203 225 255
203 225 255
203 225 255
203 225 255
203 225 255
203 226 255
203 226 255
203 226 255
203 226 255
203 226 255
203 226 255
203 226 255
203 226 255
204 226 255
204 226 255
204 226 255
204 226 255
204 226 255
204 226 255
204 226 255
204 226 255
204 226 255
204 226 255
204 226 255
204 226 255
204 226 255
204 226 255
204 226 255
204 226 255
205 226 255
205 226 255
205 226 255
205 226 255
205 226 255
205 226 255
205 227 255
205 227 255
205 227 255
205 227 255
205 227 255
205 227 255
205 227 255
205 227 255
205 227 255
205 227 255
206 227 255
206 227 255
206 227 255
206 227 255
206 227 255
206 227 255
206 227 255
206 227 255
206 227 255
206 227 255
206 227 255
206 227 255
206 227 255
206 227 255
206 227 255
206 227 255
206 227 255
207 227 255
207 227 255
207 227 255
207 227 255
207 228 255
207 228 255
207 228 255
207 228 255
207 228 255
207 228 255
207 228 255
207 228 255
207 228 255
207 228 255
207 228 255
207 228 255
207 228 255
207 228 255
207 228 255
208 228 255
208 228 255
208 228 255
208 228 255
208 228 255
208 228 255
208 228 255
208 228 255
208 228 255
208 228 255
208 228 255
208 228 255
208 228 255
208 228 255
208 228 255
208 228 255
208 228 255
208 228 255
208 228 255
209 228 255
209 228 255
209 229 255
209 229 255
209 229 255
209 229 255
209 229 255
209 229 255
209 229 255
209 229 255
209 229 255
209 229 255
209 229 255
209 229 255
209 229 255
209 229 255
209 229 255
209 229 255
209 229 255
209 229 255
209 229 255
209 229 255
209 229 255
210 229 255
210 229 255
210 229 255
210 229 255
210 229 255
210 229 255
210 229 255
210 229 255
210 229 255
210 229 255
210 229 255
210 229 255
210 229 255
210 229 255
210 229 255
210 229 255
210 229 255
210 229 255
210 229 255
210 229 255
209 229 255
209 229 255
209 229 255
209 229 255
209 229 255
209 229 255
209 229 255
209 229 255
209 229 255
209 229 255
209 229 255
209 229 255
209 229 255
209 229 255
209 229 255
209 229 255
209 229 255
209 229 255
209 229 255
209 229 255
209 229 255
209 228 255
208 228 255
208 228 255
208 228 255
208 228 255
208 228 255
208 228 255
208 228 255
208 228 255
208 228 255
208 228 255
208 228 255
208 228 255
208 228 255
208 228 255
208 228 255
208 228 255
208 228 255
208 228 255
208 228 255
208 228 255
207 228 255
207 228 255
207 228 255
207 228 255
207 228 255
207 228 255
207 228 255
207 228 255
207 228 255
207 228 255
207 228 255
207 228 255
207 228 255
207 228 255
207 227 255
207 227 255
207 227 255
207 227 255
206 227 255
206 227 255
206 227 255
206 227 255
206 227 255
206 227 255
206 227 255
206 227 255
206 227 255
206 227 255
206 227 255
206 227 255
206 227 255
206 227 255
206 227 255
206 227 255
206 227 255
205 227 255
205 227 255
205 227 255
205 227 255
205 227 255
205 227 255
205 227 255
205 227 255
205 227 255
205 227 255
205 226 255
205 226 255
205 226 255
205 226 255
205 226 255
205 226 255
204 226 255
204 226 255
204 226 255
204 226 255
204 226 255
204 226 255
204 226 255
204 226 255
204 226 255
204 226 255
204 226 255
204 226 255
204 226 255
204 226 255
204 226 255
204 226 255
204 226 255
203 226 255
203 226 255
203 226 255
203 226 255
203 226 255
203 226 255
203 226 255
203 225 255
203 225 255
203 225 255
203 225 255
203 225 255
203 225 255
203 225 255
203 225 255
203 225 255
203 225 255
202 225 255
202 225 255
202 225 255
202 225 255
202 225 255
202 225 255
202 225 255
202 225 255
202 225 255
202 225 255
202 225 255
202 225 255
202 225 255
202 225 255
202 225 255
202 225 255
202 225 255
202 225 255
202 225 255
202 225 255
201 225 255
201 225 255
201 225 255
201 225 255
201 225 255
201 225 255
201 224 255
201 224 255
201 224 255
201 224 255
201 224 255
201 224 255
201 224 255
201 224 255
201 224 255
201 224 255
201 224 255
201 224 255
201 224 255
201 224 255
201 224 255
201 224 255
201 224 255
201 224 255
201 224 255
201 224 255
201 224 255
201 224 255
201 224 255
201 224 255
201 224 255
201 224 255
201 224 255
201 224 255
201 224 255
201 224 255
201 224 255
201 224 255
201 224 255
201 224 255
201 224 255
201 224 255
201 224 255
201 224 255
201 224 255
201 224 255
201 224 255
201 224 255
201 224 255
201 224 255
201 224 255
201 224 255
201 224 255
201 224 255
201 224 255
201 224 255
201 224 255
201 224 255
201 224 255
201 224 255
201 224 255
201 224 255
201 224 255
201 224 255
201 224 255
201 224 255
201 224 255
201 224 255
201 224 255
201 224 255
201 224 255
201 224 255
201 224 255
201 224 255
201 224 255
201 225 255
201 225 255
201 225 255
201 225 255
201 225 255
201 225 255
201 225 255
202 225 255
202 225 255
202 225 255
202 225 255
202 225 255
202 225 255
202 225 255
202 225 255
202 225 255
202 225 255
202 225 255
202 225 255
202 225 255
202 225 255
202 225 255
202 225 255
202 225 255
202 225 255
202 225 255
202 225 255
203 225 255
203 225 255
203 225 255
203 225 255
203 225 255
203 225 255
203 225 255
203 225 255
203 225 255
203 225 255
203 226 255
203 226 255
203 226 255
203 226 255
203 226 255
203 226 255
203 226 255
204 226 255
204 226 255
204 226 255
204 226 255
204 226 255
204 226 255
204 226 255
204 226 255
204 226 255
204 226 255
204 226 255
204 226 255
204 226 255
204 226 255
204 226 255
204 226 255
204 226 255
205 226 255
205 226 255
205 226 255
205 226 255
205 226 255
205 226 255
205 227 255
205 227 255
205 227 255
205 227 255
205 227 255
205 227 255
205 227 255
205 227 255
205 227 255
205 227 255
206 227 255
206 227 255
206 227 255
206 227 255
206 227 255
206 227 255
206 227 255
206 227 255
206 227 255
206 227 255
206 227 255
206 227 255
206 227 255
206 227 255
206 227 255
206 227 255
206 227 255
207 227 255
207 227 255
207 227 255
207 227 255
207 228 255
207 228 255
207 228 255
207 228 255
207 228 255
207 228 255
207 228 255
207 228 255
207 228 255
207 228 255
207 228 255
207 228 255
207 228 255
207 228 255
208 228 255
208 228 255
208 228 255
208 228 255
208 228 255
208 228 255
208 228 255
208 228 255
208 228 255
208 228 255
208 228 255
208 228 255
208 228 255
208 228 255
208 228 255
208 228 255
208 228 255
208 228 255
208 228 255
208 228 255
209 228 255
209 229 255
209 229 255
209 229 255
209 229 255
209 229 255
209 229 255
209 229 255
209 229 255
209 229 255
209 229 255
209 229 255
209 229 255
209 229 255
209 229 255
209 229 255
209 229 255
209 229 255
209 229 255
209 229 255
209 229 255
209 229 255
210 229 255
210 229 255
210 229 255
210 229 255
210 229 255
210 229 255
210 229 255
210 229 255
210 229 255
210 229 255
210 229 255
210 229 255
210 229 255
210 229 255
210 229 255
210 229 255
210 229 255
210 229 255
210 229 255
210 229 255
210 229 255
210 229 255
210 229 255
210 229 255
210 229 255
210 229 255
210 229 255
210 229 255
209 229 255
209 229 255
209 229 255
209 229 255
209 229 255
209 229 255
209 229 255
209 229 255
209 229 255
209 229 255
209 229 255
209 229 255
209 229 255
209 229 255
209 229 255
209 229 255
209 229 255
209 229 255
209 229 255
209 229 255
209 228 255
209 228 255
208 228 255
208 228 255
208 228 255
208 228 255
208 228 255
208 228 255
208 228 255
208 228 255
208 228 255
208 228 255
208 228 255
208 228 255
208 228 255
208 228 255
208 228 255
208 228 255
208 228 255
208 228 255
208 228 255
207 228 255
207 228 255
207 228 255
207 228 255
207 228 255
207 228 255
207 228 255
207 228 255
207 228 255
207 228 255
207 228 255
207 228 255
207 228 255
207 228 255
207 227 255
207 227 255
207 227 255
207 227 255
206 227 255
206 227 255
206 227 255
206 227 255
206 227 255
206 227 255
206 227 255
206 227 255
206 227 255
206 227 255
206 227 255
206 227 255
206 227 255
206 227 255
206 227 255
206 227 255
206 227 255
205 227 255
205 227 255
205 227 255
205 227 255
205 227 255
205 227 255
205 227 255
205 227 255
205 227 255
205 227 255
205 226 255
205 226 255
205 226 255
205 226 255
205 226 255
205 226 255
204 226 255
204 226 255
204 226 255
204 226 255
204 226 255
204 226 255
204 226 255
204 226 255
204 226 255
204 226 255
204 226 255
204 226 255
204 226 255
204 226 255
204 226 255
204 226 255
204 226 255
203 226 255
203 226 255
203 226 255
203 226 255
203 226 255
203 226 255
203 226 255
203 226 255
203 225 255
203 225 255
203 225 255
203 225 255
203 225 255
203 225 255
203 225 255
203 225 255
203 225 255
202 225 255
202 225 255
202 225 255
202 225 255
202 225 255
202 225 255
202 225 255
202 225 255
202 225 255
202 225 255
202 225 255
202 225 255
202 225 255
202 225 255
202 225 255
202 225 255
202 225 255
202 225 255
202 225 255
202 225 255
202 225 255
202 225 255
201 225 255
201 225 255
201 225 255
201 225 255
201 225 255
201 225 255
201 225 255
201 225 255
201 224 255
201 224 255
201 224 255
201 224 255
201 224 255
201 224 255
201 224 255
201 224 255
201 224 255
201 224 255
201 224 255
201 224 255
201 224 255
201 224 255
201 224 255
201 224 255
201 224 255
201 224 255
201 224 255
201 224 255
201 224 255
201 224 255
201 224 255
201 224 255
201 224 255
201 224 255
201 224 255
201 224 255
201 224 255
201 224 255
201 224 255
201 224 255
201 224 255
201 224 255
201 224 255
201 224 255
201 224 255
201 224 255
201 224 255
201 224 255
201 224 255
201 224 255
201 224 255
201 224 255
201 224 255
201 224 255
201 224 255
201 224 255
201 224 255
201 224 255
201 224 255
201 224 255
201 224 255
201 224 255
201 224 255
201 224 255
201 225 255
201 225 255
201 225 255
201 225 255
201 225 255
201 225 255
201 225 255
201 225 255
202 225 255
202 225 255
202 225 255
202 225 255
202 225 255
202 225 255
202 225 255
202 225 255
202 225 255
202 225 255
202 225 255
202 225 255
202 225 255
202 225 255
202 225 255
202 225 255
202 225 255
202 225 255
202 225 255
202 225 255
202 225 255
203 225 255
203 225 255
203 225 255
203 225 255
203 225 255
203 225 255
203 225 255
203 225 255
203 225 255
203 225 255
203 226 255
203 226 255
203 226 255
203 226 255
203 226 255
203 226 255
203 226 255
203 226 255
204 226 255
204 226 255
204 226 255
204 226 255
204 226 255
204 226 255
204 226 255
204 226 255
204 226 255
204 226 255
204 226 255
204 226 255
204 226 255
204 226 255
204 226 255
204 226 255
205 226 255
205 226 255
205 226 255
205 226 255
205 226 255
205 226 255
205 226 255
205 227 255
205 227 255
205 227 255
205 227 255
205 227 255
205 227 255
205 227 255
205 227 255
205 227 255
205 227 255
206 227 255
206 227 255
206 227 255
206 227 255
206 227 255
206 227 255
206 227 255
206 227 255
206 227 255
206 227 255
206 227 255
206 227 255
206 227 255
206 227 255
206 227 255
206 227 255
206 227 255
207 227 255
207 227 255
207 227 255
207 227 255
207 228 255
207 228 255
207 228 255
207 228 255
207 228 255
207 228 255
207 228 255
207 228 255
207 228 255
207 228 255
207 228 255
207 228 255
207 228 255
207 228 255
208 228 255
208 228 255
208 228 255
208 228 255
208 228 255
208 228 255
208 228 255
208 228 255
208 228 255
208 228 255
208 228 255
208 228 255
208 228 255
208 228 255
208 228 255
208 228 255
208 228 255
208 228 255
208 228 255
208 228 255
209 228 255
209 229 255
209 229 255
209 229 255
209 229 255
209 229 255
209 229 255
209 229 255
209 229 255
209 229 255
209 229 255
209 229 255
209 229 255
209 229 255
209 229 255
209 229 255
209 229 255
209 229 255
209 229 255
209 229 255
209 229 255
210 229 255
210 229 255
210 229 255
210 229 255
210 229 255
210 229 255
210 229 255
210 229 255
210 229 255
210 229 255
210 229 255
210 229 255
210 229 255
210 229 255
210 229 255
210 229 255
210 229 255
210 229 255
210 229 255
210 229 255
210 229 255
210 229 255
210 229 255
210 229 255
210 229 255
210 229 255
210 229 255
210 229 255
210 229 255
210 229 255
210 229 255
210 229 255
210 229 255
210 229 255
210 229 255
210 229 255
209 229 255
209 229 255
209 229 255
209 229 255
209 229 255
209 229 255
209 229 255
209 229 255
209 229 255
209 229 255
209 229 255
209 229 255
209 229 255
209 229 255
209 229 255
209 229 255
209 229 255
209 229 255
209 229 255
209 228 255
209 228 255
208 228 255
208 228 255
208 228 255
208 228 255
208 228 255
208 228 255
208 228 255
208 228 255
208 228 255
208 228 255
208 228 255
208 228 255
208 228 255
208 228 255
208 228 255
208 228 255
208 228 255
208 228 255
208 228 255
208 228 255
207 228 255
207 228 255
207 228 255
207 228 255
207 228 255
207 228 255
207 228 255
207 228 255
207 228 255
207 228 255
207 228 255
207 228 255
207 228 255
207 227 255
207 227 255
207 227 255
207 227 255
207 227 255
206 227 255
206 227 255
206 227 255
206 227 255
206 227 255
206 227 255
206 227 255
206 227 255
206 227 255
206 227 255
206 227 255
206 227 255
206 227 255
206 227 255
206 227 255
206 227 255
205 227 255
205 227 255
205 227 255
205 227 255
205 227 255
205 227 255
205 227 255
205 227 255
205 227 255
205 227 255
205 227 255
205 226 255
205 226 255
205 226 255
205 226 255
205 226 255
205 226 255
204 226 255
204 226 255
204 226 255
204 226 255
204 226 255
204 226 255
204 226 255
204 226 255
204 226 255
204 226 255
204 226 255
204 226 255
204 226 255
204 226 255
204 226 255
204 226 255
204 226 255
203 226 255
203 226 255
203 226 255
203 226 255
203 226 255
203 226 255
203 226 255
203 225 255
203 225 255
203 225 255
203 225 255
203 225 255
203 225 255
203 225 255
203 225 255
203 225 255
203 225 255
203 225 255
202 225 255
202 225 255
202 225 255
202 225 255
202 225 255
202 225 255
202 225 255
202 225 255
202 225 255
202 225 255
202 225 255
202 225 255
202 225 255
202 225 255
202 225 255
202 225 255
202 225 255
202 225 255
202 225 255
202 225 255
202 225 255
202 225 255
202 225 255
201 225 255
201 225 255
201 225 255
201 225 255
201 225 255
201 225 255
201 225 255
201 225 255
201 225 255
201 225 255
201 224 255
201 224 255
201 224 255
201 224 255
201 224 255
201 224 255
201 224 255
201 224 255
201 224 255
201 224 255
201 224 255
201 224 255
201 224 255
201 224 255
201 224 255
201 224 255
201 224 255
201 224 255
201 224 255
201 224 255
201 224 255
201 224 255
201 224 255
201 224 255
201 224 255
201 224 255
201 224 255
201 224 255
201 224 255
201 224 255
201 224 255
201 224 255
201 224 255
201 224 255
201 224 255
201 224 255
201 224 255
201 224 255
201 224 255
201 224 255
201 225 255
201 225 255
201 225 255
201 225 255
201 225 255
201 225 255
201 225 255
201 225 255
201 225 255
201 225 255
202 225 255
202 225 255
202 225 255
202 225 255
202 225 255
202 225 255
202 225 255
202 225 255
202 225 255
202 225 255
202 225 255
202 225 255
202 225 255
202 225 255
202 225 255
202 225 255
202 225 255
202 225 255
202 225 255
202 225 255
202 225 255
202 225 255
202 225 255
203 225 255
203 225 255
203 225 255
203 225 255
203 225 255
203 225 255
203 225 255
203 225 255
203 225 255
203 225 255
203 225 255
203 226 255
203 226 255
203 226 255
203 226 255
203 226 255
203 226 255
203 226 255
204 226 255
204 226 255
204 226 255
204 226 255
204 226 255
204 226 255
204 226 255
204 226 255
204 226 255
204 226 255
204 226 255
204 226 255
204 226 255
204 226 255
204 226 255
204 226 255
204 226 255
205 226 255
205 226 255
205 226 255
205 226 255
205 226 255
205 226 255
205 226 255
205 227 255
205 227 255
205 227 255
205 227 255
205 227 255
205 227 255
205 227 255
205 227 255
205 227 255
206 227 255
206 227 255
206 227 255
206 227 255
206 227 255
206 227 255
206 227 255
206 227 255
206 227 255
206 227 255
206 227 255
206 227 255
206 227 255
206 227 255
206 227 255
206 227 255
206 227 255
207 227 255
207 227 255
207 227 255
207 227 255
207 227 255
207 228 255
207 228 255
207 228 255
207 228 255
207 228 255
207 228 255
207 228 255
207 228 255
207 228 255
207 228 255
207 228 255
207 228 255
207 228 255
208 228 255
208 228 255
208 228 255
208 228 255
208 228 255
208 228 255
208 228 255
208 228 255
208 228 255
208 228 255
208 228 255
208 228 255
208 228 255
208 228 255
208 228 255
208 228 255
208 228 255
208 228 255
208 228 255
208 228 255
209 228 255
209 229 255
209 229 255
209 229 255
209 229 255
209 229 255
209 229 255
209 229 255
209 229 255
209 229 255
209 229 255
209 229 255
209 229 255
209 229 255
209 229 255
209 229 255
209 229 255
209 229 255
209 229 255
209 229 255
209 229 255
209 229 255
210 229 255
210 229 255
210 229 255
210 229 255
210 229 255
210 229 255
210 229 255
210 229 255
210 229 255
210 229 255
210 229 255
210 229 255
210 229 255
210 229 255
210 229 255
210 229 255
210 229 255
210 229 255
210 229 255
210 230 255
210 229 255
210 229 255
210 229 255
210 229 255
210 229 255
210 229 255
210 229 255
210 229 255
210 229 255
210 229 255
210 229 255
210 229 255
210 229 255
210 229 255
210 229 255
210 229 255
210 229 255
210 229 255
210 229 255
210 229 255
210 229 255
210 229 255
209 229 255
209 229 255
209 229 255
209 229 255
209 229 255
209 229 255
209 229 255
209 229 255
209 229 255
209 229 255
209 229 255
209 229 255
209 229 255
209 229 255
209 229 255
209 229 255
209 229 255
209 229 255
209 229 255
209 229 255
209 228 255
208 228 255
208 228 255
208 228 255
208 228 255
208 228 255
208 228 255
208 228 255
208 228 255
208 228 255
208 228 255
208 228 255
208 228 255
208 228 255
208 228 255
208 228 255
208 228 255
208 228 255
208 228 255
208 228 255
208 228 255
207 228 255
207 228 255
207 228 255
207 228 255
207 228 255
207 228 255
207 228 255
207 228 255
207 228 255
207 228 255
207 228 255
207 228 255
207 228 255
207 228 255
207 227 255
207 227 255
207 227 255
207 227 255
206 227 255
206 227 255
206 227 255
206 227 255
206 227 255
206 227 255
206 227 255
206 227 255
206 227 255
206 227 255
206 227 255
206 227 255
206 227 255
206 227 255
206 227 255
206 227 255
206 227 255
205 227 255
205 227 255
205 227 255
205 227 255
205 227 255
205 227 255
205 227 255
205 227 255
205 227 255
205 227 255
205 226 255
205 226 255
205 226 255
205 226 255
205 226 255
205 226 255
205 226 255
204 226 255
204 226 255
204 226 255
204 226 255
204 226 255
204 226 255
204 226 255
204 226 255
204 226 255
204 226 255
204 226 255
204 226 255
204 226 255
204 226 255
204 226 255
204 226 255
203 226 255
203 226 255
203 226 255
203 226 255
203 226 255
203 226 255
203 226 255
203 226 255
203 226 255
203 225 255
203 225 255
203 225 255
203 225 255
203 225 255
203 225 255
203 225 255
203 225 255
203 225 255
203 225 255
202 225 255
202 225 255
202 225 255
202 225 255
202 225 255
202 225 255
202 225 255
202 225 255
202 225 255
202 225 255
202 225 255
202 225 255
202 225 255
202 225 255
202 225 255
202 225 255
202 225 255
202 225 255
202 225 255
202 225 255
202 225 255
202 225 255
202 225 255
202 225 255
202 225 255
202 225 255
201 225 255
201 225 255
201 225 255
201 225 255
201 225 255
201 225 255
201 225 255
201 225 255
201 225 255
201 225 255
201 225 255
201 225 255
201 225 255
201 225 255
201 225 255
201 225 255
201 225 255
201 225 255
201 224 255
201 225 255
201 224 255
201 224 255
201 224 255
201 224 255
201 224 255
201 224 255
201 224 255
201 224 255
201 224 255
201 225 255
201 225 255
201 225 255
201 225 255
201 225 255
201 225 255
201 225 255
201 225 255
201 225 255
201 225 255
201 225 255
201 225 255
201 225 255
201 225 255
201 225 255
201 225 255
201 225 255
202 225 255
202 225 255
202 225 255
202 225 255
202 225 255
202 225 255
202 225 255
202 225 255
202 225 255
202 225 255
202 225 255
202 225 255
202 225 255
202 225 255
202 225 255
202 225 255
202 225 255
202 225 255
202 225 255
202 225 255
202 225 255
202 225 255
202 225 255
202 225 255
202 225 255
202 225 255
203 225 255
203 225 255
203 225 255
203 225 255
203 225 255
203 225 255
203 225 255
203 225 255
203 225 255
203 225 255
203 225 255
203 226 255
203 226 255
203 226 255
203 226 255
203 226 255
203 226 255
203 226 255
203 226 255
204 226 255
204 226 255
204 226 255
204 226 255
204 226 255
204 226 255
204 226 255
204 226 255
204 226 255
204 226 255
204 226 255
204 226 255
204 226 255
204 226 255
204 226 255
204 226 255
205 226 255
205 226 255
205 226 255
205 226 255
205 226 255
205 226 255
205 226 255
205 227 255
205 227 255
205 227 255
205 227 255
205 227 255
205 227 255
205 227 255
205 227 255
205 227 255
205 227 255
206 227 255
206 227 255
206 227 255
206 227 255
206 227 255
206 227 255
206 227 255
206 227 255
206 227 255
206 227 255
206 227 255
206 227 255
206 227 255
206 227 255
206 227 255
206 227 255
206 227 255
207 227 255
207 227 255
207 227 255
207 227 255
207 228 255
207 228 255
207 228 255
207 228 255
207 228 255
207 228 255
207 228 255
207 228 255
207 228 255
207 228 255
207 228 255
207 228 255
207 228 255
207 228 255
208 228 255
208 228 255
208 228 255
208 228 255
208 228 255
208 228 255
208 228 255
208 228 255
208 228 255
208 228 255
208 228 255
208 228 255
208 228 255
208 228 255
208 228 255
208 228 255
208 228 255
208 228 255
208 228 255
208 228 255
209 228 255
209 229 255
209 229 255
209 229 255
209 229 255
209 229 255
209 229 255
209 229 255
209 229 255
209 229 255
209 229 255
209 229 255
209 229 255
209 229 255
209 229 255
209 229 255
209 229 255
209 229 255
209 229 255
209 229 255
209 229 255
210 229 255
210 229 255
210 229 255
210 229 255
210 229 255
210 229 255
210 229 255
210 229 255
210 229 255
210 229 255
210 229 255
210 229 255
210 229 255
210 229 255
210 229 255
210 229 255
210 229 255
210 229 255
210 229 255
210 229 255
210 229 255
210 229 255
210 230 255
211 230 255
211 230 255
210 230 255
210 230 255
210 230 255
210 229 255
210 229 255
210 229 255
210 229 255
210 229 255
210 229 255
210 229 255
210 229 255
210 229 255
210 229 255
210 229 255
210 229 255
210 229 255
210 229 255
210 229 255
210 229 255
210 229 255
210 229 255
210 229 255
210 229 255
210 229 255
210 229 255
209 229 255
209 229 255
209 229 255
209 229 255
209 229 255
209 229 255
209 229 255
209 229 255
209 229 255
209 229 255
209 229 255
209 229 255
209 229 255
209 229 255
209 229 255
209 229 255
209 229 255
209 229 255
209 229 255
209 228 255
209 228 255
208 228 255
208 228 255
208 228 255
208 228 255
208 228 255
208 228 255
208 228 255
208 228 255
208 228 255
208 228 255
208 228 255
208 228 255
208 228 255
208 228 255
208 228 255
208 228 255
208 228 255
208 228 255
208 228 255
207 228 255
207 228 255
207 228 255
207 228 255
207 228 255
207 228 255
207 228 255
207 228 255
207 228 255
207 228 255
207 228 255
207 228 255
207 228 255
207 228 255
207 227 255
207 227 255
207 227 255
207 227 255
206 227 255
206 227 255
206 227 255
206 227 255
206 227 255
206 227 255
206 227 255
206 227 255
206 227 255
206 227 255
206 227 255
206 227 255
206 227 255
206 227 255
206 227 255
206 227 255
206 227 255
205 227 255
205 227 255
205 227 255
205 227 255
205 227 255
205 227 255
205 227 255
205 227 255
205 227 255
205 227 255
205 226 255
205 226 255
205 226 255
205 226 255
205 226 255
205 226 255
205 226 255
204 226 255
204 226 255
204 226 255
204 226 255
204 226 255
204 226 255
204 226 255
204 226 255
204 226 255
204 226 255
204 226 255
204 226 255
204 226 255
204 226 255
204 226 255
204 226 255
204 226 255
203 226 255
203 226 255
203 226 255
203 226 255
203 226 255
203 226 255
203 226 255
203 226 255
203 225 255
203 225 255
203 225 255
203 225 255
203 225 255
203 225 255
203 225 255
203 225 255
203 225 255
203 225 255
203 225 255
203 225 255
202 225 255
202 225 255
202 225 255
202 225 255
202 225 255
202 225 255
202 225 255
202 225 255
202 225 255
202 225 255
202 225 255
202 225 255
202 225 255
202 225 255
202 225 255
202 225 255
202 225 255
202 225 255
202 225 255
202 225 255
202 225 255
202 225 255
202 225 255
202 225 255
202 225 255
202 225 255
202 225 255
202 225 255
202 225 255
202 225 255
202 225 255
202 225 255
201 225 255
201 225 255
201 225 255
201 225 255
201 225 255
201 225 255
201 225 255
201 225 255
201 225 255
201 225 255
201 225 255
201 225 255
201 225 255
201 225 255
201 225 255
201 225 255
201 225 255
201 225 255
201 225 255
201 225 255
201 225 255
201 225 255
201 225 255
201 225 255
202 225 255
202 225 255
202 225 255
202 225 255
202 225 255
202 225 255
202 225 255
202 225 255
202 225 255
202 225 255
202 225 255
202 225 255
202 225 255
202 225 255
202 225 255
202 225 255
202 225 255
202 225 255
202 225 255
202 225 255
202 225 255
202 225 255
202 225 255
202 225 255
202 225 255
202 225 255
202 225 255
202 225 255
202 225 255
202 225 255
202 225 255
202 225 255
203 225 255
203 225 255
203 225 255
203 225 255
203 225 255
203 225 255
203 225 255
203 225 255
203 225 255
203 225 255
203 225 255
203 225 255
203 226 255
203 226 255
203 226 255
203 226 255
203 226 255
203 226 255
203 226 255
203 226 255
204 226 255
204 226 255
204 226 255
204 226 255
204 226 255
204 226 255
204 226 255
204 226 255
204 226 255
204 226 255
204 226 255
204 226 255
204 226 255
204 226 255
204 226 255
204 226 255
204 226 255
205 226 255
205 226 255
205 226 255
205 226 255
205 226 255
205 226 255
205 226 255
205 227 255
205 227 255
205 227 255
205 227 255
205 227 255
205 227 255
205 227 255
205 227 255
205 227 255
205 227 255
206 227 255
206 227 255
206 227 255
206 227 255
206 227 255
206 227 255
206 227 255
206 227 255
206 227 255
206 227 255
206 227 255
206 227 255
206 227 255
206 227 255
206 227 255
206 227 255
206 227 255
207 227 255
207 227 255
207 227 255
207 227 255
207 228 255
207 228 255
207 228 255
207 228 255
207 228 255
207 228 255
207 228 255
207 228 255
207 228 255
207 228 255
207 228 255
207 228 255
207 228 255
207 228 255
208 228 255
208 228 255
208 228 255
208 228 255
208 228 255
208 228 255
208 228 255
208 228 255
208 228 255
208 228 255
208 228 255
208 228 255
208 228 255
208 228 255
208 228 255
208 228 255
208 228 255
208 228 255
208 228 255
209 228 255
209 228 255
209 229 255
209 229 255
209 229 255
209 229 255
209 229 255
209 229 255
209 229 255
209 229 255
209 229 255
209 229 255
209 229 255
209 229 255
209 229 255
209 229 255
209 229 255
209 229 255
209 229 255
209 229 255
209 229 255
210 229 255
210 229 255
210 229 255
210 229 255
210 229 255
210 229 255
210 229 255
210 229 255
210 229 255
210 229 255
210 229 255
210 229 255
210 229 255
210 229 255
210 229 255
210 229 255
210 229 255
210 229 255
210 229 255
210 229 255
210 229 255
210 229 255
210 230 255
210 230 255
210 230 255
211 230 255
211 230 255
211 230 255
211 230 255
211 230 255
211 230 255
211 230 255
211 230 255
210 230 255
210 230 255
210 230 255
210 229 255
210 229 255
210 229 255
210 229 255
210 229 255
210 229 255
210 229 255
210 229 255
210 229 255
210 229 255
210 229 255
210 229 255
210 229 255
210 229 255
210 229 255
210 229 255
210 229 255
210 229 255
210 229 255
210 229 255
210 229 255
209 229 255
209 229 255
209 229 255
209 229 255
209 229 255
209 229 255
209 229 255
209 229 255
209 229 255
209 229 255
209 229 255
209 229 255
209 229 255
209 229 255
209 229 255
209 229 255
209 229 255
209 229 255
209 229 255
209 229 255
209 228 255
208 228 255
208 228 255
208 228 255
208 228 255
208 228 255
208 228 255
208 228 255
208 228 255
208 228 255
208 228 255
208 228 255
208 228 255
208 228 255
208 228 255
208 228 255
208 228 255
208 228 255
208 228 255
208 228 255
208 228 255
207 228 255
207 228 255
207 228 255
207 228 255
207 228 255
207 228 255
207 228 255
207 228 255
207 228 255
207 228 255
207 228 255
207 228 255
207 228 255
207 227 255
207 227 255
207 227 255
207 227 255
207 227 255
206 227 255
206 227 255
206 227 255
206 227 255
206 227 255
206 227 255
206 227 255
206 227 255
206 227 255
206 227 255
206 227 255
206 227 255
206 227 255
206 227 255
206 227 255
206 227 255
206 227 255
205 227 255
205 227 255
205 227 255
205 227 255
205 227 255
205 227 255
205 227 255
205 227 255
205 227 255
205 226 255
205 226 255
205 226 255
205 226 255
205 226 255
205 226 255
205 226 255
205 226 255
204 226 255
204 226 255
204 226 255
204 226 255
204 226 255
204 226 255
204 226 255
204 226 255
204 226 255
204 226 255
204 226 255
204 226 255
204 226 255
204 226 255
204 226 255
204 226 255
204 226 255
203 226 255
203 226 255
203 226 255
203 226 255
203 226 255
203 226 255
203 226 255
203 226 255
203 226 255
203 225 255
203 225 255
203 225 255
203 225 255
203 225 255
203 225 255
203 225 255
203 225 255
203 225 255
203 225 255
203 225 255
203 225 255
202 225 255
202 225 255
202 225 255
202 225 255
202 225 255
202 225 255
202 225 255
202 225 255
202 225 255
202 225 255
202 225 255
202 225 255
202 225 255
202 225 255
202 225 255
202 225 255
202 225 255
202 225 255
202 225 255
202 225 255
202 225 255
202 225 255
202 225 255
202 225 255
202 225 255
202 225 255
202 225 255
202 225 255
202 225 255
202 225 255
202 225 255
202 225 255
202 225 255
202 225 255
202 225 255
202 225 255
202 225 255
202 225 255
202 225 255
202 225 255
202 225 255
202 225 255
202 225 255
202 225 255
202 225 255
202 225 255
202 225 255
202 225 255
202 225 255
202 225 255
202 225 255
202 225 255
202 225 255
202 225 255
202 225 255
202 225 255
202 225 255
202 225 255
202 225 255
202 225 255
202 225 255
202 225 255
202 225 255
202 225 255
202 225 255
202 225 255
202 225 255
202 225 255
202 225 255
202 225 255
202 225 255
202 225 255
202 225 255
202 225 255
202 225 255
202 225 255
202 225 255
202 225 255
203 225 255
203 225 255
203 225 255
203 225 255
203 225 255
203 225 255
203 225 255
203 225 255
203 225 255
203 225 255
203 225 255
203 225 255
203 226 255
203 226 255
203 226 255
203 226 255
203 226 255
203 226 255
203 226 255
203 226 255
203 226 255
204 226 255
204 226 255
204 226 255
204 226 255
204 226 255
204 226 255
204 226 255
204 226 255
204 226 255
204 226 255
204 226 255
204 226 255
204 226 255
204 226 255
204 226 255
204 226 255
204 226 255
205 226 255
205 226 255
205 226 255
205 226 255
205 226 255
205 226 255
205 226 255
205 227 255
205 227 255
205 227 255
205 227 255
205 227 255
205 227 255
205 227 255
205 227 255
205 227 255
205 227 255
205 227 255
206 227 255
206 227 255
206 227 255
206 227 255
206 227 255
206 227 255
206 227 255
206 227 255
206 227 255
206 227 255
206 227 255
206 227 255
206 227 255
206 227 255
206 227 255
206 227 255
207 227 255
207 227 255
207 227 255
207 227 255
207 227 255
207 228 255
207 228 255
207 228 255
207 228 255
207 228 255
207 228 255
207 228 255
207 228 255
207 228 255
207 228 255
207 228 255
207 228 255
207 228 255
208 228 255
208 228 255
208 228 255
208 228 255
208 228 255
208 228 255
208 228 255
208 228 255
208 228 255
208 228 255
208 228 255
208 228 255
208 228 255
208 228 255
208 228 255
208 228 255
208 228 255
208 228 255
208 228 255
209 228 255
209 228 255
209 229 255
209 229 255
209 229 255
209 229 255
209 229 255
209 229 255
209 229 255
209 229 255
209 229 255
209 229 255
209 229 255
209 229 255
209 229 255
209 229 255
209 229 255
209 229 255
209 229 255
209 229 255
209 229 255
209 229 255
210 229 255
210 229 255
210 229 255
210 229 255
210 229 255
210 229 255
210 229 255
210 229 255
210 229 255
210 229 255
210 229 255
210 229 255
210 229 255
210 229 255
210 229 255
210 229 255
210 229 255
210 229 255
210 229 255
210 229 255
210 229 255
210 230 255
210 230 255
210 230 255
211 230 255
211 230 255
211 230 255
211 230 255
211 230 255
211 230 255
211 230 255
211 230 255
211 230 255
211 230 255
211 230 255
211 230 255
211 230 255
211 230 255
211 230 255
211 230 255
210 230 255
210 230 255
210 230 255
210 229 255
210 229 255
210 229 255
210 229 255
210 229 255
210 229 255
210 229 255
210 229 255
210 229 255
210 229 255
210 229 255
210 229 255
210 229 255
210 229 255
210 229 255
210 229 255
210 229 255
210 229 255
210 229 255
210 229 255
210 229 255
209 229 255
209 229 255
209 229 255
209 229 255
209 229 255
206 226 241
204 225 237
200 220 214
198 218 207
198 218 209
197 218 207
196 218 203
197 218 201
194 215 191
194 215 188
192 214 182
195 215 191
188 210 165
196 217 194
198 219 207
197 218 209
197 218 206
197 217 199
198 218 204
203 223 228
204 224 237
206 226 246
208 228 253
208 228 255
208 228 255
208 228 255
208 228 255
208 228 255
208 228 255
208 228 255
208 228 255
208 228 255
208 228 255
208 228 255
208 228 255
207 228 255
207 228 255
207 228 255
207 228 255
207 228 255
207 228 255
207 228 255
207 228 255
207 228 255
207 228 255
207 228 255
207 228 255
207 228 255
207 228 255
207 227 255
207 227 255
207 227 255
207 227 255
206 227 255
206 227 255
206 227 255
206 227 255
206 227 255
206 227 255
206 227 255
206 227 255
206 227 255
206 227 255
206 227 255
206 227 255
206 227 255
206 227 255
206 227 255
206 227 255
206 227 255
205 227 255
205 227 255
205 227 255
205 227 255
205 227 255
205 227 255
205 227 255
205 227 255
205 227 255
205 227 255
205 226 255
205 226 255
205 226 255
205 226 255
205 226 255
205 226 255
205 226 255
204 226 255
204 226 255
204 226 255
204 226 255
204 226 255
204 226 255
204 226 255
204 226 255
204 226 255
204 226 255
204 226 255
204 226 255
204 226 255
204 226 255
204 226 255
204 226 255
204 226 255
204 226 255
203 226 255
203 226 255
203 226 255
203 226 255
203 226 255
203 226 255
203 226 255
203 226 255
203 226 255
203 225 255
203 225 255
203 225 255
203 225 255
203 225 255
203 225 255
203 225 255
203 225 255
203 225 255
203 225 255
203 225 255
203 225 255
203 225 255
203 225 255
202 225 255
202 225 255
202 225 255
202 225 255
202 225 255
202 225 255
202 225 255
202 225 255
202 225 255
202 225 255
202 225 255
202 225 255
202 225 255
202 225 255
202 225 255
202 225 255
202 225 255
202 225 255
202 225 255
202 225 255
202 225 255
202 225 255
202 225 255
202 225 255
202 225 255
195 218 251
193 216 249
178 201 239
185 208 244
159 183 226
165 188 229
157 181 226
147 171 217
153 177 222
158 182 226
163 187 229
180 203 240
176 199 238
181 204 241
186 209 244
199 222 254
202 225 255
202 225 255
202 225 255
202 225 255
202 225 255
202 225 255
202 225 255
202 225 255
202 225 255
202 225 255
202 225 255
202 225 255
202 225 255
202 225 255
202 225 255
202 225 255
202 225 255
202 225 255
202 225 255
202 225 255
202 225 255
202 225 255
202 225 255
202 225 255
202 225 255
203 225 255
203 225 255
203 225 255
203 225 255
203 225 255
203 225 255
203 225 255
203 225 255
203 225 255
203 225 255
203 225 255
203 225 255
203 225 255
203 225 255
203 226 255
203 226 255
203 226 255
203 226 255
203 226 255
203 226 255
203 226 255
203 226 255
203 226 255
204 226 255
204 226 255
204 226 255
204 226 255
204 226 255
204 226 255
204 226 255
204 226 255
204 226 255
204 226 255
204 226 255
204 226 255
204 226 255
204 226 255
204 226 255
204 226 255
204 226 255
204 226 255
205 226 255
205 226 255
205 226 255
205 226 255
205 226 255
205 226 255
205 226 255
205 227 255
205 227 255
205 227 255
205 227 255
205 227 255
205 227 255
205 227 255
205 227 255
205 227 255
205 227 255
206 227 255
206 227 255
206 227 255
206 227 255
206 227 255
206 227 255
206 227 255
206 227 255
206 227 255
206 227 255
206 227 255
206 227 255
206 227 255
206 227 255
206 227 255
206 227 255
206 227 255
207 227 255
207 227 255
207 227 255
207 227 255
207 228 255
207 228 255
207 228 255
207 228 255
207 228 255
207 228 255
207 228 255
207 228 255
207 228 255
207 228 255
207 228 255
207 228 255
207 228 255
207 228 255
208 228 255
208 228 255
208 228 255
208 228 255
208 228 255
208 228 255
208 228 255
208 228 255
208 228 255
208 228 255
208 228 255
208 228 255
208 228 255
202 221 245
193 210 232
195 211 231
182 197 215
188 204 223
190 207 226
187 201 213
173 183 185
177 189 197
182 196 207
173 184 190
178 191 199
176 189 199
171 183 190
186 201 216
181 193 199
178 189 193
188 203 219
193 209 228
199 216 234
200 217 238
206 225 251
207 226 250
209 229 255
209 229 255
209 229 255
209 229 255
210 229 255
210 229 255
210 229 255
210 229 255
210 229 255
210 229 255
210 229 255
210 229 255
210 229 255
210 229 255
210 229 255
210 229 255
210 229 255
210 229 255
210 229 255
210 229 255
210 229 255
210 229 255
210 229 255
210 229 255
210 229 255
210 230 255
210 230 255
210 230 255
211 230 255
211 230 255
211 230 255
211 230 255
211 230 255
211 230 255
211 230 255
211 230 255
211 230 255
211 230 255
211 230 255
211 230 255
211 230 255
211 230 255
211 230 255
211 230 255
211 230 255
211 230 255
211 230 255
211 230 255
211 230 255
211 230 255
211 230 255
211 230 255
210 230 255
210 230 255
210 230 255
210 229 255
210 229 255
210 229 255
210 229 255
210 229 255
210 229 255
210 229 255
210 229 255
210 229 255
210 229 255
210 229 255
210 229 255
208 228 250
204 224 233
202 222 218
196 216 198
190 211 159
188 209 149
182 204 108
178 201 76
176 199 62
173 196 0
173 195 0
174 197 0
173 196 0
173 196 0
174 197 0
172 196 0
175 198 0
172 196 0
172 195 0
173 196 0
175 198 0
174 198 0
177 199 0
174 198 0
173 196 0
176 198 0
171 195 0
176 199 0
172 196 0
173 196 0
174 197 0
176 199 0
173 197 0
177 200 67
178 201 88
181 203 108
188 210 155
193 214 184
196 217 199
199 219 214
204 224 238
207 227 252
208 228 255
208 228 255
208 228 255
208 228 255
208 228 255
208 228 255
208 228 255
207 228 255
207 228 255
207 228 255
207 228 255
207 228 255
207 228 255
207 228 255
207 228 255
207 228 255
207 228 255
207 228 255
207 228 255
207 228 255
207 227 255
207 227 255
207 227 255
207 227 255
206 227 255
206 227 255
206 227 255
206 227 255
206 227 255
206 227 255
206 227 255
206 227 255
206 227 255
206 227 255
206 227 255
206 227 255
206 227 255
206 227 255
206 227 255
206 227 255
206 227 255
206 227 255
205 227 255
205 227 255
205 227 255
205 227 255
205 227 255
205 227 255
205 227 255
205 227 255
205 227 255
205 227 255
205 226 255
205 226 255
205 226 255
205 226 255
205 226 255
205 226 255
205 226 255
204 226 255
204 226 255
204 226 255
204 226 255
204 226 255
204 226 255
204 226 255
204 226 255
204 226 255
204 226 255
204 226 255
204 226 255
204 226 255
204 226 255
204 226 255
204 226 255
204 226 255
204 226 255
204 226 255
203 226 255
203 226 255
203 226 255
203 226 255
203 226 255
203 226 255
203 226 255
203 226 255
203 226 255
203 226 255
203 225 255
203 225 255
203 225 255
203 225 255
203 225 255
203 225 255
203 225 255
203 225 255
203 225 255
203 225 255
203 225 255
203 225 255
203 225 255
203 225 255
203 225 255
202 225 255
202 225 255
202 225 255
202 225 255
202 225 255
202 225 255
202 225 255
202 225 255
202 225 255
202 225 255
202 225 255
202 225 255
198 221 252
177 200 238
156 179 220
141 165 214
109 137 194
91 122 190
62 99 175
62 99 176
63 100 179
62 99 173
62 99 173
62 99 174
62 98 171
63 99 174
62 99 180
62 99 177
62 99 173
62 99 174
63 99 175
62 99 178
62 99 175
61 98 174
80 112 181
109 136 193
135 160 211
152 176 222
185 208 244
198 221 253
202 225 255
202 225 255
202 225 255
202 225 255
202 225 255
202 225 255
202 225 255
202 225 255
202 225 255
202 225 255
202 225 255
202 225 255
203 225 255
203 225 255
203 225 255
203 225 255
203 225 255
203 225 255
203 225 255
203 225 255
203 225 255
203 225 255
203 225 255
203 225 255
203 225 255
203 225 255
203 225 255
203 225 255
203 226 255
203 226 255
203 226 255
203 226 255
203 226 255
203 226 255
203 226 255
203 226 255
203 226 255
204 226 255
204 226 255
204 226 255
204 226 255
204 226 255
204 226 255
204 226 255
204 226 255
204 226 255
204 226 255
204 226 255
204 226 255
204 226 255
204 226 255
204 226 255
204 226 255
204 226 255
204 226 255
204 226 255
205 226 255
205 226 255
205 226 255
205 226 255
205 226 255
205 226 255
205 226 255
205 227 255
205 227 255
205 227 255
205 227 255
205 227 255
205 227 255
205 227 255
205 227 255
205 227 255
205 227 255
206 227 255
206 227 255
206 227 255
206 227 255
206 227 255
206 227 255
206 227 255
206 227 255
206 227 255
206 227 255
206 227 255
206 227 255
206 227 255
206 227 255
206 227 255
206 227 255
206 227 255
206 227 255
207 227 255
207 227 255
207 227 255
207 227 255
207 228 255
207 228 255
207 228 255
207 228 255
207 228 255
207 228 255
207 228 255
207 228 255
207 228 255
207 228 255
207 228 255
207 228 255
207 228 255
208 228 255
208 228 255
208 228 255
208 228 255
208 228 255
208 228 255
208 228 255
204 224 250
193 210 230
183 198 212
171 182 187
178 189 193
157 164 159
152 155 138
146 148 124
140 139 99
132 129 90
135 133 89
124 122 81
127 125 83
141 138 92
135 132 87
127 124 82
139 137 92
141 137 91
137 134 89
131 129 86
131 129 86
129 127 84
123 122 81
136 134 90
128 126 83
129 126 83
123 121 80
141 138 90
127 124 82
143 139 91
137 133 88
136 132 87
138 136 93
138 136 97
141 142 112
150 154 135
165 173 170
170 182 188
186 200 213
181 195 209
201 218 239
207 225 250
210 229 255
210 229 255
210 229 255
210 229 255
210 229 255
210 229 255
210 229 255
210 229 255
210 229 255
210 229 255
210 229 255
210 229 255
210 230 255
210 230 255
210 230 255
211 230 255
211 230 255
211 230 255
211 230 255
211 230 255
211 230 255
211 230 255
211 230 255
211 230 255
211 230 255
211 230 255
211 230 255
211 230 255
211 230 255
211 230 255
211 230 255
211 230 255
211 230 255
211 230 255
211 230 255
211 230 255
211 230 255
211 230 255
211 230 255
211 230 255
211 230 255
211 230 255
211 230 255
211 230 255
211 230 255
211 230 255
211 230 255
210 230 255
210 230 255
210 230 255
210 229 255
210 229 255
208 227 245
198 218 206
195 216 194
189 210 163
180 202 111
174 197 76
173 195 0
174 197 0
172 195 0
173 196 0
171 195 0
174 198 0
174 198 0
175 198 0
173 196 0
174 197 0
175 198 0
173 196 0
175 198 0
174 198 0
174 198 0
174 197 0
176 199 0
175 197 0
173 196 0
172 196 0
173 196 0
174 197 0
173 197 0
172 196 0
174 197 0
175 198 0
174 197 0
175 197 0
174 198 0
174 197 0
174 197 0
175 198 0
174 197 0
173 196 0
177 199 0
172 196 0
176 198 0
175 198 0
172 196 0
173 197 0
174 197 0
173 197 0
179 201 80
184 206 133
189 211 163
193 214 184
200 221 224
204 224 238
208 228 255
208 228 255
208 228 255
208 228 255
207 228 255
207 228 255
207 228 255
207 228 255
207 228 255
207 228 255
207 228 255
207 228 255
207 228 255
207 228 255
207 228 255
207 228 255
207 228 255
207 228 255
207 227 255
207 227 255
207 227 255
207 227 255
206 227 255
206 227 255
206 227 255
206 227 255
206 227 255
206 227 255
206 227 255
206 227 255
206 227 255
206 227 255
206 227 255
206 227 255
206 227 255
206 227 255
206 227 255
206 227 255
206 227 255
205 227 255
205 227 255
205 227 255
205 227 255
205 227 255
205 227 255
205 227 255
205 227 255
205 227 255
205 227 255
205 227 255
205 226 255
205 226 255
205 226 255
205 226 255
205 226 255
205 226 255
205 226 255
204 226 255
204 226 255
204 226 255
204 226 255
204 226 255
204 226 255
204 226 255
204 226 255
204 226 255
204 226 255
204 226 255
204 226 255
204 226 255
204 226 255
204 226 255
204 226 255
204 226 255
204 226 255
204 226 255
204 226 255
203 226 255
203 226 255
203 226 255
203 226 255
203 226 255
203 226 255
203 226 255
203 226 255
203 226 255
203 226 255
203 226 255
203 225 255
203 225 255
203 225 255
203 225 255
203 225 255
203 225 255
203 225 255
203 225 255
203 225 255
203 225 255
203 225 255
203 225 255
203 225 255
203 225 255
203 225 255
203 225 255
203 225 255
195 218 250
170 193 232
137 162 212
111 138 196
70 104 176
62 99 176
62 99 173
62 99 175
63 100 177
63 100 176
62 99 171
63 99 175
62 99 173
62 99 175
63 100 177
62 99 174
62 99 171
63 99 176
63 100 178
62 98 172
62 99 176
62 98 171
62 98 170
62 99 174
61 98 169
62 99 174
63 99 177
62 99 176
63 99 178
62 99 173
62 99 170
65 101 175
106 134 197
140 164 214
167 191 230
198 221 252
203 225 255
203 225 255
203 225 255
203 225 255
203 225 255
203 225 255
203 225 255
203 225 255
203 225 255
203 225 255
203 225 255
203 225 255
203 225 255
203 225 255
203 225 255
203 225 255
203 225 255
203 225 255
203 226 255
203 226 255
203 226 255
203 226 255
203 226 255
203 226 255
203 226 255
203 226 255
203 226 255
203 226 255
204 226 255
204 226 255
204 226 255
204 226 255
204 226 255
204 226 255
204 226 255
204 226 255
204 226 255
204 226 255
204 226 255
204 226 255
204 226 255
204 226 255
204 226 255
204 226 255
204 226 255
204 226 255
204 226 255
204 226 255
205 226 255
205 226 255
205 226 255
205 226 255
205 226 255
205 226 255
205 226 255
205 227 255
205 227 255
205 227 255
205 227 255
205 227 255
205 227 255
205 227 255
205 227 255
205 227 255
205 227 255
205 227 255
206 227 255
206 227 255
206 227 255
206 227 255
206 227 255
206 227 255
206 227 255
206 227 255
206 227 255
206 227 255
206 227 255
206 227 255
206 227 255
206 227 255
206 227 255
206 227 255
206 227 255
207 227 255
207 227 255
207 227 255
207 227 255
207 228 255
207 228 255
207 228 255
207 228 255
207 228 255
207 228 255
207 228 255
207 228 255
207 228 255
207 228 255
207 228 255
207 228 255
207 228 255
207 228 255
208 228 255
208 228 255
208 228 255
208 228 255
204 223 246
192 208 224
187 201 215
164 172 171
151 157 148
142 143 114
137 134 89
130 128 85
134 132 87
132 130 87
129 126 84
132 130 87
132 129 86
135 133 89
127 125 83
127 125 84
139 136 90
134 132 88
142 140 94
138 136 91
133 131 87
137 135 90
131 129 86
127 126 83
129 127 84
139 137 90
140 137 92
145 143 95
133 132 88
137 135 90
139 137 91
129 125 83
129 127 85
137 135 90
129 127 84
134 132 87
132 129 86
124 122 80
127 124 82
141 138 91
127 124 82
139 136 88
140 137 89
135 132 87
140 136 89
137 134 87
120 117 76
117 114 74
136 137 115
154 159 147
168 176 172
179 190 199
189 203 217
203 221 242
210 229 255
210 229 255
210 230 255
210 230 255
210 230 255
211 230 255
211 230 255
211 230 255
211 230 255
211 230 255
211 230 255
211 230 255
211 230 255
211 230 255
211 230 255
211 230 255
211 230 255
211 230 255
211 230 255
211 230 255
211 230 255
211 230 255
211 230 255
211 230 255
211 230 255
211 230 255
211 230 255
211 230 255
211 230 255
211 230 255
211 230 255
211 230 255
211 230 255
211 230 255
211 230 255
211 230 255
211 230 255
211 230 255
211 230 255
211 230 255
211 230 255
208 227 244
200 220 217
193 214 186
187 209 149
178 200 67
172 195 0
174 197 0
172 196 0
174 197 0
171 194 0
172 195 0
172 196 0
173 197 0
172 196 0
173 196 0
175 198 0
174 196 0
172 196 0
175 198 0
174 196 0
173 197 0
173 197 0
172 195 0
176 198 0
174 197 0
173 196 0
175 197 0
170 194 0
174 197 0
172 195 0
174 197 0
174 198 0
175 198 0
172 195 0
173 197 0
173 196 0
174 197 0
173 197 0
172 195 0
171 195 0
175 198 0
175 198 0
175 198 0
175 198 0
173 197 0
176 199 0
174 197 0
173 196 0
175 198 0
174 198 0
173 197 0
174 198 0
175 198 0
175 198 0
173 196 0
174 197 0
174 197 0
175 198 0
174 197 0
175 198 51
184 206 135
192 214 181
201 221 224
206 226 248
208 228 255
208 228 255
208 228 255
207 228 255
207 228 255
207 228 255
207 228 255
207 228 255
207 228 255
207 228 255
207 228 255
207 228 255
207 228 255
207 228 255
207 228 255
207 228 255
207 227 255
207 227 255
207 227 255
207 227 255
207 227 255
206 227 255
206 227 255
206 227 255
206 227 255
206 227 255
206 227 255
206 227 255
206 227 255
206 227 255
206 227 255
206 227 255
206 227 255
206 227 255
206 227 255
206 227 255
206 227 255
206 227 255
205 227 255
205 227 255
205 227 255
205 227 255
205 227 255
205 227 255
205 227 255
205 227 255
205 227 255
205 227 255
205 227 255
205 226 255
205 226 255
205 226 255
205 226 255
205 226 255
205 226 255
205 226 255
204 226 255
204 226 255
204 226 255
204 226 255
204 226 255
204 226 255
204 226 255
204 226 255
204 226 255
204 226 255
204 226 255
204 226 255
204 226 255
204 226 255
204 226 255
204 226 255
204 226 255
204 226 255
204 226 255
204 226 255
204 226 255
203 226 255
203 226 255
203 226 255
203 226 255
203 226 255
203 226 255
203 226 255
203 226 255
203 226 255
203 226 255
203 226 255
203 226 255
203 225 255
203 225 255
203 225 255
203 225 255
203 225 255
203 225 255
203 225 255
203 225 255
190 212 246
170 193 233
116 143 200
62 99 172
62 99 175
62 99 171
62 99 173
62 99 173
62 99 171
62 98 170
62 98 170
62 99 173
62 99 172
62 98 170
62 99 173
62 99 174
63 99 174
62 98 171
62 98 168
62 99 173
61 98 168
63 99 172
61 98 168
63 99 169
62 99 174
61 98 175
62 99 176
62 98 173
62 99 171
62 98 171
62 98 167
61 98 171
62 98 165
62 98 173
62 99 173
62 99 174
62 99 172
62 99 171
68 103 181
118 144 200
149 173 218
193 215 248
203 225 255
203 225 255
203 225 255
203 225 255
203 225 255
203 225 255
203 225 255
203 225 255
203 226 255
203 226 255
203 226 255
203 226 255
203 226 255
203 226 255
203 226 255
203 226 255
203 226 255
203 226 255
203 226 255
203 226 255
204 226 255
204 226 255
204 226 255
204 226 255
204 226 255
204 226 255
204 226 255
204 226 255
204 226 255
204 226 255
204 226 255
204 226 255
204 226 255
204 226 255
204 226 255
204 226 255
204 226 255
204 226 255
204 226 255
204 226 255
204 226 255
205 226 255
205 226 255
205 226 255
205 226 255
205 226 255
205 226 255
205 226 255
205 227 255
205 227 255
205 227 255
205 227 255
205 227 255
205 227 255
205 227 255
205 227 255
205 227 255
205 227 255
205 227 255
206 227 255
206 227 255
206 227 255
206 227 255
206 227 255
206 227 255
206 227 255
206 227 255
206 227 255
206 227 255
206 227 255
206 227 255
206 227 255
206 227 255
206 227 255
206 227 255
206 227 255
207 227 255
207 227 255
207 227 255
207 227 255
207 227 255
207 228 255
207 228 255
207 228 255
207 228 255
207 228 255
207 228 255
207 228 255
207 228 255
207 228 255
207 228 255
207 228 255
207 228 255
207 228 255
208 228 255
208 228 255
208 228 255
204 224 251
190 206 223
177 189 193
156 164 158
131 131 99
129 126 84
143 141 94
131 129 86
135 133 89
141 139 93
140 138 93
141 139 93
131 130 87
142 141 94
135 134 90
132 131 87
136 134 90
134 132 88
139 137 92
141 140 93
142 140 93
138 136 90
143 140 93
136 134 89
133 131 87
140 138 92
139 137 92
143 140 93
141 138 92
137 135 90
132 129 85
146 144 96
146 143 95
141 139 92
130 128 85
136 133 89
131 129 86
137 135 87
144 142 94
147 145 97
141 139 92
137 134 88
143 139 92
132 130 85
138 135 90
128 126 83
131 130 86
134 131 87
127 124 80
138 136 90
130 127 80
134 130 83
127 124 80
140 136 90
130 127 84
137 133 87
142 138 91
130 126 81
136 133 87
138 139 111
163 169 164
174 184 189
188 200 211
206 224 248
211 230 255
211 230 255
211 230 255
211 230 255
211 230 255
211 230 255
211 230 255
211 230 255
211 230 255
211 230 255
211 230 255
211 230 255
211 230 255
211 230 255
211 230 255
211 230 255
211 230 255
211 230 255
211 230 255
211 230 255
211 230 255
211 230 255
211 230 255
211 230 255
211 230 255
211 230 255
211 230 255
211 230 255
211 230 255
211 230 255
211 230 255
211 230 255
205 225 237
196 216 194
183 205 142
180 202 95
173 195 0
172 196 0
172 195 0
170 194 0
173 196 0
172 195 0
171 195 0
174 198 0
175 198 0
174 197 0
174 197 0
173 197 0
173 196 0
175 198 0
175 198 0
172 196 0
174 196 0
173 197 0
170 194 0
175 198 0
173 196 0
175 198 0
174 197 0
174 197 0
171 195 0
174 198 0
174 197 0
172 196 0
172 196 0
175 198 0
174 197 0
175 198 0
171 195 0
173 196 0
173 197 0
172 196 0
173 196 0
174 197 0
173 196 0
175 198 0
172 196 0
173 197 0
173 196 0
174 198 0
174 197 0
173 196 0
173 197 0
174 197 0
174 197 0
176 199 0
172 196 0
174 197 0
173 197 0
175 198 0
176 198 0
174 197 0
174 197 0
175 198 0
174 198 0
175 198 0
176 199 0
175 198 0
174 197 0
174 197 0
183 205 114
189 211 159
197 218 206
204 225 241
208 228 255
208 228 255
207 228 255
207 228 255
207 228 255
207 228 255
207 228 255
207 228 255
207 228 255
207 228 255
207 228 255
207 228 255
207 228 255
207 228 255
207 228 255
207 228 255
207 227 255
207 227 255
207 227 255
207 227 255
206 227 255
206 227 255
206 227 255
206 227 255
206 227 255
206 227 255
206 227 255
206 227 255
206 227 255
206 227 255
206 227 255
206 227 255
206 227 255
206 227 255
206 227 255
206 227 255
206 227 255
206 227 255
205 227 255
205 227 255
205 227 255
205 227 255
205 227 255
205 227 255
205 227 255
205 227 255
205 227 255
205 227 255
205 227 255
205 226 255
205 226 255
205 226 255
205 226 255
205 226 255
205 226 255
205 226 255
205 226 255
204 226 255
204 226 255
204 226 255
204 226 255
204 226 255
204 226 255
204 226 255
204 226 255
204 226 255
204 226 255
204 226 255
204 226 255
204 226 255
204 226 255
204 226 255
204 226 255
204 226 255
204 226 255
204 226 255
204 226 255
204 226 255
204 226 255
203 226 255
203 226 255
203 226 255
203 226 255
203 226 255
203 226 255
203 226 255
203 226 255
203 226 255
203 226 255
203 226 255
195 217 249
160 183 226
115 141 195
62 99 175
61 98 171
62 99 177
61 98 167
62 99 173
62 99 176
62 98 172
62 98 167
62 99 176
61 98 171
62 99 174
62 99 173
62 99 173
61 97 165
63 100 176
62 98 168
62 99 172
63 99 171
62 99 171
62 98 170
63 100 175
62 98 173
62 99 173
62 99 175
62 98 168
62 98 172
62 99 175
63 99 174
62 99 176
62 99 176
62 99 172
62 99 170
63 99 175
62 98 169
62 99 172
63 99 171
62 99 176
63 100 178
61 98 175
62 99 171
61 97 167
65 100 176
106 134 192
156 180 224
197 219 250
203 226 255
203 226 255
203 226 255
203 226 255
203 226 255
203 226 255
203 226 255
203 226 255
203 226 255
203 226 255
203 226 255
204 226 255
204 226 255
204 226 255
204 226 255
204 226 255
204 226 255
204 226 255
204 226 255
204 226 255
204 226 255
204 226 255
204 226 255
204 226 255
204 226 255
204 226 255
204 226 255
204 226 255
204 226 255
204 226 255
204 226 255
204 226 255
204 226 255
205 226 255
205 226 255
205 226 255
205 226 255
205 226 255
205 226 255
205 226 255
205 226 255
205 227 255
205 227 255
205 227 255
205 227 255
205 227 255
205 227 255
205 227 255
205 227 255
205 227 255
205 227 255
205 227 255
206 227 255
206 227 255
206 227 255
206 227 255
206 227 255
206 227 255
206 227 255
206 227 255
206 227 255
206 227 255
206 227 255
206 227 255
206 227 255
206 227 255
206 227 255
206 227 255
206 227 255
206 227 255
207 227 255
207 227 255
207 227 255
207 227 255
207 228 255
207 228 255
207 228 255
207 228 255
207 228 255
207 228 255
207 228 255
207 228 255
207 228 255
207 228 255
207 228 255
207 228 255
207 228 255
208 228 255
208 228 255
208 228 255
198 217 239
184 199 213
162 171 172
142 146 126
129 127 84
120 118 79
139 137 91
138 137 92
131 130 87
127 126 84
140 138 92
129 127 85
129 127 84
139 137 92
135 133 89
138 136 91
137 136 91
136 134 90
137 135 90
129 128 86
134 132 88
132 130 87
141 139 93
142 140 94
141 139 93
139 138 93
137 135 90
136 134 90
141 139 93
146 144 96
137 136 92
139 137 92
133 131 87
140 137 91
140 140 94
137 135 90
146 143 95
143 141 95
141 138 91
137 135 90
143 139 91
137 135 90
135 133 87
139 137 92
141 140 93
139 137 90
143 141 94
137 135 90
138 136 89
151 148 98
133 131 87
145 143 95
128 126 84
136 133 87
148 145 97
144 140 91
136 134 87
139 136 90
132 129 82
133 129 82
135 132 85
137 132 86
130 127 82
136 133 87
138 134 87
139 135 87
134 130 85
132 129 84
152 153 125
157 162 154
179 192 202
205 222 243
211 230 255
211 230 255
211 230 255
211 230 255
211 230 255
211 230 255
211 230 255
211 230 255
211 230 255
211 230 255
211 230 255
211 230 255
211 230 255
211 230 255
212 230 255
212 230 255
212 230 255
212 230 255
211 230 255
211 230 255
211 230 255
211 230 255
211 230 255
211 230 255
207 226 241
198 218 203
187 208 151
178 201 105
171 193 0
172 195 0
174 197 0
176 198 0
173 196 0
174 197 0
173 196 0
174 197 0
173 196 0
174 197 0
173 196 0
175 198 0
172 195 0
173 197 0
173 197 0
174 198 0
174 197 0
173 197 0
173 197 0
173 196 0
171 195 0
172 196 0
173 197 0
173 196 0
173 196 0
175 198 0
173 196 0
175 198 0
175 198 0
175 198 0
175 198 0
173 196 0
173 197 0
175 198 0
175 197 0
173 196 0
173 197 0
175 198 0
175 198 0
173 197 0
174 197 0
172 196 0
175 198 0
175 198 0
175 198 0
171 195 0
173 197 0
174 197 0
173 197 0
171 196 0
174 197 0
174 198 0
173 196 0
174 197 0
172 195 0
175 198 0
173 197 0
173 197 0
176 198 0
172 196 0
174 197 0
175 198 0
174 197 0
174 197 0
174 197 0
174 198 0
173 195 0
175 198 0
171 195 0
173 196 0
174 198 0
175 198 0
179 202 95
189 210 155
198 219 215
205 225 242
208 228 255
208 228 255
207 228 255
207 228 255
207 228 255
207 228 255
207 228 255
207 228 255
207 228 255
207 228 255
207 228 255
207 228 255
207 228 255
207 228 255
207 228 255
207 228 255
207 227 255
207 227 255
207 227 255
207 227 255
206 227 255
206 227 255
206 227 255
206 227 255
206 227 255
206 227 255
206 227 255
206 227 255
206 227 255
206 227 255
206 227 255
206 227 255
206 227 255
206 227 255
206 227 255
206 227 255
206 227 255
206 227 255
205 227 255
205 227 255
205 227 255
205 227 255
205 227 255
205 227 255
205 227 255
205 227 255
205 227 255
205 227 255
205 227 255
205 226 255
205 226 255
205 226 255
205 226 255
205 226 255
205 226 255
205 226 255
205 226 255
204 226 255
204 226 255
204 226 255
204 226 255
204 226 255
204 226 255
204 226 255
204 226 255
204 226 255
204 226 255
204 226 255
204 226 255
204 226 255
204 226 255
204 226 255
204 226 255
204 226 255
204 226 255
204 226 255
204 226 255
204 226 255
204 226 255
204 226 255
204 226 255
204 226 255
204 226 255
203 226 255
181 204 240
145 169 214
65 101 175
62 98 175
62 98 168
62 99 174
62 99 170
61 98 170
62 99 174
63 99 168
62 98 171
62 98 167
61 98 165
62 98 164
62 99 168
62 99 170
62 98 169
62 98 172
62 99 174
61 98 169
62 99 175
62 98 165
62 99 171
63 99 176
62 99 172
62 98 167
62 99 171
62 99 168
62 99 169
63 99 169
63 100 176
63 99 170
61 98 167
62 98 171
62 98 171
63 100 174
62 99 171
63 99 173
63 99 172
63 99 172
63 99 175
62 99 172
62 99 174
62 98 170
61 98 175
62 99 172
62 99 174
61 98 169
62 99 175
71 105 179
133 158 207
183 206 242
203 226 255
204 226 255
204 226 255
204 226 255
204 226 255
204 226 255
204 226 255
204 226 255
204 226 255
204 226 255
204 226 255
204 226 255
204 226 255
204 226 255
204 226 255
204 226 255
204 226 255
204 226 255
204 226 255
204 226 255
204 226 255
204 226 255
204 226 255
204 226 255
204 226 255
204 226 255
204 226 255
205 226 255
205 226 255
205 226 255
205 226 255
205 226 255
205 226 255
205 226 255
205 226 255
205 227 255
205 227 255
205 227 255
205 227 255
205 227 255
205 227 255
205 227 255
205 227 255
205 227 255
205 227 255
205 227 255
206 227 255
206 227 255
206 227 255
206 227 255
206 227 255
206 227 255
206 227 255
206 227 255
206 227 255
206 227 255
206 227 255
206 227 255
206 227 255
206 227 255
206 227 255
206 227 255
206 227 255
206 227 255
207 227 255
207 227 255
207 227 255
207 227 255
207 228 255
207 228 255
207 228 255
207 228 255
207 228 255
207 228 255
207 228 255
207 228 255
207 228 255
207 228 255
207 228 255
207 228 255
207 228 255
207 228 255
208 228 255
208 228 255
202 221 247
184 198 209
163 171 167
126 128 106
130 128 85
141 139 93
130 128 85
142 141 95
129 128 86
138 136 90
135 133 89
132 131 88
131 130 87
138 137 93
136 135 90
135 133 89
148 146 98
142 141 95
144 143 95
141 140 94
125 124 83
153 151 101
129 127 85
129 128 86
139 138 93
144 142 95
133 132 88
140 138 92
145 144 96
142 141 94
143 141 95
143 141 93
131 130 87
142 140 93
139 137 92
140 138 92
136 135 90
140 138 92
144 143 95
148 146 97
146 143 95
141 138 92
136 133 89
128 126 84
142 139 93
142 140 93
148 144 95
137 134 90
142 140 93
136 134 88
134 132 87
133 132 87
145 142 95
143 140 93
151 148 97
138 135 89
136 134 89
140 137 90
128 125 82
140 137 90
134 131 84
135 132 87
143 139 92
146 143 93
143 140 92
128 125 83
128 125 82
139 136 90
140 137 90
133 130 83
144 141 92
134 130 85
132 128 82
134 130 84
133 130 84
138 135 87
149 151 129
158 165 161
176 187 195
207 225 248
211 230 255
211 230 255
211 230 255
211 230 255
211 230 255
211 230 255
212 230 255
212 230 255
212 230 255
212 230 255
212 230 255
212 230 255
212 230 255
212 230 255
212 230 255
212 230 255
212 230 255
204 223 227
193 214 184
182 204 114
174 197 0
173 197 0
168 193 0
171 195 0
171 194 0
170 193 0
173 197 0
169 193 0
172 196 0
173 196 0
174 197 0
174 197 0
172 196 0
171 195 0
173 196 0
172 195 0
175 197 0
175 198 0
174 198 0
174 198 0
172 196 0
172 195 0
174 198 0
173 197 0
175 198 0
174 198 0
170 194 0
172 195 0
175 197 0
174 197 0
174 197 0
174 197 0
174 197 0
174 197 0
172 195 0
174 197 0
175 198 0
174 197 0
176 199 0
175 198 0
173 197 0
175 198 0
174 197 0
174 198 0
174 197 0
176 199 0
175 198 0
174 197 0
172 196 0
170 194 0
175 198 0
173 197 0
176 199 0
173 197 0
174 197 0
175 198 0
172 195 0
176 198 0
170 194 0
172 196 0
174 197 0
174 197 0
176 199 0
174 197 0
174 197 0
173 197 0
173 196 0
174 197 0
175 198 0
174 198 0
172 196 0
172 196 0
175 198 0
175 198 0
175 198 0
174 197 0
175 198 0
175 198 0
175 198 0
175 198 0
183 205 114
190 211 167
201 222 227
208 228 255
208 228 255
208 228 255
207 228 255
207 228 255
207 228 255
207 228 255
207 228 255
207 228 255
207 228 255
207 228 255
207 228 255
207 228 255
207 228 255
207 228 255
207 228 255
207 228 255
207 227 255
207 227 255
207 227 255
207 227 255
206 227 255
206 227 255
206 227 255
206 227 255
206 227 255
206 227 255
206 227 255
206 227 255
206 227 255
206 227 255
206 227 255
206 227 255
206 227 255
206 227 255
206 227 255
206 227 255
206 227 255
206 227 255
205 227 255
205 227 255
205 227 255
205 227 255
205 227 255
205 227 255
205 227 255
205 227 255
205 227 255
205 227 255
205 227 255
205 227 255
205 226 255
205 226 255
205 226 255
205 226 255
205 226 255
205 226 255
205 226 255
205 226 255
204 226 255
204 226 255
204 226 255
204 226 255
204 226 255
204 226 255
204 226 255
204 226 255
204 226 255
204 226 255
204 226 255
204 226 255
204 226 255
204 226 255
204 226 255
204 226 255
204 226 255
204 226 255
204 226 255
202 224 254
164 187 228
106 134 188
62 98 171
62 98 174
61 98 170
63 100 175
61 98 172
63 99 173
62 99 175
62 98 170
62 99 171
62 98 173
63 100 173
62 99 173
62 99 169
62 98 166
61 98 170
62 99 170
63 100 174
63 99 169
62 98 165
62 99 174
62 98 168
61 98 164
61 98 171
62 98 170
62 99 171
62 98 164
62 98 165
63 99 169
63 99 175
63 99 171
62 99 169
63 99 173
63 100 174
62 99 171
62 99 171
63 99 173
63 99 172
63 99 174
63 99 172
61 97 160
62 98 168
62 99 170
62 99 169
63 99 175
62 98 167
62 98 168
62 99 173
63 99 171
62 98 170
61 98 172
62 98 170
62 99 172
105 133 194
173 196 233
203 225 254
204 226 255
204 226 255
204 226 255
204 226 255
204 226 255
204 226 255
204 226 255
204 226 255
204 226 255
204 226 255
204 226 255
204 226 255
204 226 255
204 226 255
204 226 255
204 226 255
204 226 255
204 226 255
204 226 255
205 226 255
205 226 255
205 226 255
205 226 255
205 226 255
205 226 255
205 226 255
205 226 255
205 227 255
205 227 255
205 227 255
205 227 255
205 227 255
205 227 255
205 227 255
205 227 255
205 227 255
205 227 255
205 227 255
205 227 255
206 227 255
206 227 255
206 227 255
206 227 255
206 227 255
206 227 255
206 227 255
206 227 255
206 227 255
206 227 255
206 227 255
206 227 255
206 227 255
206 227 255
206 227 255
206 227 255
206 227 255
206 227 255
207 227 255
207 227 255
207 227 255
207 227 255
207 228 255
207 228 255
207 228 255
207 228 255
207 228 255
207 228 255
207 228 255
207 228 255
207 228 255
207 228 255
207 228 255
207 228 255
207 228 255
207 228 255
208 228 255
208 228 255
208 228 255
195 213 236
173 184 187
145 149 131
131 130 89
126 125 84
134 133 89
140 139 93
131 130 87
127 125 84
146 144 96
134 133 89
146 144 97
143 141 95
139 137 92
137 136 91
144 142 95
144 143 96
135 133 89
137 135 90
134 133 90
139 137 92
142 141 95
146 145 97
144 142 95
135 133 88
145 144 97
145 143 95
149 148 99
141 140 93
141 139 93
143 142 95
138 136 91
148 146 97
145 143 95
142 140 93
138 136 91
143 141 94
133 132 88
139 137 90
147 145 97
140 138 92
150 147 97
143 141 93
142 140 93
149 146 97
143 142 93
140 139 93
142 140 94
151 148 98
144 141 93
146 143 95
135 132 88
138 135 89
138 135 88
154 152 101
139 137 90
141 139 90
149 146 96
141 138 91
140 137 90
141 139 92
130 127 83
141 138 90
144 141 93
144 140 93
139 135 88
145 141 92
133 129 84
138 136 90
149 146 95
126 121 79
144 141 93
145 140 91
144 140 90
133 130 86
130 126 83
136 132 84
142 139 91
139 135 87
144 140 90
130 126 80
130 126 82
134 130 83
154 157 139
174 183 182
202 217 233
212 230 255
212 230 255
212 230 255
212 230 255
212 230 255
212 230 255
212 230 255
212 230 255
212 230 255
212 230 255
212 230 255
202 222 217
193 214 177
176 199 80
172 195 0
174 197 0
173 197 0
172 195 0
172 195 0
175 197 0
171 195 0
172 195 0
174 197 0
170 193 0
171 196 0
175 198 0
174 197 0
170 195 0
174 196 0
176 199 0
175 198 0
175 197 0
173 196 0
173 196 0
174 197 0
175 198 0
173 196 0
174 197 0
174 198 0
176 198 0
171 195 0
173 197 0
174 198 0
173 197 0
174 197 0
175 198 0
174 198 0
173 197 0
177 199 0
174 197 0
173 197 0
174 198 0
174 197 0
174 198 0
173 197 0
176 198 0
175 198 0
172 195 0
175 198 0
174 198 0
176 198 0
173 196 0
174 197 0
174 198 0
175 198 0
173 197 0
174 197 0
171 196 0
174 198 0
173 196 0
173 196 0
174 198 0
174 198 0
174 198 0
173 196 0
175 197 0
172 195 0
174 197 0
172 196 0
174 197 0
174 197 0
174 198 0
175 198 0
175 198 0
174 198 0
174 198 0
174 198 0
174 197 0
174 197 0
174 198 0
174 198 0
174 197 0
175 198 0
175 198 0
174 198 0
174 198 0
174 197 0
173 196 0
172 196 0
175 198 0
179 201 92
188 209 151
202 222 227
208 228 255
208 228 255
208 228 255
208 228 255
207 228 255
207 228 255
207 228 255
207 228 255
207 228 255
207 228 255
207 228 255
207 228 255
207 228 255
207 228 255
207 228 255
207 228 255
207 228 255
207 228 255
207 227 255
207 227 255
207 227 255
207 227 255
206 227 255
206 227 255
206 227 255
206 227 255
206 227 255
206 227 255
206 227 255
206 227 255
206 227 255
206 227 255
206 227 255
206 227 255
206 227 255
206 227 255
206 227 255
206 227 255
206 227 255
206 227 255
206 227 255
205 227 255
205 227 255
205 227 255
205 227 255
205 227 255
205 227 255
205 227 255
205 227 255
205 227 255
205 227 255
205 227 255
205 227 255
205 226 255
205 226 255
205 226 255
205 226 255
205 226 255
205 226 255
205 226 255
205 226 255
205 226 255
204 226 255
204 226 255
204 226 255
204 226 255
204 226 255
204 226 255
204 226 255
204 226 255
204 226 255
204 226 255
204 226 255
203 225 255
169 192 231
100 128 189
62 98 170
62 99 175
63 99 175
62 98 170
62 98 167
62 99 169
62 99 173
62 99 170
62 98 168
62 98 167
61 98 167
63 99 170
62 99 170
62 99 171
62 99 171
62 99 168
63 99 174
61 97 164
62 99 169
62 98 167
61 98 166
62 98 167
62 99 171
61 98 162
62 99 168
62 99 170
62 98 164
62 99 169
62 99 175
62 98 168
62 99 175
63 99 167
63 99 173
62 98 162
62 99 167
63 99 169
62 98 165
63 99 171
61 97 164
62 99 170
62 98 169
62 98 168
63 100 175
62 98 168
62 99 173
63 99 173
62 99 175
62 99 170
61 98 168
62 98 162
62 99 173
62 98 168
62 98 172
62 99 174
62 99 177
62 99 171
98 126 189
173 196 232
204 226 255
204 226 255
204 226 255
204 226 255
204 226 255
204 226 255
204 226 255
204 226 255
204 226 255
204 226 255
204 226 255
204 226 255
205 226 255
205 226 255
205 226 255
205 226 255
205 226 255
205 226 255
205 226 255
205 226 255
205 226 255
205 227 255
205 227 255
205 227 255
205 227 255
205 227 255
205 227 255
205 227 255
205 227 255
205 227 255
205 227 255
205 227 255
205 227 255
206 227 255
206 227 255
206 227 255
206 227 255
206 227 255
206 227 255
206 227 255
206 227 255
206 227 255
206 227 255
206 227 255
206 227 255
206 227 255
206 227 255
206 227 255
206 227 255
206 227 255
206 227 255
206 227 255
207 227 255
207 227 255
207 227 255
207 227 255
207 228 255
207 228 255
207 228 255
207 228 255
207 228 255
207 228 255
207 228 255
207 228 255
207 228 255
207 228 255
207 228 255
207 228 255
207 228 255
207 228 255
208 228 255
208 228 255
208 228 255
207 228 254
191 207 225
171 183 190
135 137 115
125 123 82
129 128 86
132 131 87
136 135 90
137 136 91
134 132 89
140 139 93
140 139 93
139 138 93
134 133 89
145 143 96
139 138 93
133 132 89
140 139 93
134 133 90
134 132 89
148 147 99
141 140 94
143 142 95
139 138 93
143 141 95
145 144 96
141 140 94
139 137 92
138 137 92
143 141 94
147 146 98
127 125 84
134 133 89
134 132 88
136 135 90
139 137 91
137 136 91
146 145 97
150 148 99
148 146 97
138 136 91
139 137 91
125 124 83
142 141 94
145 142 95
144 142 95
150 148 99
137 135 89
144 142 94
143 140 93
148 146 97
144 142 95
140 137 90
152 150 99
140 136 89
149 146 96
137 135 90
141 138 91
148 146 97
142 139 92
146 143 95
134 131 87
141 139 93
145 142 93
153 150 100
140 136 88
147 144 95
143 139 92
134 132 87
154 150 99
136 133 87
145 142 92
141 138 89
147 143 91
145 141 91
128 126 82
130 127 82
134 132 85
138 135 87
137 133 87
138 135 86
137 132 84
133 130 84
130 126 80
144 139 90
142 138 90
136 133 84
130 126 81
129 125 79
133 128 81
147 147 114
158 167 171
204 220 239
211 229 254
212 230 255
212 230 255
212 230 255
212 230 255
208 227 238
193 213 184
175 199 72
172 195 0
170 194 0
173 196 0
172 196 0
170 194 0
172 196 0
173 196 0
172 196 0
174 197 0
172 196 0
175 198 0
173 197 0
174 197 0
172 196 0
174 197 0
172 196 0
175 198 0
172 196 0
172 195 0
173 196 0
173 196 0
171 194 0
172 195 0
173 197 0
174 197 0
175 198 0
173 197 0
173 197 0
173 197 0
175 198 0
174 198 0
173 197 0
174 197 0
175 198 0
173 197 0
174 197 0
173 197 0
174 197 0
174 198 0
174 197 0
175 198 0
173 197 0
173 197 0
173 196 0
175 198 0
173 197 0
173 197 0
173 197 0
174 197 0
174 197 0
174 197 0
174 198 0
174 197 0
174 197 0
173 197 0
173 197 0
173 197 0
174 197 0
172 196 0
174 197 0
174 197 0
173 196 0
174 198 0
173 197 0
175 198 0
175 198 0
173 197 0
173 196 0
176 199 0
173 196 0
174 197 0
174 198 0
174 197 0
173 197 0
173 197 0
173 197 0
175 198 0
174 197 0
172 195 0
173 197 0
173 196 0
174 197 0
173 197 0
174 197 0
174 197 0
173 196 0
174 197 0
174 198 0
173 197 0
173 197 0
175 198 0
175 198 0
180 203 99
189 211 161
203 224 234
208 228 255
208 228 255
208 228 255
208 228 255
208 228 255
207 228 255
207 228 255
207 228 255
207 228 255
207 228 255
207 228 255
207 228 255
207 228 255
207 228 255
207 228 255
207 228 255
207 228 255
207 228 255
207 228 255
207 227 255
207 227 255
207 227 255
207 227 255
206 227 255
206 227 255
206 227 255
206 227 255
206 227 255
206 227 255
206 227 255
206 227 255
206 227 255
206 227 255
206 227 255
206 227 255
206 227 255
206 227 255
206 227 255
206 227 255
206 227 255
206 227 255
206 227 255
205 227 255
205 227 255
205 227 255
205 227 255
205 227 255
205 227 255
205 227 255
205 227 255
205 227 255
205 227 255
205 227 255
205 227 255
205 227 255
205 226 255
205 226 255
205 226 255
205 226 255
205 226 255
205 226 255
205 226 255
205 226 255
205 226 255
205 226 255
204 226 255
204 226 255
204 226 255
204 226 255
173 196 235
94 123 187
62 99 170
62 99 172
62 99 171
62 98 170
62 98 168
62 99 172
63 99 172
63 99 175
62 98 163
62 98 172
62 99 171
62 98 163
62 99 173
62 99 173
62 99 173
62 98 170
62 98 166
62 98 168
62 99 168
62 99 168
62 98 166
63 99 175
63 99 173
63 99 168
62 98 165
61 98 162
63 99 171
62 98 164
62 98 167
63 99 170
62 99 170
63 99 168
62 99 168
62 99 169
62 99 171
63 100 169
62 99 168
62 99 169
62 98 168
63 99 168
63 99 171
62 99 169
63 99 168
62 98 169
63 99 172
62 98 169
61 97 165
63 99 174
62 98 165
63 99 170
61 98 165
62 99 171
61 97 162
62 98 163
62 99 167
62 98 168
62 98 169
62 98 172
62 99 171
62 99 170
108 135 192
173 195 232
204 226 255
204 226 255
204 226 255
205 226 255
205 226 255
205 226 255
205 226 255
205 226 255
205 226 255
205 226 255
205 226 255
205 226 255
205 226 255
205 226 255
205 227 255
205 227 255
205 227 255
205 227 255
205 227 255
205 227 255
205 227 255
205 227 255
205 227 255
205 227 255
205 227 255
205 227 255
205 227 255
206 227 255
206 227 255
206 227 255
206 227 255
206 227 255
206 227 255
206 227 255
206 227 255
206 227 255
206 227 255
206 227 255
206 227 255
206 227 255
206 227 255
206 227 255
206 227 255
206 227 255
206 227 255
206 227 255
207 227 255
207 227 255
207 227 255
207 227 255
207 228 255
207 228 255
207 228 255
207 228 255
207 228 255
207 228 255
207 228 255
207 228 255
207 228 255
207 228 255
207 228 255
207 228 255
207 228 255
207 228 255
208 228 255
208 228 255
208 228 255
208 228 255
208 228 255
192 209 230
172 183 185
150 154 136
128 126 84
146 144 97
143 141 95
135 134 90
135 134 90
140 138 93
132 130 87
135 133 90
134 133 90
133 132 89
139 138 93
139 138 93
144 143 96
139 138 93
139 138 93
140 139 93
135 134 90
141 141 95
147 145 97
139 139 93
137 136 91
144 142 95
141 139 93
144 142 95
137 136 92
138 138 93
142 141 95
135 134 90
142 140 94
153 151 101
138 138 93
138 137 91
144 143 96
150 148 99
151 150 101
145 143 96
148 146 98
151 150 101
148 146 98
146 143 95
148 146 97
143 141 94
148 145 97
146 144 95
155 152 102
154 151 101
145 143 95
152 149 99
146 143 93
144 141 93
153 151 101
143 140 92
155 151 99
139 137 89
149 147 97
156 153 101
146 143 95
136 133 88
141 138 91
150 146 97
141 138 90
143 139 92
143 140 93
151 148 97
144 141 90
140 138 90
138 135 87
139 136 88
146 143 95
148 144 94
147 144 93
120 118 77
144 141 92
139 136 89
137 135 90
141 137 88
142 139 89
142 137 88
140 136 89
137 133 87
145 142 93
150 145 94
138 134 86
134 131 83
133 129 83
131 128 81
137 134 87
145 141 93
130 127 82
123 120 76
135 131 84
138 133 85
136 138 116
179 188 189
203 218 237
212 230 255
180 202 117
174 197 0
172 196 0
174 197 0
174 197 0
172 195 0
173 196 0
172 195 0
173 197 0
173 196 0
174 197 0
173 197 0
173 196 0
173 197 0
172 195 0
172 196 0
173 197 0
173 197 0
172 195 0
172 196 0
175 198 0
174 197 0
173 196 0
170 194 0
174 198 0
176 198 0
173 196 0
173 196 0
174 198 0
174 197 0
173 197 0
174 196 0
175 198 0
173 197 0
173 197 0
174 198 0
174 197 0
176 199 0
173 196 0
175 197 0
174 197 0
172 195 0
174 197 0
172 196 0
175 198 0
173 196 0
173 196 0
174 197 0
173 197 0
175 198 0
174 197 0
173 197 0
175 198 0
172 196 0
173 196 0
175 198 0
173 196 0
174 198 0
172 196 0
174 197 0
175 198 0
173 196 0
173 197 0
173 196 0
174 198 0
174 197 0
174 198 0
172 196 0
174 197 0
172 195 0
174 198 0
173 196 0
174 198 0
174 198 0
173 197 0
172 196 0
173 197 0
173 197 0
174 197 0
175 198 0
174 197 0
174 197 0
174 197 0
175 198 0
174 198 0
174 197 0
175 198 0
173 197 0
175 198 0
175 198 0
173 197 0
175 198 0
175 198 0
175 197 0
171 196 0
176 198 0
173 197 0
175 198 0
177 199 0
186 207 130
194 216 191
206 226 245
208 228 255
208 228 255
208 228 255
208 228 255
208 228 255
208 228 255
207 228 255
207 228 255
207 228 255
207 228 255
207 228 255
207 228 255
207 228 255
207 228 255
207 228 255
207 228 255
207 228 255
207 228 255
207 228 255
207 228 255
207 227 255
207 227 255
207 227 255
207 227 255
207 227 255
206 227 255
206 227 255
206 227 255
206 227 255
206 227 255
206 227 255
206 227 255
206 227 255
206 227 255
206 227 255
206 227 255
206 227 255
206 227 255
206 227 255
206 227 255
206 227 255
206 227 255
206 227 255
206 227 255
205 227 255
205 227 255
205 227 255
205 227 255
205 227 255
205 227 255
205 227 255
205 227 255
205 227 255
205 227 255
205 227 255
205 227 255
205 227 255
205 227 255
205 226 255
205 226 255
205 226 255
205 226 255
205 226 255
205 226 255
189 211 244
110 137 194
62 99 172
62 98 163
62 99 170
62 99 172
62 98 168
62 98 166
62 98 170
63 99 175
61 98 165
63 99 169
62 99 170
61 98 165
62 98 162
62 98 164
62 98 168
63 99 173
62 99 167
62 99 169
62 99 172
62 98 167
62 99 167
62 98 167
62 99 169
63 99 171
62 98 161
62 99 173
62 98 168
62 98 169
62 99 168
62 98 162
62 98 164
62 99 167
63 100 173
63 99 171
62 99 173
62 98 167
62 98 166
62 99 170
62 98 165
61 98 163
62 99 171
63 99 177
62 98 165
62 99 168
63 99 168
62 98 163
62 98 164
62 99 171
62 98 164
62 99 169
61 98 168
62 99 172
61 96 160
62 98 167
62 99 171
61 97 166
62 98 170
62 98 166
63 98 168
62 98 168
62 98 170
62 98 168
62 98 169
62 98 172
117 143 192
192 214 247
205 226 255
205 226 255
205 226 255
205 226 255
205 226 255
205 226 255
205 227 255
205 227 255
205 227 255
205 227 255
205 227 255
205 227 255
205 227 255
205 227 255
205 227 255
205 227 255
205 227 255
205 227 255
205 227 255
205 227 255
206 227 255
206 227 255
206 227 255
206 227 255
206 227 255
206 227 255
206 227 255
206 227 255
206 227 255
206 227 255
206 227 255
206 227 255
206 227 255
206 227 255
206 227 255
206 227 255
206 227 255
206 227 255
206 227 255
207 227 255
207 227 255
207 227 255
207 227 255
207 227 255
207 228 255
207 228 255
207 228 255
207 228 255
207 228 255
207 228 255
207 228 255
207 228 255
207 228 255
207 228 255
207 228 255
207 228 255
207 228 255
207 228 255
208 228 255
208 228 255
208 228 255
208 228 255
208 228 255
208 228 255
206 226 252
184 198 213
141 144 123
131 129 86
127 125 84
135 134 90
129 128 85
144 142 95
138 137 92
128 126 84
131 131 88
131 129 87
137 136 91
141 139 93
142 141 95
135 134 90
138 137 92
143 142 96
144 143 96
141 140 94
146 144 97
146 145 98
144 143 96
149 147 99
151 149 100
139 138 93
139 139 93
149 147 99
142 141 95
141 140 94
142 141 94
143 141 95
141 139 93
145 144 97
147 147 99
150 148 99
142 141 95
140 139 93
147 145 97
144 142 95
135 134 90
139 138 93
144 142 95
146 144 97
156 153 103
144 143 95
145 144 96
152 150 99
138 135 90
146 144 96
152 150 99
145 143 95
140 138 93
143 140 93
148 146 97
149 147 97
144 141 93
145 142 95
147 145 96
144 141 94
144 142 95
150 147 98
154 149 98
147 144 95
141 139 93
142 139 92
140 137 88
140 138 89
135 132 85
155 151 99
139 136 89
149 146 95
146 141 93
146 143 94
140 137 90
147 145 95
136 133 87
146 142 93
141 138 90
146 142 93
143 140 91
147 144 94
145 142 93
147 144 93
132 129 84
151 148 96
140 138 88
129 126 81
136 132 87
136 133 86
127 124 81
143 139 88
141 137 87
136 132 82
146 142 91
127 124 80
137 133 85
126 123 76
124 120 78
134 130 82
137 133 85
146 147 123
171 194 0
173 197 0
174 197 0
172 196 0
174 197 0
172 196 0
171 194 0
172 195 0
173 196 0
174 196 0
172 195 0
173 196 0
172 196 0
171 194 0
173 196 0
171 195 0
173 196 0
174 197 0
175 198 0
173 197 0
171 195 0
172 195 0
174 197 0
170 195 0
174 198 0
175 198 0
173 197 0
173 197 0
174 197 0
172 195 0
173 196 0
173 197 0
173 197 0
174 198 0
174 198 0
175 198 0
173 197 0
174 197 0
174 198 0
175 198 0
173 197 0
173 197 0
174 198 0
172 196 0
174 198 0
173 197 0
174 197 0
176 198 0
176 198 0
174 197 0
173 197 0
175 198 0
173 197 0
173 196 0
173 197 0
174 197 0
174 198 0
173 195 0
173 197 0
173 197 0
174 198 0
175 198 0
173 197 0
174 197 0
173 197 0
173 197 0
171 195 0
175 198 0
176 198 0
174 198 0
171 195 0
176 199 0
172 196 0
171 195 0
174 198 0
173 196 0
174 197 0
174 197 0
174 198 0
174 197 0
173 196 0
173 197 0
174 197 0
176 198 0
174 198 0
174 197 0
176 198 0
172 196 0
176 198 0
173 196 0
174 197 0
176 199 0
175 198 0
175 198 0
175 198 0
174 197 0
175 198 0
171 195 0
174 197 0
174 198 0
174 197 0
177 200 62
186 208 142
202 223 230
208 228 255
208 228 255
208 228 255
208 228 255
208 228 255
208 228 255
208 228 255
208 228 255
207 228 255
207 228 255
207 228 255
207 228 255
207 228 255
207 228 255
207 228 255
207 228 255
207 228 255
207 228 255
207 228 255
207 228 255
207 228 255
207 228 255
207 227 255
207 227 255
207 227 255
207 227 255
207 227 255
206 227 255
206 227 255
206 227 255
206 227 255
206 227 255
206 227 255
206 227 255
206 227 255
206 227 255
206 227 255
206 227 255
206 227 255
206 227 255
206 227 255
206 227 255
206 227 255
206 227 255
206 227 255
206 227 255
206 227 255
206 227 255
205 227 255
205 227 255
205 227 255
205 227 255
205 227 255
205 227 255
205 227 255
205 227 255
205 227 255
205 227 255
205 227 255
205 227 255
203 225 254
135 160 206
67 102 168
62 98 166
62 99 173
62 99 170
64 100 175
61 98 165
62 98 168
62 99 168
62 98 159
62 99 169
62 99 174
62 99 171
62 99 168
63 99 172
61 98 165
62 99 169
61 98 164
62 98 167
62 99 165
63 99 170
61 97 160
62 98 165
62 98 163
62 98 165
63 99 167
61 98 165
62 99 172
62 99 168
62 99 165
62 98 162
62 98 166
62 98 163
62 98 168
63 99 171
62 98 163
61 98 163
62 99 171
63 99 168
62 98 164
62 98 164
61 97 162
62 99 176
62 98 165
62 99 170
63 99 168
63 99 171
62 98 165
63 99 169
62 98 159
62 98 168
62 99 169
63 99 169
62 98 170
62 98 168
62 99 172
63 100 175
62 99 168
62 98 165
62 99 175
62 98 162
62 98 163
62 98 161
62 99 168
62 98 167
62 99 172
62 99 175
62 98 169
70 104 171
149 173 217
203 225 254
205 227 255
205 227 255
205 227 255
205 227 255
205 227 255
205 227 255
205 227 255
205 227 255
205 227 255
205 227 255
205 227 255
205 227 255
206 227 255
206 227 255
206 227 255
206 227 255
206 227 255
206 227 255
206 227 255
206 227 255
206 227 255
206 227 255
206 227 255
206 227 255
206 227 255
206 227 255
206 227 255
206 227 255
206 227 255
206 227 255
206 227 255
206 227 255
206 227 255
207 227 255
207 227 255
207 227 255
207 227 255
207 227 255
207 228 255
207 228 255
207 228 255
207 228 255
207 228 255
207 228 255
207 228 255
207 228 255
207 228 255
207 228 255
207 228 255
207 228 255
207 228 255
207 228 255
208 228 255
208 228 255
208 228 255
208 228 255
208 228 255
208 228 255
208 228 255
208 228 255
189 205 222
167 176 173
133 131 90
132 130 87
137 136 91
135 133 89
142 140 94
130 129 86
132 131 88
124 123 82
136 135 90
143 142 95
139 138 93
145 144 97
134 133 89
145 144 97
147 146 99
141 139 93
137 136 92
137 136 92
142 141 95
147 146 98
150 148 99
142 142 95
139 138 93
146 145 97
143 142 95
141 139 93
151 150 101
150 149 100
145 143 96
142 141 95
152 150 101
144 143 97
146 144 97
148 147 99
148 146 98
137 137 92
144 143 96
145 144 96
148 146 98
156 153 102
140 138 93
158 156 103
148 146 97
142 140 93
146 144 97
150 148 98
153 151 100
151 149 99
151 151 101
145 143 95
155 152 101
150 147 97
150 147 97
148 145 97
142 140 94
146 144 96
148 145 95
151 148 98
140 137 91
140 137 90
145 142 95
154 152 100
151 148 97
148 145 95
139 136 87
142 140 93
151 148 98
145 143 94
142 140 93
147 143 93
148 145 96
149 146 96
141 138 88
139 137 88
148 144 93
146 143 95
144 141 91
145 142 94
138 135 87
145 142 91
140 135 86
142 140 93
143 139 90
146 143 93
141 138 90
141 137 88
137 134 85
147 143 93
138 135 87
145 142 91
137 135 88
137 133 87
136 133 85
135 131 83
131 128 84
143 139 90
136 131 84
139 136 87
138 134 84
142 137 84
135 132 80
132 128 81
172 196 0
171 194 0
172 195 0
174 197 0
173 196 0
174 197 0
175 197 0
173 197 0
173 197 0
172 195 0
175 197 0
175 198 0
172 196 0
172 196 0
175 198 0
174 197 0
171 195 0
173 197 0
172 196 0
174 197 0
174 197 0
172 195 0
173 197 0
173 197 0
172 195 0
173 197 0
174 198 0
173 196 0
174 197 0
176 199 0
172 196 0
173 197 0
171 195 0
175 198 0
174 197 0
174 198 0
173 197 0
175 198 0
173 196 0
173 197 0
176 199 0
173 197 0
173 197 0
175 197 0
174 197 0
172 195 0
174 198 0
174 197 0
173 197 0
173 197 0
174 197 0
172 196 0
175 198 0
174 197 0
173 196 0
172 195 0
175 198 0
175 198 0
175 198 0
175 198 0
173 197 0
174 198 0
172 196 0
173 197 0
176 198 0
172 196 0
173 196 0
175 198 0
173 197 0
176 199 0
174 197 0
174 197 0
175 198 0
173 197 0
174 197 0
171 195 0
174 197 0
176 199 0
175 198 0
175 198 0
174 197 0
173 196 0
174 197 0
173 196 0
174 197 0
173 197 0
175 198 0
173 197 0
173 197 0
172 196 0
173 197 0
175 198 0
172 196 0
175 198 0
174 197 0
175 198 0
174 197 0
174 197 0
173 197 0
173 197 0
174 198 0
173 197 0
175 198 0
175 198 0
185 207 128
198 219 209
208 228 254
208 228 255
208 228 255
208 228 255
208 228 255
208 228 255
208 228 255
208 228 255
208 228 255
208 228 255
207 228 255
207 228 255
207 228 255
207 228 255
207 228 255
207 228 255
207 228 255
207 228 255
207 228 255
207 228 255
207 228 255
207 228 255
207 228 255
207 228 255
207 228 255
207 227 255
207 227 255
207 227 255
207 227 255
207 227 255
206 227 255
206 227 255
206 227 255
206 227 255
206 227 255
206 227 255
206 227 255
206 227 255
206 227 255
206 227 255
206 227 255
206 227 255
206 227 255
206 227 255
206 227 255
206 227 255
206 227 255
206 227 255
206 227 255
206 227 255
206 227 255
206 227 255
205 227 255
205 227 255
205 227 255
205 227 255
205 227 255
176 198 231
96 124 183
61 98 161
61 98 161
62 98 164
62 98 167
61 98 170
62 99 169
62 99 170
63 99 171
62 98 165
62 98 167
62 98 168
62 99 168
61 98 162
62 98 166
62 98 167
62 98 165
62 98 162
62 98 163
62 98 168
63 99 171
62 99 170
61 98 163
63 100 171
63 99 170
63 99 169
62 98 164
62 98 164
62 98 163
62 99 169
63 99 167
61 98 166
62 98 163
61 98 162
62 99 168
63 99 169
62 98 166
62 99 168
62 99 170
61 97 166
62 98 163
62 98 166
62 99 166
62 98 161
63 99 167
63 100 173
62 98 166
63 99 169
62 98 168
61 98 165
63 99 172
61 97 160
62 99 169
62 98 166
62 98 163
61 98 165
62 98 160
63 99 172
62 99 168
62 98 162
62 98 167
62 98 167
62 98 163
61 98 169
61 98 169
62 99 168
62 98 165
61 98 170
62 98 169
61 96 168
62 98 170
85 115 176
171 193 231
205 227 255
205 227 255
205 227 255
205 227 255
205 227 255
206 227 255
206 227 255
206 227 255
206 227 255
206 227 255
206 227 255
206 227 255
206 227 255
206 227 255
206 227 255
206 227 255
206 227 255
206 227 255
206 227 255
206 227 255
206 227 255
206 227 255
206 227 255
206 227 255
206 227 255
206 227 255
206 227 255
207 227 255
207 227 255
207 227 255
207 227 255
207 227 255
207 228 255
207 228 255
207 228 255
207 228 255
207 228 255
207 228 255
207 228 255
207 228 255
207 228 255
207 228 255
207 228 255
207 228 255
207 228 255
207 228 255
207 228 255
208 228 255
208 228 255
208 228 255
208 228 255
208 228 255
208 228 255
208 228 255
208 228 255
208 228 255
206 226 251
184 198 211
164 170 156
140 138 93
130 128 85
116 114 76
141 140 94
127 125 83
128 126 84
142 141 95
140 139 93
148 147 99
133 132 89
133 132 89
141 140 94
140 139 93
143 142 95
145 143 96
149 147 99
151 149 99
141 140 95
139 139 93
131 130 87
141 139 93
153 152 102
142 142 95
153 152 102
146 146 98
146 144 97
152 152 102
148 146 98
144 143 96
147 146 98
154 152 101
154 152 102
150 148 99
150 149 99
160 158 106
139 137 91
153 151 101
140 139 93
150 148 99
153 151 101
145 143 95
160 157 104
143 141 95
148 147 98
149 146 97
149 148 99
151 149 99
144 143 96
149 147 97
148 146 96
141 139 93
143 141 95
149 147 97
147 145 96
153 149 98
149 147 99
148 146 96
148 145 95
146 145 97
155 152 100
147 145 96
163 159 104
159 156 102
153 149 98
146 144 96
150 146 95
149 146 97
151 148 98
141 139 92
146 143 94
152 149 97
150 147 96
143 140 92
149 146 95
146 144 95
147 143 94
149 145 93
148 144 94
139 135 87
149 146 93
152 149 97
147 142 92
144 140 93
143 138 89
141 138 92
144 140 90
140 138 87
143 140 92
134 132 85
132 129 83
142 138 89
133 129 84
142 138 89
135 131 83
136 134 86
136 132 84
139 134 84
136 133 87
138 134 86
141 138 86
139 135 84
142 138 87
142 138 90
133 130 83
172 196 0
172 195 0
176 198 0
175 198 0
174 197 0
176 198 0
174 198 0
171 194 0
174 198 0
173 196 0
168 192 0
171 195 0
174 197 0
175 198 0
172 197 0
173 197 0
173 196 0
176 199 0
173 197 0
174 197 0
173 196 0
173 197 0
174 197 0
173 197 0
172 196 0
175 198 0
174 197 0
174 197 0
175 198 0
173 197 0
174 197 0
175 198 0
175 198 0
173 197 0
172 195 0
173 196 0
174 198 0
172 195 0
174 198 0
174 198 0
172 196 0
175 198 0
175 198 0
173 197 0
175 197 0
173 196 0
174 197 0
175 198 0
173 196 0
175 198 0
173 197 0
175 198 0
173 197 0
170 194 0
174 197 0
172 196 0
173 197 0
173 197 0
173 197 0
173 197 0
173 197 0
175 198 0
175 198 0
172 196 0
175 198 0
173 197 0
174 197 0
176 198 0
175 198 0
175 198 0
173 197 0
175 198 0
174 198 0
175 198 0
174 197 0
174 198 0
174 197 0
174 198 0
174 198 0
175 198 0
175 198 0
173 197 0
175 198 0
172 196 0
172 195 0
173 197 0
174 198 0
174 197 0
174 198 0
175 198 0
172 196 0
174 198 0
173 197 0
175 198 0
172 196 0
173 197 0
173 197 0
172 196 0
172 196 0
174 198 0
173 197 0
175 198 0
175 198 0
175 198 0
174 198 0
174 197 0
176 199 62
193 214 184
206 226 245
208 228 255
208 228 255
208 228 255
208 228 255
208 228 255
208 228 255
208 228 255
208 228 255
208 228 255
208 228 255
208 228 255
208 228 255
207 228 255
207 228 255
207 228 255
207 228 255
207 228 255
207 228 255
207 228 255
207 228 255
207 228 255
207 228 255
207 228 255
207 228 255
207 228 255
207 228 255
207 228 255
207 227 255
207 227 255
207 227 255
207 227 255
207 227 255
206 227 255
206 227 255
206 227 255
206 227 255
206 227 255
206 227 255
206 227 255
206 227 255
206 227 255
206 227 255
206 227 255
206 227 255
206 227 255
206 227 255
206 227 255
206 227 255
206 227 255
206 227 255
206 227 255
206 227 255
203 224 254
156 179 217
62 98 165
62 98 165
62 98 171
62 98 169
61 98 161
62 99 165
63 99 169
63 99 170
62 98 162
62 98 162
62 98 165
61 98 160
62 98 162
62 99 165
62 98 168
62 99 169
62 98 168
62 99 170
62 98 164
62 98 166
62 99 165
63 99 167
63 99 167
62 98 162
62 98 162
62 98 161
61 97 161
62 99 169
62 99 166
63 99 163
61 98 163
62 98 162
61 98 163
62 98 163
63 99 166
62 98 166
62 99 165
63 99 166
62 98 165
62 98 162
62 98 167
63 99 169
62 98 163
62 98 164
62 99 169
60 96 156
62 98 161
62 99 166
61 97 167
62 99 171
62 99 173
62 98 162
63 98 162
63 99 170
62 98 166
62 98 161
62 98 168
63 99 172
61 97 160
61 97 157
62 98 168
62 99 169
63 99 170
62 98 165
63 99 173
61 98 167
62 98 164
62 98 168
62 99 170
61 98 162
63 99 169
61 97 162
62 98 170
63 99 170
150 173 216
202 223 252
206 227 255
206 227 255
206 227 255
206 227 255
206 227 255
206 227 255
206 227 255
206 227 255
206 227 255
206 227 255
206 227 255
206 227 255
206 227 255
206 227 255
206 227 255
206 227 255
206 227 255
206 227 255
206 227 255
206 227 255
207 227 255
207 227 255
207 227 255
207 227 255
207 227 255
207 228 255
207 228 255
207 228 255
207 228 255
207 228 255
207 228 255
207 228 255
207 228 255
207 228 255
207 228 255
207 228 255
207 228 255
207 228 255
207 228 255
207 228 255
208 228 255
208 228 255
208 228 255
208 228 255
208 228 255
208 228 255
208 228 255
208 228 255
208 228 255
208 228 255
208 228 255
208 228 255
201 220 246
178 191 199
148 150 127
136 134 89
130 129 86
142 140 94
138 135 90
136 136 91
137 136 91
136 135 90
146 144 97
141 139 93
146 145 97
143 142 95
145 144 97
147 146 98
140 139 93
138 138 93
142 141 95
140 139 93
146 145 97
141 140 94
143 142 95
141 140 94
146 144 97
148 147 99
149 147 99
145 144 97
141 140 94
148 146 98
150 149 100
156 155 104
153 152 103
153 151 101
145 143 96
147 145 97
152 150 101
145 144 97
152 151 101
158 156 104
147 146 97
143 141 95
154 151 100
148 146 97
156 154 103
153 150 100
144 142 95
153 151 101
150 148 99
149 146 97
140 139 93
152 149 99
157 155 103
152 149 99
146 143 95
152 150 100
151 148 98
153 149 98
155 152 101
150 148 98
153 150 98
150 147 98
153 151 101
154 151 100
151 148 97
154 151 99
151 148 98
149 146 95
151 148 98
150 147 95
153 149 98
151 149 97
150 147 97
152 148 97
145 141 90
152 149 99
150 146 95
152 148 97
155 152 99
146 144 94
147 144 94
155 151 97
146 143 95
151 147 95
149 145 94
149 146 95
142 139 90
151 148 96
136 132 86
141 138 89
139 137 88
142 138 87
143 138 90
135 132 84
145 140 90
133 129 83
145 142 92
149 145 94
141 137 87
138 136 87
151 146 91
148 145 92
137 133 86
145 141 90
148 144 94
144 139 87
131 127 81
137 133 86
133 130 84
171 195 0
174 197 0
173 196 0
173 196 0
176 198 0
174 197 0
174 198 0
175 198 0
175 198 0
172 195 0
172 196 0
173 195 0
173 196 0
172 195 0
173 196 0
173 196 0
171 195 0
174 198 0
173 197 0
174 197 0
172 196 0
173 197 0
174 197 0
173 196 0
172 196 0
175 198 0
175 198 0
175 198 0
172 196 0
175 198 0
175 198 0
174 198 0
172 196 0
174 198 0
174 197 0
173 196 0
174 198 0
172 197 0
174 197 0
174 197 0
174 197 0
173 197 0
174 197 0
170 193 0
174 198 0
173 196 0
173 197 0
173 196 0
174 198 0
174 197 0
173 196 0
174 197 0
174 198 0
175 198 0
175 198 0
175 198 0
173 197 0
173 197 0
174 197 0
172 195 0
175 198 0
174 197 0
173 197 0
174 198 0
175 198 0
175 198 0
174 197 0
175 198 0
170 194 0
175 198 0
174 198 0
175 198 0
174 197 0
173 197 0
174 197 0
173 197 0
175 198 0
174 197 0
174 198 0
176 198 0
174 198 0
175 198 0
177 199 0
174 197 0
173 197 0
174 197 0
174 197 0
173 197 0
173 197 0
174 198 0
174 198 0
173 197 0
176 198 0
174 198 0
174 197 0
173 197 0
174 196 0
174 197 0
175 198 0
174 197 0
175 198 0
174 197 0
172 195 0
173 197 0
173 196 0
176 199 0
175 198 0
175 198 0
179 202 80
190 211 171
208 228 253
208 228 255
208 228 255
208 228 255
208 228 255
208 228 255
208 228 255
208 228 255
208 228 255
208 228 255
208 228 255
208 228 255
208 228 255
208 228 255
208 228 255
207 228 255
207 228 255
207 228 255
207 228 255
207 228 255
207 228 255
207 228 255
207 228 255
207 228 255
207 228 255
207 228 255
207 228 255
207 228 255
207 228 255
207 228 255
207 228 255
207 227 255
207 227 255
207 227 255
207 227 255
207 227 255
206 227 255
206 227 255
206 227 255
206 227 255
206 227 255
206 227 255
206 227 255
206 227 255
206 227 255
206 227 255
206 227 255
206 227 255
206 227 255
206 227 255
192 214 246
103 131 185
61 98 166
62 98 167
62 98 163
61 97 161
62 98 163
62 98 169
62 98 163
62 98 162
63 99 171
62 98 164
62 98 166
64 100 174
62 98 165
63 99 167
62 98 164
62 99 169
62 98 161
63 99 170
61 97 156
63 99 168
61 97 157
62 98 159
64 100 169
61 98 164
63 99 164
62 98 165
61 97 162
62 98 165
61 97 156
61 97 158
62 98 162
63 99 166
62 98 162
62 98 160
63 99 170
61 97 161
62 98 165
62 98 164
62 98 161
61 98 166
62 99 169
62 99 167
63 99 171
63 99 165
63 99 165
62 98 162
61 97 160
62 98 160
62 98 166
62 99 168
62 99 166
63 99 166
62 99 171
62 98 168
62 98 165
61 97 165
61 98 159
63 99 172
63 99 170
61 98 167
62 98 161
61 97 162
62 98 161
62 99 165
61 98 168
62 98 167
62 98 167
61 98 169
62 98 163
62 98 169
62 98 164
61 98 168
62 97 166
62 98 163
63 99 169
62 98 162
114 140 193
195 217 248
206 227 255
206 227 255
206 227 255
206 227 255
206 227 255
206 227 255
206 227 255
206 227 255
206 227 255
206 227 255
206 227 255
206 227 255
206 227 255
206 227 255
207 227 255
207 227 255
207 227 255
207 227 255
207 227 255
207 228 255
207 228 255
207 228 255
207 228 255
207 228 255
207 228 255
207 228 255
207 228 255
207 228 255
207 228 255
207 228 255
207 228 255
207 228 255
207 228 255
207 228 255
208 228 255
208 228 255
208 228 255
208 228 255
208 228 255
208 228 255
208 228 255
208 228 255
208 228 255
208 228 255
208 228 255
208 228 255
208 228 255
208 228 255
208 228 255
208 228 254
170 180 184
129 130 102
127 124 83
130 128 85
141 139 93
141 139 93
138 137 92
136 135 90
144 142 95
143 142 95
139 138 93
145 144 97
139 139 93
143 141 95
148 147 99
151 151 101
142 141 95
148 147 99
147 146 98
145 144 97
148 147 99
148 147 99
148 147 99
142 142 96
135 134 90
154 152 102
148 147 98
150 148 99
145 144 97
144 143 96
150 149 100
149 147 99
152 151 101
152 151 102
152 151 101
147 144 96
152 150 100
151 149 99
152 149 99
153 150 100
152 150 100
151 149 100
153 151 101
157 155 104
151 149 100
157 155 104
151 148 99
146 144 96
153 151 101
148 146 97
148 146 97
160 157 104
150 148 97
144 142 95
164 161 107
156 154 102
158 154 102
155 152 100
154 152 101
149 146 97
153 150 100
155 152 101
147 145 97
140 138 92
156 154 102
154 152 101
156 152 101
155 152 100
156 153 101
157 154 101
146 143 95
151 148 97
155 151 96
151 147 95
149 146 95
158 153 100
146 143 95
140 138 91
154 149 95
152 150 98
144 141 91
144 140 92
149 145 94
141 139 90
149 147 97
147 144 96
145 142 93
156 153 101
152 148 97
147 145 93
142 139 90
139 136 87
145 142 93
148 144 94
151 147 95
139 136 89
153 149 97
145 142 93
137 134 87
147 142 91
153 150 96
149 144 90
146 141 89
145 141 91
149 145 95
141 136 86
140 136 85
149 146 94
149 144 90
143 138 87
173 196 0
173 196 0
176 198 0
172 196 0
172 195 0
172 196 0
173 197 0
174 197 0
176 199 0
172 195 0
174 197 0
174 198 0
174 198 0
173 197 0
174 197 0
175 197 0
174 197 0
174 197 0
174 197 0
173 197 0
172 196 0
173 197 0
175 198 0
175 197 0
175 198 0
172 195 0
174 198 0
175 198 0
172 196 0
173 197 0
172 196 0
173 197 0
176 199 0
174 198 0
172 196 0
174 198 0
174 197 0
173 197 0
174 198 0
172 196 0
174 198 0
172 196 0
171 195 0
174 198 0
174 197 0
175 198 0
173 197 0
174 198 0
175 198 0
174 197 0
174 198 0
173 197 0
172 196 0
176 198 0
173 197 0
173 196 0
174 197 0
171 196 0
173 197 0
174 198 0
174 197 0
175 198 0
173 197 0
174 197 0
172 196 0
175 198 0
175 198 0
175 198 0
174 198 0
175 198 0
174 197 0
174 197 0
173 197 0
175 198 0
173 197 0
175 198 0
175 198 0
174 198 0
173 197 0
173 197 0
174 196 0
175 198 0
173 197 0
173 196 0
175 198 0
176 199 0
173 197 0
173 197 0
175 198 0
175 198 0
174 197 0
175 198 0
175 198 0
175 198 0
174 198 0
174 197 0
175 198 0
174 198 0
175 198 0
173 196 0
172 196 0
175 198 0
172 195 0
173 197 0
172 196 0
174 197 0
174 198 0
176 199 0
173 197 0
176 198 0
175 199 72
193 215 186
208 228 253
208 228 255
208 228 255
208 228 255
208 228 255
208 228 255
208 228 255
208 228 255
208 228 255
208 228 255
208 228 255
208 228 255
208 228 255
208 228 255
208 228 255
208 228 255
208 228 255
208 228 255
207 228 255
207 228 255
207 228 255
207 228 255
207 228 255
207 228 255
207 228 255
207 228 255
207 228 255
207 228 255
207 228 255
207 228 255
207 228 255
207 228 255
207 228 255
207 228 255
207 227 255
207 227 255
207 227 255
207 227 255
207 227 255
207 227 255
206 227 255
206 227 255
206 227 255
206 227 255
206 227 255
206 227 255
206 227 255
171 193 230
87 117 180
62 99 170
62 98 167
63 99 172
62 98 158
62 98 164
62 98 164
63 99 172
61 97 158
62 98 164
62 98 167
62 98 165
63 99 170
62 99 167
62 98 164
62 98 163
62 98 167
62 98 162
63 99 167
62 99 165
62 99 166
62 98 163
63 99 165
62 99 168
62 99 164
61 97 161
62 98 166
62 99 167
62 99 167
61 97 163
62 98 164
61 97 156
62 98 166
62 98 166
62 98 163
62 98 163
63 99 166
61 97 151
62 98 162
62 98 161
62 99 165
61 97 157
63 99 163
62 99 168
62 98 163
62 98 161
62 98 165
61 97 157
63 100 172
62 98 166
63 99 170
62 99 165
62 98 164
62 98 167
63 99 163
61 97 159
61 97 158
62 98 164
62 98 165
62 99 171
62 98 166
63 99 167
62 98 166
61 98 164
63 99 168
61 97 161
62 99 166
63 99 170
62 98 159
63 98 163
61 98 165
61 97 160
62 99 168
63 98 170
61 97 166
61 96 159
61 97 161
61 97 169
61 97 162
78 110 173
173 195 230
206 227 255
206 227 255
206 227 255
206 227 255
206 227 255
206 227 255
206 227 255
207 227 255
207 227 255
207 227 255
207 227 255
207 227 255
207 227 255
207 228 255
207 228 255
207 228 255
207 228 255
207 228 255
207 228 255
207 228 255
207 228 255
207 228 255
207 228 255
207 228 255
207 228 255
207 228 255
207 228 255
207 228 255
207 228 255
208 228 255
208 228 255
208 228 255
208 228 255
208 228 255
208 228 255
208 228 255
208 228 255
208 228 255
208 228 255
208 228 255
208 228 255
208 228 255
208 228 255
208 228 255
208 228 255
208 228 255
205 224 249
174 188 200
140 141 114
132 130 86
141 139 93
140 138 92
142 140 93
142 142 95
133 131 87
134 132 89
140 138 93
131 130 87
138 137 92
144 143 96
151 150 101
142 142 95
147 146 98
143 142 96
148 146 98
149 148 100
147 146 98
146 145 98
147 146 98
139 139 93
147 146 98
150 148 99
151 149 100
149 148 99
148 146 98
146 144 97
153 151 101
147 146 98
149 148 99
149 148 99
144 142 95
149 147 99
151 149 100
149 148 99
150 149 101
149 147 98
155 153 103
150 147 98
149 147 99
146 144 96
152 150 101
151 150 101
151 149 100
155 153 103
154 152 102
147 144 95
149 148 99
152 150 100
160 157 104
154 151 99
156 154 103
153 150 99
151 149 99
154 152 101
152 149 99
149 147 97
150 147 97
160 157 104
150 148 97
149 147 97
148 146 97
156 154 102
153 150 99
156 154 101
151 147 96
153 151 99
157 155 102
158 155 101
152 148 97
162 158 104
148 145 93
160 156 103
149 145 95
153 150 99
151 148 95
147 143 93
144 141 93
146 141 92
151 148 98
149 146 96
150 147 95
148 145 93
143 141 93
151 148 96
158 153 99
156 153 100
141 138 90
138 135 87
149 145 92
140 136 87
153 148 95
150 145 91
146 143 93
149 145 95
153 148 93
152 149 95
139 136 84
144 139 86
144 139 86
145 140 89
145 141 91
141 137 87
142 138 89
150 145 92
147 143 91
140 137 90
149 144 90
140 137 88
145 141 90
173 196 0
175 198 0
173 197 0
174 197 0
173 197 0
173 196 0
175 198 0
173 196 0
174 197 0
173 197 0
173 197 0
174 197 0
174 197 0
176 198 0
175 198 0
173 197 0
177 199 0
174 197 0
174 198 0
173 197 0
176 198 0
173 196 0
174 198 0
176 198 0
172 196 0
174 198 0
172 196 0
172 196 0
175 198 0
175 198 0
173 197 0
174 198 0
174 197 0
174 197 0
174 197 0
175 198 0
175 198 0
172 197 0
175 198 0
174 198 0
174 197 0
173 197 0
174 197 0
173 196 0
173 197 0
174 197 0
174 198 0
174 197 0
175 198 0
173 197 0
175 198 0
174 197 0
174 198 0
175 198 0
174 197 0
174 198 0
174 198 0
175 198 0
174 197 0
173 196 0
173 197 0
174 197 0
174 197 0
172 196 0
172 196 0
175 198 0
172 196 0
177 199 0
176 199 0
174 197 0
174 197 0
172 196 0
172 196 0
174 197 0
173 196 0
175 198 0
175 198 0
171 196 0
174 197 0
175 198 0
174 197 0
172 197 0
172 196 0
174 197 0
174 197 0
175 198 0
175 197 0
173 196 0
174 198 0
173 197 0
174 198 0
172 196 0
173 196 0
174 197 0
175 198 0
171 195 0
174 197 0
173 197 0
175 198 0
174 197 0
176 199 0
173 197 0
173 197 0
173 197 0
175 198 0
175 198 0
172 195 0
172 196 0
174 198 0
175 198 0
175 198 0
175 198 0
179 202 88
197 218 203
209 228 255
208 228 255
208 228 255
208 228 255
208 228 255
208 228 255
208 228 255
208 228 255
208 228 255
208 228 255
208 228 255
208 228 255
208 228 255
208 228 255
208 228 255
208 228 255
208 228 255
208 228 255
208 228 255
208 228 255
208 228 255
207 228 255
207 228 255
207 228 255
207 228 255
207 228 255
207 228 255
207 228 255
207 228 255
207 228 255
207 228 255
207 228 255
207 228 255
207 228 255
207 228 255
207 228 255
207 228 255
207 228 255
207 227 255
207 227 255
207 227 255
207 227 255
207 227 255
207 227 255
152 175 217
65 101 170
61 97 162
63 99 169
62 98 164
61 98 165
62 98 163
61 98 159
62 98 163
62 98 168
61 98 167
61 98 161
63 99 168
61 97 157
62 99 168
61 97 157
62 98 162
62 98 165
62 98 163
63 99 170
62 99 163
62 98 164
63 99 167
61 97 157
63 99 165
62 98 168
62 98 165
62 98 164
62 98 160
61 97 160
62 98 164
61 97 160
61 98 161
62 98 158
63 99 168
63 99 169
61 97 159
62 98 166
62 98 160
61 98 160
62 98 160
62 98 159
62 98 165
62 98 164
62 98 158
62 98 165
62 98 162
63 99 167
62 98 164
62 98 165
61 97 157
62 98 157
62 98 168
62 98 161
63 99 167
61 98 165
61 97 161
61 97 160
62 98 163
62 98 168
63 99 168
62 98 157
62 99 165
62 99 166
62 98 164
62 98 164
62 98 162
62 99 167
62 97 158
61 97 166
61 96 157
64 100 173
62 98 163
62 97 162
62 98 168
62 98 165
62 98 164
62 98 168
61 97 162
62 98 169
62 98 162
62 97 169
65 99 168
156 178 217
207 227 255
207 227 255
207 227 255
207 227 255
207 227 255
207 227 255
207 228 255
207 228 255
207 228 255
207 228 255
207 228 255
207 228 255
207 228 255
207 228 255
207 228 255
207 228 255
207 228 255
207 228 255
207 228 255
207 228 255
207 228 255
207 228 255
207 228 255
208 228 255
208 228 255
208 228 255
208 228 255
208 228 255
208 228 255
208 228 255
208 228 255
208 228 255
208 228 255
208 228 255
208 228 255
208 228 255
208 228 255
208 228 255
208 228 255
208 228 255
208 228 255
208 228 255
208 228 255
208 228 253
176 188 196
131 131 99
135 132 87
135 133 88
137 135 90
133 132 88
133 131 88
138 136 91
140 138 93
144 142 95
142 140 94
149 147 98
153 152 102
147 146 98
143 142 95
146 145 97
124 123 83
147 146 98
148 147 98
146 145 97
146 145 98
147 146 98
152 151 102
154 153 103
152 150 101
152 150 101
143 142 95
155 153 103
150 148 99
145 143 96
151 150 101
160 158 106
152 151 101
149 147 98
153 151 101
148 146 98
153 151 101
152 150 101
157 155 104
149 148 99
148 146 97
153 151 101
154 151 101
156 154 103
157 154 103
156 154 103
152 150 99
152 149 99
148 146 98
153 151 99
164 161 107
151 149 100
150 148 99
155 152 101
153 151 100
151 149 99
155 152 100
148 146 96
154 151 100
160 158 104
158 155 103
151 149 99
154 151 100
157 154 102
153 151 100
158 156 104
160 157 103
155 151 99
154 150 98
151 147 97
154 151 100
148 145 95
157 153 100
153 150 99
153 151 99
149 145 95
156 153 101
150 146 95
154 150 99
150 147 97
155 151 99
155 152 98
154 151 99
152 149 98
153 149 96
150 147 96
157 154 101
154 150 97
143 140 90
146 143 93
149 145 95
148 145 95
150 146 95
143 139 91
154 150 95
147 143 93
152 148 95
155 151 99
152 147 95
151 147 92
147 144 93
145 141 91
152 148 93
155 150 97
145 141 90
145 143 90
136 133 84
147 143 90
142 138 86
141 138 90
136 132 80
146 141 91
140 137 87
148 143 94
174 197 0
174 198 0
173 197 0
173 197 0
175 198 0
173 196 0
172 196 0
173 197 0
173 197 0
177 199 0
171 195 0
175 198 0
175 198 0
176 199 0
174 197 0
174 197 0
172 196 0
175 198 0
173 196 0
174 198 0
174 198 0
174 197 0
176 198 0
173 195 0
174 197 0
174 197 0
173 197 0
174 198 0
174 197 0
174 198 0
173 197 0
174 197 0
175 198 0
174 198 0
172 196 0
172 196 0
173 197 0
174 198 0
173 197 0
175 198 0
172 197 0
175 198 0
174 197 0
174 197 0
173 197 0
173 197 0
175 198 0
174 198 0
174 198 0
173 197 0
175 198 0
176 198 0
174 198 0
175 198 0
174 198 0
175 198 0
172 196 0
173 197 0
173 197 0
173 197 0
174 198 0
174 198 0
176 199 0
175 198 0
174 197 0
173 197 0
174 198 0
174 198 0
175 198 0
174 198 0
173 197 0
175 198 0
175 198 0
173 197 0
174 198 0
175 198 0
173 197 0
173 197 0
176 198 0
174 198 0
173 197 0
176 198 0
174 197 0
175 198 0
175 198 0
174 198 0
173 196 0
173 197 0
171 195 0
174 198 0
173 197 0
175 198 0
173 197 0
175 198 0
176 199 0
174 198 0
175 198 0
175 198 0
175 198 0
174 198 0
171 195 0
175 198 0
174 198 0
173 196 0
173 197 0
173 196 0
174 197 0
174 198 0
172 196 0
176 198 0
173 197 0
175 198 0
173 197 0
176 199 0
180 203 105
199 220 212
209 229 255
209 229 255
209 228 255
208 228 255
208 228 255
208 228 255
208 228 255
208 228 255
208 228 255
208 228 255
208 228 255
208 228 255
208 228 255
208 228 255
208 228 255
208 228 255
208 228 255
208 228 255
208 228 255
208 228 255
208 228 255
208 228 255
208 228 255
208 228 255
208 228 255
207 228 255
207 228 255
207 228 255
207 228 255
207 228 255
207 228 255
207 228 255
207 228 255
207 228 255
207 228 255
207 228 255
207 228 255
207 228 255
207 228 255
207 228 255
205 226 254
136 160 202
61 98 162
62 98 168
61 98 168
62 98 165
62 99 164
62 99 165
62 99 166
62 99 173
62 98 162
62 99 166
62 98 166
62 98 161
63 99 169
63 99 164
61 97 161
62 99 165
62 98 161
62 98 162
62 98 162
62 98 162
63 99 165
64 100 170
61 97 156
62 98 164
62 98 161
62 99 168
62 98 166
61 97 160
63 99 165
62 98 167
61 97 159
62 98 160
62 98 165
62 98 162
62 99 169
63 99 165
61 97 155
63 99 167
62 98 163
62 98 159
62 98 164
62 98 166
60 96 150
61 97 157
62 98 162
62 98 161
61 97 155
62 98 158
61 98 162
61 97 157
62 99 168
63 99 165
62 98 168
63 99 165
63 99 164
62 97 163
63 100 173
61 97 157
62 98 160
63 99 167
62 98 160
62 98 158
61 97 161
62 97 162
62 98 165
62 99 168
62 98 165
62 99 169
62 98 161
62 98 164
61 96 158
62 98 165
62 98 170
62 98 168
63 99 167
62 98 166
62 98 166
61 97 158
61 97 163
61 98 166
62 98 166
62 98 169
60 95 157
60 95 162
135 158 204
205 226 254
207 228 255
207 228 255
207 228 255
207 228 255
207 228 255
207 228 255
207 228 255
207 228 255
207 228 255
207 228 255
207 228 255
207 228 255
207 228 255
207 228 255
207 228 255
208 228 255
208 228 255
208 228 255
208 228 255
208 228 255
208 228 255
208 228 255
208 228 255
208 228 255
208 228 255
208 228 255
208 228 255
208 228 255
208 228 255
208 228 255
208 228 255
208 228 255
208 228 255
208 228 255
208 228 255
208 228 255
208 228 255
209 228 255
209 229 255
209 229 255
187 201 216
149 153 134
129 127 84
141 139 93
137 136 91
140 138 92
141 139 93
150 148 99
147 146 97
145 143 96
148 146 98
144 142 95
144 142 95
135 134 90
157 155 104
148 147 99
144 142 95
141 140 94
147 146 98
145 144 97
156 155 104
143 141 95
150 148 99
144 143 96
150 149 100
149 148 99
152 149 99
151 149 100
150 149 100
140 138 93
144 143 96
151 149 100
153 151 101
156 154 103
153 151 101
148 147 99
151 150 101
151 149 100
151 149 100
150 149 100
160 157 105
160 158 105
160 157 104
158 155 104
157 155 104
145 143 96
152 149 99
149 147 98
161 158 104
153 150 99
160 158 106
151 149 99
158 155 103
159 157 104
153 151 100
156 152 101
162 159 106
156 153 101
150 147 97
161 158 105
155 153 101
156 153 101
148 146 97
161 158 103
161 157 103
153 151 101
159 156 102
157 154 101
149 147 97
158 155 103
154 151 101
140 138 91
155 153 101
148 145 96
156 152 99
162 159 105
150 147 95
152 148 95
145 141 92
152 148 96
150 147 97
155 152 100
149 146 95
156 153 99
154 151 97
149 146 96
152 148 94
158 153 97
148 145 94
152 149 97
144 140 90
144 141 90
157 153 99
143 141 90
142 138 87
157 153 99
151 147 95
144 140 90
149 145 93
139 136 88
150 145 93
138 135 88
145 141 91
144 141 92
150 145 92
149 145 94
153 148 95
154 150 95
138 134 83
140 137 87
147 143 90
151 147 92
138 135 83
144 139 89
141 137 87
146 142 88
173 196 0
175 198 0
175 198 0
174 197 0
172 196 0
171 195 0
175 197 0
176 198 0
174 197 0
173 196 0
175 198 0
172 196 0
173 197 0
173 197 0
172 196 0
173 197 0
172 195 0
174 197 0
174 198 0
175 198 0
175 198 0
175 198 0
173 197 0
174 197 0
174 197 0
173 197 0
174 197 0
174 197 0
175 198 0
175 198 0
173 197 0
175 198 0
174 198 0
171 195 0
175 198 0
173 197 0
175 198 0
173 197 0
175 198 0
174 197 0
174 197 0
175 198 0
174 197 0
173 197 0
174 197 0
174 197 0
173 197 0
176 198 0
174 198 0
174 198 0
175 198 0
175 198 0
173 197 0
175 198 0
175 198 0
174 197 0
174 198 0
174 197 0
174 197 0
175 198 0
173 197 0
174 197 0
175 197 0
173 197 0
175 198 0
173 197 0
175 198 0
174 197 0
174 197 0
174 197 0
174 198 0
174 198 0
172 196 0
174 198 0
173 197 0
175 198 0
173 197 0
175 198 0
175 198 0
174 197 0
175 198 0
174 197 0
173 197 0
175 198 0
174 197 0
173 197 0
175 198 0
176 198 0
173 197 0
174 197 0
174 197 0
173 197 0
176 198 0
175 198 0
174 198 0
174 198 0
174 197 0
175 198 0
175 198 0
173 197 0
175 198 0
172 196 0
174 198 0
173 197 0
173 197 0
175 198 0
173 197 0
173 197 0
174 197 0
175 198 0
172 196 0
175 198 0
175 198 0
174 196 0
173 196 0
174 197 0
181 203 122
205 225 242
209 229 255
209 229 255
209 229 255
209 229 255
209 229 255
209 228 255
208 228 255
208 228 255
208 228 255
208 228 255
208 228 255
208 228 255
208 228 255
208 228 255
208 228 255
208 228 255
208 228 255
208 228 255
208 228 255
208 228 255
208 228 255
208 228 255
208 228 255
208 228 255
208 228 255
208 228 255
208 228 255
208 228 255
207 228 255
207 228 255
207 228 255
207 228 255
207 228 255
207 228 255
207 228 255
207 228 255
207 228 255
202 223 252
134 157 203
62 99 171
61 98 159
62 98 163
61 97 163
62 98 164
62 98 167
62 98 158
62 98 167
62 98 158
61 97 162
62 98 156
61 97 161
62 98 161
62 98 159
62 98 159
62 99 166
62 98 163
63 99 168
62 98 162
62 98 158
61 97 160
63 99 166
62 97 154
63 99 171
62 98 158
62 98 163
62 98 165
62 98 156
62 98 161
61 97 157
62 98 163
63 99 167
62 98 159
62 98 162
63 99 166
61 97 162
61 97 158
62 98 162
61 97 156
62 99 165
63 99 167
62 98 162
62 98 159
61 97 157
62 98 164
62 98 163
62 98 166
62 98 157
61 97 158
62 97 156
63 99 163
62 98 164
62 98 162
62 98 159
63 99 163
62 98 162
62 98 166
62 98 158
61 97 158
61 97 161
62 99 168
62 99 165
62 98 164
61 97 160
62 98 164
63 99 171
62 98 164
61 98 164
61 97 156
61 97 162
62 97 158
62 97 164
61 97 152
63 99 170
62 98 165
62 98 166
61 97 155
62 99 168
60 95 154
61 97 160
62 98 165
61 96 164
62 98 165
62 98 167
61 97 164
61 97 163
126 150 194
202 223 252
207 228 255
207 228 255
207 228 255
207 228 255
207 228 255
207 228 255
207 228 255
207 228 255
207 228 255
208 228 255
208 228 255
208 228 255
208 228 255
208 228 255
208 228 255
208 228 255
208 228 255
208 228 255
208 228 255
208 228 255
208 228 255
208 228 255
208 228 255
208 228 255
208 228 255
208 228 255
208 228 255
208 228 255
208 228 255
208 228 255
208 228 255
209 228 255
209 229 255
209 229 255
209 229 255
209 229 255
209 229 255
196 212 230
165 173 171
128 126 82
149 146 97
130 127 85
130 128 86
142 140 94
138 137 92
140 139 93
144 142 95
151 149 99
146 144 96
142 140 94
144 143 96
148 147 99
144 143 96
149 149 100
154 152 102
144 144 97
146 145 98
147 145 97
154 152 102
155 154 103
144 143 96
147 145 98
150 148 99
152 150 100
151 149 100
155 153 103
155 154 103
149 148 100
150 149 99
153 151 101
154 152 102
153 152 102
150 148 99
152 150 100
146 144 96
158 156 104
156 154 103
155 153 102
159 156 104
157 155 104
152 150 100
159 156 104
153 150 99
158 156 104
159 156 104
159 157 105
156 154 103
154 152 101
163 160 106
157 155 103
160 157 104
162 159 106
162 159 106
163 160 105
158 156 103
165 161 106
154 151 101
156 154 102
147 145 96
155 151 99
158 154 101
152 149 99
152 150 100
158 156 103
161 157 104
154 151 100
158 154 101
159 156 101
163 159 103
160 157 104
152 150 97
146 143 94
162 158 103
159 157 103
155 153 100
160 156 101
157 153 101
151 148 97
156 152 99
153 149 97
151 147 95
158 153 100
150 148 98
153 150 98
148 146 95
146 142 91
154 150 98
149 145 93
156 152 98
153 150 97
150 146 93
148 144 94
153 149 97
154 150 95
151 147 93
148 145 93
150 147 94
150 146 95
148 144 93
150 145 93
144 140 91
146 143 91
146 142 90
157 152 95
151 146 92
143 138 87
152 148 94
150 146 92
153 150 94
150 145 93
148 143 90
154 150 93
146 142 90
138 134 86
144 140 87
174 198 0
173 196 0
173 197 0
172 196 0
174 198 0
174 198 0
173 197 0
174 198 0
173 197 0
175 198 0
176 199 0
176 199 0
173 197 0
174 198 0
174 198 0
175 198 0
174 197 0
172 196 0
175 198 0
174 197 0
173 197 0
174 198 0
175 198 0
175 198 0
174 197 0
173 196 0
174 197 0
175 198 0
175 198 0
174 198 0
175 198 0
174 198 0
174 198 0
173 197 0
176 199 0
175 198 0
174 198 0
174 197 0
175 198 0
174 198 0
174 198 0
174 197 0
175 198 0
174 197 0
175 198 0
173 197 0
175 198 0
174 197 0
175 197 0
173 196 0
172 197 0
175 198 0
173 197 0
173 197 0
173 197 0
172 196 0
176 198 0
172 197 0
172 196 0
176 198 0
172 196 0
176 198 0
176 199 0
175 198 0
174 198 0
173 197 0
172 196 0
173 197 0
174 197 0
172 196 0
174 197 0
173 196 0
174 197 0
174 198 0
175 198 0
175 198 0
174 197 0
173 197 0
173 197 0
174 197 0
174 198 0
173 196 0
175 198 0
176 199 0
174 198 0
174 198 0
174 197 0
174 197 0
175 198 0
173 196 0
173 197 0
174 197 0
174 197 0
173 197 0
175 198 0
175 198 0
175 198 0
175 198 0
175 198 0
172 196 0
174 197 0
173 197 0
175 198 0
173 197 0
174 197 0
174 198 0
175 198 0
174 198 0
173 196 0
174 198 0
173 196 0
171 195 0
174 197 0
176 198 0
174 197 0
174 197 0
174 197 0
173 197 25
194 215 186
209 228 254
209 229 255
209 229 255
209 229 255
209 229 255
209 229 255
209 229 255
209 229 255
209 229 255
209 228 255
209 228 255
208 228 255
208 228 255
208 228 255
208 228 255
208 228 255
208 228 255
208 228 255
208 228 255
208 228 255
208 228 255
208 228 255
208 228 255
208 228 255
208 228 255
208 228 255
208 228 255
208 228 255
208 228 255
208 228 255
208 228 255
208 228 255
208 228 255
207 228 255
207 228 255
201 221 250
118 143 192
61 98 165
62 98 167
62 98 160
61 97 162
62 98 162
61 97 161
62 98 160
62 98 164
62 98 165
62 98 163
62 98 162
61 97 157
62 98 165
62 98 163
62 99 168
62 98 164
61 97 156
62 98 162
63 99 165
63 99 164
62 98 163
62 98 166
62 98 161
62 98 162
62 98 160
63 99 171
62 98 160
62 99 165
62 98 164
61 96 153
61 97 160
62 98 165
61 97 157
61 97 152
63 99 168
63 99 165
62 98 160
62 98 159
62 98 163
61 97 156
63 99 164
62 98 161
62 98 162
62 98 164
62 98 160
62 98 163
63 98 166
62 98 164
61 97 160
61 97 156
63 99 169
62 98 161
62 98 161
62 98 165
62 99 164
60 96 158
63 99 164
62 98 162
61 97 157
62 98 157
61 97 163
62 98 164
61 97 151
62 98 162
62 98 158
62 98 163
61 97 160
61 98 158
61 97 158
61 97 159
62 98 165
63 99 166
62 98 158
61 97 158
62 98 165
63 98 168
62 98 163
61 96 156
61 96 156
63 98 162
62 98 167
62 98 164
61 97 162
62 98 161
61 97 162
61 96 156
62 97 165
62 97 169
126 150 200
199 219 250
207 228 255
208 228 255
208 228 255
208 228 255
208 228 255
208 228 255
208 228 255
208 228 255
208 228 255
208 228 255
208 228 255
208 228 255
208 228 255
208 228 255
208 228 255
208 228 255
208 228 255
208 228 255
208 228 255
208 228 255
208 228 255
208 228 255
208 228 255
208 228 255
209 228 255
209 228 255
209 229 255
209 229 255
209 229 255
209 229 255
209 229 255
209 229 255
209 229 255
209 229 255
208 227 253
177 189 196
127 126 91
139 136 90
136 134 90
139 137 91
142 141 94
142 140 93
141 139 93
147 145 97
143 142 95
145 143 96
141 139 93
147 146 98
146 145 98
152 150 101
138 137 92
150 148 100
148 147 99
152 150 100
142 141 95
149 147 99
148 147 98
153 152 102
155 153 103
145 143 95
156 155 104
145 143 96
154 152 102
158 156 104
151 149 100
158 156 104
160 158 106
159 157 105
157 156 104
149 148 99
158 157 106
148 147 99
153 151 101
158 156 104
152 149 99
159 156 104
157 154 103
152 150 100
158 155 104
161 158 106
155 152 101
156 155 104
158 154 102
157 155 104
153 151 101
161 158 106
149 146 96
152 150 100
159 156 103
155 153 102
165 161 106
155 153 101
161 157 103
159 157 104
161 158 105
161 158 105
158 155 101
160 156 104
163 159 104
160 157 105
156 152 101
155 153 101
166 162 106
149 147 98
153 150 99
157 154 101
163 160 105
161 157 104
159 156 101
160 155 101
156 151 98
155 151 97
155 151 99
149 145 94
153 150 99
153 148 96
153 150 97
154 150 98
167 162 105
157 154 101
151 148 96
151 148 96
156 152 98
151 148 97
154 150 99
155 151 97
158 154 100
164 158 103
147 143 93
161 155 100
148 145 93
151 148 95
157 153 95
150 148 97
153 149 96
143 140 90
145 141 92
145 142 93
153 149 93
152 147 96
155 151 97
152 148 96
146 143 88
151 146 95
150 146 92
142 138 85
145 141 88
139 135 88
137 133 85
140 135 86
144 139 87
150 145 88
149 144 91
149 144 87
174 197 0
174 197 0
175 198 0
176 198 0
175 198 0
175 197 0
174 198 0
172 196 0
174 198 0
174 197 0
177 199 0
172 195 0
174 198 0
174 197 0
175 197 0
174 197 0
173 197 0
174 197 0
173 197 0
174 197 0
173 196 0
175 198 0
174 198 0
173 197 0
173 197 0
174 198 0
173 197 0
174 197 0
173 197 0
174 197 0
172 196 0
173 197 0
175 198 0
175 198 0
174 198 0
174 197 0
175 198 0
173 196 0
172 196 0
174 198 0
173 196 0
174 197 0
175 198 0
173 197 0
170 195 0
175 198 0
175 198 0
173 197 0
174 198 0
172 196 0
175 198 0
175 198 0
175 198 0
174 197 0
174 197 0
172 196 0
174 198 0
176 198 0
176 198 0
174 197 0
174 198 0
174 197 0
175 198 0
176 199 0
174 197 0
176 199 0
174 198 0
175 198 0
175 198 0
174 197 0
174 198 0
173 197 0
174 197 0
174 197 0
175 198 0
173 197 0
175 198 0
175 198 0
173 197 0
174 197 0
172 196 0
173 196 0
175 198 0
174 198 0
174 197 0
173 197 0
174 198 0
173 197 0
174 198 0
174 198 0
175 198 0
173 197 0
174 197 0
175 197 0
174 198 0
173 197 0
175 198 0
174 198 0
175 198 0
175 198 0
174 198 0
173 197 0
174 197 0
176 198 0
174 197 0
174 197 0
174 198 0
174 198 0
174 198 0
173 197 0
174 197 0
175 198 0
174 196 0
173 197 0
173 197 0
173 197 0
174 198 0
172 195 0
174 197 0
180 203 120
200 220 218
209 229 255
209 229 255
209 229 255
209 229 255
209 229 255
209 229 255
209 229 255
209 229 255
209 229 255
209 229 255
209 229 255
209 229 255
209 229 255
209 228 255
208 228 255
208 228 255
208 228 255
208 228 255
208 228 255
208 228 255
208 228 255
208 228 255
208 228 255
208 228 255
208 228 255
208 228 255
208 228 255
208 228 255
208 228 255
208 228 255
208 228 255
208 228 255
206 226 254
123 148 191
62 98 162
61 96 154
61 98 165
61 97 153
62 98 159
62 98 164
62 98 161
62 98 161
62 98 163
62 98 155
61 97 155
62 99 169
61 97 151
62 99 162
62 98 161
62 98 162
62 97 159
62 98 161
61 97 164
62 98 161
62 98 159
63 99 169
62 98 158
63 99 164
62 98 165
61 97 158
62 98 162
62 98 160
62 97 157
62 98 163
62 99 166
62 98 160
62 98 157
63 99 165
61 98 162
62 98 154
62 98 165
62 98 164
61 97 157
61 97 156
62 98 165
62 98 167
60 96 150
62 98 159
62 98 156
62 97 155
61 98 163
62 98 164
62 98 162
63 99 165
62 98 160
62 98 163
62 98 161
62 98 162
61 97 157
62 98 163
62 98 163
62 97 155
63 99 164
61 97 153
63 99 160
63 99 164
62 98 165
62 99 167
62 98 161
62 97 157
63 99 162
62 98 160
61 97 155
63 99 164
62 98 164
62 98 164
62 98 160
61 97 162
62 98 160
61 97 160
61 97 156
60 97 161
63 99 170
61 97 162
62 97 159
62 98 164
62 97 161
62 98 163
61 97 165
62 98 171
61 97 162
62 98 166
61 97 165
61 97 161
96 124 180
206 226 254
208 228 255
208 228 255
208 228 255
208 228 255
208 228 255
208 228 255
208 228 255
208 228 255
208 228 255
208 228 255
208 228 255
208 228 255
208 228 255
208 228 255
208 228 255
208 228 255
208 228 255
208 228 255
209 228 255
209 228 255
209 229 255
209 229 255
209 229 255
209 229 255
209 229 255
209 229 255
209 229 255
209 229 255
209 229 255
209 229 255
209 229 255
209 229 255
200 216 235
155 158 137
130 127 85
133 130 86
144 143 95
134 132 88
138 136 91
144 143 96
138 137 92
139 138 93
144 142 95
144 142 95
146 144 96
153 152 102
143 142 95
152 150 101
147 146 98
147 145 97
149 147 99
149 148 100
154 152 102
141 139 94
150 148 99
150 149 100
162 161 108
153 151 102
149 147 99
150 149 100
154 152 102
157 155 103
158 155 103
147 145 98
154 152 102
149 147 99
156 154 103
161 158 105
147 146 98
160 158 106
155 152 102
159 156 104
152 150 101
154 152 102
154 152 102
161 158 106
161 160 107
158 156 104
162 159 106
159 157 105
155 152 100
160 157 105
157 155 103
155 152 101
159 156 104
161 158 104
165 161 107
156 153 101
154 152 101
160 157 105
151 148 98
159 155 102
164 162 107
156 153 101
160 158 105
161 158 104
155 152 100
159 156 104
162 160 106
159 156 103
162 159 104
156 153 101
164 159 103
161 157 103
158 155 101
161 157 102
158 153 100
153 150 97
147 144 94
154 151 97
155 151 99
157 154 101
157 153 99
151 148 97
156 152 99
159 155 102
156 152 98
154 150 98
160 156 100
151 148 97
167 163 105
156 153 99
159 156 102
158 153 98
150 146 95
147 144 92
156 151 97
160 155 100
156 153 99
162 157 101
157 152 98
151 147 93
155 150 96
151 147 92
151 147 95
156 152 98
151 147 96
149 145 89
154 151 93
155 151 97
156 151 96
154 150 98
144 140 88
150 148 93
144 139 86
144 140 91
152 148 93
132 128 78
146 141 85
142 137 84
139 136 87
150 144 89
146 143 90
172 196 0
174 198 0
173 197 0
171 196 0
173 196 0
174 197 0
174 197 0
174 197 0
173 196 0
174 198 0
176 199 0
173 197 0
175 198 0
173 197 0
173 197 0
171 195 0
173 197 0
174 197 0
176 199 0
174 198 0
171 195 0
175 198 0
176 199 0
174 198 0
174 198 0
174 198 0
174 198 0
173 197 0
173 197 0
174 197 0
174 197 0
174 197 0
172 196 0
174 197 0
173 197 0
174 198 0
175 198 0
175 198 0
173 197 0
173 196 0
175 198 0
175 198 0
173 197 0
176 198 0
173 197 0
174 197 0
173 197 0
175 198 0
173 197 0
174 197 0
174 197 0
173 197 0
174 198 0
174 198 0
175 198 0
174 198 0
173 197 0
174 198 0
173 197 0
174 197 0
171 195 0
172 196 0
176 198 0
175 198 0
173 197 0
173 197 0
175 198 0
175 198 0
174 197 0
174 198 0
174 197 0
172 196 0
173 197 0
175 197 0
174 198 0
174 198 0
174 197 0
173 197 0
175 198 0
173 197 0
175 198 0
173 196 0
175 198 0
174 197 0
174 197 0
174 198 0
175 198 0
173 197 0
173 197 0
173 197 0
173 197 0
175 198 0
173 197 0
174 198 0
172 196 0
174 198 0
175 198 0
174 197 0
174 198 0
174 197 0
174 197 0
173 197 0
175 198 0
174 197 0
173 197 0
174 197 0
176 199 0
173 197 0
174 198 0
174 197 0
175 198 0
175 198 0
173 197 0
174 197 0
175 198 0
173 197 0
173 197 0
174 197 0
173 197 0
175 198 0
176 198 25
190 211 167
207 227 250
209 229 255
209 229 255
209 229 255
209 229 255
209 229 255
209 229 255
209 229 255
209 229 255
209 229 255
209 229 255
209 229 255
209 229 255
209 229 255
209 229 255
209 229 255
209 229 255
209 228 255
209 228 255
208 228 255
208 228 255
208 228 255
208 228 255
208 228 255
208 228 255
208 228 255
208 228 255
208 228 255
208 228 255
208 228 255
203 223 252
115 140 188
62 98 160
62 98 165
62 98 159
62 98 161
62 98 161
62 98 164
62 99 167
62 98 159
62 98 162
62 98 163
62 98 161
62 98 161
63 99 166
63 98 164
60 96 149
62 99 167
63 99 166
62 98 163
62 98 159
61 97 163
62 98 161
62 98 166
61 97 158
61 97 158
63 99 166
62 98 160
62 98 156
61 97 163
62 98 163
62 98 161
62 98 161
62 98 163
62 98 159
62 98 167
62 98 159
61 97 155
62 98 161
62 98 159
62 97 157
62 97 160
61 97 158
62 98 161
62 98 162
62 98 164
62 98 155
62 98 156
61 97 156
62 98 156
61 97 155
62 99 167
62 98 161
62 98 166
62 98 159
62 98 162
62 98 161
61 97 151
62 99 165
61 97 159
63 99 167
63 99 168
62 98 160
63 99 161
62 98 164
62 98 159
62 99 168
62 98 155
61 97 157
62 98 156
60 96 150
62 98 161
63 99 166
63 99 165
62 98 165
62 98 165
61 98 165
62 98 167
61 96 154
62 97 166
61 96 154
62 98 163
62 98 162
62 98 164
61 97 164
63 99 166
61 96 161
62 97 163
61 97 164
61 97 155
61 96 159
62 98 166
61 96 158
61 96 151
113 138 187
201 222 250
208 228 255
208 228 255
208 228 255
208 228 255
208 228 255
208 228 255
208 228 255
208 228 255
208 228 255
208 228 255
208 228 255
209 228 255
209 228 255
209 229 255
209 229 255
209 229 255
209 229 255
209 229 255
209 229 255
209 229 255
209 229 255
209 229 255
209 229 255
209 229 255
209 229 255
209 229 255
209 229 255
209 229 255
209 229 255
206 225 250
173 183 188
141 139 97
131 129 86
131 129 86
139 137 92
144 142 96
146 145 98
147 145 97
135 133 88
142 141 94
146 144 97
142 141 94
141 139 94
149 147 99
149 147 99
147 146 98
146 144 97
141 140 94
147 146 98
143 142 96
150 148 99
144 143 96
149 147 98
154 153 103
152 151 102
153 152 102
152 150 101
151 149 99
155 153 102
156 155 104
150 148 100
157 155 104
149 148 100
156 154 103
154 151 101
160 158 106
156 154 104
154 152 103
154 152 102
157 155 103
161 158 105
159 157 105
160 157 105
157 154 103
158 155 103
165 162 108
161 157 104
153 151 101
155 152 101
161 158 104
163 160 106
156 154 103
164 161 108
157 155 102
160 157 104
153 150 99
161 158 105
155 152 100
164 160 104
164 160 106
156 152 100
164 160 106
160 156 103
155 152 100
158 155 102
160 157 104
160 157 103
157 154 101
153 150 98
166 162 105
157 154 100
159 155 101
151 148 97
165 161 103
159 156 102
159 155 102
155 150 96
154 150 97
154 151 99
149 146 95
150 146 95
160 157 103
162 157 101
166 162 104
153 148 95
153 149 97
154 150 97
158 155 100
161 157 100
148 146 95
153 150 99
155 152 97
158 153 98
151 147 95
156 152 97
147 144 92
157 154 99
153 149 95
146 142 92
157 152 97
150 146 93
156 151 97
143 140 90
149 145 93
139 136 84
146 142 90
149 145 93
152 149 95
156 151 96
153 149 94
156 152 96
150 146 94
149 144 90
151 147 94
151 147 92
156 151 95
149 145 90
145 140 86
143 138 87
144 141 87
150 146 91
144 140 84
175 198 0
173 197 0
173 197 0
173 197 0
175 198 0
173 196 0
174 198 0
174 198 0
173 197 0
175 198 0
174 197 0
174 198 0
171 195 0
175 198 0
174 198 0
174 197 0
174 197 0
173 197 0
174 197 0
174 198 0
173 197 0
172 196 0
173 197 0
174 198 0
174 198 0
174 197 0
173 196 0
175 198 0
176 198 0
174 197 0
174 198 0
173 197 0
174 197 0
173 197 0
172 196 0
173 197 0
172 196 0
173 197 0
174 197 0
176 198 0
175 198 0
174 197 0
174 198 0
175 198 0
173 197 0
174 198 0
174 197 0
174 197 0
174 198 0
175 198 0
174 198 0
173 197 0
176 199 0
173 197 0
174 198 0
173 197 0
174 198 0
174 197 0
174 198 0
170 195 0
175 198 0
175 198 0
174 197 0
175 198 0
175 198 0
173 197 0
176 199 0
175 198 0
174 197 0
175 198 0
174 197 0
175 198 0
172 196 0
174 197 0
174 198 0
174 198 0
175 198 0
172 197 0
175 198 0
175 198 0
174 197 0
175 198 0
175 198 0
174 198 0
173 197 0
175 198 0
175 198 0
175 198 0
176 198 0
172 196 0
175 198 0
175 198 0
174 198 0
174 198 0
174 198 0
175 198 0
173 197 0
174 197 0
176 198 0
175 198 0
175 198 0
173 196 0
173 197 0
174 197 0
174 197 0
173 197 0
174 197 0
173 197 0
174 198 0
175 198 0
173 197 0
173 197 0
173 197 0
173 197 0
172 197 0
173 197 0
175 198 0
176 199 0
174 198 0
175 198 0
174 197 0
174 197 0
181 204 111
206 226 241
209 229 255
209 229 255
209 229 255
209 229 255
209 229 255
209 229 255
209 229 255
209 229 255
209 229 255
209 229 255
209 229 255
209 229 255
209 229 255
209 229 255
209 229 255
209 229 255
209 229 255
209 229 255
209 229 255
209 229 255
209 229 255
209 228 255
209 228 255
208 228 255
208 228 255
208 228 255
208 228 255
205 226 254
105 132 188
62 98 161
61 97 158
61 98 164
62 98 163
61 97 154
62 98 159
61 97 153
62 98 158
61 98 164
63 99 162
62 98 162
61 97 153
62 98 160
62 97 154
62 98 162
63 99 163
62 98 161
62 98 165
61 97 160
62 98 158
61 97 160
62 98 165
62 98 164
62 99 167
61 97 155
61 97 160
61 98 164
62 98 159
62 97 157
63 99 164
62 98 162
62 98 156
61 97 157
61 97 157
61 97 155
62 98 157
62 98 160
62 98 160
61 97 154
62 97 155
62 98 165
62 99 163
62 98 159
62 98 160
63 99 166
61 97 163
62 98 161
61 97 159
62 97 159
62 98 160
62 98 158
62 98 160
63 99 165
62 98 163
62 98 164
62 98 160
62 97 154
62 98 162
62 98 163
62 98 157
62 98 160
62 98 160
62 98 163
62 98 162
61 97 154
62 98 162
62 98 163
61 97 157
62 97 154
61 96 154
62 98 157
63 99 167
62 98 165
61 97 166
62 98 160
62 98 159
62 99 165
61 96 157
62 98 165
62 97 154
62 98 167
62 98 165
61 97 157
61 97 162
61 96 158
62 98 167
61 96 156
61 96 159
62 98 166
62 97 158
61 96 156
63 98 163
62 98 162
62 97 160
115 139 185
206 227 254
208 228 255
208 228 255
208 228 255
208 228 255
209 228 255
209 229 255
209 229 255
209 229 255
209 229 255
209 229 255
209 229 255
209 229 255
209 229 255
209 229 255
209 229 255
209 229 255
209 229 255
209 229 255
209 229 255
209 229 255
209 229 255
209 229 255
209 229 255
209 229 255
209 229 255
209 229 255
209 229 255
198 215 236
147 151 137
137 134 87
133 130 87
142 140 93
142 140 93
143 140 94
146 144 96
142 139 93
148 146 97
144 143 97
143 142 95
145 144 96
144 142 96
143 142 95
146 144 97
143 142 96
138 138 94
147 146 99
152 151 102
141 140 95
140 139 93
155 153 103
156 155 104
153 152 102
153 151 101
148 146 98
146 144 97
150 149 100
155 154 103
157 156 105
151 149 100
159 158 106
158 157 105
153 152 102
159 157 105
162 160 107
160 158 105
155 152 101
161 158 105
162 160 106
158 156 104
155 153 102
163 161 107
159 156 104
156 153 102
158 156 104
162 159 106
161 158 104
162 158 104
166 162 108
166 162 108
159 154 101
157 154 102
158 156 103
169 166 109
158 154 101
158 155 102
155 152 101
159 156 104
161 157 103
155 151 100
166 161 106
164 160 106
161 157 104
163 159 103
155 152 99
157 154 101
157 154 101
163 159 106
154 151 99
152 149 97
158 155 101
157 154 101
156 153 100
161 156 99
158 154 101
163 159 104
159 156 101
157 152 97
150 147 94
155 151 97
162 159 103
160 155 99
154 150 97
161 156 102
155 150 97
162 158 102
160 156 103
157 153 97
156 152 97
151 148 95
161 156 99
155 152 97
155 151 97
157 153 98
152 148 94
157 152 98
156 153 99
162 157 101
152 148 94
149 145 93
145 141 89
150 147 95
155 150 97
158 153 99
152 148 94
153 149 93
157 153 96
160 155 101
153 148 93
152 147 95
151 146 93
158 154 97
157 152 97
153 148 94
137 133 82
146 142 88
149 146 92
142 138 86
146 142 88
156 151 95
142 138 86
142 139 85
174 197 0
172 196 0
173 197 0
174 197 0
174 198 0
176 198 0
174 198 0
174 198 0
174 197 0
174 197 0
173 197 0
173 197 0
173 197 0
176 198 0
174 197 0
176 199 0
174 198 0
173 196 0
173 197 0
172 196 0
174 197 0
175 198 0
174 198 0
174 197 0
173 197 0
173 197 0
172 196 0
174 197 0
176 199 0
174 197 0
173 197 0
173 197 0
174 198 0
174 198 0
174 197 0
172 196 0
173 197 0
174 198 0
175 198 0
174 198 0
175 198 0
175 198 0
175 198 0
173 197 0
176 199 0
174 198 0
174 197 0
175 198 0
175 198 0
174 197 0
176 199 0
174 198 0
175 198 0
173 197 0
174 197 0
173 197 0
173 196 0
175 198 0
177 199 0
175 198 0
175 198 0
174 198 0
174 198 0
172 196 0
175 198 0
176 198 0
175 198 0
175 198 0
174 197 0
174 198 0
174 197 0
174 198 0
174 197 0
175 198 0
177 199 0
175 198 0
174 198 0
174 198 0
173 197 0
174 198 0
174 198 0
174 198 0
174 198 0
173 197 0
174 198 0
175 198 0
174 197 0
174 197 0
176 198 0
175 198 0
173 196 0
174 198 0
174 197 0
174 198 0
175 198 0
173 197 0
174 197 0
175 198 0
173 197 0
175 198 0
174 198 0
173 197 0
173 197 0
173 197 0
173 197 0
174 197 0
174 197 0
174 197 0
175 197 0
175 198 0
175 198 0
175 198 0
174 197 0
174 197 0
174 198 0
175 198 0
175 198 0
173 197 0
176 199 0
173 197 0
174 198 0
174 198 0
171 195 0
176 199 62
198 218 204
210 229 255
210 229 255
210 229 255
210 229 255
210 229 255
209 229 255
209 229 255
209 229 255
209 229 255
209 229 255
209 229 255
209 229 255
209 229 255
209 229 255
209 229 255
209 229 255
209 229 255
209 229 255
209 229 255
209 229 255
209 229 255
209 229 255
209 229 255
209 229 255
209 229 255
209 229 255
122 146 192
61 97 155
62 98 167
62 98 161
61 96 152
62 98 158
61 97 156
62 98 162
61 97 158
62 98 157
62 98 163
61 98 161
63 99 166
61 97 156
63 99 168
62 98 159
62 98 157
62 99 165
62 98 163
62 98 158
62 97 152
62 98 163
63 98 158
62 98 161
62 98 162
61 98 162
62 98 161
61 96 151
62 98 159
61 97 150
62 98 158
62 98 164
61 98 161
62 98 160
63 99 164
61 97 156
62 98 162
61 97 159
61 97 149
63 98 161
62 98 161
63 99 164
61 97 160
61 97 155
62 98 163
61 97 157
61 98 161
62 98 156
63 99 168
62 98 161
62 97 162
63 99 164
61 97 152
62 98 163
62 98 160
61 97 154
62 98 156
62 98 163
62 98 160
62 97 152
62 98 160
61 97 157
62 97 162
62 98 160
61 96 148
62 98 164
62 98 156
62 98 154
62 98 160
61 97 159
61 96 147
60 95 152
63 99 164
62 97 162
62 98 165
62 98 163
61 96 150
62 97 159
61 97 153
62 98 159
61 97 165
61 96 158
61 96 151
62 99 167
61 98 166
61 97 159
62 98 167
62 98 160
61 96 154
62 99 169
62 98 167
61 97 156
60 95 158
61 96 160
61 96 159
61 97 159
61 96 158
130 154 199
208 228 255
209 229 255
209 229 255
209 229 255
209 229 255
209 229 255
209 229 255
209 229 255
209 229 255
209 229 255
209 229 255
209 229 255
209 229 255
209 229 255
209 229 255
209 229 255
209 229 255
209 229 255
209 229 255
209 229 255
209 229 255
210 229 255
210 229 255
210 229 255
210 229 255
210 229 255
175 187 196
136 135 103
128 126 82
138 137 91
138 135 89
141 139 93
143 141 94
144 143 96
145 143 96
136 135 91
141 140 94
148 146 98
142 141 95
147 146 98
148 146 98
137 137 93
144 144 97
156 154 104
151 150 102
150 148 99
146 145 99
152 150 101
152 151 102
156 154 103
149 148 99
147 146 98
158 157 105
155 154 103
156 155 104
159 158 106
158 156 105
156 153 102
157 156 105
162 159 107
158 156 105
152 150 100
151 148 99
162 159 106
154 151 101
159 156 104
162 159 106
153 151 101
160 156 104
156 154 104
157 155 104
158 156 105
157 154 103
159 156 103
158 154 102
159 156 103
158 155 104
161 158 105
161 158 104
163 159 105
162 159 104
160 157 103
161 157 103
159 157 104
164 161 107
156 152 100
154 150 99
166 161 105
161 158 103
165 161 106
162 159 104
156 154 103
163 161 106
165 163 107
166 163 106
162 158 104
159 155 101
158 154 101
157 153 100
165 161 103
161 157 101
160 157 102
160 156 103
158 155 102
152 149 95
161 157 103
164 159 103
152 148 96
160 156 101
159 156 100
164 159 101
160 156 100
153 150 97
160 156 101
159 154 97
155 150 95
158 155 101
156 152 97
156 152 95
164 160 103
156 153 98
152 149 95
151 147 95
150 147 90
151 147 94
162 157 103
158 153 95
153 149 95
156 151 95
157 153 97
156 153 99
162 157 101
154 148 95
156 151 97
156 152 95
149 145 91
155 151 97
154 150 95
160 155 98
154 151 97
141 137 87
148 144 91
156 151 95
157 152 97
147 143 89
148 144 90
157 152 96
151 147 93
141 136 86
148 143 88
145 141 88
175 198 0
174 198 0
172 197 0
173 197 0
174 198 0
175 198 0
174 197 0
174 197 0
174 197 0
175 198 0
175 198 0
175 198 0
174 198 0
175 198 0
174 198 0
175 198 0
174 197 0
174 197 0
175 198 0
174 197 0
173 196 0
175 198 0
175 198 0
172 197 0
173 197 0
174 197 0
174 197 0
174 197 0
176 199 0
173 197 0
174 198 0
174 197 0
175 198 0
176 198 0
173 197 0
174 197 0
174 198 0
173 197 0
175 198 0
174 198 0
174 197 0
176 198 0
174 197 0
175 198 0
172 196 0
174 198 0
176 199 0
172 197 0
173 197 0
174 198 0
175 198 0
175 198 0
174 197 0
176 198 0
175 198 0
174 198 0
174 197 0
174 197 0
174 197 0
173 197 0
175 198 0
174 198 0
175 198 0
176 198 0
174 198 0
174 198 0
174 198 0
173 197 0
173 196 0
173 197 0
173 197 0
174 197 0
175 198 0
175 198 0
174 197 0
174 197 0
172 196 0
172 196 0
174 198 0
174 197 0
173 197 0
174 198 0
176 198 0
174 198 0
174 198 0
175 198 0
174 197 0
173 197 0
173 197 0
175 198 0
176 199 0
174 197 0
175 198 0
173 197 0
174 198 0
174 197 0
175 198 0
174 197 0
173 197 0
173 197 0
174 198 0
173 197 0
172 196 0
174 198 0
175 198 0
174 198 0
174 198 0
174 198 0
174 197 0
175 198 0
173 197 0
173 197 0
174 198 0
175 198 0
175 198 0
173 197 0
173 197 0
174 197 0
174 197 0
172 196 0
173 196 0
172 196 0
175 198 0
172 196 0
172 196 0
189 211 159
208 228 248
210 229 255
210 229 255
210 229 255
210 229 255
210 229 255
210 229 255
210 229 255
210 229 255
210 229 255
209 229 255
209 229 255
209 229 255
209 229 255
209 229 255
209 229 255
209 229 255
209 229 255
209 229 255
209 229 255
209 229 255
209 229 255
209 229 255
209 229 255
152 174 209
61 97 159
61 97 154
62 98 158
62 98 161
61 97 155
62 98 158
62 98 161
62 98 160
62 98 160
63 99 168
62 97 154
62 98 160
62 98 162
62 98 155
61 97 160
62 98 159
62 98 166
61 97 163
62 98 161
62 98 161
62 98 165
61 97 152
62 98 157
62 98 161
62 98 156
62 98 164
62 98 162
62 98 157
62 98 161
61 97 158
61 97 156
62 97 153
61 97 156
62 98 162
62 98 156
62 98 159
62 98 164
63 99 167
61 97 151
63 98 159
61 97 157
61 97 153
61 97 155
63 99 162
62 97 154
62 98 157
61 97 154
62 98 157
61 97 156
62 98 161
61 97 154
61 96 157
62 98 161
62 99 167
62 98 167
62 98 160
61 97 158
61 97 156
61 97 155
62 98 162
61 97 156
62 98 159
62 98 161
62 98 156
62 98 161
61 96 156
62 98 160
62 98 155
61 96 155
63 99 162
62 97 162
62 98 163
61 97 153
61 97 156
63 98 166
61 97 159
61 97 159
61 97 156
61 96 148
62 98 166
61 96 152
61 97 155
63 99 165
62 98 158
62 98 162
62 98 156
62 98 162
62 98 166
62 98 162
61 97 159
61 96 161
61 96 154
62 97 163
62 98 164
61 96 161
62 97 164
60 95 152
61 96 158
139 162 206
209 229 255
209 229 255
209 229 255
209 229 255
209 229 255
209 229 255
209 229 255
209 229 255
209 229 255
209 229 255
209 229 255
209 229 255
209 229 255
209 229 255
210 229 255
210 229 255
210 229 255
210 229 255
210 229 255
210 229 255
210 229 255
210 229 255
210 229 255
209 228 253
158 164 155
125 122 79
131 129 84
143 141 94
129 127 84
144 142 94
142 140 94
139 137 92
140 138 92
142 141 94
139 138 92
150 147 98
148 146 99
139 138 93
147 144 96
139 138 93
153 151 101
155 154 103
157 155 104
148 148 99
145 144 97
150 149 101
147 146 99
155 154 103
154 153 103
145 143 97
149 148 100
155 154 103
152 151 102
149 146 98
151 150 101
155 153 103
154 152 102
151 149 100
162 159 107
158 155 104
154 151 101
153 151 102
158 156 104
157 155 103
155 153 102
162 159 106
155 153 102
162 159 106
154 152 103
159 156 103
155 151 100
163 159 105
160 156 103
165 161 106
159 156 103
160 157 105
159 155 103
157 154 103
160 157 104
163 159 106
162 159 105
161 158 103
164 160 105
159 156 104
159 157 105
157 154 101
158 154 101
166 162 107
159 155 100
166 162 107
161 157 103
163 159 105
169 164 109
161 157 102
161 157 102
160 156 103
157 153 100
159 155 102
157 154 101
153 149 97
157 153 99
164 159 104
160 156 101
161 157 101
161 156 100
161 157 102
154 151 97
153 149 99
150 147 93
154 151 94
163 158 101
157 153 100
156 151 97
156 153 97
162 158 104
157 154 99
147 142 90
165 160 102
158 154 98
161 157 99
159 154 100
161 158 101
158 154 95
154 149 96
157 154 99
154 151 96
160 155 97
156 151 95
151 147 94
148 143 87
149 144 92
153 150 97
159 155 97
158 153 99
153 148 95
149 145 87
159 154 99
145 142 86
155 151 96
153 148 93
146 142 90
156 152 97
156 151 94
151 147 97
147 143 90
145 141 89
151 148 95
152 148 93
142 138 84
159 155 97
175 198 0
174 198 0
173 197 0
174 198 0
174 197 0
175 198 0
174 198 0
174 198 0
174 198 0
175 198 0
172 197 0
174 198 0
174 197 0
172 196 0
173 197 0
173 197 0
175 198 0
175 198 0
174 197 0
173 197 0
176 199 0
174 197 0
175 198 0
173 197 0
174 198 0
172 197 0
174 197 0
175 198 0
174 198 0
174 198 0
175 198 0
173 197 0
174 198 0
174 197 0
173 197 0
175 198 0
173 197 0
173 196 0
174 197 0
174 198 0
175 198 0
175 198 0
174 198 0
175 198 0
173 197 0
175 198 0
173 197 0
173 197 0
176 199 0
174 197 0
173 197 0
174 198 0
174 198 0
173 197 0
175 198 0
175 198 0
173 197 0
174 197 0
172 196 0
174 198 0
174 197 0
174 198 0
174 197 0
173 197 0
174 197 0
175 198 0
173 197 0
173 197 0
175 198 0
174 197 0
174 197 0
173 196 0
173 197 0
174 197 0
174 198 0
173 197 0
174 197 0
175 198 0
173 197 0
174 198 0
173 197 0
174 197 0
174 198 0
176 199 0
174 197 0
172 196 0
172 196 0
173 197 0
173 196 0
173 197 0
175 198 0
173 197 0
175 198 0
173 197 0
174 198 0
175 198 0
174 198 0
174 197 0
174 197 0
174 198 0
173 196 0
174 197 0
172 196 0
173 196 0
173 197 0
174 197 0
176 199 0
173 197 0
173 197 0
174 197 0
175 198 0
175 198 0
173 197 0
175 198 0
172 197 0
174 197 0
175 198 0
174 198 0
172 196 0
174 197 0
175 198 0
172 196 0
174 198 0
175 197 0
173 196 0
173 197 0
182 204 128
206 226 240
210 229 255
210 229 255
210 229 255
210 229 255
210 229 255
210 229 255
210 229 255
210 229 255
210 229 255
210 229 255
210 229 255
210 229 255
210 229 255
210 229 255
209 229 255
209 229 255
209 229 255
209 229 255
209 229 255
209 229 255
209 229 255
168 189 224
61 96 152
61 97 155
61 96 151
62 97 157
62 98 162
60 96 149
61 97 152
61 97 154
62 98 162
61 97 158
62 98 158
61 97 156
61 97 154
62 98 154
61 97 148
61 97 152
61 97 150
62 98 159
62 98 160
62 97 154
62 98 155
62 98 161
63 99 166
62 98 158
61 97 149
61 97 149
62 98 159
61 97 157
61 97 145
61 97 151
61 97 152
61 97 154
62 97 154
62 98 160
62 98 159
61 97 157
62 98 155
62 98 163
62 98 158
61 97 162
61 97 154
62 98 158
62 97 156
61 97 155
62 98 158
62 98 155
62 99 167
61 97 157
61 97 154
62 98 157
62 98 157
63 99 162
61 97 158
62 98 158
62 97 160
61 97 150
61 97 152
61 97 152
61 97 153
61 97 155
61 97 157
62 99 166
62 98 161
62 98 165
62 98 158
62 98 158
61 97 152
61 97 155
61 97 153
61 97 161
61 97 159
62 98 162
62 98 158
61 97 164
62 98 162
61 96 149
62 98 165
62 97 159
62 98 159
62 98 160
61 97 154
62 98 160
61 97 156
63 98 164
61 96 159
61 96 152
62 97 157
62 98 166
62 97 163
61 97 158
61 96 156
61 96 159
61 96 160
61 97 162
62 97 161
62 97 158
62 98 164
60 96 159
62 98 169
59 93 154
171 192 229
209 229 255
209 229 255
209 229 255
209 229 255
209 229 255
209 229 255
209 229 255
210 229 255
210 229 255
210 229 255
210 229 255
210 229 255
210 229 255
210 229 255
210 229 255
210 229 255
210 229 255
210 229 255
210 229 255
210 229 255
210 229 255
202 220 242
146 148 130
139 136 89
141 138 92
149 147 98
136 134 88
137 135 91
144 143 96
144 141 93
136 135 91
136 135 91
149 147 98
137 135 91
143 142 96
146 145 98
150 148 100
157 155 104
137 136 92
150 148 99
157 154 103
149 148 99
156 154 103
141 140 94
137 136 92
152 151 102
151 149 101
148 146 98
148 146 98
152 150 101
156 154 103
158 156 105
147 144 97
152 149 99
155 152 102
157 155 104
160 158 106
158 155 103
153 151 101
159 157 104
158 156 104
162 159 106
156 153 103
161 159 106
161 158 105
163 160 106
158 156 104
163 160 106
165 161 106
158 155 103
171 167 111
165 162 107
156 154 103
159 156 102
165 162 106
162 159 105
166 163 108
165 162 104
164 160 105
166 162 106
162 158 102
164 160 104
162 159 105
161 157 102
164 160 105
165 162 106
162 158 104
163 159 104
160 157 101
164 160 104
163 159 104
162 158 104
159 155 101
166 163 106
160 157 101
164 159 103
166 162 104
171 167 106
160 157 102
161 157 103
162 159 103
159 155 101
166 161 102
167 162 104
153 150 96
160 156 100
170 165 106
156 152 97
165 160 102
165 160 103
153 149 93
159 155 98
167 161 104
155 152 97
160 155 97
154 150 95
162 158 100
159 155 101
155 151 98
165 160 100
155 151 96
156 152 95
160 155 97
160 156 99
156 151 95
161 156 103
162 157 99
161 157 102
147 142 90
157 152 96
158 153 99
160 156 101
152 147 92
155 151 95
160 155 98
155 151 97
151 147 90
143 140 86
151 147 93
155 149 92
151 146 91
147 143 90
154 149 95
150 146 93
153 147 92
147 143 90
156 150 90
149 145 91
148 145 86
173 197 0
178 199 0
175 198 0
173 197 0
174 198 0
174 197 0
174 198 0
174 197 0
172 196 0
174 198 0
174 197 0
175 198 0
174 197 0
174 198 0
172 196 0
173 197 0
174 198 0
175 198 0
174 197 0
175 198 0
175 198 0
172 196 0
174 198 0
174 198 0
173 197 0
175 198 0
174 198 0
173 197 0
173 196 0
173 197 0
174 197 0
176 198 0
175 198 0
175 198 0
173 197 0
175 198 0
173 197 0
172 196 0
176 199 0
175 198 0
174 197 0
174 197 0
174 198 0
174 197 0
173 197 0
173 196 0
175 198 0
175 198 0
175 198 0
174 197 0
173 197 0
173 197 0
174 197 0
174 197 0
176 198 0
174 197 0
175 198 0
175 198 0
174 198 0
175 198 0
174 198 0
175 198 0
174 197 0
175 198 0
174 198 0
176 199 0
174 198 0
174 198 0
175 198 0
174 197 0
174 197 0
175 198 0
173 197 0
173 196 0
174 197 0
175 198 0
174 198 0
175 198 0
174 198 0
174 198 0
174 198 0
173 197 0
174 198 0
174 198 0
175 198 0
175 198 0
175 198 0
174 197 0
175 198 0
174 198 0
174 197 0
177 199 0
175 198 0
174 197 0
173 197 0
174 198 0
174 198 0
174 197 0
174 198 0
172 196 0
175 198 0
174 197 0
173 197 0
173 197 0
174 197 0
174 198 0
174 198 0
174 198 0
173 197 0
175 198 0
174 197 0
175 198 0
173 197 0
174 197 0
174 198 0
173 197 0
174 197 0
174 197 0
174 197 0
173 197 0
174 197 0
175 198 0
174 198 0
173 197 0
175 198 0
174 197 0
173 197 0
175 198 80
203 223 224
210 229 255
210 229 255
210 229 255
210 229 255
210 229 255
210 229 255
210 229 255
210 229 255
210 229 255
210 229 255
210 229 255
210 229 255
210 229 255
210 229 255
210 229 255
210 229 255
210 229 255
210 229 255
210 229 255
191 211 240
74 106 161
62 98 161
61 97 157
60 96 150
62 98 159
61 97 158
61 97 153
62 98 160
61 97 157
61 97 152
62 98 160
62 98 159
63 99 167
62 98 161
61 97 161
62 98 162
62 98 162
62 98 158
61 97 153
62 98 156
61 97 155
62 98 155
61 97 159
62 98 160
62 98 157
62 98 154
62 97 159
62 98 160
62 98 163
61 97 156
61 97 158
61 97 156
62 98 156
61 97 157
63 99 168
62 98 159
61 97 154
62 98 159
62 97 153
61 97 157
61 97 159
61 97 156
61 97 152
62 98 154
62 98 157
61 97 152
61 97 155
62 98 156
61 97 157
62 97 157
62 98 163
62 98 160
61 98 160
62 98 159
62 99 167
62 98 157
62 98 159
62 98 154
61 97 157
62 98 161
63 98 160
61 97 153
63 99 162
62 98 160
61 97 152
61 97 162
62 98 158
62 98 159
62 98 157
61 97 151
62 98 158
62 97 162
61 96 155
63 98 163
61 97 155
61 97 155
62 98 163
62 98 158
61 97 156
62 98 161
61 97 154
62 97 156
62 97 159
61 97 156
62 97 159
62 98 163
61 96 156
61 95 152
61 97 152
62 98 164
62 98 163
62 97 162
62 97 159
61 96 154
62 97 155
60 95 150
61 96 158
62 98 167
61 96 161
62 98 164
62 97 164
73 104 163
194 213 243
210 229 255
210 229 255
210 229 255
210 229 255
210 229 255
210 229 255
210 229 255
210 229 255
210 229 255
210 229 255
210 229 255
210 229 255
210 229 255
210 229 255
210 229 255
210 229 255
210 229 255
210 229 255
210 229 255
198 215 236
132 130 96
134 130 85
140 137 89
143 141 93
141 139 93
139 138 93
145 144 97
149 147 99
144 142 95
145 144 97
140 139 94
144 143 97
149 148 99
148 146 99
135 134 91
140 140 95
145 144 98
149 148 101
142 141 95
147 145 99
145 143 97
144 143 97
153 151 102
151 149 101
155 154 103
148 147 98
154 153 103
155 153 102
148 147 100
154 152 102
155 152 101
158 156 105
151 150 101
157 155 104
147 145 97
151 149 100
162 159 105
158 156 105
156 154 103
155 153 103
163 160 108
161 158 104
160 157 104
163 161 108
159 156 104
159 156 103
155 152 101
162 159 104
164 161 106
157 154 101
164 161 107
161 158 104
167 164 109
166 162 108
162 159 105
162 159 104
163 159 103
159 154 100
166 162 106
165 161 106
168 164 108
156 153 101
166 163 104
165 161 104
169 165 109
167 163 107
158 154 100
159 156 101
167 163 107
162 158 103
159 156 103
158 155 99
166 162 106
167 163 108
165 161 104
159 156 99
166 161 104
163 159 101
160 156 102
160 156 101
164 160 104
162 157 99
158 154 100
165 160 102
162 159 103
167 162 103
159 154 97
158 153 98
165 160 103
166 162 105
161 156 99
168 163 102
166 161 103
163 159 102
156 153 97
170 164 106
160 156 98
164 159 101
163 158 101
151 147 96
158 155 101
158 154 98
165 161 103
159 153 91
157 154 97
158 154 97
159 154 98
151 147 92
152 147 91
152 148 95
158 153 95
159 152 97
158 152 94
159 155 98
161 156 97
151 146 90
152 148 92
146 141 88
154 149 93
150 147 92
154 150 93
148 144 90
149 145 87
154 148 89
140 137 84
151 146 93
156 150 93
141 137 84
176 199 0
174 197 0
174 197 0
175 198 0
173 197 0
172 196 0
173 197 0
175 198 0
173 197 0
172 197 0
175 198 0
174 197 0
174 197 0
173 197 0
174 198 0
175 198 0
172 196 0
174 197 0
176 198 0
174 197 0
174 198 0
173 197 0
174 198 0
173 197 0
175 198 0
174 198 0
173 197 0
174 198 0
175 198 0
174 198 0
175 198 0
172 196 0
173 197 0
174 198 0
175 198 0
173 197 0
175 198 0
175 198 0
174 198 0
174 198 0
173 197 0
173 197 0
174 197 0
173 197 0
174 197 0
175 198 0
175 198 0
174 198 0
175 198 0
174 197 0
175 198 0
175 198 0
174 198 0
175 198 0
175 198 0
173 197 0
174 197 0
174 197 0
175 198 0
175 198 0
175 198 0
174 197 0
174 198 0
173 197 0
174 198 0
173 197 0
175 198 0
172 196 0
175 198 0
175 198 0
175 198 0
173 197 0
175 198 0
173 197 0
175 198 0
175 198 0
174 198 0
173 197 0
174 198 0
175 198 0
173 197 0
172 196 0
174 198 0
173 197 0
175 198 0
173 197 0
174 198 0
176 198 0
173 197 0
173 197 0
175 198 0
173 197 0
174 197 0
174 197 0
174 197 0
174 197 0
174 197 0
174 198 0
175 198 0
175 198 0
174 197 0
174 198 0
173 196 0
173 197 0
173 197 0
174 198 0
174 198 0
175 197 0
173 197 0
174 198 0
175 198 0
174 197 0
172 196 0
175 198 0
175 198 0
174 197 0
175 198 0
173 197 0
173 196 0
175 198 0
174 197 0
176 199 0
173 197 0
175 198 0
172 196 0
175 198 0
174 197 0
173 197 0
172 195 36
196 217 191
210 230 255
210 230 255
210 230 255
210 229 255
210 229 255
210 229 255
210 229 255
210 229 255
210 229 255
210 229 255
210 229 255
210 229 255
210 229 255
210 229 255
210 229 255
210 229 255
210 229 255
204 223 251
92 120 172
62 97 157
61 97 160
62 97 156
61 97 158
63 98 154
61 97 152
62 98 158
62 98 158
62 99 165
62 98 159
62 98 156
62 98 158
62 98 156
62 97 154
62 98 163
61 98 158
61 97 153
62 98 156
62 97 154
60 95 143
61 96 150
61 97 157
62 98 161
61 97 152
61 97 157
63 99 164
62 98 159
61 97 149
61 97 153
62 98 157
62 98 157
61 97 153
62 97 154
60 95 143
61 96 151
61 96 152
62 98 161
62 98 158
62 98 157
62 98 157
62 98 153
62 98 161
62 97 148
62 98 157
62 98 160
62 98 160
62 97 153
62 98 157
63 99 167
61 97 155
63 98 162
62 98 157
62 98 166
61 97 150
62 98 160
62 98 160
61 97 151
62 98 160
62 98 160
62 98 154
61 97 154
62 99 164
62 97 155
62 97 153
62 98 155
61 97 153
62 98 159
63 99 162
62 97 152
62 98 157
62 98 154
62 97 154
62 98 160
62 97 156
63 99 164
60 96 144
62 98 159
62 97 156
62 98 160
62 98 158
62 97 157
61 97 155
61 97 156
61 97 160
61 97 158
60 95 148
61 97 159
62 97 156
62 98 158
62 98 161
62 98 162
61 96 154
62 98 163
61 97 160
61 97 158
59 94 144
61 96 155
61 96 164
61 97 161
60 95 151
61 97 162
60 96 159
84 114 173
206 225 253
210 229 255
210 229 255
210 229 255
210 229 255
210 229 255
210 229 255
210 229 255
210 229 255
210 229 255
210 229 255
210 229 255
210 229 255
210 229 255
210 229 255
210 230 255
210 230 255
210 230 255
184 197 207
133 132 96
146 142 92
128 125 82
135 132 87
153 150 99
140 137 91
139 137 91
146 143 95
144 141 94
138 137 93
140 138 93
133 132 90
144 144 98
147 146 98
145 143 96
138 137 94
138 138 94
150 148 99
139 139 95
149 147 99
151 149 101
155 153 104
159 157 106
148 147 100
149 148 101
160 157 104
151 149 101
155 153 103
159 157 106
152 150 100
160 159 108
159 158 106
161 158 106
165 162 108
161 159 108
159 157 105
162 159 106
158 156 104
155 152 101
159 156 104
161 159 106
159 156 104
153 150 100
167 164 109
159 156 104
165 161 105
164 161 107
162 159 106
166 161 104
162 159 105
172 167 110
163 160 105
165 161 107
167 162 106
164 160 105
164 161 106
164 160 104
166 163 108
166 162 106
165 162 106
163 159 104
158 155 101
161 158 103
162 158 103
163 159 103
165 160 105
163 160 102
161 157 101
167 163 106
170 166 108
159 155 102
163 158 101
165 160 101
167 162 104
162 159 104
168 163 102
165 160 104
162 159 102
161 156 99
166 162 105
165 161 101
162 158 102
164 160 103
163 159 102
164 160 101
164 159 103
167 162 103
163 159 101
164 160 104
156 153 97
162 156 98
164 159 99
168 163 100
164 159 102
161 156 101
163 158 101
163 159 101
164 160 101
154 149 95
166 160 102
161 157 100
161 156 101
156 151 93
158 153 96
160 155 100
163 159 101
151 146 88
163 159 102
161 156 97
163 158 99
162 156 101
154 149 94
153 149 90
154 150 95
156 152 97
155 152 94
156 150 95
155 150 91
154 149 91
158 154 97
156 150 91
147 142 85
153 150 93
149 145 87
150 145 91
156 151 95
152 149 95
155 150 94
155 150 94
174 198 0
175 198 0
172 196 0
173 197 0
174 198 0
174 197 0
174 197 0
173 196 0
173 197 0
174 197 0
174 198 0
175 198 0
174 198 0
174 197 0
174 197 0
175 198 0
175 198 0
176 199 0
174 198 0
175 198 0
173 197 0
173 197 0
174 197 0
174 198 0
174 198 0
174 197 0
174 198 0
174 197 0
174 197 0
175 198 0
174 198 0
174 197 0
175 198 0
172 196 0
175 198 0
174 197 0
174 198 0
176 198 0
174 198 0
172 196 0
175 198 0
175 198 0
175 198 0
173 197 0
174 198 0
176 198 0
175 198 0
175 197 0
175 198 0
174 198 0
173 197 0
175 198 0
175 198 0
174 198 0
174 197 0
175 198 0
174 198 0
174 197 0
174 197 0
172 196 0
174 197 0
174 197 0
174 197 0
173 197 0
173 197 0
174 198 0
175 198 0
174 198 0
173 197 0
175 198 0
175 198 0
176 199 0
174 197 0
174 198 0
172 196 0
176 199 0
173 197 0
175 198 0
174 197 0
174 198 0
174 198 0
174 197 0
174 197 0
175 198 0
175 198 0
175 198 0
175 198 0
176 199 0
175 198 0
173 197 0
174 197 0
174 197 0
175 198 0
174 198 0
175 198 0
175 198 0
175 198 0
175 198 0
174 198 0
172 197 0
174 197 0
173 197 0
176 199 0
174 198 0
175 198 0
174 198 0
175 198 0
176 199 0
174 197 0
174 197 0
175 198 0
172 196 0
175 198 0
173 197 0
174 198 0
173 197 0
173 197 0
173 197 0
173 197 0
172 196 0
171 196 0
173 196 0
171 196 0
175 198 0
172 197 0
174 197 0
173 197 0
173 196 0
174 197 0
173 196 0
196 216 194
211 230 255
211 230 255
211 230 255
211 230 255
211 230 255
211 230 255
210 230 255
210 230 255
210 230 255
210 229 255
210 229 255
210 229 255
210 229 255
210 229 255
210 229 255
210 229 255
136 159 197
61 97 160
62 98 154
61 97 154
61 97 158
62 98 159
62 97 156
61 97 156
62 98 158
62 97 156
61 96 149
61 97 154
61 97 156
62 98 157
61 96 148
62 98 163
62 98 161
61 96 148
62 98 156
61 96 150
61 96 150
61 97 156
62 97 154
62 98 157
61 97 155
62 98 161
62 97 150
61 97 157
62 98 163
62 98 158
62 97 154
61 97 151
63 98 158
62 98 159
63 98 157
61 97 157
62 97 151
62 98 157
62 98 159
62 97 156
61 97 154
62 98 155
62 98 159
62 98 155
62 98 162
61 97 155
62 98 158
61 96 151
61 97 153
61 98 160
62 98 154
62 98 159
63 98 158
62 97 157
62 98 157
61 97 152
61 97 156
63 99 161
62 98 160
61 97 152
62 98 154
62 98 157
62 97 155
61 97 154
61 97 151
62 98 159
61 97 155
60 96 152
62 98 161
62 98 157
61 96 147
62 98 164
61 97 158
63 99 157
61 97 151
61 97 151
61 96 151
62 98 160
63 99 166
61 96 150
62 97 159
61 96 152
61 96 158
61 97 152
62 97 159
61 96 153
60 96 147
61 96 147
60 95 147
61 96 152
61 97 152
61 97 160
60 96 157
60 96 155
62 97 160
61 96 155
60 95 157
62 98 168
60 95 153
62 98 163
61 96 158
59 92 145
61 97 163
61 96 160
61 95 154
135 158 202
210 229 255
210 229 255
210 229 255
210 229 255
210 229 255
210 229 255
210 229 255
210 230 255
210 230 255
210 230 255
211 230 255
211 230 255
211 230 255
211 230 255
211 230 255
211 230 255
181 191 194
137 133 86
128 125 82
136 134 89
133 131 87
136 134 90
137 135 90
136 134 90
136 135 91
138 137 92
131 130 89
138 137 94
144 143 97
138 137 93
145 143 97
148 147 100
148 147 100
149 148 99
150 149 101
145 144 97
142 141 96
143 142 96
154 151 102
148 147 100
151 149 101
157 156 105
156 153 103
160 159 107
148 147 99
154 152 102
156 154 104
151 148 100
158 155 104
153 152 102
160 157 104
162 159 107
160 158 105
164 161 107
156 153 103
157 154 102
165 161 107
162 159 106
160 156 103
159 157 105
161 157 104
168 165 109
159 156 102
169 165 109
160 156 102
161 158 105
163 159 104
160 157 104
165 161 106
166 162 106
162 158 103
163 159 104
168 164 108
164 161 108
165 160 104
164 159 104
166 161 104
168 164 107
163 160 104
164 159 103
164 160 103
166 161 104
166 162 105
168 164 108
163 158 101
167 163 107
159 155 101
165 161 104
164 160 104
161 156 100
166 162 105
163 159 101
160 156 101
159 156 101
160 156 101
167 163 106
164 159 102
158 155 99
162 157 103
155 151 98
161 156 97
162 158 101
160 155 97
162 158 103
168 163 104
157 152 97
165 160 103
160 156 102
162 157 98
152 148 93
167 163 101
166 162 103
156 152 95
164 159 103
163 158 99
160 156 99
161 157 101
158 154 99
155 150 93
161 157 100
161 156 97
159 154 95
154 149 96
161 156 99
161 157 99
146 142 90
152 149 90
161 155 97
157 152 93
155 149 95
156 151 96
158 153 97
160 155 93
153 148 93
155 151 93
155 150 92
154 150 95
154 149 93
157 152 91
150 145 90
155 150 94
158 153 93
154 150 90
158 154 93
153 148 93
150 147 90
151 146 90
175 198 0
175 198 0
174 197 0
174 197 0
175 198 0
173 197 0
174 197 0
173 197 0
173 197 0
175 198 0
173 197 0
174 197 0
173 196 0
176 199 0
174 198 0
176 199 0
177 199 0
173 197 0
175 198 0
174 198 0
175 198 0
174 197 0
173 197 0
171 196 0
174 198 0
174 198 0
174 198 0
175 198 0
176 198 0
173 197 0
174 197 0
174 198 0
174 198 0
174 198 0
174 198 0
175 198 0
174 198 0
173 197 0
174 198 0
174 197 0
175 198 0
175 198 0
175 198 0
175 198 0
175 198 0
176 199 0
175 198 0
175 198 0
174 198 0
175 198 0
173 197 0
175 198 0
174 197 0
176 199 0
175 198 0
175 198 0
174 197 0
174 197 0
176 198 0
173 197 0
173 197 0
173 197 0
174 198 0
174 197 0
174 198 0
173 197 0
175 198 0
173 197 0
174 198 0
174 198 0
175 198 0
174 197 0
173 197 0
174 198 0
175 198 0
174 197 0
173 197 0
175 198 0
175 198 0
174 197 0
174 197 0
174 197 0
173 197 0
174 198 0
173 197 0
174 198 0
173 197 0
176 199 0
175 198 0
175 198 0
176 199 0
175 198 0
176 198 0
174 198 0
175 198 0
174 198 0
174 198 0
173 197 0
174 197 0
175 198 0
175 198 0
172 196 0
174 198 0
174 198 0
176 198 0
176 199 0
174 198 0
174 197 0
173 197 0
173 197 0
174 198 0
175 197 0
175 198 0
174 198 0
174 197 0
174 197 0
173 197 0
174 198 0
172 196 0
175 198 0
173 197 0
174 198 0
173 197 0
174 197 0
174 198 0
175 198 0
175 198 0
174 197 0
172 195 0
173 197 0
174 197 0
193 214 182
211 230 255
211 230 255
211 230 255
211 230 255
211 230 255
211 230 255
211 230 255
211 230 255
211 230 255
211 230 255
211 230 255
211 230 255
210 230 255
210 230 255
169 189 222
61 97 159
61 97 154
60 96 144
62 97 151
61 98 159
61 97 152
61 97 158
61 96 144
62 98 156
62 97 149
62 98 161
62 98 155
62 98 158
63 99 163
61 97 151
62 98 160
61 97 153
61 97 154
61 97 154
63 98 157
61 96 147
62 97 153
61 96 145
61 97 155
62 97 155
62 98 158
62 97 157
63 99 161
62 98 162
61 97 158
63 98 159
62 98 158
61 97 158
62 98 159
61 97 156
63 99 161
62 98 161
63 99 165
61 97 152
62 98 158
63 99 162
62 98 155
61 97 154
62 98 153
61 96 156
61 97 155
62 98 160
61 97 154
62 98 160
61 97 149
62 98 161
61 97 156
62 98 157
62 98 159
62 98 164
62 97 154
62 98 160
61 97 156
62 98 156
62 97 154
62 98 155
61 97 159
62 98 160
62 97 156
62 98 158
61 97 159
62 98 159
62 97 154
62 97 153
62 98 159
61 97 153
60 96 150
63 99 162
62 98 158
61 96 156
62 97 152
61 97 156
61 97 156
62 97 158
61 96 155
62 98 163
62 97 153
62 97 155
61 97 155
61 97 153
62 98 158
61 96 151
61 96 144
62 98 160
61 97 159
62 98 156
60 96 154
62 98 162
61 97 155
61 95 154
62 98 161
61 96 153
61 97 159
62 97 157
60 94 148
60 95 151
60 93 149
61 96 160
60 95 151
61 96 161
61 97 164
156 177 212
210 230 255
211 230 255
211 230 255
211 230 255
211 230 255
211 230 255
211 230 255
211 230 255
211 230 255
211 230 255
211 230 255
211 230 255
211 230 255
211 229 254
166 172 163
128 125 81
134 131 84
139 136 90
135 133 88
134 133 89
141 139 92
133 132 89
138 136 92
142 141 95
140 138 94
143 142 95
138 137 93
136 135 91
133 134 92
141 140 96
142 141 97
148 148 100
141 140 97
145 145 98
148 147 100
142 141 95
154 153 103
156 154 103
157 156 105
150 149 100
147 146 99
149 148 100
153 152 102
151 150 101
156 153 103
158 156 105
151 149 100
152 151 102
159 156 105
157 155 105
158 155 103
152 150 101
154 152 102
155 153 103
155 152 101
164 161 107
157 155 103
162 159 106
167 164 107
165 161 107
160 157 102
163 159 104
154 152 102
165 162 107
162 158 102
163 160 106
161 156 103
166 161 105
165 160 104
164 160 106
172 167 109
168 164 107
164 161 104
167 164 107
170 165 108
162 159 102
169 165 108
163 159 104
165 161 106
163 160 104
168 163 105
164 160 103
163 160 105
168 163 106
168 163 106
165 161 103
162 157 103
163 158 101
165 161 104
170 165 107
160 156 101
162 157 101
166 161 103
167 162 104
167 162 101
166 161 104
161 157 99
166 161 104
167 162 101
160 156 100
160 156 97
160 156 98
159 156 95
167 163 106
159 155 99
162 158 99
161 156 99
159 155 98
159 154 95
161 156 98
165 160 102
166 162 104
160 155 97
161 157 101
164 159 101
165 160 101
159 154 97
159 154 96
162 157 101
151 148 94
160 154 97
156 152 92
154 150 93
157 152 95
162 157 99
164 159 100
163 157 101
162 157 100
152 148 90
153 148 90
159 155 98
155 152 94
146 142 90
145 140 85
157 152 93
158 152 95
153 148 93
159 154 94
151 147 89
155 150 94
146 142 90
159 153 93
157 151 93
153 149 93
155 150 91
152 148 90
174 198 0
174 198 0
173 197 0
175 198 0
175 198 0
174 198 0
174 197 0
175 198 0
173 197 0
173 197 0
174 197 0
173 197 0
175 198 0
174 197 0
173 197 0
175 198 0
173 197 0
174 197 0
175 198 0
176 198 0
174 198 0
175 198 0
174 197 0
174 198 0
174 198 0
175 198 0
175 198 0
175 198 0
173 197 0
174 198 0
174 197 0
174 198 0
174 197 0
173 197 0
175 198 0
173 197 0
174 198 0
174 197 0
174 197 0
174 197 0
173 196 0
174 198 0
174 198 0
174 197 0
176 198 0
174 197 0
174 198 0
173 197 0
175 198 0
174 198 0
173 197 0
174 197 0
174 197 0
174 198 0
177 199 0
175 198 0
175 198 0
174 198 0
174 198 0
175 198 0
173 197 0
176 199 0
174 198 0
175 198 0
174 197 0
174 198 0
175 198 0
176 199 0
174 197 0
173 197 0
174 197 0
173 197 0
176 199 0
173 197 0
175 198 0
174 198 0
175 198 0
175 198 0
174 197 0
175 198 0
175 198 0
175 198 0
174 198 0
174 198 0
174 198 0
174 197 0
175 198 0
176 198 0
174 198 0
174 198 0
173 197 0
175 198 0
175 198 0
174 197 0
174 197 0
173 197 0
174 198 0
174 198 0
175 198 0
173 197 0
174 198 0
173 197 0
173 197 0
176 199 0
173 197 0
174 197 0
176 199 0
174 197 0
175 198 0
175 198 0
174 198 0
173 196 0
173 197 0
173 197 0
175 198 0
175 198 0
175 198 0
175 198 0
173 197 0
176 199 0
175 198 0
174 197 0
174 197 0
174 198 0
176 198 0
174 197 0
173 196 0
172 196 0
173 196 0
174 197 0
172 196 0
173 195 0
192 213 167
211 230 255
211 230 255
211 230 255
211 230 255
211 230 255
211 230 255
211 230 255
211 230 255
211 230 255
211 230 255
211 230 255
211 230 255
198 217 246
83 113 166
61 97 153
61 97 154
62 98 157
62 97 149
62 98 154
60 96 144
62 98 156
60 96 152
62 98 161
62 98 155
61 97 149
62 98 159
61 97 154
62 98 157
61 97 160
62 98 155
60 96 149
61 97 155
61 97 155
61 97 151
62 98 164
61 96 143
62 97 153
62 97 152
61 97 156
61 97 153
62 98 156
62 98 157
62 97 153
62 98 158
62 98 158
62 98 155
61 97 153
62 97 155
62 98 152
61 96 151
62 98 158
62 98 158
61 97 155
62 98 160
62 97 151
62 97 150
61 96 150
61 97 157
61 97 153
62 97 154
61 96 149
62 98 162
61 97 152
62 97 157
62 98 158
61 97 159
61 96 150
61 97 151
61 96 151
61 97 152
62 98 163
61 97 143
62 97 150
62 98 156
62 98 161
62 97 156
62 98 156
61 96 152
63 98 160
61 97 161
63 99 164
63 99 165
61 97 155
62 97 157
62 98 162
61 97 152
61 97 155
61 97 154
61 96 144
61 97 154
62 97 155
62 98 156
62 98 164
61 96 150
62 97 159
61 96 153
61 97 155
60 95 151
62 97 156
60 95 149
62 98 163
61 97 149
62 98 162
61 97 152
61 96 155
60 95 148
61 96 149
61 96 154
61 97 160
62 97 157
61 96 151
62 97 149
62 97 160
61 96 155
61 95 154
61 96 157
61 96 156
60 94 148
60 93 150
62 97 161
68 101 165
200 219 247
211 230 255
211 230 255
211 230 255
211 230 255
211 230 255
211 230 255
211 230 255
211 230 255
211 230 255
211 230 255
211 230 255
211 230 255
162 172 175
128 124 82
132 128 84
142 140 91
128 128 86
135 134 90
133 132 88
125 124 85
129 127 86
137 135 91
140 139 95
146 146 99
146 144 96
142 141 95
141 140 95
134 135 93
153 152 103
140 139 94
151 149 101
152 151 103
139 138 94
141 140 95
146 145 97
148 147 100
147 146 99
151 149 101
154 152 102
148 147 99
149 148 100
153 152 103
156 154 103
153 152 103
152 150 100
157 156 105
153 152 103
152 151 102
164 161 107
154 152 103
157 154 103
150 148 100
162 159 106
156 154 102
166 163 109
161 158 105
161 157 104
156 153 102
160 158 105
159 156 102
165 162 108
162 159 105
163 160 104
159 156 103
157 155 102
169 164 109
165 160 105
170 166 110
167 163 107
167 162 106
169 165 106
169 166 109
164 160 104
163 159 103
169 164 107
170 166 109
161 157 102
168 163 105
168 164 106
170 166 108
163 159 104
163 159 101
167 163 107
163 159 104
168 163 104
165 161 103
166 162 103
168 163 106
168 163 104
168 164 106
164 159 102
160 156 100
166 161 102
162 158 101
161 158 101
167 162 103
164 159 102
164 159 103
162 158 102
162 157 101
159 155 98
157 152 96
162 158 101
165 160 99
164 159 103
160 155 97
157 153 97
164 160 101
163 159 101
164 160 100
160 156 99
163 158 99
159 154 97
166 161 101
163 158 99
159 155 102
162 158 102
162 158 99
157 153 97
159 154 95
162 158 101
156 151 97
158 153 97
156 150 93
154 149 95
160 155 97
163 158 99
159 155 97
157 153 95
158 153 93
154 148 92
156 151 95
151 146 87
158 153 95
161 157 96
159 154 97
157 152 93
157 152 95
152 147 88
145 140 90
155 151 95
149 145 90
153 149 93
157 153 93
154 148 90
174 198 0
173 197 0
174 198 0
172 197 0
173 197 0
174 197 0
174 198 0
174 198 0
176 199 0
175 198 0
173 197 0
174 198 0
174 197 0
176 199 0
174 198 0
176 199 0
175 198 0
173 197 0
175 198 0
174 198 0
173 197 0
175 198 0
175 198 0
174 198 0
173 197 0
174 197 0
174 197 0
175 198 0
173 197 0
172 197 0
172 196 0
175 198 0
175 198 0
174 198 0
175 198 0
173 197 0
173 196 0
174 198 0
174 198 0
176 199 0
175 198 0
176 198 0
174 197 0
176 198 0
173 197 0
175 198 0
173 197 0
175 198 0
171 195 0
173 197 0
176 198 0
174 198 0
174 198 0
173 197 0
175 198 0
173 197 0
176 199 0
174 198 0
174 198 0
173 197 0
174 198 0
174 198 0
176 199 0
176 199 0
173 197 0
176 198 0
176 199 0
174 198 0
174 198 0
174 198 0
174 198 0
174 198 0
173 196 0
175 198 0
175 198 0
174 197 0
174 198 0
176 199 0
172 196 0
173 197 0
174 197 0
173 197 0
175 198 0
175 198 0
172 196 0
175 198 0
174 198 0
174 197 0
175 198 0
174 198 0
174 198 0
173 196 0
174 198 0
175 198 0
174 198 0
174 197 0
174 197 0
174 197 0
175 198 0
174 197 0
174 198 0
174 197 0
176 199 0
172 197 0
175 198 0
175 198 0
176 199 0
173 197 0
173 197 0
174 198 0
173 197 0
173 196 0
174 198 0
174 198 0
174 198 0
173 197 0
175 198 0
174 198 0
174 197 0
174 197 0
175 198 0
174 198 0
175 198 0
175 198 0
174 197 0
173 196 0
173 197 0
172 196 0
171 196 0
175 198 0
172 196 0
172 196 0
171 194 0
192 213 167
211 230 255
211 230 255
211 230 255
211 230 255
211 230 255
211 230 255
211 230 255
211 230 255
211 230 255
211 230 255
211 230 255
118 142 185
60 95 151
60 96 151
61 97 155
61 97 149
60 96 148
61 96 143
63 99 163
62 98 163
61 97 159
62 98 158
62 98 157
62 98 159
60 96 152
60 96 148
62 98 157
61 97 153
62 98 155
62 98 154
63 99 164
62 98 156
60 96 149
60 96 149
61 97 154
61 97 151
62 98 153
62 97 157
61 96 150
63 99 162
60 96 149
62 98 160
61 97 157
62 98 161
62 98 152
61 97 150
61 97 153
62 98 160
61 96 150
62 98 157
62 98 162
61 97 151
61 97 152
62 98 155
63 99 162
63 99 161
61 96 151
60 95 148
62 97 157
62 98 161
62 97 157
62 97 156
62 98 157
62 98 159
62 98 164
62 97 156
62 97 153
62 97 154
62 98 159
61 97 155
62 98 161
61 97 152
61 97 156
61 97 149
62 98 154
61 96 151
61 97 153
62 98 156
62 98 157
62 97 156
62 98 158
62 98 163
63 98 160
61 96 147
62 98 162
61 97 151
61 97 150
61 97 158
61 97 153
62 97 160
61 96 156
62 97 156
62 98 154
62 97 156
62 97 156
61 96 149
62 97 151
62 98 159
62 98 158
62 98 160
61 96 150
62 98 161
61 97 152
61 96 156
61 97 157
61 96 156
61 96 157
61 97 157
61 96 157
62 97 158
61 96 149
61 97 160
61 97 153
60 94 147
60 95 147
61 96 159
62 96 155
61 96 156
60 94 154
59 92 149
123 146 189
210 229 254
211 230 255
211 230 255
211 230 255
211 230 255
211 230 255
211 230 255
211 230 255
211 230 255
211 230 255
211 230 255
159 167 168
134 131 84
137 134 89
129 127 83
146 144 95
138 136 89
143 142 95
140 138 93
135 133 88
133 133 91
136 135 92
138 138 94
141 141 95
132 131 89
144 143 96
143 141 96
137 137 93
149 147 100
144 144 99
149 149 101
146 145 98
148 147 100
148 147 101
152 152 103
153 152 102
147 146 98
149 148 100
148 147 100
147 146 98
151 150 102
155 153 103
151 149 100
152 150 100
151 151 102
145 144 96
144 143 97
157 155 104
164 161 107
164 160 107
161 158 105
159 157 104
160 157 103
156 154 103
163 159 106
160 158 107
163 160 106
167 163 108
161 159 105
163 159 106
161 158 104
163 160 104
162 159 105
164 160 103
160 157 101
163 160 104
169 165 106
168 163 106
168 163 107
161 158 103
166 162 105
163 159 105
169 165 108
167 162 106
165 161 105
165 161 105
164 160 103
169 165 108
166 162 104
164 160 102
171 165 106
164 160 104
160 156 101
167 163 106
169 163 104
167 162 100
163 160 104
169 165 105
162 158 103
167 161 102
167 162 103
169 164 106
165 161 103
168 163 104
162 158 103
168 162 104
166 162 101
164 160 101
168 163 102
160 156 98
161 156 99
160 155 97
166 162 101
168 163 104
164 160 101
167 162 103
161 156 97
163 159 102
166 160 100
160 158 100
167 161 101
158 152 95
164 159 100
154 150 93
159 154 93
164 159 100
162 158 98
162 157 97
159 154 95
162 157 97
166 161 101
165 160 95
165 159 97
158 153 95
152 149 91
154 150 93
151 146 90
159 155 92
148 143 87
160 155 95
154 149 91
159 154 93
158 153 95
162 156 98
163 158 99
156 151 93
157 152 95
155 150 90
154 149 93
159 154 91
148 144 87
151 146 93
158 152 94
154 149 92
154 149 90
173 197 0
175 198 0
175 198 0
175 198 0
173 197 0
174 198 0
174 197 0
173 196 0
175 198 0
173 197 0
174 198 0
175 198 0
174 197 0
173 196 0
171 195 0
173 197 0
174 198 0
173 197 0
176 199 0
175 198 0
172 196 0
175 198 0
175 198 0
175 198 0
174 198 0
175 198 0
175 198 0
174 198 0
174 197 0
175 198 0
175 198 0
174 198 0
173 197 0
174 198 0
175 198 0
173 197 0
174 198 0
174 197 0
172 196 0
173 197 0
174 197 0
175 198 0
177 199 0
176 198 0
174 198 0
174 198 0
175 198 0
173 197 0
175 198 0
175 198 0
174 197 0
173 197 0
175 198 0
173 197 0
174 198 0
174 198 0
175 198 0
175 198 0
175 198 0
176 198 0
175 198 0
175 198 0
176 199 0
174 197 0
173 197 0
174 197 0
174 198 0
174 198 0
174 197 0
174 198 0
176 198 0
173 197 0
176 198 0
174 198 0
174 197 0
174 198 0
174 197 0
174 198 0
174 197 0
175 198 0
173 197 0
174 198 0
175 198 0
174 197 0
173 197 0
175 198 0
175 198 0
173 196 0
174 198 0
173 197 0
174 198 0
175 198 0
176 198 0
175 198 0
173 197 0
175 198 0
174 198 0
173 197 0
175 198 0
173 196 0
173 197 0
174 198 0
173 197 0
174 198 0
172 196 0
174 197 0
174 198 0
173 197 0
175 198 0
175 198 0
174 197 0
174 198 0
174 197 0
175 198 0
173 197 0
172 196 0
175 198 0
175 198 0
173 197 0
174 197 0
175 198 0
175 198 0
174 197 0
174 197 0
174 198 0
173 197 0
174 197 0
175 198 0
176 199 0
174 197 0
174 197 0
171 194 0
172 195 0
175 198 0
189 210 163
212 230 255
212 230 255
212 230 255
212 230 255
211 230 255
211 230 255
211 230 255
211 230 255
211 230 255
176 196 228
61 97 150
61 97 150
61 98 161
62 98 155
61 97 151
61 96 151
62 97 154
61 97 153
62 97 154
60 96 147
62 98 160
62 98 158
62 98 156
62 98 163
61 97 154
61 97 153
61 97 144
61 96 152
61 97 155
61 97 158
62 98 158
60 96 147
62 98 159
61 96 148
62 97 154
61 97 144
62 98 156
61 97 154
62 98 157
61 97 158
61 97 148
62 98 160
62 97 156
62 97 154
62 97 154
62 97 154
61 97 153
62 98 155
61 97 153
61 97 150
60 95 148
61 96 144
62 98 159
61 97 153
62 97 151
61 97 154
62 98 167
62 97 152
61 97 149
61 97 156
62 98 154
62 98 159
61 97 153
62 97 150
60 96 154
62 97 156
61 97 151
62 97 152
62 97 161
62 98 161
62 97 153
62 97 150
62 98 161
61 96 147
62 98 153
62 98 155
62 98 156
62 97 154
61 96 154
62 98 159
62 98 157
61 96 145
62 98 160
62 98 157
61 97 153
61 96 149
61 96 150
61 96 150
63 99 159
62 97 156
63 99 163
61 96 152
61 97 160
62 98 155
61 97 148
62 98 162
62 98 159
62 98 161
61 97 154
62 97 156
61 97 158
61 97 154
60 96 150
61 96 150
62 98 162
61 96 155
62 97 159
62 97 157
61 96 151
61 96 143
61 96 150
61 96 155
61 95 151
60 96 155
61 95 154
59 94 155
60 95 154
61 96 152
60 94 156
59 92 142
181 200 231
211 230 255
211 230 255
211 230 255
211 230 255
211 230 255
212 230 255
212 230 255
212 230 255
212 230 255
182 190 189
133 129 84
135 132 86
137 134 87
136 132 87
143 140 92
142 141 95
138 136 89
144 142 96
135 134 91
143 143 97
133 132 90
145 143 97
140 139 95
149 148 100
135 134 92
144 143 98
144 144 98
147 145 98
142 143 98
147 146 99
146 145 98
149 148 100
152 151 102
149 148 100
145 144 98
155 154 104
150 149 99
150 148 100
156 153 102
145 144 98
156 153 103
156 154 104
149 148 100
151 150 101
151 149 101
158 155 104
158 157 103
152 149 99
162 160 105
156 153 103
162 158 106
159 156 103
164 161 107
161 157 104
162 159 103
162 159 103
168 164 108
161 158 103
164 160 105
166 162 107
165 162 106
164 161 107
161 158 103
164 160 104
162 158 104
167 163 106
167 162 104
167 163 108
164 160 105
163 158 103
167 163 103
167 163 106
167 163 105
168 164 107
165 161 104
169 166 108
166 162 105
164 158 100
170 165 106
162 158 101
167 162 102
168 164 104
167 162 104
166 162 104
171 167 106
169 165 104
169 164 104
165 161 99
168 163 105
169 164 106
161 156 96
171 166 105
173 168 107
165 161 100
161 155 98
160 156 99
171 166 104
168 163 106
164 159 99
167 162 103
166 161 99
164 160 100
168 164 107
163 157 97
159 155 98
162 157 96
161 157 97
160 155 97
164 159 100
161 157 97
162 156 98
158 153 98
162 156 98
166 161 102
158 154 96
159 154 98
163 159 100
154 149 94
154 150 93
166 161 102
155 151 94
163 160 97
156 152 93
162 156 95
151 146 89
158 153 93
155 150 93
153 148 89
161 154 95
161 154 96
156 151 91
155 150 92
158 152 93
154 149 88
162 156 97
151 146 86
152 147 88
157 152 92
158 152 96
153 148 93
152 148 89
155 150 92
153 148 90
155 150 89
174 197 0
174 197 0
173 197 0
174 197 0
173 197 0
174 197 0
173 197 0
175 198 0
175 198 0
173 197 0
174 198 0
174 198 0
173 197 0
175 198 0
174 198 0
172 196 0
175 198 0
174 198 0
174 197 0
175 198 0
173 197 0
174 198 0
174 198 0
175 198 0
174 198 0
173 197 0
175 198 0
174 198 0
174 197 0
175 198 0
174 198 0
174 197 0
176 199 0
175 198 0
175 198 0
174 198 0
174 197 0
175 198 0
175 198 0
175 198 0
174 197 0
173 196 0
173 197 0
177 199 0
174 198 0
178 200 0
176 199 0
173 197 0
173 197 0
174 198 0
174 198 0
175 198 0
175 198 0
174 198 0
174 198 0
173 197 0
176 199 0
174 198 0
176 199 0
174 198 0
173 197 0
176 199 0
176 198 0
176 199 0
175 198 0
173 197 0
174 198 0
175 198 0
174 197 0
174 198 0
174 197 0
173 197 0
174 198 0
173 196 0
174 198 0
174 197 0
174 197 0
175 198 0
176 198 0
174 198 0
175 198 0
175 198 0
174 198 0
174 198 0
174 197 0
175 198 0
175 198 0
174 198 0
175 198 0
175 198 0
174 198 0
175 198 0
174 198 0
175 198 0
173 197 0
174 198 0
174 197 0
176 198 0
174 198 0
172 197 0
176 199 0
176 199 0
173 197 0
173 197 0
175 198 0
175 198 0
176 198 0
175 198 0
174 198 0
174 198 0
175 198 0
175 198 0
176 199 0
175 197 0
174 197 0
174 198 0
174 198 0
175 198 0
174 197 0
174 198 0
174 198 0
173 197 0
174 197 0
173 197 0
174 197 0
174 198 0
174 198 0
175 198 0
175 198 0
172 196 0
173 196 0
172 196 0
173 196 0
172 196 0
173 196 0
195 215 194
212 230 255
212 230 255
212 230 255
212 230 255
212 230 255
212 230 255
212 230 255
207 225 251
81 111 166
60 96 149
62 98 154
62 97 159
61 96 150
62 98 159
61 97 156
61 96 149
62 98 154
61 97 150
61 97 149
62 98 159
61 97 155
62 97 152
61 96 148
61 97 152
62 98 161
62 97 150
62 97 157
61 97 153
61 97 152
61 97 151
63 99 166
62 98 159
61 97 154
61 96 152
61 97 153
61 96 150
61 97 152
61 97 152
62 97 154
62 97 151
62 98 156
62 97 148
62 97 153
61 97 153
61 96 150
62 97 152
61 97 150
61 97 150
61 97 153
62 97 158
61 97 153
61 97 145
62 98 155
60 96 142
62 97 153
60 96 149
62 98 149
62 98 154
62 98 156
62 98 150
61 97 151
62 97 150
61 97 148
61 97 149
62 97 160
62 97 153
60 95 142
61 96 151
61 96 148
62 98 157
61 97 154
62 97 152
63 99 164
61 97 147
62 98 158
62 98 154
63 98 155
62 97 155
63 99 160
62 97 149
62 98 158
60 96 152
61 97 152
62 98 163
61 97 156
62 98 164
62 98 156
62 98 157
61 97 156
61 97 158
61 97 158
60 95 145
62 98 158
60 96 144
62 97 150
62 97 155
60 95 149
60 95 148
62 97 158
60 95 146
62 97 155
60 95 146
60 95 148
62 98 156
62 97 160
61 96 154
61 96 147
62 97 159
60 94 151
61 96 149
61 97 159
62 97 158
60 94 149
60 94 146
60 95 149
61 96 158
60 95 151
61 95 157
60 95 145
78 107 161
205 223 250
212 230 255
212 230 255
212 230 255
212 230 255
212 230 255
212 230 255
212 230 255
181 189 190
137 133 85
141 136 87
137 135 87
135 133 89
139 137 91
134 133 90
130 128 86
121 120 81
132 132 90
137 136 93
132 132 90
139 137 92
147 146 99
133 134 92
129 129 90
144 142 97
140 140 95
151 150 102
133 134 93
141 140 96
139 140 96
145 144 99
151 150 101
147 146 99
145 144 98
154 153 104
150 149 102
154 152 102
148 146 98
153 152 104
151 150 102
154 152 101
154 151 101
156 155 105
159 157 106
155 154 104
155 153 103
159 156 105
156 154 104
153 151 101
158 155 104
162 159 104
155 153 100
158 156 103
156 153 100
156 153 99
162 158 104
166 162 107
163 159 103
164 161 106
168 165 108
165 160 104
164 159 103
161 159 104
168 164 108
166 162 106
164 160 102
166 162 106
164 159 101
171 165 107
164 160 102
164 159 101
167 162 103
168 163 104
161 157 102
170 165 105
164 160 103
167 164 106
166 160 103
166 161 100
170 165 103
169 164 104
166 162 103
163 160 103
165 161 102
169 164 106
170 165 104
166 163 106
169 164 105
165 160 100
165 159 101
170 165 105
170 165 101
162 158 101
166 161 103
164 160 101
167 163 104
169 164 104
167 163 104
169 164 103
163 158 99
168 162 103
162 158 99
166 161 99
161 156 97
167 162 99
165 160 100
168 163 101
166 160 99
165 159 101
168 163 101
162 157 95
158 153 94
163 157 100
163 158 97
161 156 97
158 154 93
167 163 102
163 158 101
162 157 97
163 156 99
161 156 94
154 149 90
159 154 93
160 155 93
162 157 98
160 155 94
163 158 97
154 149 87
156 150 93
157 152 94
153 148 90
156 151 94
154 150 92
157 151 90
157 153 95
164 160 100
152 147 88
157 152 95
158 153 95
146 141 84
155 149 90
151 145 90
147 141 84
159 154 95
175 198 0
174 197 0
174 197 0
174 198 0
173 197 0
174 198 0
173 197 0
174 198 0
174 197 0
174 198 0
174 198 0
174 198 0
173 197 0
175 198 0
175 198 0
174 197 0
174 198 0
176 198 0
174 198 0
175 198 0
173 197 0
173 197 0
174 198 0
176 199 0
175 198 0
175 198 0
174 198 0
173 197 0
174 198 0
174 197 0
174 198 0
174 198 0
175 198 0
174 197 0
173 197 0
174 197 0
173 197 0
175 198 0
174 197 0
174 198 0
174 198 0
174 198 0
174 198 0
175 198 0
174 197 0
174 198 0
173 197 0
174 197 0
173 197 0
174 198 0
176 199 0
174 197 0
176 198 0
174 197 0
175 198 0
175 198 0
174 197 0
173 197 0
174 198 0
173 197 0
174 197 0
175 198 0
175 198 0
174 197 0
174 198 0
177 199 0
173 197 0
174 197 0
174 198 0
176 199 0
175 198 0
173 197 0
174 198 0
173 197 0
174 198 0
175 198 0
173 197 0
174 197 0
176 199 0
175 198 0
174 197 0
177 199 0
175 198 0
174 198 0
173 197 0
175 198 0
176 199 0
174 198 0
175 198 0
174 197 0
174 198 0
175 198 0
176 199 0
175 198 0
175 198 0
173 197 0
173 197 0
174 198 0
174 198 0
175 198 0
174 198 0
172 196 0
175 198 0
175 198 0
174 197 0
173 197 0
171 196 0
174 197 0
175 198 0
176 199 0
175 198 0
175 198 0
174 198 0
174 198 0
173 197 0
175 198 0
174 198 0
174 198 0
175 198 0
175 198 0
175 198 0
173 197 0
174 197 0
173 197 0
173 197 0
175 198 0
175 198 0
173 197 0
175 198 0
175 198 0
175 198 0
175 197 0
174 197 0
172 197 0
172 196 0
172 196 25
200 219 206
212 230 255
212 230 255
212 230 255
212 230 255
212 230 255
212 230 255
172 192 220
61 97 156
60 96 153
62 97 155
62 98 154
61 97 155
61 96 148
61 96 152
61 96 149
61 97 151
61 97 150
62 98 156
62 97 155
62 97 151
61 97 152
62 98 154
62 98 158
60 96 153
61 96 147
61 97 154
61 97 155
62 98 156
62 97 152
63 98 158
61 97 143
61 96 150
63 98 154
61 96 147
61 96 154
62 97 158
62 97 153
62 98 154
62 98 156
61 97 147
60 96 150
60 96 147
60 96 149
61 97 155
62 97 151
62 97 152
63 98 159
62 97 150
62 98 150
62 97 153
64 99 163
61 96 149
61 97 155
61 97 156
64 100 165
60 95 145
62 98 150
61 97 150
61 97 145
62 98 156
62 98 160
62 98 157
60 96 152
61 96 145
61 96 149
61 96 151
61 97 150
62 98 159
62 97 155
62 98 163
61 96 143
61 96 151
62 98 157
62 97 152
62 97 149
61 96 151
61 96 148
62 97 157
61 96 153
61 96 152
62 98 156
61 96 145
62 97 160
62 98 158
62 98 160
62 97 154
61 96 155
61 97 153
63 98 158
61 97 152
62 97 154
60 95 148
62 98 160
62 98 158
62 98 162
61 96 156
61 97 161
61 97 149
60 95 149
62 98 159
61 96 151
62 98 156
62 98 166
61 96 147
61 96 155
61 96 149
61 96 148
61 96 156
61 96 153
61 96 154
60 95 154
61 95 152
60 95 154
59 94 149
60 93 152
61 96 157
60 95 149
59 94 152
60 94 151
157 177 210
212 230 255
212 230 255
212 230 255
212 230 255
212 230 255
212 230 255
190 204 219
135 131 89
131 127 79
131 127 82
135 134 89
127 125 86
142 140 94
137 135 91
123 122 83
140 139 94
134 134 92
136 135 92
137 136 93
132 132 91
140 140 95
143 143 98
133 132 90
141 140 97
142 141 97
130 131 91
146 144 98
142 141 96
138 139 96
140 138 94
144 145 99
158 156 104
154 152 102
154 152 102
149 148 99
151 150 102
153 151 102
145 144 99
155 152 102
151 149 100
155 153 101
150 149 99
161 159 107
145 144 98
161 158 104
160 158 105
160 157 104
154 152 102
160 158 104
164 160 105
161 157 102
156 153 102
161 158 104
159 156 103
164 161 107
159 156 103
159 155 102
166 163 107
163 160 107
162 159 104
165 162 104
169 166 109
166 163 105
166 161 105
165 161 104
167 163 104
164 160 103
163 160 103
169 164 104
166 162 105
169 164 104
173 168 109
166 162 104
173 167 108
168 163 104
165 162 101
166 162 102
164 160 103
165 160 101
167 162 101
171 166 104
167 163 104
164 160 102
166 161 100
169 164 103
163 159 100
167 162 103
165 160 102
170 165 104
165 161 101
165 160 101
165 161 103
165 161 102
167 162 106
165 160 101
159 154 98
164 159 100
166 162 99
168 163 103
159 154 97
167 161 103
161 157 97
164 159 100
162 157 97
168 162 100
163 158 101
162 158 97
166 160 101
170 164 104
159 154 95
161 156 98
162 157 95
163 159 99
165 159 96
166 160 98
169 164 103
166 161 96
160 155 94
165 159 99
159 155 92
158 152 94
154 149 91
163 158 95
165 159 99
164 158 97
151 147 89
160 155 95
164 160 99
160 154 95
151 145 87
161 156 99
156 150 92
154 150 95
154 149 87
157 152 90
150 146 89
141 138 80
152 147 88
153 148 88
149 144 85
155 149 87
158 151 93
151 145 91
174 198 0
174 197 0
174 198 0
175 198 0
174 198 0
176 199 0
175 198 0
175 198 0
175 198 0
174 198 0
174 198 0
175 198 0
174 198 0
175 198 0
174 198 0
174 198 0
175 198 0
174 198 0
175 198 0
175 198 0
175 198 0
174 198 0
174 198 0
174 198 0
175 198 0
175 198 0
174 197 0
174 197 0
173 197 0
175 198 0
175 198 0
174 198 0
174 197 0
172 197 0
174 198 0
172 197 0
174 197 0
175 198 0
174 197 0
173 197 0
174 198 0
175 198 0
174 198 0
173 197 0
174 198 0
174 198 0
175 198 0
173 197 0
174 198 0
175 198 0
175 198 0
173 197 0
175 198 0
176 199 0
174 197 0
173 197 0
175 198 0
174 197 0
175 198 0
175 198 0
176 199 0
175 198 0
175 198 0
173 197 0
172 196 0
175 198 0
175 198 0
174 197 0
174 197 0
176 198 0
174 197 0
174 198 0
175 198 0
174 198 0
173 197 0
175 198 0
174 198 0
175 198 0
174 198 0
175 198 0
175 198 0
176 199 0
175 198 0
174 198 0
174 197 0
174 198 0
174 198 0
174 198 0
171 196 0
174 197 0
174 197 0
174 197 0
175 198 0
174 197 0
175 198 0
174 198 0
174 197 0
174 198 0
175 198 0
174 198 0
175 198 0
174 198 0
174 198 0
173 196 0
172 197 0
176 198 0
174 198 0
174 198 0
176 198 0
173 197 0
174 197 0
175 198 0
175 198 0
174 198 0
175 198 0
173 197 0
173 197 0
173 197 0
175 198 0
173 197 0
174 198 0
173 197 0
175 198 0
175 198 0
172 196 0
171 196 0
175 198 0
175 198 0
173 197 0
174 198 0
174 198 0
174 197 0
175 198 0
174 197 0
175 198 0
172 197 0
172 194 44
203 222 220
212 231 255
212 231 255
212 231 255
212 231 255
201 220 245
73 105 159
61 97 147
61 97 154
61 97 144
61 97 150
61 97 155
62 98 162
61 97 151
61 97 153
61 97 148
60 95 151
62 98 155
62 98 154
62 98 161
60 95 142
61 96 151
61 97 152
63 99 162
62 97 154
61 97 157
61 97 156
62 97 154
62 99 166
62 98 159
61 97 149
62 97 153
61 97 153
62 98 155
61 97 149
62 98 162
62 98 155
61 96 144
61 97 150
62 98 157
61 97 150
61 96 150
61 97 154
61 96 151
61 97 145
61 97 151
61 96 148
62 97 154
62 97 154
61 97 147
62 98 154
62 97 154
61 97 150
62 98 153
62 98 155
62 97 152
61 97 151
62 97 150
62 97 158
61 96 151
61 97 159
61 96 147
62 98 157
62 97 150
62 98 155
60 96 148
61 97 151
62 97 151
62 98 156
61 97 154
62 98 153
62 98 157
60 95 141
62 97 151
62 98 157
62 97 153
62 97 152
61 97 152
62 98 154
62 98 152
62 97 155
61 97 151
61 96 142
61 97 150
62 98 159
61 96 147
61 96 154
62 97 149
61 97 155
61 97 153
62 97 154
61 96 152
62 97 159
63 98 156
61 97 158
61 96 152
62 97 154
62 97 149
61 97 150
61 96 149
61 96 149
61 97 152
61 97 150
61 96 150
62 98 160
60 95 149
62 97 157
61 96 152
61 96 158
61 97 156
61 96 150
61 96 157
60 95 150
60 94 145
61 95 149
60 93 148
59 91 134
61 96 160
59 93 153
69 99 158
199 218 245
212 231 255
212 231 255
212 231 255
212 231 255
198 213 230
133 130 91
129 126 83
130 127 84
127 125 83
130 129 87
123 122 84
136 134 90
130 130 88
131 131 90
149 147 99
134 134 92
131 131 90
136 135 92
135 135 93
140 140 95
131 131 91
129 130 91
146 145 99
141 141 97
140 139 94
128 128 89
137 136 92
137 137 94
135 136 94
138 138 94
148 147 100
147 146 99
153 151 101
151 150 101
149 147 99
149 149 100
158 155 103
155 153 102
152 151 103
157 154 104
157 155 105
151 148 98
154 151 100
156 154 102
161 159 104
154 152 100
165 161 106
150 148 98
164 160 106
161 157 104
163 159 105
162 159 104
159 157 104
161 158 102
162 158 102
165 162 106
166 162 104
163 159 101
167 163 106
167 164 106
171 166 108
166 162 106
164 160 103
168 164 105
170 165 104
166 162 106
168 163 102
164 161 103
167 163 103
168 163 104
164 159 102
167 162 104
170 164 101
171 166 105
165 161 103
167 162 104
171 165 105
172 166 106
172 167 106
164 161 104
162 159 101
171 166 104
168 163 103
168 163 101
166 162 104
167 163 103
166 161 103
166 161 103
164 159 99
162 158 101
172 166 105
168 164 100
156 152 94
172 166 106
167 162 104
170 165 104
169 164 103
161 157 99
163 158 97
166 160 100
172 166 102
162 157 95
160 154 95
167 162 100
165 160 97
166 162 101
169 162 102
164 160 99
169 163 104
160 155 98
170 164 101
163 158 102
163 158 97
167 163 102
165 160 99
165 160 99
163 157 97
162 156 95
165 160 100
154 149 95
159 153 95
171 165 103
157 152 89
156 151 94
148 142 89
159 154 93
160 155 95
158 153 93
161 154 95
152 149 87
162 155 95
153 148 90
163 157 97
158 153 88
155 150 90
152 148 89
148 144 87
158 153 92
154 149 90
154 148 85
161 156 93
156 151 92
174 197 0
175 198 0
174 198 0
175 198 0
175 198 0
173 197 0
175 198 0
175 198 0
174 198 0
174 198 0
176 198 0
175 198 0
174 197 0
173 197 0
174 197 0
174 198 0
174 198 0
175 198 0
174 198 0
173 197 0
175 198 0
174 198 0
174 197 0
174 198 0
174 197 0
173 197 0
173 197 0
176 199 0
173 197 0
175 198 0
172 196 0
175 198 0
175 198 0
174 197 0
175 198 0
176 198 0
173 197 0
173 197 0
175 198 0
173 197 0
175 198 0
172 196 0
175 198 0
174 198 0
174 197 0
173 197 0
175 198 0
175 198 0
175 198 0
175 198 0
173 197 0
174 197 0
175 198 0
176 198 0
174 198 0
174 197 0
176 199 0
176 199 0
175 198 0
175 198 0
172 196 0
174 198 0
173 197 0
173 197 0
174 198 0
174 198 0
175 198 0
175 198 0
176 198 0
174 198 0
174 197 0
174 198 0
174 198 0
173 197 0
175 198 0
173 197 0
176 199 0
173 197 0
174 197 0
174 198 0
175 198 0
174 197 0
174 198 0
177 199 0
174 198 0
175 198 0
174 197 0
173 197 0
174 197 0
173 197 0
175 198 0
174 197 0
175 198 0
174 198 0
174 197 0
175 198 0
176 199 0
175 198 0
175 198 0
174 198 0
173 197 0
173 197 0
173 197 0
176 198 0
174 198 0
174 197 0
173 197 0
174 197 0
175 198 0
175 198 0
173 196 0
175 198 0
175 198 0
176 198 0
175 197 0
174 197 0
174 197 0
174 197 0
174 197 0
175 198 0
174 197 0
175 198 0
175 198 0
175 198 0
173 197 0
174 198 0
173 197 0
173 197 0
176 198 0
173 197 0
175 198 0
175 198 0
173 196 0
174 197 0
174 197 0
174 197 0
173 196 0
172 195 57
209 228 244
213 231 255
213 231 255
213 231 255
139 161 194
62 97 157
61 96 147
61 96 143
62 98 158
61 96 149
60 96 148
62 97 150
62 97 158
62 97 152
61 96 149
61 97 147
62 98 156
62 98 160
62 98 155
62 98 153
63 99 161
61 96 144
61 96 153
62 98 159
61 97 149
62 98 158
61 97 151
62 97 156
61 96 147
61 97 152
61 97 154
63 99 160
62 98 160
61 97 147
61 96 142
62 98 155
63 99 161
62 98 156
61 97 149
62 98 156
61 97 153
60 95 144
62 98 157
61 97 148
62 98 153
61 97 156
61 96 149
62 98 157
61 97 151
61 96 150
62 98 161
61 96 144
62 98 159
62 97 155
62 97 156
60 95 139
62 98 157
62 97 151
61 96 148
62 98 156
62 97 152
63 99 158
61 97 151
61 96 153
60 96 149
62 97 153
62 98 158
62 98 156
62 98 155
62 98 155
61 97 142
61 97 155
61 96 150
61 96 149
62 97 147
62 97 153
61 97 153
61 96 149
61 97 152
62 98 158
62 97 153
62 97 162
60 95 143
61 97 147
62 98 160
61 96 145
62 98 158
62 97 156
61 96 151
61 96 149
63 99 162
62 98 154
61 96 152
61 97 153
61 97 152
61 97 151
62 97 155
61 97 151
61 97 155
61 96 143
62 97 155
61 96 147
61 96 148
61 96 151
61 97 153
61 97 158
60 95 150
62 97 157
61 96 152
60 95 153
61 96 154
60 95 150
61 96 156
61 96 155
62 97 157
60 95 152
60 94 155
58 91 140
61 96 156
126 148 186
213 231 255
213 231 255
213 231 255
208 225 247
144 142 108
129 126 81
126 123 81
132 130 86
131 129 86
131 129 87
127 126 84
136 134 90
124 124 85
139 138 94
133 131 89
145 145 99
137 136 93
122 122 83
125 126 88
131 132 91
139 138 94
139 138 94
142 141 97
143 143 98
139 137 93
143 143 99
143 143 97
152 150 101
131 132 92
134 134 93
141 141 98
146 145 98
141 141 97
140 139 96
155 153 103
139 139 96
150 150 100
148 148 99
148 147 99
146 145 99
153 152 103
165 161 105
158 155 103
159 157 104
157 154 101
155 153 100
164 161 108
153 151 97
158 155 103
151 150 98
165 161 105
162 158 103
161 158 102
166 162 105
158 155 103
164 160 103
167 163 106
162 160 103
163 160 103
169 165 108
168 164 106
167 163 104
168 164 105
167 164 106
163 160 104
162 159 101
168 164 107
168 162 101
171 166 104
168 163 104
167 163 103
171 166 108
166 162 102
165 161 104
170 165 106
166 161 102
169 165 106
171 166 104
169 164 105
165 161 99
172 167 106
170 165 103
168 163 103
167 162 102
172 166 103
170 166 104
165 160 100
168 163 101
169 164 102
166 162 101
161 156 97
168 163 103
164 159 99
167 161 99
172 166 101
168 163 101
172 166 104
162 157 96
163 158 98
167 162 97
163 159 101
168 163 99
161 157 100
162 157 97
160 156 97
163 157 94
162 157 98
164 159 99
168 163 101
164 158 96
164 159 97
167 162 99
168 161 101
163 158 99
162 157 97
165 160 95
160 155 96
160 155 94
162 158 97
162 156 95
157 152 91
163 158 96
160 154 90
160 155 93
160 155 93
165 159 95
162 156 97
157 153 90
158 152 91
158 153 95
152 147 87
158 153 94
155 151 93
157 152 93
150 145 90
156 151 93
152 147 90
155 151 90
151 146 87
153 148 86
154 147 86
145 139 80
175 198 0
175 198 0
175 198 0
175 198 0
174 198 0
173 196 0
174 198 0
173 197 0
173 197 0
175 198 0
175 198 0
174 198 0
175 198 0
175 198 0
174 197 0
173 197 0
174 197 0
174 197 0
176 199 0
174 198 0
174 198 0
176 199 0
173 196 0
173 197 0
174 197 0
176 199 0
174 198 0
175 198 0
174 197 0
173 197 0
176 199 0
175 198 0
173 197 0
175 198 0
174 197 0
173 197 0
174 198 0
173 197 0
174 198 0
174 198 0
175 198 0
173 197 0
175 198 0
174 197 0
175 198 0
176 199 0
175 198 0
174 198 0
174 197 0
175 198 0
174 198 0
173 197 0
174 197 0
174 197 0
175 198 0
176 199 0
176 198 0
175 198 0
173 197 0
174 198 0
175 198 0
173 197 0
174 198 0
175 198 0
177 199 0
175 198 0
175 198 0
175 198 0
174 198 0
176 199 0
175 198 0
176 198 0
175 198 0
174 198 0
175 198 0
173 197 0
175 198 0
173 197 0
175 198 0
175 198 0
176 198 0
174 198 0
176 199 0
174 198 0
172 196 0
176 198 0
175 198 0
175 198 0
174 198 0
174 197 0
174 198 0
174 198 0
175 198 0
174 198 0
175 198 0
176 198 0
174 198 0
175 198 0
174 198 0
175 198 0
175 198 0
174 198 0
174 198 0
176 199 0
174 197 0
176 199 0
174 198 0
175 198 0
173 197 0
174 198 0
175 198 0
174 198 0
175 198 0
174 198 0
174 198 0
175 198 0
173 197 0
173 197 0
173 197 0
174 198 0
174 198 0
171 196 0
173 197 0
174 197 0
174 198 0
174 197 0
174 198 0
174 198 0
173 197 0
174 198 0
174 198 0
172 196 0
174 198 0
175 198 0
173 196 0
172 196 0
172 196 0
171 194 0
183 205 125
212 230 254
213 231 255
202 220 246
67 101 158
61 96 148
60 96 142
62 98 151
60 95 135
61 97 153
61 97 149
62 98 156
61 97 153
63 98 158
61 97 149
61 97 154
61 96 149
62 97 148
62 98 154
61 97 151
62 98 157
61 96 143
61 96 148
62 98 159
61 97 156
61 97 154
61 96 151
61 97 150
61 96 148
61 97 141
62 97 155
61 97 152
62 97 151
61 96 143
62 97 150
62 97 153
62 98 157
61 96 148
61 97 147
61 96 154
61 96 147
61 96 143
61 96 144
61 97 149
62 98 152
61 96 143
63 98 156
60 96 150
62 97 151
61 96 143
62 98 156
61 97 155
61 97 153
61 97 150
62 98 154
61 96 149
62 98 157
61 97 152
62 98 155
60 96 145
61 96 149
62 98 150
60 96 148
62 98 155
60 96 147
62 98 155
60 96 147
61 96 147
62 98 151
61 96 148
61 97 155
61 96 151
61 96 154
62 98 158
62 98 155
61 96 150
62 98 155
62 97 155
62 97 153
62 97 155
61 96 145
60 95 139
61 97 154
61 97 147
62 97 151
61 96 150
61 97 150
63 99 158
61 96 146
61 96 149
61 96 150
62 98 157
61 97 154
62 97 155
61 96 149
62 98 158
60 96 147
62 97 155
60 95 148
61 96 149
62 97 155
60 95 145
61 96 151
60 96 146
61 96 147
59 94 150
60 95 147
61 96 158
61 95 151
61 97 154
60 96 150
61 95 148
62 97 161
61 96 147
59 94 155
60 94 152
61 96 152
61 95 154
59 92 146
63 96 151
201 219 246
213 231 255
211 229 253
156 162 152
125 121 78
130 128 83
125 123 81
131 129 87
135 133 89
138 136 91
131 130 87
124 124 85
128 128 88
127 126 87
138 137 93
124 125 87
131 131 90
129 130 91
135 135 93
135 135 94
126 126 86
137 137 94
136 136 93
140 140 96
145 145 100
139 140 95
142 141 96
142 142 98
138 138 94
141 141 96
143 142 97
147 146 98
144 144 98
147 145 99
154 153 104
149 147 98
151 150 101
149 147 97
144 142 96
152 150 99
153 151 99
154 152 100
156 153 101
158 156 103
146 144 95
162 159 106
157 154 102
164 161 105
158 155 102
161 158 105
153 151 99
165 161 104
159 155 102
163 160 103
168 163 105
166 162 107
173 168 108
168 164 107
163 160 105
164 160 103
165 162 107
165 161 104
169 166 107
170 165 106
165 161 103
164 160 102
170 166 106
168 163 105
170 165 102
169 164 105
167 163 104
173 169 109
171 166 103
166 162 101
165 161 103
164 160 99
162 159 99
163 159 102
172 167 107
169 164 100
169 164 105
166 162 103
168 162 100
162 158 96
169 164 102
175 170 108
168 163 101
170 165 104
170 165 103
167 163 100
167 162 102
169 164 101
166 161 101
170 164 100
161 157 92
162 157 95
162 157 96
164 159 101
163 159 99
160 155 95
169 163 100
159 155 95
163 157 99
173 166 104
164 159 98
162 158 97
163 157 97
162 158 96
167 161 101
173 166 103
159 154 96
157 152 90
166 160 99
159 154 95
165 159 95
158 153 93
166 161 99
163 158 98
162 157 97
154 149 86
159 154 95
160 155 93
156 151 93
168 163 101
168 163 99
167 161 97
155 150 87
160 155 95
151 146 89
148 143 84
163 158 93
162 156 95
154 148 85
155 149 90
156 151 91
159 154 95
155 150 90
156 151 87
159 153 93
160 155 88
154 149 90
157 152 90
172 197 0
175 198 0
173 197 0
174 198 0
174 198 0
174 198 0
175 198 0
174 198 0
175 198 0
173 197 0
176 199 0
173 197 0
175 198 0
175 198 0
175 198 0
173 197 0
176 199 0
175 198 0
174 197 0
174 197 0
174 198 0
174 198 0
175 198 0
176 199 0
173 197 0
173 197 0
175 198 0
175 198 0
175 198 0
175 198 0
173 197 0
174 198 0
174 198 0
174 198 0
175 198 0
175 198 0
175 198 0
175 198 0
175 198 0
175 198 0
175 198 0
173 197 0
174 197 0
175 198 0
174 198 0
174 198 0
174 197 0
175 198 0
175 198 0
174 198 0
172 197 0
175 198 0
174 197 0
175 198 0
175 198 0
173 197 0
174 197 0
174 198 0
176 199 0
175 198 0
174 197 0
176 198 0
172 197 0
176 198 0
174 198 0
174 198 0
174 198 0
175 198 0
175 198 0
173 197 0
174 197 0
175 198 0
175 198 0
174 198 0
174 198 0
174 197 0
175 198 0
174 197 0
174 197 0
174 198 0
175 198 0
172 197 0
176 198 0
175 198 0
174 198 0
174 197 0
175 198 0
174 198 0
173 197 0
175 198 0
174 198 0
174 198 0
173 197 0
174 198 0
175 198 0
174 197 0
174 198 0
174 197 0
173 196 0
175 198 0
176 198 0
175 198 0
172 197 0
175 198 0
172 196 0
173 197 0
175 198 0
173 197 0
174 198 0
174 197 0
174 198 0
175 198 0
176 198 0
175 198 0
175 198 0
173 197 0
175 198 0
175 198 0
173 197 0
175 198 0
173 197 0
173 197 0
175 198 0
174 198 0
174 198 0
173 197 0
174 198 0
175 198 0
176 199 0
175 198 0
172 196 0
174 198 0
174 198 0
173 196 0
173 196 0
174 197 0
173 197 0
172 196 0
169 193 0
195 215 193
213 231 255
142 163 193
62 98 155
61 97 151
61 96 147
61 97 150
61 97 143
61 96 148
60 96 145
62 98 153
61 96 143
60 95 140
62 97 149
61 97 152
60 96 148
61 97 145
61 97 148
61 97 150
61 96 144
62 98 157
61 96 147
61 97 145
61 96 148
61 96 143
62 98 160
62 98 156
61 96 142
61 96 148
61 96 144
61 97 150
61 95 139
61 96 153
62 97 141
63 99 161
61 96 144
61 97 153
61 96 147
62 97 150
63 98 155
61 97 151
61 97 153
60 95 145
62 98 155
63 98 152
61 97 152
61 96 149
62 97 148
61 97 152
62 98 153
62 98 152
61 97 150
61 97 154
60 96 156
63 99 164
61 97 152
62 97 152
61 97 152
61 97 149
60 96 145
61 97 151
61 97 152
62 97 154
61 97 150
61 97 151
62 97 152
62 97 154
61 96 151
62 97 157
61 96 147
62 97 150
61 97 154
61 96 143
61 97 151
61 97 149
61 96 142
60 95 136
63 99 159
62 98 157
61 97 155
60 95 141
62 97 150
62 98 155
61 97 150
60 95 144
61 96 149
61 97 151
62 98 156
61 97 152
62 97 150
61 96 152
61 96 149
60 95 153
61 97 149
61 96 149
61 97 151
61 97 150
60 96 154
62 97 154
61 97 155
61 96 149
60 95 144
61 97 152
61 96 151
60 94 146
62 97 152
60 95 144
61 96 148
60 96 156
61 96 149
61 96 154
60 94 149
62 96 154
60 95 147
61 96 158
61 95 149
59 93 148
60 94 154
58 92 147
149 169 203
213 231 255
175 183 181
133 129 80
128 126 81
124 122 82
126 125 84
122 121 81
130 129 87
125 126 87
128 128 89
127 127 86
133 133 91
131 132 92
128 128 88
135 135 92
124 125 88
128 128 88
126 127 88
130 130 90
134 134 93
140 139 96
133 133 91
136 135 93
141 141 97
139 139 94
130 129 89
137 137 94
135 134 92
147 146 98
144 144 99
155 153 102
147 146 99
143 141 94
144 142 95
156 153 102
138 138 93
154 152 100
153 152 101
147 146 98
152 150 100
151 149 100
152 149 99
153 151 100
154 152 99
153 151 98
156 154 101
158 156 101
162 158 104
166 163 106
158 155 103
158 155 100
168 164 107
158 155 101
159 156 100
165 161 104
163 160 104
167 162 104
163 158 102
165 162 103
167 161 103
169 165 105
168 163 103
166 162 106
166 162 101
165 161 100
177 171 111
170 165 105
168 164 104
170 165 105
170 165 106
171 166 104
163 160 100
168 162 96
169 164 100
173 168 104
169 165 100
167 162 101
170 165 104
167 164 102
173 168 104
172 166 103
171 166 104
164 159 100
165 160 99
167 162 102
169 164 103
169 165 103
166 160 101
164 160 101
174 168 106
168 163 100
163 158 95
166 161 99
170 164 104
168 163 98
169 164 98
166 161 94
167 162 101
164 158 96
163 157 99
165 159 97
168 162 103
170 164 104
164 158 96
161 156 95
164 159 95
164 159 96
165 160 101
170 164 101
166 160 97
164 159 97
163 158 98
168 162 96
169 163 101
167 162 101
164 157 95
168 161 97
157 153 93
160 155 91
164 159 95
162 158 95
160 154 95
161 155 95
161 156 95
163 156 95
159 154 91
164 158 91
158 154 95
159 153 90
153 149 90
162 156 95
157 151 93
158 153 88
155 150 88
160 155 94
156 151 93
151 144 88
159 153 92
156 151 93
155 151 93
148 143 84
174 197 0
175 198 0
175 198 0
173 197 0
175 198 0
175 198 0
175 198 0
174 197 0
174 197 0
172 196 0
174 198 0
173 197 0
173 197 0
175 198 0
174 198 0
177 199 0
174 198 0
173 197 0
173 197 0
174 197 0
174 198 0
175 198 0
175 198 0
175 198 0
174 198 0
174 198 0
174 198 0
174 197 0
173 197 0
174 197 0
174 197 0
176 198 0
172 196 0
175 198 0
174 198 0
174 198 0
174 198 0
175 198 0
175 198 0
173 197 0
176 199 0
174 198 0
175 198 0
175 198 0
178 199 0
174 198 0
175 198 0
174 198 0
174 198 0
173 197 0
175 198 0
174 197 0
174 198 0
174 198 0
174 198 0
174 197 0
176 198 0
174 197 0
173 197 0
174 198 0
173 197 0
173 197 0
174 198 0
175 198 0
174 198 0
174 198 0
174 198 0
175 198 0
175 198 0
173 197 0
174 198 0
173 197 0
173 197 0
174 197 0
174 197 0
173 197 0
174 197 0
173 196 0
175 198 0
174 198 0
175 198 0
176 199 0
173 197 0
175 198 0
174 198 0
175 198 0
173 197 0
176 198 0
175 198 0
174 197 0
173 197 0
175 198 0
175 198 0
174 198 0
174 198 0
174 197 0
176 198 0
174 198 0
175 198 0
174 198 0
176 199 0
173 197 0
174 197 0
175 198 0
171 196 0
174 198 0
174 198 0
174 197 0
173 197 0
174 198 0
176 198 0
174 198 0
175 198 0
175 198 0
174 198 0
174 197 0
175 198 0
175 198 0
174 197 0
175 198 0
176 198 0
174 198 0
172 196 0
174 198 0
175 198 0
175 198 0
173 197 0
174 198 0
176 199 0
174 197 0
175 198 0
172 197 0
174 198 0
175 197 0
173 197 0
175 198 0
172 196 0
173 196 0
172 195 0
169 193 25
189 208 204
68 101 152
61 97 149
61 97 144
61 96 145
61 97 145
61 96 145
62 98 160
62 97 157
62 98 157
62 97 151
61 96 149
62 98 158
61 97 156
61 96 142
61 96 148
62 98 154
62 97 150
61 96 147
62 98 156
61 97 143
61 97 148
62 97 150
62 97 153
62 97 151
61 96 147
60 96 150
62 97 152
62 97 148
60 95 144
61 97 147
61 96 148
61 96 152
62 98 154
62 97 152
62 98 155
62 97 153
60 95 148
61 97 154
62 98 158
62 97 150
61 96 144
62 97 150
61 96 145
62 98 154
62 97 154
61 97 152
62 97 153
62 98 155
61 96 148
62 97 152
62 98 156
61 97 148
62 97 151
62 98 157
61 97 153
61 96 150
62 97 153
60 95 144
61 96 144
60 96 147
61 96 147
61 97 150
62 98 155
62 98 161
60 95 140
62 98 158
62 98 151
61 96 144
62 98 160
61 96 149
62 98 155
61 96 145
61 97 154
61 96 144
62 98 155
62 97 150
61 96 149
62 97 155
62 97 145
61 97 151
60 95 142
62 98 156
61 97 150
62 97 153
61 96 142
60 95 147
61 96 157
61 96 150
61 97 147
61 96 149
61 96 149
61 97 147
61 97 154
61 96 147
60 95 142
62 97 154
59 94 142
62 97 155
62 97 147
61 96 151
60 95 149
61 95 148
61 96 153
60 95 143
62 98 156
61 95 148
60 94 149
61 96 151
60 95 144
60 96 154
61 96 149
61 96 151
60 94 147
59 94 140
60 95 149
58 92 140
60 93 146
66 98 151
192 206 223
123 119 76
131 128 81
141 137 89
123 121 80
133 131 86
120 120 81
127 127 87
125 125 87
133 133 91
128 129 89
125 124 86
135 134 91
132 132 89
120 120 83
124 125 87
133 134 93
115 117 83
126 127 89
130 130 90
140 139 96
137 138 96
135 136 94
132 133 92
134 133 92
141 141 95
139 139 95
133 133 93
145 146 99
133 133 91
136 136 93
138 138 95
149 148 100
148 146 98
146 145 97
142 141 96
150 149 100
146 146 99
155 153 101
149 147 98
159 156 103
154 152 100
150 148 97
160 156 101
154 150 100
158 154 100
159 156 101
162 159 106
164 161 106
148 147 96
162 158 100
164 161 103
167 163 104
167 163 104
166 162 103
164 160 104
169 164 104
161 158 98
165 161 102
167 163 106
167 164 103
166 161 101
163 160 97
168 164 104
168 163 100
159 156 97
171 165 103
169 164 106
170 165 103
170 165 105
166 161 99
172 167 106
168 164 102
172 166 104
169 164 98
170 164 102
171 166 103
172 167 105
166 161 100
168 163 104
171 166 107
170 164 103
168 163 101
170 164 101
173 167 106
168 163 98
167 162 98
168 162 99
168 163 101
173 165 103
173 168 104
169 164 101
165 161 101
168 163 97
166 159 100
169 164 99
168 163 97
161 157 95
166 162 101
166 161 99
170 165 103
165 160 98
168 163 99
162 157 97
166 159 95
165 160 100
163 157 97
163 158 95
168 162 98
167 161 97
165 158 94
161 157 95
162 157 97
163 156 97
161 155 91
167 161 96
163 158 93
160 155 92
167 162 97
158 153 93
164 159 100
157 152 90
153 149 89
159 154 92
161 156 89
166 160 90
159 153 92
144 141 81
160 153 91
158 152 91
157 151 90
158 154 89
163 157 95
151 147 86
162 156 91
163 157 95
160 156 91
153 148 86
159 154 90
154 149 90
156 151 88
176 199 0
173 196 0
176 198 0
174 198 0
173 197 0
174 198 0
173 197 0
176 199 0
173 197 0
175 198 0
174 197 0
174 197 0
175 198 0
176 198 0
175 198 0
173 197 0
174 197 0
173 197 0
174 198 0
175 198 0
175 198 0
173 197 0
175 198 0
175 198 0
175 198 0
174 198 0
175 198 0
173 197 0
173 197 0
174 198 0
174 197 0
175 198 0
174 197 0
173 197 0
174 198 0
176 199 0
175 198 0
175 198 0
174 198 0
175 198 0
176 199 0
176 199 0
175 198 0
175 198 0
174 198 0
174 198 0
174 197 0
174 198 0
174 197 0
175 198 0
175 198 0
173 197 0
173 197 0
174 197 0
174 198 0
176 199 0
174 198 0
175 198 0
174 198 0
175 198 0
175 198 0
175 198 0
172 197 0
174 198 0
172 197 0
177 199 0
175 198 0
173 197 0
174 198 0
174 198 0
172 196 0
174 198 0
173 197 0
175 198 0
175 198 0
176 198 0
174 198 0
175 198 0
174 198 0
175 198 0
173 197 0
175 198 0
174 198 0
173 197 0
174 198 0
175 198 0
175 198 0
175 198 0
175 198 0
174 198 0
175 198 0
174 198 0
174 198 0
175 198 0
176 198 0
175 198 0
175 198 0
175 198 0
173 197 0
175 198 0
173 197 0
174 197 0
175 198 0
176 198 0
174 197 0
175 198 0
175 198 0
174 197 0
174 198 0
175 198 0
175 198 0
175 198 0
175 198 0
173 197 0
175 198 0
173 197 0
174 197 0
173 197 0
175 198 0
174 197 0
175 198 0
174 198 0
174 198 0
172 196 0
174 198 0
174 197 0
175 198 0
174 198 0
175 198 0
173 197 0
174 198 0
174 197 0
175 198 0
173 197 0
172 196 0
173 196 0
174 197 0
172 196 0
172 195 0
171 194 0
133 158 97
60 96 143
61 97 151
62 98 154
61 96 147
62 97 153
62 98 153
62 97 152
61 96 143
62 97 154
62 98 158
63 98 152
62 98 159
61 97 151
60 96 145
60 96 147
62 97 155
61 97 152
61 97 148
61 97 145
61 96 149
61 96 152
61 96 152
61 97 145
61 97 150
62 98 155
60 95 134
63 99 163
62 97 152
61 97 147
62 98 150
61 96 144
62 97 156
62 98 156
62 97 154
62 97 149
62 98 154
62 97 147
60 95 142
62 98 158
61 96 149
63 98 155
60 95 145
63 99 161
62 98 160
62 98 158
62 97 150
61 97 155
61 96 145
61 97 150
62 98 152
62 98 153
61 96 148
61 96 148
60 95 143
61 97 150
62 97 145
62 97 151
61 96 145
60 96 139
61 96 150
61 97 149
61 97 144
61 97 147
62 97 152
62 97 153
61 97 150
61 97 152
61 96 145
61 95 136
62 97 154
61 96 151
61 97 154
61 97 151
62 98 161
62 97 153
61 97 154
61 97 152
61 97 157
61 97 152
61 95 143
62 98 158
62 98 155
61 97 147
61 96 146
60 96 140
61 96 151
61 97 150
62 97 156
61 96 142
59 94 128
62 97 152
60 95 145
62 97 148
62 98 160
62 96 148
61 97 153
62 97 149
62 97 158
61 97 153
60 95 147
61 95 144
62 97 161
61 95 147
61 96 152
60 94 148
60 95 144
61 96 150
60 94 141
59 93 142
61 97 150
59 93 137
61 96 155
60 93 146
58 92 139
60 94 149
59 93 150
58 90 138
61 95 154
104 112 110
124 120 78
124 121 79
141 137 90
128 127 84
128 128 85
126 125 86
125 125 86
123 123 85
120 121 85
130 130 88
119 120 83
135 135 93
127 127 89
122 122 85
117 119 86
134 134 93
126 128 89
135 134 92
131 133 92
129 128 86
136 137 94
130 131 90
138 138 95
139 138 95
137 136 93
140 140 96
140 140 98
144 143 98
137 136 90
136 136 94
142 142 97
144 143 96
149 147 97
150 149 101
154 152 102
153 151 100
154 152 102
151 149 95
152 150 98
159 156 103
160 157 104
149 147 97
155 152 100
162 159 103
161 157 100
162 159 103
159 156 99
164 160 103
163 159 103
159 156 101
162 159 102
162 159 105
166 163 106
164 160 103
160 156 102
157 154 101
169 164 103
164 160 103
172 167 106
166 162 102
168 164 106
164 159 101
169 163 101
166 161 102
172 167 105
164 159 102
163 159 98
174 168 103
166 161 101
167 162 98
165 161 99
169 164 104
169 164 101
174 168 103
166 162 101
171 166 101
171 166 105
173 167 105
171 166 104
165 160 98
170 164 102
170 163 99
165 160 98
167 163 102
166 160 99
166 162 100
161 155 93
166 162 99
170 164 101
171 165 103
166 161 100
173 167 101
170 165 103
171 166 104
167 161 97
168 162 97
162 157 93
166 160 98
166 160 99
161 156 94
173 167 104
163 158 97
163 157 93
164 159 99
165 159 95
161 156 92
165 160 98
163 159 97
166 161 96
167 162 99
163 158 95
157 151 96
161 156 97
169 163 101
165 159 99
163 158 95
166 160 95
162 157 93
154 148 85
165 159 93
160 155 93
165 158 90
165 160 94
160 154 93
166 161 98
164 158 93
161 157 93
154 149 93
160 155 92
163 157 96
162 156 94
166 160 98
160 155 93
159 153 89
158 152 90
156 152 90
148 143 85
159 153 93
156 150 85
153 148 81
173 197 0
173 197 0
173 197 0
175 198 0
174 198 0
175 198 0
175 197 0
176 199 0
175 198 0
174 198 0
175 198 0
173 197 0
173 197 0
175 198 0
173 197 0
174 197 0
175 198 0
175 198 0
175 198 0
175 198 0
174 198 0
175 198 0
174 198 0
173 197 0
173 197 0
175 198 0
173 197 0
174 198 0
175 198 0
175 198 0
174 197 0
174 198 0
174 197 0
176 199 0
175 198 0
173 197 0
174 197 0
174 197 0
175 198 0
174 198 0
175 198 0
175 198 0
176 198 0
174 197 0
173 197 0
174 198 0
174 198 0
174 198 0
174 197 0
175 198 0
175 198 0
174 197 0
174 198 0
173 197 0
176 198 0
174 197 0
175 198 0
175 198 0
175 198 0
174 197 0
174 198 0
174 197 0
174 198 0
174 198 0
175 198 0
173 197 0
175 198 0
178 200 0
174 198 0
175 198 0
175 198 0
174 198 0
175 198 0
174 198 0
174 198 0
176 199 0
176 199 0
174 197 0
175 198 0
174 198 0
172 197 0
175 198 0
175 198 0
174 198 0
173 197 0
174 198 0
175 198 0
175 198 0
174 197 0
175 198 0
174 197 0
175 198 0
175 198 0
174 198 0
175 198 0
174 197 0
174 198 0
173 197 0
175 198 0
174 198 0
175 198 0
175 198 0
175 198 0
176 199 0
174 198 0
175 198 0
173 197 0
175 198 0
173 197 0
174 198 0
173 197 0
175 198 0
176 198 0
173 197 0
175 198 0
173 197 0
174 198 0
174 198 0
173 197 0
175 198 0
175 198 0
175 198 0
176 198 0
174 198 0
175 198 0
175 198 0
174 197 0
175 198 0
175 198 0
174 198 0
174 198 0
174 198 0
173 197 0
174 197 0
175 198 0
175 198 0
174 197 0
173 197 0
175 198 0
172 196 0
85 114 135
60 95 144
62 98 152
60 95 135
61 97 150
61 97 149
60 95 145
61 97 150
61 96 150
62 97 149
61 97 149
61 97 157
62 97 151
62 97 148
61 96 148
62 97 148
60 96 139
62 98 152
62 97 151
61 97 149
62 98 156
61 97 150
61 96 143
61 97 150
61 97 147
60 95 149
62 97 152
61 96 144
61 96 150
60 95 140
61 96 144
61 96 149
61 96 150
60 96 148
61 96 147
63 98 152
60 95 140
62 98 156
63 98 155
61 96 145
61 96 144
61 96 144
62 98 156
61 96 142
60 95 141
62 97 157
61 97 150
62 97 149
62 97 153
61 97 154
62 97 151
62 97 149
63 98 159
61 96 145
61 96 149
61 97 148
61 97 148
61 96 141
62 97 150
61 96 143
62 97 151
63 99 158
60 95 144
62 97 156
61 97 155
61 97 149
62 97 150
62 98 153
62 97 150
61 96 152
61 97 151
61 97 153
60 96 141
62 98 156
61 97 145
62 98 156
61 96 152
60 95 143
61 97 154
60 95 142
61 96 145
61 96 151
62 97 156
61 96 147
62 97 151
61 96 152
62 97 155
61 97 150
61 97 152
60 95 144
61 97 155
62 97 151
62 97 153
61 96 145
61 96 149
61 96 148
62 98 157
60 96 149
60 95 148
61 96 147
61 96 148
59 94 139
61 96 148
61 97 158
61 95 149
61 95 148
61 96 150
61 96 146
61 96 152
59 94 145
60 94 145
61 96 149
61 96 154
60 94 146
60 94 142
61 96 151
59 93 142
59 92 140
58 91 133
66 93 135
136 133 89
117 115 75
123 122 81
116 115 77
122 121 82
134 133 90
119 119 81
115 116 81
115 116 80
121 122 86
110 112 78
120 122 86
133 134 92
123 123 85
129 129 89
122 123 85
131 132 91
132 132 92
127 128 91
135 135 92
146 145 100
118 120 82
130 131 91
137 137 95
140 140 96
142 141 96
151 149 99
134 135 91
146 146 99
141 139 92
145 145 100
145 144 97
149 147 99
143 143 96
157 155 102
150 149 99
155 153 102
156 153 102
160 157 102
154 152 101
152 150 100
158 154 102
157 154 103
161 159 104
160 156 101
156 153 101
155 152 99
164 160 102
163 160 101
158 155 98
157 154 98
160 156 101
169 164 103
166 161 106
162 159 103
157 155 103
160 156 100
164 159 102
165 162 103
168 163 104
162 159 99
167 162 106
168 164 102
166 162 102
173 168 104
169 164 106
170 165 104
171 165 104
165 161 101
165 161 102
173 168 105
168 165 104
171 166 101
168 162 99
168 163 101
164 159 100
170 164 102
171 165 102
171 166 103
173 167 102
169 164 98
168 162 99
171 167 104
170 165 103
170 165 101
172 166 105
165 160 96
169 164 98
169 164 99
169 164 100
170 164 99
165 159 98
166 160 95
172 165 103
171 165 104
167 161 98
168 162 101
168 163 99
168 163 99
161 157 88
164 159 93
161 156 95
167 161 97
166 161 92
165 159 95
165 160 95
163 158 95
166 160 97
159 154 87
168 162 97
168 162 100
163 157 93
168 162 95
167 162 94
157 152 92
160 154 95
165 160 92
161 156 97
158 153 91
158 154 92
159 154 93
160 155 93
163 158 93
160 155 92
167 161 99
161 156 93
161 155 88
162 157 92
157 152 93
161 156 93
160 154 90
155 150 84
160 153 88
159 154 92
162 156 90
159 153 92
156 149 92
148 144 84
157 152 92
152 147 88
175 198 0
175 198 0
175 198 0
173 197 0
175 198 0
174 198 0
175 198 0
175 198 0
175 198 0
175 198 0
174 197 0
173 197 0
174 198 0
172 197 0
174 197 0
175 198 0
175 198 0
174 198 0
174 198 0
175 198 0
174 198 0
173 197 0
173 197 0
174 198 0
173 197 0
174 197 0
176 198 0
174 198 0
175 198 0
176 199 0
175 198 0
174 198 0
175 198 0
174 198 0
175 198 0
176 199 0
174 198 0
175 198 0
174 198 0
175 198 0
176 199 0
172 197 0
174 198 0
175 198 0
174 198 0
174 197 0
175 198 0
174 197 0
174 197 0
175 198 0
174 198 0
175 198 0
175 198 0
174 198 0
173 197 0
174 198 0
174 198 0
175 198 0
174 197 0
174 198 0
173 197 0
175 198 0
175 198 0
174 198 0
175 198 0
176 199 0
175 198 0
175 198 0
175 198 0
175 198 0
175 198 0
174 197 0
175 198 0
174 198 0
175 198 0
175 198 0
176 199 0
174 198 0
174 198 0
176 198 0
175 198 0
174 198 0
174 198 0
175 198 0
173 197 0
174 197 0
175 198 0
174 198 0
174 197 0
174 198 0
174 198 0
174 197 0
175 198 0
174 197 0
177 199 0
174 198 0
174 197 0
174 198 0
175 198 0
173 197 0
174 197 0
174 197 0
175 198 0
174 198 0
175 198 0
176 198 0
173 197 0
175 198 0
173 197 0
174 198 0
174 197 0
174 198 0
173 197 0
175 198 0
174 197 0
175 198 0
174 198 0
175 198 0
175 198 0
175 198 0
173 197 0
174 198 0
175 198 0
174 198 0
175 198 0
174 197 0
175 198 0
176 199 0
175 198 0
175 198 0
175 198 0
174 197 0
174 197 0
173 197 0
174 197 0
172 196 0
171 195 0
173 197 0
172 196 0
140 165 78
61 96 142
61 96 142
61 96 143
61 96 144
61 96 149
61 97 150
61 96 144
61 96 145
61 97 148
61 97 149
61 96 142
61 96 143
60 96 144
62 97 153
61 97 143
61 96 148
61 96 137
61 96 148
62 97 149
61 96 147
61 96 143
61 97 153
61 97 152
62 98 153
60 96 145
61 97 149
62 98 157
61 97 154
63 98 156
62 97 149
62 97 149
61 96 143
61 96 148
61 97 147
61 97 152
61 96 148
61 96 149
61 96 147
62 98 157
60 96 145
61 97 152
62 97 158
60 95 136
60 96 144
62 97 154
61 96 152
62 97 151
61 96 149
62 98 157
61 95 140
60 95 142
62 98 151
61 97 145
62 97 145
62 97 149
61 96 154
61 96 147
60 95 142
61 96 149
62 98 156
61 96 142
60 95 141
62 98 154
63 98 154
62 97 153
62 97 152
62 98 153
60 95 144
62 98 154
61 96 143
61 97 151
62 97 152
61 96 147
59 94 134
61 97 150
61 97 153
61 96 140
61 97 151
61 97 152
61 96 144
61 96 147
61 96 143
62 97 154
62 98 155
61 96 149
61 97 147
61 97 151
60 94 139
62 98 154
61 97 149
60 95 142
60 95 148
60 96 142
61 96 152
61 96 153
60 95 141
60 95 141
61 95 146
61 96 149
61 96 157
62 97 155
61 96 151
62 97 149
61 96 152
62 97 158
61 96 147
60 95 144
59 93 142
60 95 151
61 95 151
60 94 141
61 96 153
60 94 138
60 94 142
59 94 147
60 94 146
60 94 146
59 92 138
60 94 153
57 90 137
118 121 108
129 127 85
126 125 84
118 118 80
121 120 83
126 126 86
126 127 88
119 119 82
134 134 92
117 119 83
120 120 84
115 117 83
113 115 82
119 121 85
131 132 92
115 117 83
123 125 87
113 116 83
134 134 93
133 133 93
136 137 94
139 139 93
144 144 98
145 144 97
123 124 86
130 130 90
136 136 93
139 139 94
142 142 95
142 141 94
144 143 95
146 146 98
149 146 97
145 143 95
139 139 94
153 150 100
157 155 101
153 151 98
148 146 95
150 146 95
156 154 99
149 148 98
155 152 99
163 159 104
153 152 98
158 155 100
156 153 98
162 159 99
160 156 101
169 165 104
165 161 105
164 161 102
165 162 105
163 159 100
164 161 103
167 161 101
160 156 97
166 161 102
167 162 100
165 160 101
162 159 101
166 161 102
166 161 99
169 164 103
169 164 102
171 165 98
168 163 100
169 164 100
164 160 99
164 161 102
167 163 98
169 164 102
166 161 101
171 165 100
176 169 104
171 166 100
173 167 104
172 167 103
170 165 100
166 162 98
170 165 101
168 162 99
169 163 101
166 161 97
172 166 105
168 164 99
173 167 104
171 165 101
168 162 95
171 165 104
166 161 95
167 162 99
171 165 102
166 160 93
169 163 99
165 160 97
165 161 94
165 160 97
169 164 101
169 164 102
165 160 99
167 161 97
173 166 101
167 161 93
164 160 98
165 159 92
166 161 93
157 152 95
163 157 95
169 164 95
166 159 95
172 166 103
163 157 93
163 157 90
165 160 97
168 162 101
164 159 97
159 154 86
163 158 96
165 160 95
162 157 95
169 161 100
162 157 95
156 151 90
163 157 94
161 156 90
155 149 90
158 152 88
163 156 93
162 156 90
156 151 85
156 151 86
163 158 95
153 148 84
160 155 90
159 152 94
158 154 90
158 153 94
158 153 90
158 152 90
174 198 0
176 198 0
174 197 0
173 197 0
175 198 0
176 198 0
173 197 0
175 198 0
175 198 0
172 197 0
175 198 0
174 197 0
174 198 0
173 197 0
174 198 0
174 197 0
177 199 0
173 197 0
174 198 0
174 198 0
173 197 0
173 197 0
174 198 0
174 198 0
175 198 0
173 197 0
174 198 0
175 198 0
174 198 0
175 198 0
174 198 0
174 198 0
174 198 0
174 197 0
174 197 0
174 198 0
174 198 0
173 197 0
175 198 0
175 198 0
176 198 0
175 198 0
174 198 0
174 198 0
174 198 0
175 198 0
176 199 0
175 198 0
175 198 0
173 197 0
175 198 0
176 198 0
174 198 0
173 197 0
172 197 0
176 199 0
175 198 0
175 198 0
176 199 0
175 198 0
175 198 0
175 198 0
176 198 0
174 198 0
175 198 0
175 198 0
174 198 0
175 198 0
173 197 0
173 197 0
173 197 0
176 199 0
173 197 0
175 198 0
176 198 0
175 198 0
173 197 0
173 197 0
174 198 0
173 197 0
174 198 0
174 197 0
174 197 0
172 196 0
173 197 0
175 198 0
175 198 0
177 199 0
174 197 0
175 198 0
175 198 0
175 198 0
173 197 0
174 198 0
173 197 0
175 198 0
175 198 0
175 198 0
174 198 0
174 198 0
174 197 0
174 198 0
175 198 0
174 197 0
175 198 0
175 198 0
174 198 0
175 198 0
175 198 0
176 199 0
174 197 0
175 198 0
175 198 0
174 198 0
175 198 0
175 198 0
175 198 0
175 198 0
174 198 0
175 198 0
175 198 0
174 198 0
175 198 0
173 197 0
175 198 0
173 197 0
173 197 0
176 199 0
175 198 0
174 198 0
173 197 0
171 196 0
174 198 0
174 198 0
175 198 0
173 197 0
172 196 0
175 198 0
171 195 0
108 134 124
60 96 147
59 94 130
61 97 157
61 96 143
61 96 148
61 96 144
62 97 153
62 97 154
61 96 151
62 97 153
60 95 144
61 97 156
61 96 142
61 97 148
60 96 142
60 95 137
61 96 149
62 97 147
62 97 147
61 96 139
61 96 145
62 97 154
61 96 142
61 96 143
60 96 145
60 96 143
61 97 148
60 95 147
62 98 151
61 96 148
62 97 149
61 96 143
62 97 148
61 97 150
62 97 155
61 96 150
60 95 141
61 96 145
61 96 142
62 97 150
60 95 143
61 96 140
60 95 144
61 96 147
61 96 143
61 97 149
61 96 149
61 96 145
60 95 139
61 97 149
62 98 155
61 96 144
60 95 141
61 96 149
61 96 144
61 97 144
60 95 142
60 96 144
61 97 151
61 96 145
61 97 142
61 96 140
61 95 145
62 97 154
62 97 152
59 94 137
62 97 154
61 96 143
62 97 150
60 95 145
62 97 151
60 95 137
61 95 144
60 96 145
61 97 153
62 97 150
61 96 147
62 97 152
59 94 143
59 94 137
60 95 142
59 94 140
60 95 142
61 96 151
61 96 145
61 96 143
60 95 145
61 96 145
60 95 139
61 96 154
61 96 139
61 96 146
62 97 149
61 96 144
61 96 147
61 96 151
61 96 151
59 94 142
60 95 147
61 97 151
60 96 145
62 97 157
61 96 148
62 97 156
61 96 146
61 95 142
60 94 150
60 95 148
62 96 148
61 96 144
60 93 143
60 94 144
60 94 147
60 94 151
61 95 151
58 91 142
59 93 143
58 92 143
58 91 141
59 92 146
79 97 115
125 124 82
113 113 75
127 126 86
109 110 76
103 106 76
118 119 83
131 131 90
118 120 84
119 121 86
117 119 85
113 115 81
110 112 79
113 115 80
127 127 88
120 121 83
122 124 85
117 119 83
135 135 93
130 130 88
134 134 91
125 125 88
132 132 91
130 131 92
126 127 88
134 134 90
144 144 97
138 138 90
141 141 97
135 136 91
145 143 97
143 142 96
146 145 99
138 138 94
145 142 95
152 149 98
142 141 93
151 148 93
152 150 97
156 154 98
150 149 99
155 153 98
160 157 100
155 152 98
158 155 100
156 153 98
153 151 99
160 156 97
163 159 97
165 161 102
157 153 96
167 162 101
162 158 98
163 159 100
166 161 97
162 158 100
166 161 102
162 159 101
166 161 102
171 166 104
174 169 103
168 163 100
169 163 100
174 168 107
173 168 106
167 162 101
169 164 103
166 162 98
163 159 98
167 161 100
170 164 100
169 164 97
168 163 100
170 164 101
172 166 102
168 164 100
166 160 97
171 166 97
173 168 100
166 160 98
172 166 103
169 164 101
170 164 98
175 168 99
170 165 99
171 165 102
170 164 104
172 166 99
171 165 100
167 162 99
171 165 100
169 164 99
169 164 102
165 160 95
171 165 102
167 161 97
165 160 93
168 162 93
171 165 97
169 163 99
167 162 100
161 156 92
172 167 103
167 161 98
166 160 93
166 160 98
159 155 92
161 155 84
166 160 87
164 158 96
166 161 93
161 155 94
165 159 93
169 163 97
162 156 93
166 160 96
166 161 97
151 146 81
163 157 90
163 157 90
168 161 99
169 164 101
161 156 93
167 162 97
164 158 95
164 157 93
157 152 84
162 156 90
160 155 90
160 155 93
157 151 88
161 156 95
158 152 91
155 150 86
158 151 90
163 156 90
158 152 87
152 146 83
151 145 79
166 159 94
174 198 0
173 197 0
174 198 0
173 197 0
175 198 0
173 197 0
173 197 0
175 198 0
173 197 0
175 198 0
174 198 0
175 198 0
175 198 0
173 197 0
174 198 0
174 198 0
174 198 0
174 198 0
175 198 0
173 197 0
174 198 0
174 198 0
174 198 0
174 197 0
174 197 0
174 197 0
175 198 0
173 197 0
174 198 0
174 198 0
175 198 0
175 198 0
175 198 0
175 198 0
174 197 0
175 198 0
175 198 0
173 197 0
174 197 0
174 198 0
176 199 0
174 197 0
175 198 0
176 198 0
174 198 0
176 199 0
175 198 0
175 198 0
174 197 0
175 198 0
174 198 0
176 199 0
174 198 0
176 198 0
175 198 0
175 198 0
174 198 0
175 198 0
175 198 0
176 199 0
175 198 0
175 198 0
175 198 0
174 197 0
174 198 0
175 198 0
175 198 0
174 198 0
175 198 0
174 198 0
176 199 0
175 198 0
176 198 0
174 198 0
175 198 0
176 199 0
174 198 0
175 198 0
174 198 0
174 198 0
175 198 0
174 197 0
176 198 0
175 198 0
175 198 0
174 198 0
174 197 0
175 198 0
175 198 0
175 198 0
175 198 0
175 198 0
174 198 0
174 197 0
174 197 0
176 199 0
175 198 0
176 199 0
175 198 0
175 198 0
175 198 0
174 198 0
174 198 0
175 198 0
175 198 0
175 198 0
175 198 0
174 197 0
173 197 0
174 198 0
176 198 0
174 198 0
173 197 0
174 198 0
174 198 0
176 199 0
175 198 0
172 196 0
174 197 0
175 198 0
175 198 0
175 198 0
175 198 0
174 197 0
175 198 0
175 198 0
172 196 0
174 198 0
174 197 0
174 198 0
175 198 0
173 197 0
174 197 0
171 195 0
174 197 0
174 197 0
175 198 0
175 198 0
160 184 57
64 98 137
60 96 137
60 96 136
61 96 143
62 98 154
61 96 144
62 97 150
61 96 152
60 96 144
61 96 142
62 98 152
61 97 145
60 95 142
62 97 151
61 96 137
63 98 156
61 97 145
62 97 151
61 96 150
61 97 151
61 96 142
61 96 140
61 96 140
60 95 144
61 96 143
60 96 147
62 98 157
60 96 145
61 97 145
61 97 148
62 98 153
62 97 148
61 96 149
61 96 140
62 97 157
62 98 152
61 96 143
61 96 139
61 96 140
61 97 148
62 98 151
62 97 145
62 97 148
61 97 151
61 97 151
62 97 149
62 98 158
61 97 145
61 97 147
62 98 151
59 94 139
61 96 141
61 97 152
61 96 148
60 95 137
61 97 154
60 95 143
60 95 134
62 97 149
61 97 150
61 96 148
62 97 149
62 97 155
61 97 151
61 97 148
62 97 151
61 96 151
62 97 152
60 95 145
62 97 142
61 97 152
61 97 154
61 96 147
62 97 149
60 95 142
60 95 143
60 96 149
61 97 153
60 95 143
60 96 140
61 96 149
61 96 149
61 96 149
62 98 154
61 97 150
61 96 142
61 95 141
61 96 148
61 96 147
60 95 140
61 96 151
61 97 146
61 97 151
61 96 143
61 96 142
60 95 145
61 97 150
60 95 147
61 96 144
62 97 155
63 98 157
59 93 141
61 96 145
60 94 147
60 94 143
61 96 150
60 95 151
61 96 149
62 97 155
61 95 152
62 97 156
60 95 147
60 95 145
61 96 147
61 95 154
59 94 140
58 92 135
59 93 143
59 92 142
60 93 145
59 93 135
57 89 142
125 125 88
116 115 77
115 115 78
119 119 81
107 108 75
124 125 88
109 111 77
113 115 79
114 117 84
106 108 75
110 112 79
120 122 86
122 123 86
108 111 79
125 127 89
119 121 84
114 116 83
125 125 86
116 118 82
125 126 88
136 136 94
136 137 94
136 136 93
131 132 91
143 142 95
136 135 89
143 142 95
138 137 91
139 138 94
145 143 95
143 143 97
139 137 91
147 146 96
142 141 94
146 145 92
152 150 98
151 149 96
157 154 101
154 152 98
152 151 97
160 156 101
148 146 97
161 158 102
161 159 102
158 154 101
155 153 97
163 159 103
158 154 99
157 154 97
163 159 102
158 155 99
164 160 102
161 158 99
162 159 101
159 155 97
165 161 101
165 161 102
165 160 99
162 158 98
163 159 100
167 163 102
166 161 102
168 163 99
171 165 100
160 156 96
164 159 95
171 165 101
170 165 103
172 166 103
168 163 103
173 167 104
172 167 100
166 162 97
171 166 100
171 165 99
175 168 101
169 163 100
167 163 98
174 168 101
165 160 99
165 160 98
170 164 98
170 164 102
170 165 101
171 166 99
170 164 100
169 164 97
165 160 94
173 167 101
168 162 95
169 163 95
169 163 101
166 161 99
171 165 101
168 162 97
167 161 90
175 168 101
170 164 96
165 160 95
169 163 98
166 161 98
167 161 95
168 162 97
168 163 95
163 157 92
164 159 96
165 160 94
169 163 95
165 160 93
165 159 95
162 157 96
169 163 97
164 158 97
158 153 87
159 154 85
156 152 89
163 157 93
168 162 96
167 161 95
164 157 95
160 154 89
156 151 86
165 160 93
164 159 93
161 156 94
159 153 84
160 155 93
162 156 93
164 158 97
165 159 93
156 151 88
156 149 89
162 155 90
158 153 88
158 153 87
162 157 97
160 155 90
146 141 80
155 150 87
175 198 0
176 198 0
175 198 0
174 198 0
175 198 0
173 197 0
175 198 0
174 198 0
174 198 0
176 199 0
174 197 0
176 198 0
176 199 0
174 197 0
175 198 0
175 198 0
174 198 0
174 198 0
174 198 0
176 199 0
174 198 0
175 198 0
174 198 0
173 197 0
175 198 0
175 198 0
174 197 0
175 198 0
175 198 0
175 198 0
175 198 0
174 198 0
174 197 0
174 198 0
175 198 0
176 199 0
179 201 67
182 204 95
183 205 102
189 209 133
193 212 149
192 212 147
196 214 159
199 217 171
197 215 161
202 219 181
203 220 186
207 223 199
205 221 191
209 225 206
211 226 212
215 230 226
210 226 207
215 230 224
217 231 230
216 230 227
216 230 228
218 232 234
217 231 231
218 232 233
219 232 236
220 233 238
217 231 231
221 234 240
221 234 242
218 232 236
221 234 242
220 233 238
220 233 238
218 232 234
217 231 228
213 228 220
214 229 220
213 227 215
209 225 206
205 222 193
208 224 201
201 218 179
200 218 175
196 215 163
194 213 144
193 212 147
189 209 130
185 206 111
183 204 95
177 199 44
176 199 0
174 198 0
175 198 0
173 197 0
175 198 0
175 198 0
175 198 0
174 198 0
174 197 0
175 198 0
174 198 0
174 198 0
174 198 0
174 197 0
173 197 0
173 197 0
174 198 0
174 198 0
175 198 0
173 197 0
174 198 0
176 199 0
174 197 0
176 198 0
174 198 0
175 198 0
173 197 0
175 198 0
174 198 0
174 198 0
175 198 0
173 197 0
174 198 0
174 197 0
174 197 0
174 198 0
174 197 0
174 198 0
175 198 0
173 197 0
175 198 0
176 198 0
173 197 0
174 198 0
173 197 0
175 198 0
175 198 0
173 197 0
175 198 0
175 198 0
175 198 0
173 197 0
140 164 92
61 96 141
62 97 142
60 96 137
60 96 143
61 96 144
62 98 156
60 95 137
60 96 143
60 95 144
62 97 152
61 96 144
61 97 143
62 97 151
62 97 147
61 96 144
61 96 151
60 95 144
60 96 145
61 97 148
61 96 136
61 97 148
60 95 139
60 96 145
61 96 148
62 97 145
60 95 147
61 96 147
62 97 151
61 97 147
60 95 143
61 96 142
61 96 148
60 95 142
62 97 150
61 97 148
61 97 149
62 98 154
62 97 148
61 96 150
62 98 153
60 95 137
60 96 145
62 98 153
62 97 150
61 97 149
62 97 153
60 95 137
61 96 140
60 96 151
61 96 153
62 98 159
61 96 147
61 97 147
60 95 148
61 96 140
60 96 140
59 94 136
60 95 143
61 97 145
61 96 144
61 97 152
61 96 148
62 98 159
61 97 150
62 97 156
61 97 151
62 97 151
62 97 151
61 97 150
61 96 149
61 96 151
61 97 148
61 96 154
62 97 143
61 96 145
62 97 153
61 96 144
61 96 144
61 96 144
61 97 150
62 97 150
60 95 136
61 96 145
61 96 145
61 95 139
62 98 154
61 96 141
61 97 152
62 97 151
62 97 149
61 96 147
61 97 151
62 97 153
60 94 140
61 97 149
60 95 143
61 97 148
60 96 148
61 96 155
59 94 141
63 98 160
60 94 138
60 95 147
61 96 149
61 96 147
60 94 139
59 93 128
61 96 143
59 94 139
61 96 152
59 93 139
60 95 145
60 95 147
61 96 149
59 93 144
59 93 146
59 92 146
60 94 143
59 92 139
59 92 139
59 91 130
58 90 142
91 102 111
113 112 76
116 117 81
110 111 79
111 113 79
114 114 78
93 96 69
125 126 88
112 113 79
117 119 83
105 107 75
120 122 84
111 113 81
115 116 79
122 123 86
123 124 86
131 132 91
126 126 86
126 127 88
130 130 89
127 128 89
132 131 90
122 123 84
131 132 92
133 133 91
134 134 92
147 146 100
134 134 90
140 139 94
134 134 92
131 132 89
142 142 97
145 144 96
144 143 97
150 148 96
144 143 90
153 151 98
150 148 95
154 151 98
162 159 103
159 156 99
152 149 95
159 155 100
158 155 100
155 153 99
150 149 95
160 156 98
162 159 100
154 151 95
160 156 98
165 161 103
161 158 101
166 162 102
165 160 95
165 160 97
165 161 98
163 159 101
169 165 102
164 160 96
170 165 102
172 166 104
170 164 101
173 168 105
166 161 99
167 161 100
170 166 101
171 165 98
168 164 100
169 164 95
172 167 100
167 161 97
174 167 99
168 163 97
171 164 99
168 162 95
171 166 103
166 161 99
169 163 101
166 161 100
167 162 93
174 167 102
171 165 99
169 163 99
168 162 97
169 163 97
169 163 97
170 163 101
172 165 102
171 165 95
170 164 99
172 166 101
167 162 93
166 161 97
170 165 97
165 159 93
166 160 96
170 163 99
171 166 103
169 163 98
171 166 98
168 163 97
166 159 96
165 160 92
166 160 94
166 160 95
170 165 100
171 165 95
166 161 93
160 154 87
167 161 93
166 160 96
163 158 93
166 160 96
168 161 97
161 156 91
166 160 95
161 155 90
162 157 87
165 160 95
158 151 86
162 157 90
163 157 96
155 151 90
161 155 91
163 157 89
158 153 88
162 157 92
163 158 93
160 155 85
165 158 90
160 155 89
161 156 89
158 152 84
159 153 87
154 148 88
159 154 88
157 151 87
164 159 99
155 150 89
175 198 0
174 197 0
175 198 0
175 198 0
177 199 0
174 198 0
173 197 0
173 197 0
174 198 0
174 198 0
173 197 0
175 198 0
175 198 0
174 198 0
174 198 0
174 198 0
174 198 0
173 197 0
175 198 0
175 198 0
175 198 0
174 198 0
178 201 72
180 202 76
188 208 130
193 212 144
200 217 175
199 217 173
205 221 191
204 221 189
211 226 212
212 227 217
218 232 234
219 233 238
223 236 249
225 238 254
225 238 255
225 238 255
225 238 255
225 238 255
225 238 255
225 238 255
225 238 255
225 238 255
225 238 255
225 238 255
225 238 255
225 238 255
225 238 255
225 238 255
225 238 255
225 238 255
225 238 255
225 238 255
225 238 255
225 238 255
225 238 255
225 238 255
225 238 255
225 238 255
225 238 255
225 238 255
225 238 255
225 238 255
225 238 255
225 238 255
225 238 255
225 238 255
225 238 255
225 238 255
225 238 255
225 238 255
225 238 255
225 238 255
225 238 255
225 238 255
225 238 255
225 238 255
225 238 255
225 238 255
225 238 255
226 238 255
226 238 255
226 238 255
226 238 255
226 238 255
224 236 249
219 233 237
216 230 227
211 226 211
207 223 198
201 218 179
191 211 142
192 211 137
182 204 92
176 199 51
175 198 0
175 198 0
176 198 0
174 198 0
176 199 0
174 198 0
173 197 0
174 198 0
176 199 0
173 197 0
175 198 0
174 198 0
175 198 0
175 198 0
176 198 0
175 198 0
175 198 0
176 198 0
173 197 0
174 197 0
174 197 0
176 199 0
176 199 0
173 197 0
175 198 0
174 198 0
172 197 0
174 198 0
174 198 0
176 199 0
173 197 0
173 197 0
174 198 0
175 198 0
175 198 0
172 196 0
174 198 0
175 198 0
176 199 0
174 198 0
174 198 0
173 197 0
90 119 129
60 96 139
62 97 148
61 96 137
61 97 151
60 96 152
61 97 149
60 96 139
61 97 149
61 96 150
61 96 142
61 97 150
61 96 142
61 96 143
60 95 136
61 96 144
62 97 148
60 95 137
60 95 134
60 96 148
62 97 152
60 95 145
61 96 142
61 96 145
62 97 153
61 96 141
61 97 150
63 99 160
62 97 152
60 95 144
62 98 158
61 96 143
61 96 143
61 96 147
61 97 145
61 96 144
61 95 141
62 97 147
61 96 144
63 99 159
60 95 140
62 98 161
61 97 150
62 97 155
61 96 151
61 96 142
61 96 145
61 97 151
60 95 142
61 96 141
60 95 139
61 97 149
62 97 153
62 97 150
61 97 145
62 98 151
62 97 150
61 97 149
61 96 145
60 95 143
61 96 144
61 96 142
61 96 144
61 97 150
62 97 145
62 97 152
61 97 149
61 97 150
61 96 151
62 97 149
61 97 144
61 96 136
61 96 137
61 96 143
62 98 155
61 96 144
61 96 144
60 95 137
60 96 141
60 95 140
62 97 155
62 97 155
62 97 153
60 95 148
61 96 150
60 95 144
61 96 147
60 95 147
59 94 145
61 97 150
62 97 152
60 95 141
60 95 148
62 98 156
61 96 148
62 97 155
60 95 136
60 96 139
61 95 147
61 96 146
61 96 148
62 97 155
61 96 140
59 93 140
61 95 148
61 96 146
60 95 145
60 94 139
61 96 148
60 94 143
61 95 138
60 94 140
60 94 143
61 96 141
59 92 137
60 95 144
58 91 130
61 95 147
59 92 133
59 92 139
60 92 146
60 94 148
58 91 134
68 91 126
117 118 81
102 103 74
108 109 76
116 118 83
112 114 79
109 111 80
112 115 83
108 111 79
112 114 81
110 113 82
119 121 85
107 110 78
112 114 80
119 120 84
125 127 89
119 121 84
118 119 83
124 125 87
113 115 82
140 140 96
134 134 92
121 122 81
132 132 89
128 128 84
136 136 92
139 139 95
134 135 93
139 137 93
144 142 94
139 138 91
143 142 92
141 140 91
152 149 98
144 143 97
156 153 98
149 147 97
149 147 93
153 150 98
150 148 95
161 157 98
160 157 99
154 151 97
165 161 100
161 157 96
158 155 94
163 159 102
162 158 96
161 158 99
159 155 93
162 158 100
166 162 101
165 160 99
164 160 100
163 159 100
161 157 95
166 162 99
170 164 103
162 158 101
166 162 101
167 162 97
167 163 97
167 162 100
172 166 104
168 162 96
165 161 99
171 166 104
170 165 101
175 169 102
173 166 103
171 166 105
169 164 103
169 163 102
170 165 99
167 162 98
166 161 98
170 164 97
171 165 99
171 165 103
172 166 100
171 165 99
170 164 92
171 166 99
172 166 101
166 161 97
167 162 100
171 164 102
166 160 93
166 161 94
170 165 99
167 162 95
173 166 101
169 163 94
169 163 93
166 161 94
169 164 98
167 160 93
159 154 93
170 165 100
165 159 95
167 161 96
162 155 93
169 163 95
172 166 99
174 167 103
168 162 97
167 161 97
166 160 96
161 156 89
168 162 99
155 149 89
165 159 93
161 156 95
166 159 92
159 154 93
164 158 90
164 159 90
160 154 86
162 157 87
161 156 90
160 155 90
165 159 91
160 154 87
163 157 90
163 157 87
164 158 92
159 154 87
160 155 90
160 155 94
164 158 92
159 154 90
158 154 90
159 153 84
153 147 88
157 152 84
162 155 87
162 157 93
157 151 85
150 145 86
175 198 0
174 198 0
175 198 0
175 198 0
173 197 0
173 197 0
175 198 0
174 198 0
174 198 0
174 198 0
179 201 67
184 205 102
188 208 120
192 211 140
194 213 153
198 216 167
209 225 207
211 226 212
216 231 228
218 232 234
221 234 244
225 238 255
225 238 255
225 238 255
225 238 255
225 238 255
225 238 255
225 238 255
225 238 255
225 238 255
225 238 255
225 238 255
225 238 255
225 238 255
225 238 255
225 238 255
225 238 255
225 238 255
225 238 255
225 238 255
225 238 255
225 238 255
225 238 255
225 238 255
225 238 255
225 238 255
225 238 255
225 238 255
225 238 255
225 238 255
225 238 255
225 238 255
225 238 255
225 238 255
225 238 255
225 238 255
225 238 255
225 238 255
225 238 255
225 238 255
225 238 255
225 238 255
225 238 255
225 238 255
225 238 255
225 238 255
225 238 255
225 238 255
225 238 255
225 238 255
225 238 255
225 238 255
225 238 255
225 238 255
225 238 255
225 238 255
225 238 255
225 238 255
225 238 255
225 238 255
225 238 255
225 238 255
225 238 255
225 238 255
225 238 255
225 238 255
225 238 255
225 238 255
225 238 255
225 238 255
225 238 255
225 238 255
225 238 255
226 238 255
226 238 255
226 238 255
223 236 249
215 229 224
210 225 206
200 217 169
198 216 169
194 213 153
180 202 80
175 198 0
174 197 0
175 198 0
173 197 0
175 198 0
175 198 0
174 198 0
177 199 0
174 197 0
175 198 0
174 198 0
177 199 0
173 197 0
175 198 0
175 198 0
176 199 0
175 198 0
176 198 0
176 199 0
175 198 0
174 198 0
176 199 0
175 198 0
174 198 0
174 198 0
176 199 0
175 198 0
174 198 0
175 198 0
174 198 0
175 198 0
175 198 0
173 197 0
174 197 0
166 190 31
60 95 134
60 95 137
61 96 140
61 96 148
60 94 137
61 97 148
62 97 143
62 97 151
61 96 143
60 95 136
61 96 142
61 97 149
61 96 144
61 96 143
61 97 147
61 96 149
61 96 145
61 96 141
61 96 149
61 97 152
61 96 144
61 96 147
62 97 149
61 96 147
61 96 144
61 96 143
60 96 145
61 95 134
61 96 145
61 97 153
60 95 135
61 97 147
62 98 153
61 96 148
62 97 148
60 96 149
62 98 152
62 97 149
61 97 147
60 96 148
61 96 141
61 95 143
62 97 152
62 97 149
61 97 148
63 98 157
59 94 137
61 96 149
61 96 143
61 96 150
61 96 142
61 96 141
60 95 139
60 95 136
61 97 148
60 95 141
59 94 136
62 97 149
60 95 139
61 96 147
61 96 142
63 98 157
59 93 136
61 97 144
60 95 135
62 97 154
61 96 147
61 96 142
60 95 134
62 97 148
61 96 152
61 96 155
62 97 152
60 95 139
63 99 155
61 96 139
62 97 150
59 94 144
61 96 149
60 96 142
61 96 144
61 97 151
60 94 137
60 96 147
61 97 156
62 97 147
60 95 139
62 97 154
61 96 154
61 96 148
61 97 150
62 97 153
61 96 149
61 95 143
62 96 152
61 97 144
61 96 153
60 95 144
60 95 142
60 94 134
59 95 142
60 95 150
60 95 139
61 96 141
61 96 150
60 95 147
60 95 144
61 96 150
60 95 148
59 94 142
61 96 149
61 96 150
62 96 153
59 94 142
60 95 139
60 94 142
60 95 145
60 94 145
60 94 149
58 91 139
59 93 140
59 92 140
59 91 141
60 93 146
107 109 79
100 101 71
107 109 76
115 115 79
110 111 77
108 110 79
104 106 76
101 104 73
106 110 78
109 111 78
100 103 73
100 104 77
107 109 77
114 116 82
120 123 87
120 121 84
123 123 86
120 122 83
112 115 81
123 124 85
127 128 88
115 117 79
137 136 92
140 139 93
131 132 90
138 138 92
125 125 83
146 146 98
145 144 94
142 140 90
145 144 91
148 146 95
149 147 97
145 143 94
146 146 94
148 146 92
146 144 94
154 151 96
156 152 96
145 143 94
149 146 94
152 150 96
153 150 95
163 159 97
163 159 102
157 154 97
163 159 100
164 160 100
159 156 96
171 166 103
161 157 97
167 161 98
165 160 99
166 161 99
167 163 101
164 159 98
165 161 101
169 163 99
168 163 101
167 162 100
170 164 101
169 164 96
169 164 101
172 166 100
167 162 99
162 157 91
174 168 101
169 164 98
171 166 96
173 167 105
174 168 102
165 160 94
170 165 96
172 166 99
171 165 100
171 166 104
166 161 93
170 164 101
169 164 99
169 163 97
170 165 96
173 167 99
168 163 97
174 168 101
173 167 101
172 165 98
172 166 99
171 165 99
171 166 101
168 161 92
169 162 97
168 163 97
173 167 101
161 155 92
168 163 95
167 161 95
169 163 95
164 159 93
168 162 96
164 157 91
169 163 97
161 156 93
166 160 91
171 165 95
166 160 95
170 163 94
169 163 98
161 156 92
165 159 88
161 155 93
162 157 90
164 157 90
166 160 95
159 154 87
169 163 97
164 158 93
161 155 94
162 156 91
157 151 87
165 160 90
167 160 90
159 154 87
162 156 90
161 156 88
163 157 87
159 153 90
161 156 94
153 147 85
160 153 88
165 159 94
163 158 95
159 152 84
159 154 90
151 145 84
166 160 95
159 153 89
155 149 85
160 154 89
180 202 62
185 206 108
190 209 128
194 213 153
203 220 188
205 222 193
207 223 198
218 231 231
222 235 246
224 237 253
225 238 255
225 238 255
225 238 255
225 238 255
225 238 255
225 238 255
225 238 255
225 238 255
225 238 255
225 238 255
225 238 255
225 238 255
225 238 255
225 238 255
225 238 255
225 238 255
225 238 255
225 238 255
225 238 255
225 238 255
225 238 255
225 238 255
225 238 255
225 238 255
225 238 255
225 238 255
225 238 255
225 238 255
225 238 255
225 238 255
225 238 255
225 238 255
225 238 255
225 238 255
225 238 255
225 238 255
225 238 255
225 238 255
225 238 255
225 238 255
225 238 255
225 238 255
225 238 255
225 238 255
225 238 255
225 238 255
225 238 255
225 238 255
225 238 255
225 238 255
225 238 255
225 238 255
225 238 255
225 238 255
225 238 255
225 238 255
225 238 255
225 238 255
225 238 255
225 238 255
225 238 255
225 238 255
225 238 255
225 238 255
225 238 255
225 238 255
225 238 255
225 238 255
225 238 255
225 238 255
225 238 255
225 238 255
225 238 255
225 238 255
225 238 255
225 238 255
225 238 255
225 238 255
225 238 255
225 238 255
225 238 255
225 238 255
225 238 255
225 238 255
225 238 255
225 238 255
225 238 255
225 238 255
225 238 255
225 238 255
225 238 255
226 238 255
226 238 255
222 235 244
213 228 220
203 220 186
194 213 155
188 208 122
179 201 62
174 198 0
172 197 0
176 199 0
174 197 0
174 198 0
174 198 0
175 198 0
176 199 0
175 198 0
173 197 0
175 198 0
175 198 0
173 197 0
173 197 0
175 198 0
173 197 0
175 198 0
173 197 0
174 198 0
172 196 0
176 199 0
174 197 0
173 197 0
176 199 0
175 198 0
174 197 0
175 198 0
176 199 0
149 173 72
60 95 143
61 96 136
62 97 149
61 97 148
61 97 144
61 97 147
61 96 139
61 96 140
62 97 149
60 96 141
62 97 148
61 96 147
61 97 151
62 97 153
61 96 149
61 97 149
61 95 139
62 97 153
60 95 137
61 97 147
61 96 145
61 97 143
62 97 154
61 96 143
62 98 153
61 97 151
62 97 147
62 98 149
60 96 149
60 95 136
61 96 150
61 96 152
60 96 148
62 98 153
63 98 162
62 97 152
60 95 140
61 96 145
62 97 152
61 97 145
61 97 150
61 96 143
60 95 140
61 96 148
61 96 147
60 96 140
60 96 145
60 95 133
60 95 136
60 94 139
61 96 148
61 97 150
62 97 148
61 97 149
62 98 153
60 95 143
61 96 150
62 97 152
61 97 149
62 97 147
60 95 136
60 95 144
61 96 143
62 98 157
61 96 148
61 96 148
62 97 148
60 95 142
60 95 140
61 96 147
61 96 147
61 96 143
62 97 157
60 94 136
60 96 140
61 95 143
60 95 141
60 95 143
60 95 141
61 96 142
60 96 143
60 95 141
61 96 150
60 95 136
61 97 153
60 96 138
59 94 141
61 96 149
61 96 151
60 95 137
61 96 143
61 96 143
60 96 153
61 96 144
61 96 148
61 96 149
60 95 145
60 95 147
60 95 144
61 96 145
59 94 142
59 93 134
61 96 143
60 94 139
60 94 136
62 97 149
61 96 146
61 96 149
61 96 151
59 93 142
59 93 139
60 95 147
59 94 144
61 95 145
61 96 148
60 94 146
60 94 144
59 93 142
60 94 142
60 93 140
60 93 140
57 90 132
58 90 132
58 90 137
78 89 101
111 113 79
106 107 75
112 115 81
108 111 79
105 107 76
105 109 78
91 95 71
100 102 73
104 108 78
98 103 75
109 111 79
122 123 85
107 111 81
111 114 81
109 112 81
110 113 82
126 127 88
124 125 87
124 124 84
127 129 90
131 131 89
122 123 85
128 129 83
135 135 91
137 136 91
144 143 96
140 140 93
130 131 87
141 141 92
146 145 94
142 142 93
143 141 91
152 150 93
141 139 91
141 138 89
136 136 86
157 153 94
148 145 91
157 154 95
152 150 96
153 150 93
156 153 97
154 151 93
156 154 95
156 154 98
160 156 96
167 162 103
164 159 98
162 158 97
163 159 99
160 156 98
163 159 97
162 158 95
160 155 96
162 157 97
162 158 97
169 164 100
164 161 98
166 161 93
167 163 97
168 163 97
168 163 101
173 168 103
170 164 98
169 163 100
169 164 100
172 166 100
171 165 103
169 163 97
170 164 96
171 165 99
169 164 98
166 161 88
172 166 101
170 163 95
171 165 97
171 166 98
170 164 99
167 162 96
170 165 98
171 165 99
164 159 93
172 166 96
170 163 97
170 164 95
171 164 97
167 162 97
172 166 98
174 168 100
169 163 97
168 163 97
168 163 97
165 160 95
171 165 101
167 162 97
170 164 98
169 163 96
166 160 91
167 161 94
167 161 96
171 165 97
167 161 95
168 162 97
165 158 91
165 160 93
168 162 94
172 164 96
169 163 95
163 157 90
167 161 94
170 163 98
163 157 91
158 153 89
168 162 96
159 154 90
160 154 89
162 157 94
157 151 90
167 160 91
162 156 90
162 156 87
159 154 90
152 146 80
166 159 92
154 150 84
168 162 92
162 156 94
156 151 85
160 154 92
161 156 87
153 147 83
162 156 87
157 151 89
160 154 86
155 150 86
153 148 80
160 154 88
225 238 255
225 238 255
225 238 255
225 238 255
225 238 255
225 238 255
225 238 255
225 238 255
225 238 255
225 238 255
225 238 255
225 238 255
225 238 255
225 238 255
225 238 255
225 238 255
225 238 255
225 238 255
225 238 255
225 238 255
225 238 255
225 238 255
225 238 255
225 238 255
225 238 255
225 238 255
225 238 255
225 238 255
225 238 255
225 238 255
225 238 255
225 238 255
225 238 255
225 238 255
225 238 255
225 238 255
225 238 255
225 238 255
225 238 255
225 238 255
225 238 255
225 238 255
225 238 255
225 237 255
225 237 255
225 237 255
225 237 255
225 237 255
225 237 255
225 237 255
225 237 255
225 237 255
225 237 255
225 237 255
225 237 255
225 237 255
225 237 255
225 237 255
225 237 255
225 237 255
225 237 255
225 237 255
225 237 255
225 237 255
225 237 255
225 237 255
225 237 255
225 237 255
225 237 255
225 237 255
225 237 255
225 237 255
225 238 255
225 238 255
225 238 255
225 238 255
225 238 255
225 238 255
225 238 255
225 238 255
225 238 255
225 238 255
225 238 255
225 238 255
225 238 255
225 238 255
225 238 255
225 238 255
225 238 255
225 238 255
225 238 255
225 238 255
225 238 255
225 238 255
225 238 255
225 238 255
225 238 255
225 238 255
225 238 255
225 238 255
225 238 255
225 238 255
225 238 255
225 238 255
225 238 255
225 238 255
225 238 255
226 238 255
225 238 254
219 232 234
208 224 201
200 218 175
188 208 125
181 202 76
174 198 0
174 197 0
175 198 0
176 198 0
174 197 0
175 198 0
175 198 0
175 198 0
173 197 0
174 198 0
175 198 0
175 198 0
175 198 0
175 198 0
174 198 0
173 197 0
174 198 0
176 198 0
175 198 0
174 197 0
173 197 0
175 198 0
175 198 0
98 126 118
61 96 145
61 96 142
61 96 142
61 97 151
60 96 140
61 96 144
61 96 140
61 97 152
62 97 153
61 96 142
61 97 148
62 97 149
61 96 140
61 96 142
61 97 150
60 95 134
61 97 144
60 95 141
61 96 147
61 96 141
62 98 154
61 96 143
60 95 143
60 95 142
61 97 148
61 97 148
60 95 141
62 97 155
61 96 139
61 96 142
61 96 142
61 96 135
61 96 142
62 97 152
61 96 148
60 95 139
61 96 148
60 95 140
60 95 143
61 97 151
61 96 150
61 95 139
62 97 149
61 96 150
60 95 140
61 96 148
60 94 140
61 96 148
59 94 139
62 98 153
62 96 144
59 94 133
63 98 159
60 95 136
60 95 143
61 96 149
61 96 136
61 96 142
61 96 145
60 95 142
61 96 145
61 96 137
60 95 141
62 96 149
61 97 144
62 97 152
63 98 156
61 97 140
63 98 154
61 96 147
60 95 143
62 98 159
61 95 135
60 95 142
61 95 140
62 97 154
60 96 145
59 93 128
61 96 142
60 94 141
62 97 147
60 94 137
60 96 141
60 95 137
61 96 140
61 95 139
61 95 139
61 96 147
60 96 135
61 96 146
61 96 147
60 95 143
60 95 145
60 94 141
61 96 136
60 96 145
60 94 139
60 94 142
61 96 144
61 97 150
61 95 144
61 96 142
61 96 149
61 97 152
61 96 151
59 93 135
61 95 145
60 95 140
59 93 141
61 95 148
58 92 131
60 95 146
61 96 145
61 95 138
59 94 145
60 93 138
59 93 140
59 94 144
60 94 147
60 94 144
58 91 135
59 93 144
60 94 147
58 91 143
73 92 121
96 98 69
94 96 67
86 88 62
103 106 76
89 93 68
97 99 71
97 99 71
108 111 79
93 98 71
102 105 75
103 106 76
108 111 78
102 106 77
121 122 86
111 114 78
116 118 82
108 110 77
126 127 87
125 126 86
121 123 84
126 127 86
126 127 85
128 128 84
136 135 88
135 135 92
139 139 94
136 136 90
128 129 87
138 136 91
144 142 95
151 150 95
143 141 94
154 151 94
147 145 92
149 147 93
154 151 96
156 153 99
154 152 97
157 154 98
151 149 95
154 150 93
156 153 93
157 154 99
158 155 94
158 155 96
153 151 94
153 150 93
161 158 102
160 156 97
167 162 99
163 158 94
161 157 93
164 160 93
159 156 91
163 159 96
165 161 96
166 161 96
165 160 97
165 160 96
162 158 92
167 161 96
167 162 97
169 164 96
173 168 103
164 159 95
167 161 94
170 166 98
168 162 93
169 164 100
167 161 97
171 165 99
168 163 91
174 168 99
171 165 97
173 167 102
169 163 93
174 168 98
167 162 95
166 160 91
174 167 98
168 163 90
170 164 99
173 167 97
173 167 101
175 168 102
168 162 94
169 163 98
169 163 95
170 164 93
170 164 91
170 165 97
171 165 98
174 167 99
165 159 93
162 157 91
168 162 97
170 163 95
168 162 94
172 165 102
164 157 92
168 161 88
170 165 97
161 155 93
167 161 96
166 161 93
166 160 91
157 151 84
165 159 93
163 157 89
163 157 86
165 159 92
163 156 92
160 154 91
165 159 91
164 158 89
161 155 90
155 149 87
159 153 86
153 148 84
164 158 89
163 158 90
155 150 80
160 154 88
161 156 87
160 155 88
159 154 87
157 151 89
156 151 90
167 161 95
160 154 87
159 153 87
157 152 83
156 151 86
155 150 84
158 152 87
158 152 80
151 145 85
225 238 255
225 238 255
225 238 255
225 238 255
225 238 255
225 238 255
225 238 255
225 238 255
225 238 255
225 238 255
225 238 255
225 238 255
225 238 255
225 238 255
225 238 255
225 238 255
225 238 255
225 237 255
225 237 255
225 237 255
225 237 255
225 237 255
225 237 255
225 237 255
225 237 255
225 237 255
225 237 255
225 237 255
225 237 255
225 237 255
225 237 255
225 237 255
225 237 255
225 237 255
225 237 255
225 237 255
225 237 255
225 237 255
224 237 255
225 237 255
224 237 255
224 237 255
224 237 255
224 237 255
224 237 255
224 237 255
224 237 255
224 237 255
224 237 255
224 237 255
224 237 255
224 237 255
224 237 255
224 237 255
224 237 255
224 237 255
224 237 255
224 237 255
224 237 255
224 237 255
224 237 255
224 237 255
224 237 255
224 237 255
224 237 255
224 237 255
224 237 255
224 237 255
224 237 255
224 237 255
224 237 255
224 237 255
224 237 255
224 237 255
224 237 255
224 237 255
225 237 255
225 237 255
225 237 255
225 237 255
225 237 255
225 237 255
225 237 255
225 237 255
225 237 255
225 237 255
225 237 255
225 237 255
225 237 255
225 237 255
225 237 255
225 238 255
225 238 255
225 238 255
225 238 255
225 238 255
225 238 255
225 238 255
225 238 255
225 238 255
225 238 255
225 238 255
225 238 255
225 238 255
225 238 255
225 238 255
225 238 255
225 238 255
225 238 255
225 238 255
225 238 255
225 238 255
225 238 255
226 238 255
218 232 234
211 226 211
199 216 167
185 206 114
180 202 72
175 198 0
174 198 0
174 198 0
176 198 0
174 198 0
174 197 0
173 197 0
175 198 0
175 198 0
174 197 0
175 198 0
175 198 0
173 197 0
173 197 0
174 198 0
175 198 0
175 198 0
175 198 0
82 112 133
61 96 143
61 96 139
60 95 141
60 95 134
60 95 141
60 95 140
60 95 135
61 96 142
62 98 149
61 96 144
61 95 136
63 98 153
60 96 140
59 94 133
62 97 154
61 96 144
60 95 142
61 96 141
61 97 152
61 96 141
61 96 139
61 97 155
62 97 144
62 97 151
60 95 135
60 95 139
61 96 147
61 96 142
61 96 147
61 96 144
61 96 143
61 97 144
62 97 149
61 97 153
61 96 150
61 97 148
61 96 141
61 96 140
60 95 139
60 95 137
62 98 155
62 97 147
60 95 141
62 97 145
60 95 140
61 95 141
61 96 143
61 96 143
62 97 141
61 96 139
59 94 140
59 94 134
61 95 142
60 95 143
60 94 135
61 97 154
62 97 143
61 96 145
61 97 150
61 97 144
62 97 149
61 96 141
60 95 137
61 96 142
60 95 147
60 95 137
61 96 149
60 95 141
61 97 150
62 97 150
62 97 152
61 96 140
62 98 154
61 96 141
60 95 145
61 95 141
60 96 144
60 95 142
63 98 155
61 97 151
62 98 154
60 95 140
60 95 141
61 96 139
60 95 142
60 95 136
62 97 144
61 96 142
61 95 147
61 96 143
61 95 141
61 95 142
61 96 137
61 97 151
61 95 142
60 95 140
61 97 154
61 96 149
61 96 139
62 97 159
61 96 149
62 97 147
60 95 140
59 93 129
59 93 137
61 96 145
61 96 142
60 95 141
60 95 144
60 94 144
58 91 133
61 96 143
59 92 135
59 94 141
60 94 140
60 94 143
60 94 145
60 94 145
58 92 134
60 94 148
60 94 144
59 92 134
57 87 126
58 89 124
58 86 123
95 99 70
93 95 69
79 81 57
85 89 64
104 107 76
89 93 66
95 100 75
101 104 74
98 102 72
100 102 70
103 106 73
100 104 74
116 118 82
110 111 77
109 113 80
116 118 81
114 116 82
116 118 79
115 117 78
117 119 80
127 127 87
124 125 84
123 124 83
137 136 91
132 132 89
136 135 87
141 140 91
137 137 88
139 139 92
133 133 87
143 142 93
142 140 90
147 145 96
148 146 94
147 145 88
156 154 99
152 150 95
147 145 91
153 151 95
153 150 94
160 156 95
146 143 89
155 153 96
160 157 101
152 149 87
160 156 97
159 154 96
153 150 91
159 155 91
166 161 98
163 158 95
163 158 93
162 158 91
167 162 100
166 160 97
163 159 97
166 162 101
166 162 99
168 163 99
167 162 97
166 162 99
164 159 98
165 160 97
167 162 96
169 165 98
167 162 96
171 166 101
167 161 96
172 167 95
167 162 93
169 163 99
166 161 91
167 162 102
171 166 97
168 162 91
172 166 95
171 166 96
172 166 96
172 166 94
169 163 97
168 162 96
170 164 97
171 166 100
169 164 100
170 164 96
172 166 93
168 162 90
167 161 92
165 160 87
170 164 96
170 164 97
165 160 91
168 162 90
168 162 91
161 155 84
164 158 90
167 161 94
167 161 91
169 164 90
166 160 93
166 159 93
170 164 95
168 162 95
166 161 93
164 158 90
170 164 93
167 162 97
165 159 93
166 161 93
172 166 95
163 158 88
172 164 97
167 161 96
165 159 90
165 159 95
164 157 90
164 158 88
168 162 87
155 150 83
166 159 87
169 162 93
158 152 87
168 161 95
159 153 88
163 157 90
158 152 86
161 155 90
159 153 86
162 156 90
158 152 87
162 156 89
153 149 85
156 151 87
165 159 93
156 150 80
158 153 84
152 147 83
225 238 255
225 238 255
225 237 255
225 237 255
225 237 255
225 237 255
225 237 255
225 237 255
225 237 255
225 237 255
225 237 255
225 237 255
225 237 255
225 237 255
225 237 255
224 237 255
224 237 255
224 237 255
224 237 255
224 237 255
224 237 255
224 237 255
224 237 255
224 237 255
224 237 255
224 237 255
224 237 255
224 237 255
224 237 255
224 237 255
224 237 255
224 237 255
224 237 255
224 237 255
224 237 255
224 237 255
224 237 255
224 237 255
224 237 255
224 237 255
224 237 255
224 237 255
224 237 255
224 237 255
224 237 255
224 237 255
224 237 255
224 237 255
224 237 255
224 237 255
224 237 255
224 237 255
224 237 255
224 237 255
224 237 255
224 237 255
224 237 255
224 237 255
224 237 255
224 237 255
224 237 255
224 237 255
224 237 255
224 237 255
224 237 255
224 237 255
224 237 255
224 237 255
224 237 255
224 237 255
224 237 255
224 237 255
224 237 255
224 237 255
224 237 255
224 237 255
224 237 255
224 237 255
224 237 255
224 237 255
224 237 255
224 237 255
224 237 255
224 237 255
224 237 255
224 237 255
224 237 255
224 237 255
224 237 255
224 237 255
224 237 255
224 237 255
224 237 255
225 237 255
225 237 255
225 237 255
225 237 255
225 237 255
225 237 255
225 237 255
225 237 255
225 238 255
225 238 255
225 238 255
225 238 255
225 238 255
225 238 255
225 238 255
225 238 255
225 238 255
225 238 255
225 238 255
225 238 255
225 238 255
225 238 255
225 238 255
225 238 255
225 238 255
225 238 254
211 226 211
201 218 179
185 206 114
177 200 57
174 198 0
176 199 0
172 196 0
177 199 0
173 197 0
177 199 0
174 197 0
176 199 0
174 198 0
172 197 0
175 198 0
175 198 0
175 198 0
159 182 57
59 94 126
60 95 140
60 95 134
62 97 147
61 96 140
61 96 143
63 98 149
61 96 144
60 95 140
62 97 149
60 95 142
61 97 149
60 95 135
61 96 145
60 95 141
60 94 133
60 95 137
61 96 147
61 96 148
61 97 148
63 98 153
61 97 148
61 96 140
61 96 145
61 97 148
60 95 142
61 97 143
62 97 149
61 96 143
62 98 152
62 98 156
61 96 153
61 96 148
60 95 136
60 95 137
60 95 141
61 96 141
61 96 145
60 95 139
61 95 140
61 97 147
61 95 145
61 96 147
62 97 147
61 96 143
60 94 144
61 96 143
60 95 136
62 97 147
61 96 144
63 98 152
61 97 145
60 95 141
60 95 135
62 98 154
61 96 142
62 97 149
60 95 140
62 97 150
61 96 143
60 96 147
60 95 141
61 97 151
61 96 143
60 95 139
61 97 151
61 96 142
61 96 143
59 94 136
62 97 150
61 96 140
62 97 144
60 94 137
61 96 143
60 95 135
60 95 148
61 96 139
60 95 137
61 96 148
61 97 150
61 95 140
60 95 139
61 96 142
61 95 137
61 97 154
60 95 140
61 97 151
61 97 150
60 95 136
62 97 147
60 94 131
62 97 151
60 95 149
62 98 151
61 96 144
61 95 145
61 96 143
61 96 142
60 94 143
60 94 140
60 95 142
60 94 133
61 97 150
61 96 150
61 96 150
61 96 147
62 97 151
61 96 154
58 92 132
60 94 137
61 95 143
61 95 145
61 95 143
59 93 129
60 94 144
61 95 149
60 95 146
60 94 142
59 92 137
59 92 143
60 94 151
60 93 141
59 92 142
58 89 133
58 89 141
57 87 133
86 93 80
86 89 65
99 101 70
81 86 63
84 87 60
80 86 63
92 95 68
96 100 71
100 103 71
92 96 71
100 103 72
103 107 75
102 105 75
112 115 79
112 115 81
121 122 83
117 119 83
112 115 79
121 123 84
108 109 73
117 119 79
131 132 89
124 125 82
132 132 90
134 134 90
142 141 92
122 123 83
137 136 88
133 134 87
144 142 90
137 136 90
138 137 87
142 142 89
144 142 92
149 147 91
154 151 95
149 146 88
151 148 92
158 156 97
154 150 95
149 146 92
152 149 92
153 150 89
160 156 97
158 155 99
162 158 94
162 157 96
163 158 98
166 160 91
158 154 92
163 159 95
164 161 98
168 163 98
160 157 93
172 166 98
165 160 100
152 149 86
171 166 97
170 165 96
172 167 98
162 158 90
170 164 97
160 156 90
162 156 92
170 165 97
167 162 98
169 164 98
171 166 97
172 165 100
172 166 98
175 168 102
172 166 95
172 166 98
172 166 97
169 164 93
173 166 99
169 164 93
168 162 94
172 166 95
175 168 101
167 162 93
174 167 99
171 165 96
168 163 98
168 162 93
168 162 93
168 162 93
175 168 99
166 161 90
174 168 99
169 163 90
170 164 96
167 161 91
170 163 98
165 159 91
167 162 93
170 163 97
168 163 94
166 159 92
164 159 88
166 160 89
169 163 92
166 161 93
171 164 97
163 158 91
162 157 86
164 159 90
165 160 87
175 168 98
163 157 87
170 163 92
169 164 99
159 154 87
168 162 95
165 159 91
164 158 87
154 149 78
162 157 88
163 157 93
154 150 81
162 156 87
158 153 84
166 159 89
160 154 86
163 157 90
153 148 87
161 155 85
164 157 90
158 151 81
161 155 89
156 150 83
159 152 85
156 151 86
156 152 85
153 148 79
161 154 87
161 155 88
224 237 255
224 237 255
224 237 255
224 237 255
224 237 255
224 237 255
224 237 255
224 237 255
224 237 255
224 237 255
224 237 255
224 237 255
224 237 255
224 237 255
224 237 255
224 237 255
224 237 255
224 237 255
224 237 255
224 237 255
224 237 255
224 237 255
224 237 255
224 237 255
224 237 255
224 237 255
224 237 255
224 237 255
224 237 255
224 237 255
224 237 255
224 237 255
224 237 255
224 237 255
224 237 255
224 237 255
224 237 255
224 237 255
224 237 255
224 237 255
224 237 255
224 237 255
224 237 255
224 237 255
224 237 255
224 237 255
224 237 255
224 237 255
224 237 255
224 237 255
224 237 255
224 237 255
224 237 255
224 237 255
224 237 255
224 237 255
224 237 255
224 237 255
224 237 255
224 237 255
224 237 255
224 237 255
224 237 255
224 237 255
224 237 255
224 237 255
224 237 255
224 237 255
224 237 255
224 237 255
224 237 255
224 237 255
224 237 255
224 237 255
224 237 255
224 237 255
224 237 255
224 237 255
224 237 255
224 237 255
224 237 255
224 237 255
224 237 255
224 237 255
224 237 255
224 237 255
224 237 255
224 237 255
224 237 255
224 237 255
224 237 255
224 237 255
224 237 255
224 237 255
224 237 255
224 237 255
224 237 255
224 237 255
224 237 255
224 237 255
224 237 255
224 237 255
224 237 255
225 237 255
225 237 255
225 237 255
225 237 255
225 237 255
225 238 255
225 238 255
225 238 255
225 238 255
225 238 255
225 238 255
225 238 255
225 238 255
225 238 255
225 238 255
225 238 255
225 238 255
225 238 255
225 238 255
224 237 252
212 227 215
200 218 177
186 207 111
175 198 0
175 198 0
175 198 0
176 199 0
175 198 0
175 198 0
175 198 0
175 198 0
176 199 0
173 197 0
138 162 84
61 97 145
61 96 142
61 97 150
62 97 145
61 96 140
60 95 137
61 96 143
61 96 144
61 96 149
62 97 149
61 96 143
61 96 144
60 95 135
60 95 136
61 96 141
61 96 139
61 97 143
60 95 142
62 97 149
61 96 144
61 96 144
60 95 139
60 95 135
62 98 152
62 97 149
61 96 147
61 96 142
60 95 141
61 96 141
62 97 148
61 96 144
60 94 129
61 97 145
60 95 134
59 94 135
61 96 148
61 96 139
62 97 153
62 97 151
60 94 136
61 97 150
60 95 135
61 96 147
60 94 141
61 97 148
62 97 140
60 95 137
61 95 137
61 96 143
61 97 149
61 96 139
61 96 145
61 96 141
61 96 142
61 97 145
62 97 153
61 96 150
61 96 147
61 96 139
61 96 143
61 96 142
59 94 134
61 96 142
61 96 151
60 95 144
61 97 144
59 94 140
61 96 140
62 97 152
59 94 137
61 97 145
61 96 143
62 97 149
61 96 143
60 94 134
61 96 141
61 95 143
61 96 149
61 97 144
61 96 143
60 95 140
60 95 141
60 95 141
61 96 145
61 96 139
60 95 142
60 94 136
61 96 137
61 95 143
61 95 145
61 97 145
62 97 145
63 98 156
60 94 141
59 94 136
62 97 147
60 95 144
60 95 142
61 96 142
60 95 142
60 94 136
61 96 143
60 95 136
60 94 139
62 96 152
61 97 150
61 96 141
60 94 140
61 95 142
62 97 151
60 95 142
59 94 139
60 94 143
61 95 147
59 94 137
60 94 141
60 94 144
59 93 132
59 93 136
58 91 125
61 96 157
60 95 140
60 94 144
58 91 142
57 90 144
58 89 132
70 83 90
78 81 57
69 73 53
81 84 60
79 84 61
85 89 64
96 100 73
92 96 68
95 99 72
97 102 71
90 94 70
94 99 71
95 99 73
116 118 81
108 110 76
110 112 77
122 122 82
110 112 75
115 116 80
111 114 78
127 128 84
112 114 77
130 128 85
139 139 92
124 126 82
138 137 91
138 138 91
137 136 87
149 147 92
144 141 88
139 137 91
140 138 93
143 141 85
138 138 90
146 145 93
153 150 95
142 141 86
151 148 95
160 156 94
147 144 87
153 149 91
154 151 95
154 152 96
155 152 94
157 154 98
159 155 91
156 152 91
164 160 94
160 157 96
160 156 95
156 153 90
164 159 92
161 157 96
159 155 95
168 163 99
167 162 97
166 162 100
165 160 96
167 163 101
162 158 96
161 157 90
170 164 98
163 157 90
173 167 101
173 167 100
167 162 97
170 165 99
170 165 98
166 162 94
168 163 94
170 165 99
174 167 99
170 164 94
170 163 94
171 165 94
168 162 91
165 160 89
171 164 93
171 165 96
171 165 98
177 169 102
171 164 95
176 170 100
166 161 90
171 165 97
172 166 96
172 165 90
168 162 95
167 162 93
170 164 92
168 163 94
165 159 87
166 160 87
163 158 90
170 164 95
170 163 90
166 160 91
169 163 95
165 160 91
167 161 87
171 164 93
165 159 91
170 163 90
164 158 90
162 157 87
167 160 94
170 162 92
166 160 91
162 156 90
166 160 93
167 160 89
165 159 93
165 159 91
160 154 85
164 158 93
157 152 84
159 153 85
161 155 90
160 154 87
166 159 90
164 158 90
167 161 94
157 152 84
158 153 81
155 150 84
163 157 87
159 153 84
163 158 85
160 154 83
157 151 87
163 157 87
166 159 88
162 155 93
160 153 89
161 155 91
160 154 82
161 155 88
224 237 255
224 237 255
224 237 255
224 237 255
224 237 255
224 237 255
224 237 255
224 237 255
224 237 255
224 237 255
224 237 255
224 237 255
224 237 255
224 237 255
224 237 255
224 237 255
224 237 255
224 237 255
224 237 255
224 237 255
224 237 255
224 237 255
224 237 255
224 237 255
224 237 255
224 237 255
224 237 255
224 237 255
224 237 255
224 237 255
224 237 255
224 237 255
224 237 255
224 237 255
224 237 255
224 237 255
224 237 255
224 237 255
224 237 255
224 237 255
224 237 255
224 237 255
224 237 255
224 237 255
224 237 255
224 237 255
224 237 255
224 237 255
224 237 255
224 237 255
224 237 255
224 237 255
224 237 255
224 237 255
224 237 255
224 237 255
224 237 255
224 237 255
224 237 255
224 237 255
224 237 255
224 237 255
224 237 255
224 237 255
224 237 255
224 237 255
224 237 255
224 237 255
224 237 255
224 237 255
224 237 255
224 237 255
224 237 255
224 237 255
224 237 255
224 237 255
224 237 255
224 237 255
224 237 255
224 237 255
224 237 255
224 237 255
224 237 255
224 237 255
224 237 255
224 237 255
224 237 255
224 237 255
224 237 255
224 237 255
224 237 255
224 237 255
224 237 255
224 237 255
224 237 255
224 237 255
224 237 255
224 237 255
224 237 255
224 237 255
224 237 255
224 237 255
224 237 255
224 237 255
224 237 255
224 237 255
224 237 255
224 237 255
224 237 255
224 237 255
225 237 255
225 237 255
225 237 255
225 237 255
225 237 255
225 238 255
225 238 255
225 238 255
225 238 255
225 238 255
225 238 255
225 238 255
225 238 255
225 238 255
225 238 255
225 238 255
220 233 238
206 223 198
193 212 147
176 199 51
174 198 0
174 197 0
176 198 0
175 198 0
176 198 0
174 197 0
118 143 108
60 95 128
61 97 153
60 95 131
62 97 150
63 98 153
61 96 137
61 96 145
61 97 145
60 95 141
61 96 140
62 98 154
60 95 143
61 96 145
61 96 142
62 97 145
61 96 140
60 95 135
61 96 140
60 95 134
61 96 145
60 96 137
61 96 143
61 96 141
61 96 145
60 96 145
61 96 143
62 97 149
60 95 133
61 96 143
60 94 133
61 96 140
63 98 156
61 96 147
62 97 150
60 95 141
61 96 144
61 97 148
61 96 148
60 95 136
62 97 148
61 96 141
62 97 149
61 96 150
60 95 136
61 96 144
61 96 144
62 98 156
62 97 150
61 96 145
60 95 136
61 96 144
60 95 141
60 95 140
61 97 141
61 96 143
60 95 139
61 96 141
61 96 140
61 96 145
60 95 140
60 94 130
60 95 140
61 95 137
60 95 136
61 97 145
62 97 147
60 95 140
62 97 152
61 96 148
61 96 143
62 97 148
61 96 145
61 96 137
61 96 150
61 97 145
60 95 142
62 98 154
61 96 143
61 96 151
61 96 141
61 97 147
61 96 142
60 95 135
60 94 137
60 95 144
61 96 144
60 95 147
60 95 140
62 97 150
60 96 142
61 96 145
59 93 144
61 96 148
62 97 149
60 95 142
60 96 149
60 95 142
61 96 142
60 94 147
60 95 142
59 93 139
60 95 143
59 93 135
62 97 149
61 96 149
60 94 132
60 94 138
60 94 142
60 94 141
60 95 141
61 95 148
60 95 143
60 94 140
59 93 132
60 95 140
61 95 139
58 91 133
60 94 140
60 95 141
58 90 130
59 93 143
57 89 131
58 90 132
56 89 126
57 88 138
55 86 129
62 84 114
79 82 60
73 78 58
80 83 59
88 92 66
79 85 63
87 92 68
94 96 67
97 101 71
82 87 62
84 87 64
98 102 73
109 111 77
103 105 73
106 109 77
103 106 72
115 116 80
111 114 76
108 110 75
119 120 80
117 118 80
127 128 83
130 130 85
126 126 83
130 130 82
132 132 84
134 134 89
134 134 88
145 143 88
138 136 84
141 139 86
135 134 84
144 141 84
142 141 88
147 144 90
141 140 88
150 147 91
154 151 91
150 147 90
144 142 85
159 156 97
159 155 97
152 149 92
153 149 92
164 159 101
152 149 94
162 158 96
165 160 95
158 155 94
164 160 95
160 156 94
166 161 94
166 161 99
165 160 96
166 161 95
168 162 96
168 163 98
164 159 89
164 159 91
172 166 98
165 160 89
170 164 96
170 164 97
170 164 96
163 159 92
168 163 94
171 165 98
171 165 96
166 161 93
169 164 96
171 165 96
171 165 91
168 162 93
171 165 94
171 166 96
166 162 87
173 166 95
171 164 94
169 164 92
167 161 87
172 166 95
172 166 98
172 165 97
166 161 90
172 166 97
170 164 91
170 164 95
168 161 94
171 165 92
169 162 96
166 161 94
167 161 92
172 166 99
168 162 90
172 165 94
168 161 95
164 158 88
166 160 90
170 163 97
166 160 90
166 160 92
169 164 93
165 159 90
165 159 91
166 160 92
172 166 95
162 156 84
163 157 84
163 159 90
165 159 94
164 159 87
165 158 87
166 161 94
170 164 95
165 160 94
160 154 87
168 162 94
162 155 89
162 156 87
161 155 90
165 158 84
157 152 86
162 157 86
161 155 90
162 156 87
158 152 84
160 153 83
157 151 83
159 153 83
155 150 84
159 153 85
162 156 86
160 153 89
159 153 87
161 155 82
162 156 87
151 145 84
224 237 255
224 237 255
224 237 255
224 237 255
224 237 255
224 237 255
224 237 255
224 237 255
224 237 255
224 237 255
224 237 255
224 237 255
224 237 255
224 237 255
224 237 255
224 237 255
224 237 255
224 237 255
224 237 255
224 237 255
224 237 255
224 237 255
224 237 255
224 237 255
224 237 255
224 237 255
224 237 255
224 237 255
224 237 255
224 237 255
224 237 255
224 237 255
224 237 255
224 237 255
224 237 255
224 237 255
224 237 255
224 237 255
224 237 255
224 237 255
224 237 255
224 237 255
224 237 255
224 237 255
224 237 255
224 237 255
224 237 255
224 237 255
224 237 255
224 237 255
224 237 255
224 237 255
224 237 255
224 237 255
224 237 255
224 237 255
224 237 255
224 237 255
224 237 255
224 237 255
224 237 255
224 237 255
224 237 255
224 237 255
224 237 255
224 237 255
224 237 255
224 237 255
224 237 255
224 237 255
224 237 255
224 237 255
224 237 255
224 237 255
224 237 255
224 237 255
224 237 255
224 237 255
224 237 255
224 237 255
224 237 255
224 237 255
224 237 255
224 237 255
224 237 255
224 237 255
224 237 255
224 237 255
224 237 255
224 237 255
224 237 255
224 237 255
224 237 255
224 237 255
224 237 255
224 237 255
224 237 255
224 237 255
224 237 255
224 237 255
224 237 255
224 237 255
224 237 255
224 237 255
224 237 255
224 237 255
224 237 255
224 237 255
224 237 255
224 237 255
224 237 255
224 237 255
224 237 255
224 237 255
224 237 255
224 237 255
224 237 255
225 237 255
225 237 255
225 237 255
225 238 255
225 238 255
225 238 255
225 238 255
225 238 255
225 238 255
225 238 255
225 238 255
225 238 255
224 237 252
215 229 224
198 216 167
184 205 95
174 197 0
175 198 0
173 197 0
91 121 129
61 96 145
61 96 142
61 97 147
61 96 140
62 97 148
61 96 147
61 96 148
61 97 148
61 96 139
62 98 147
62 97 149
61 97 142
62 97 148
61 96 145
61 96 145
61 95 136
60 95 141
60 95 136
62 97 150
61 96 134
61 96 150
61 96 144
61 96 150
59 94 133
60 95 144
62 97 147
60 95 135
60 95 134
61 96 142
60 95 135
60 95 147
61 95 142
60 95 139
60 96 144
61 97 149
61 96 139
61 96 151
61 96 143
61 96 147
61 96 148
62 97 148
60 95 145
61 96 143
62 96 149
61 96 150
61 95 140
62 97 147
60 95 140
60 96 142
60 95 135
60 95 126
61 96 142
61 96 144
61 96 148
60 94 131
60 95 137
60 95 136
61 96 141
60 95 136
61 96 135
61 96 149
61 96 153
62 97 143
62 97 147
60 95 139
59 93 126
61 96 140
60 95 137
61 96 140
61 96 141
59 94 140
60 95 133
61 96 142
61 96 143
61 96 141
61 96 144
61 96 141
62 97 148
62 97 149
61 96 147
62 97 150
61 96 149
62 98 153
60 95 144
61 96 140
61 96 137
61 96 141
61 96 141
60 95 139
60 94 133
61 96 149
61 96 146
61 96 142
61 96 146
60 94 130
60 95 143
60 95 143
60 94 139
60 95 142
62 97 149
62 97 150
61 95 142
62 96 148
60 95 144
60 94 139
61 96 150
60 95 139
60 95 147
60 94 136
60 95 147
59 93 136
61 96 147
60 95 139
61 96 142
60 95 146
61 95 143
60 93 137
60 94 142
59 93 137
60 94 142
58 92 137
59 93 133
59 93 142
57 89 132
58 90 128
59 91 140
54 81 122
83 87 64
75 79 55
78 83 59
90 95 70
84 89 67
80 84 60
91 95 67
93 97 69
95 99 70
98 103 75
98 101 68
99 102 72
107 108 72
113 116 81
107 109 73
119 120 80
112 114 78
113 116 80
119 120 81
122 122 81
114 116 81
120 121 82
125 125 80
124 125 84
140 137 89
137 134 89
139 137 85
145 142 92
139 138 89
137 136 88
147 145 91
147 145 91
146 144 85
145 143 90
156 152 91
154 151 93
150 147 90
155 150 92
149 146 87
157 153 90
162 157 98
153 148 90
153 150 92
158 154 91
161 157 93
159 156 97
160 157 95
155 151 88
159 155 92
164 159 91
162 158 94
161 157 89
161 158 97
165 160 97
165 160 92
165 160 95
170 164 96
162 157 94
165 160 93
174 168 100
162 159 94
169 163 96
171 164 98
170 163 96
164 159 90
166 161 93
174 167 98
172 165 97
171 166 96
176 169 99
169 163 93
169 163 94
168 163 93
169 165 92
170 164 97
168 163 92
168 162 88
170 164 93
169 163 90
171 165 94
172 166 95
168 162 91
172 165 90
168 162 92
173 167 97
164 159 89
164 158 86
167 161 93
167 161 95
171 164 94
170 164 95
166 160 91
166 161 92
166 160 93
164 159 90
161 155 86
162 158 83
166 161 93
171 165 91
166 160 88
169 162 89
173 165 97
164 159 90
170 163 92
164 158 89
165 159 90
164 158 88
171 165 97
168 161 93
165 159 94
163 157 89
163 158 88
163 157 85
165 158 93
163 159 88
162 156 87
159 153 84
161 155 86
161 155 84
168 161 91
167 160 95
159 154 82
164 158 93
165 158 90
167 161 88
159 152 86
164 158 88
166 159 87
163 156 88
158 151 86
160 154 84
163 157 90
159 153 79
156 151 85
154 148 82
166 160 93
224 237 255
224 237 255
224 237 255
224 237 255
224 237 255
224 237 255
224 237 255
224 237 255
224 237 255
224 237 255
224 237 255
224 237 255
224 237 255
224 237 255
224 237 255
224 237 255
224 237 255
224 237 255
224 237 255
224 237 255
224 237 255
224 237 255
224 237 255
224 237 255
224 237 255
224 237 255
224 237 255
223 237 255
223 237 255
223 237 255
223 237 255
223 237 255
223 237 255
223 237 255
223 237 255
223 237 255
223 237 255
223 237 255
223 237 255
223 237 255
223 237 255
223 237 255
223 237 255
223 237 255
223 237 255
223 237 255
223 237 255
223 237 255
223 237 255
223 237 255
223 237 255
223 237 255
223 237 255
223 237 255
223 237 255
223 237 255
223 237 255
223 237 255
223 237 255
223 237 255
223 237 255
223 237 255
223 237 255
223 237 255
223 237 255
223 237 255
223 237 255
223 237 255
223 237 255
223 237 255
223 237 255
223 237 255
223 237 255
223 237 255
223 237 255
223 237 255
223 237 255
223 237 255
223 237 255
223 237 255
223 237 255
223 237 255
223 237 255
223 237 255
223 237 255
223 237 255
223 237 255
224 237 255
224 237 255
224 237 255
224 237 255
224 237 255
224 237 255
224 237 255
224 237 255
224 237 255
224 237 255
224 237 255
224 237 255
224 237 255
224 237 255
224 237 255
224 237 255
224 237 255
224 237 255
224 237 255
224 237 255
224 237 255
224 237 255
224 237 255
224 237 255
224 237 255
224 237 255
224 237 255
224 237 255
224 237 255
224 237 255
224 237 255
224 237 255
224 237 255
224 237 255
224 237 255
225 237 255
225 237 255
225 237 255
225 238 255
225 238 255
225 238 255
225 238 255
225 238 255
225 238 255
225 238 255
225 238 255
218 232 236
197 215 165
182 204 113
68 101 142
61 97 145
62 97 149
61 96 143
61 97 145
61 96 149
61 96 142
60 95 139
61 96 145
61 96 142
62 97 143
60 94 135
61 96 139
62 97 147
60 95 139
62 97 148
60 95 136
60 96 148
60 95 145
61 96 143
61 96 140
62 97 145
61 96 140
60 95 147
60 95 134
61 96 143
62 97 145
61 96 140
61 96 145
61 96 141
61 97 147
59 94 136
62 97 145
61 96 140
60 94 141
60 95 130
61 96 153
60 95 135
61 96 143
61 96 148
60 95 141
61 96 140
61 97 150
60 95 148
61 96 143
61 96 148
60 95 135
61 96 143
61 97 145
60 96 137
62 97 148
61 96 141
62 98 149
61 96 140
62 97 152
61 96 150
60 95 142
60 95 140
62 98 156
60 95 142
61 96 144
61 95 145
61 96 140
61 97 147
61 96 143
62 98 153
61 96 144
62 97 148
59 93 136
60 94 136
61 96 145
59 94 135
62 97 154
61 96 141
60 95 136
60 95 142
60 95 137
60 95 136
61 97 148
60 96 149
60 95 131
61 97 147
60 95 140
60 95 139
60 95 142
60 94 139
61 96 141
60 94 137
61 96 148
59 94 136
61 96 143
59 94 131
60 95 143
61 97 150
60 95 145
61 95 145
60 94 138
60 95 141
61 96 152
60 95 141
61 96 141
60 95 149
61 95 142
60 95 141
60 95 138
61 96 146
61 95 143
60 95 140
59 94 136
60 95 141
61 95 140
60 95 139
59 92 128
60 94 147
60 94 138
58 91 132
60 94 145
61 95 138
58 91 126
60 94 141
60 95 151
58 91 135
58 92 137
59 92 136
58 90 128
57 89 133
58 90 141
58 87 119
81 84 58
63 68 51
90 93 65
76 80 58
80 86 63
85 88 62
77 82 57
84 89 66
92 95 66
91 96 69
95 98 72
94 99 68
105 107 72
99 102 70
103 106 73
109 111 74
115 118 79
118 119 78
125 125 77
109 111 72
115 116 76
117 119 76
137 135 83
125 125 81
123 124 81
135 134 85
135 134 89
132 133 84
143 141 86
140 140 91
140 138 85
142 140 87
140 139 83
133 133 81
151 147 92
146 143 89
150 148 92
144 141 86
148 146 90
147 145 89
147 145 87
159 155 91
156 153 87
156 153 90
153 151 89
156 152 90
158 154 90
159 155 93
160 156 93
163 158 93
166 161 96
160 156 94
168 163 99
160 156 94
166 160 97
164 160 95
168 163 96
169 164 96
167 162 95
168 163 95
168 163 90
166 161 94
167 162 96
169 163 94
169 163 96
166 161 91
168 163 92
168 162 88
168 161 91
173 167 96
171 165 94
172 165 88
169 163 88
174 167 95
165 160 86
169 163 92
165 160 85
169 164 94
170 163 93
172 166 94
170 163 93
169 163 92
171 165 93
166 160 87
173 167 95
171 165 90
171 165 96
169 163 95
171 164 96
172 165 93
171 164 94
169 163 95
171 165 96
166 160 90
170 164 95
167 162 88
171 164 96
167 161 91
169 163 88
171 164 95
166 160 89
167 162 93
161 156 85
168 162 89
170 163 94
167 161 90
168 161 94
165 159 87
169 162 93
165 158 86
163 157 82
165 159 91
168 161 91
166 159 90
166 158 88
169 162 93
171 164 95
164 158 86
162 156 92
155 150 78
163 157 84
160 155 84
160 154 85
166 158 84
153 149 80
162 157 87
161 154 87
152 148 72
164 158 90
163 156 82
159 153 88
153 147 75
156 150 80
150 145 81
158 151 85
163 156 90
224 237 255
223 237 255
223 237 255
223 237 255
223 237 255
223 237 255
223 237 255
223 237 255
223 237 255
223 237 255
223 237 255
223 237 255
223 237 255
223 237 255
223 237 255
223 237 255
223 237 255
223 237 255
223 237 255
223 237 255
223 237 255
223 237 255
223 237 255
223 237 255
223 237 255
223 237 255
223 237 255
223 237 255
223 237 255
223 237 255
223 237 255
223 237 255
223 237 255
223 237 255
223 237 255
223 237 255
223 237 255
223 237 255
223 237 255
223 237 255
223 237 255
223 237 255
223 237 255
223 237 255
223 237 255
223 237 255
223 237 255
223 237 255
223 237 255
223 237 255
223 237 255
223 237 255
223 237 255
223 237 255
223 237 255
223 237 255
223 237 255
223 237 255
223 237 255
223 237 255
223 237 255
223 237 255
223 237 255
223 237 255
223 237 255
223 237 255
223 237 255
223 237 255
223 237 255
223 237 255
223 237 255
223 237 255
223 237 255
223 237 255
223 237 255
223 237 255
223 237 255
223 237 255
223 237 255
223 237 255
223 237 255
223 237 255
223 237 255
223 237 255
223 237 255
223 237 255
223 237 255
223 237 255
223 237 255
223 237 255
223 237 255
223 237 255
223 237 255
223 237 255
223 237 255
223 237 255
223 237 255
223 237 255
223 237 255
223 237 255
223 237 255
223 237 255
224 237 255
224 237 255
224 237 255
224 237 255
224 237 255
224 237 255
224 237 255
224 237 255
224 237 255
224 237 255
224 237 255
224 237 255
224 237 255
224 237 255
224 237 255
224 237 255
224 237 255
224 237 255
224 237 255
224 237 255
224 237 255
224 237 255
224 237 255
224 237 255
224 237 255
225 237 255
225 237 255
225 237 255
225 238 255
225 238 255
225 238 255
225 238 255
225 238 255
201 215 238
62 96 136
62 98 145
61 96 141
62 97 145
61 96 145
61 96 143
60 95 139
60 95 140
62 98 152
60 95 137
60 96 142
61 96 152
61 96 147
61 95 140
62 97 145
60 95 135
61 96 147
61 96 142
61 96 144
59 94 133
60 95 141
60 95 143
60 95 130
61 96 139
62 97 148
59 94 133
61 97 148
61 96 139
60 95 141
61 95 134
61 96 143
60 95 141
60 94 134
61 97 147
61 96 142
60 95 140
60 95 140
60 95 134
60 95 137
62 97 144
61 97 145
61 97 145
61 96 139
61 96 145
61 96 135
62 97 147
61 96 140
61 96 141
61 96 144
61 95 135
60 95 135
59 93 121
60 95 139
60 95 135
62 97 151
60 95 140
60 96 140
61 95 134
61 96 142
62 96 145
62 97 149
61 96 141
60 94 136
61 96 144
61 96 152
60 94 131
60 95 139
59 94 136
61 96 142
61 96 141
60 95 136
61 96 135
61 96 141
62 97 149
61 96 141
61 96 134
60 95 140
60 95 140
60 94 135
61 96 140
61 96 144
60 95 140
59 94 129
59 93 135
60 95 147
60 95 135
61 96 144
60 95 140
60 95 136
61 96 143
60 95 142
60 94 134
60 95 135
60 95 131
60 95 139
60 94 137
61 96 146
61 95 141
61 95 143
61 95 148
59 93 134
61 96 148
60 94 139
59 93 131
61 95 137
60 94 141
59 93 132
60 94 135
61 96 145
60 94 142
60 94 141
58 92 131
60 94 140
60 94 129
60 94 134
60 94 136
61 95 145
60 94 138
59 92 138
60 93 138
59 93 138
58 91 125
59 92 132
58 91 141
60 92 134
57 90 135
58 90 129
57 89 134
57 67 65
63 68 50
61 66 46
69 74 54
57 64 48
75 79 56
89 92 65
79 84 60
85 89 62
89 93 67
101 104 74
100 103 67
93 97 69
99 102 70
110 113 78
110 113 75
102 104 71
110 113 80
106 109 71
121 122 77
114 116 80
119 120 78
130 130 82
125 126 83
135 132 80
136 135 84
140 138 90
133 133 84
126 126 80
143 141 89
146 144 86
139 138 90
141 139 83
142 140 85
142 140 86
145 143 86
145 142 85
147 145 85
152 148 92
152 149 89
149 145 89
157 153 89
155 152 91
162 157 92
152 148 87
152 149 82
157 154 92
155 151 89
164 159 91
156 153 91
154 150 83
166 161 94
157 153 90
163 159 95
166 160 93
166 161 94
165 159 88
170 164 97
171 165 95
168 162 93
168 163 90
167 160 90
170 164 98
170 164 94
171 165 94
173 166 96
167 162 87
172 166 95
167 162 94
172 166 94
170 164 94
164 159 91
172 165 95
172 167 95
169 163 92
166 160 92
174 167 95
170 164 91
169 163 94
165 160 93
168 163 88
171 164 94
166 162 91
167 161 90
171 164 92
168 162 92
165 159 90
168 164 88
168 162 87
167 161 87
171 164 90
169 163 90
168 162 93
166 159 85
169 163 93
168 161 92
169 163 91
166 160 89
164 159 90
169 162 87
164 158 84
166 160 89
170 162 91
170 163 93
170 163 92
168 161 93
169 161 87
167 161 90
158 152 86
167 161 92
158 152 80
162 157 85
168 161 93
170 164 95
159 154 83
165 159 95
164 157 87
164 157 87
165 158 90
163 157 92
168 161 91
165 158 91
162 156 87
163 157 88
158 153 87
158 152 83
160 154 80
158 152 89
157 151 79
154 148 81
157 151 78
158 152 80
162 155 86
155 149 85
152 146 79
161 154 84
223 237 255
223 237 255
223 237 255
223 237 255
223 237 255
223 237 255
223 237 255
223 237 255
223 237 255
223 237 255
223 237 255
223 237 255
223 237 255
223 237 255
223 237 255
223 237 255
223 237 255
223 237 255
223 237 255
223 237 255
223 237 255
223 237 255
223 237 255
223 237 255
223 237 255
223 237 255
223 237 255
223 237 255
223 237 255
223 237 255
223 237 255
223 237 255
223 237 255
223 237 255
223 237 255
223 237 255
223 237 255
223 237 255
223 237 255
223 237 255
223 237 255
223 237 255
223 237 255
223 237 255
223 237 255
223 237 255
223 237 255
223 237 255
223 237 255
223 237 255
223 237 255
223 237 255
223 237 255
223 237 255
223 237 255
223 237 255
223 237 255
223 237 255
223 237 255
223 237 255
223 237 255
223 237 255
223 237 255
223 237 255
223 237 255
223 237 255
223 237 255
223 237 255
223 237 255
223 237 255
223 237 255
223 237 255
223 237 255
223 237 255
223 237 255
223 237 255
223 237 255
223 237 255
223 237 255
223 237 255
223 237 255
223 237 255
223 237 255
223 237 255
223 237 255
223 237 255
223 237 255
223 237 255
223 237 255
223 237 255
223 237 255
223 237 255
223 237 255
223 237 255
223 237 255
223 237 255
223 237 255
223 237 255
223 237 255
223 237 255
223 237 255
223 237 255
223 237 255
223 237 255
223 237 255
223 237 255
223 237 255
223 237 255
223 237 255
223 237 255
223 237 255
223 237 255
224 237 255
224 237 255
224 237 255
224 237 255
224 237 255
224 237 255
224 237 255
224 237 255
224 237 255
224 237 255
224 237 255
224 237 255
224 237 255
224 237 255
224 237 255
224 237 255
224 237 255
224 237 255
224 237 255
224 237 255
225 237 255
225 237 255
225 238 255
187 202 226
62 97 143
63 98 153
62 97 148
61 95 145
61 96 143
62 96 143
62 97 148
62 97 151
62 97 144
61 96 142
61 96 149
60 95 136
61 96 144
61 96 143
60 95 135
61 96 135
61 96 148
60 95 128
61 96 140
62 97 149
61 96 145
60 94 139
60 95 136
60 95 136
62 98 152
60 95 137
60 95 133
62 97 143
61 96 137
61 95 133
61 96 144
61 97 148
60 95 144
60 95 135
61 95 143
61 96 142
59 94 137
61 96 141
60 95 136
61 95 135
62 97 145
60 95 137
61 95 140
61 96 139
61 96 148
61 96 142
62 97 145
61 95 139
61 96 149
61 96 147
61 97 141
61 96 144
60 95 137
60 95 135
59 94 130
61 97 152
61 96 141
60 94 134
61 97 145
61 96 143
61 96 137
61 96 141
61 97 151
61 95 139
62 97 149
61 96 142
61 97 142
61 96 141
61 96 135
61 96 145
61 95 135
61 96 144
59 93 131
61 96 139
60 95 137
61 96 149
60 94 128
61 96 141
60 95 144
61 95 145
61 96 143
60 95 139
60 95 141
61 95 140
61 95 133
60 95 141
60 95 137
61 96 144
60 94 133
60 95 137
62 97 149
60 95 134
60 95 139
60 95 140
59 93 131
60 95 143
61 96 147
62 97 149
61 95 141
60 95 134
60 94 143
60 95 140
61 96 140
60 95 134
61 95 140
59 94 134
60 94 135
60 94 144
60 94 134
60 95 140
60 95 142
62 96 149
60 94 137
59 93 132
60 94 132
59 93 134
60 95 139
60 94 145
59 93 143
59 93 141
58 91 134
58 91 126
60 94 141
58 91 137
58 91 134
56 88 132
58 90 132
59 91 140
57 71 86
55 60 42
84 88 64
61 68 51
76 80 57
65 70 52
70 76 56
85 89 64
82 87 63
86 90 62
95 99 68
98 100 69
95 101 70
97 100 68
102 105 71
103 106 65
109 111 74
116 118 78
118 118 76
108 111 74
112 114 73
120 120 75
126 126 83
123 123 77
126 126 79
122 123 74
136 134 82
137 135 82
137 135 85
139 137 83
136 135 84
136 135 81
144 141 87
136 135 79
142 141 83
143 141 88
149 146 86
141 139 80
152 148 88
158 154 95
152 149 88
148 145 86
157 154 92
165 159 94
155 152 85
157 153 88
162 157 92
158 154 91
156 153 89
163 158 93
165 159 93
157 153 90
161 157 93
166 160 93
163 158 93
165 160 92
163 158 90
163 158 94
166 161 92
162 158 88
166 160 91
167 162 93
164 159 89
170 164 92
165 159 89
165 159 91
163 158 87
172 166 95
168 162 92
172 165 96
172 167 95
173 167 96
171 165 91
167 162 89
167 161 85
173 166 91
169 164 93
167 162 87
176 168 95
171 165 92
171 165 92
165 160 90
170 164 93
170 163 91
167 161 93
169 164 94
169 163 87
168 162 87
168 163 89
165 159 83
169 162 91
169 162 91
163 157 90
169 162 88
170 164 89
166 160 88
168 162 88
163 157 88
168 162 89
168 162 87
168 160 88
165 159 83
167 162 86
163 157 89
169 163 93
156 151 83
162 156 88
163 157 86
167 161 90
163 157 87
160 154 80
165 159 93
158 152 81
156 151 78
164 157 92
161 156 83
162 156 87
163 157 91
163 157 87
157 152 76
158 152 86
152 147 77
162 156 83
162 156 87
160 154 83
159 152 84
154 148 86
161 155 88
161 155 83
156 150 81
155 149 82
160 154 84
161 155 90
156 150 80
159 154 84
161 154 86
223 237 255
223 237 255
223 237 255
223 237 255
223 237 255
223 237 255
223 237 255
223 237 255
223 237 255
223 237 255
223 237 255
223 237 255
223 236 255
223 237 255
223 236 255
223 236 255
223 236 255
223 236 255
223 236 255
223 236 255
223 236 255
223 236 255
223 236 255
223 236 255
223 236 255
223 236 255
223 236 255
223 236 255
223 236 255
223 236 255
223 236 255
223 236 255
223 236 255
223 236 255
223 236 255
223 236 255
223 236 255
223 236 255
223 236 255
223 236 255
223 236 255
223 236 255
223 236 255
223 236 255
223 236 255
223 236 255
223 236 255
223 236 255
223 236 255
223 236 255
223 236 255
223 236 255
223 236 255
223 236 255
223 236 255
223 236 255
223 236 255
223 236 255
223 236 255
223 236 255
223 236 255
223 236 255
223 236 255
223 236 255
223 236 255
223 236 255
223 236 255
223 236 255
223 236 255
223 236 255
223 236 255
223 236 255
223 236 255
223 236 255
223 236 255
223 236 255
223 236 255
223 236 255
223 236 255
223 236 255
223 236 255
223 236 255
223 236 255
223 236 255
223 236 255
223 236 255
223 236 255
223 236 255
223 236 255
223 236 255
223 236 255
223 236 255
223 236 255
223 236 255
223 236 255
223 237 255
223 237 255
223 237 255
223 237 255
223 237 255
223 237 255
223 237 255
223 237 255
223 237 255
223 237 255
223 237 255
223 237 255
223 237 255
223 237 255
223 237 255
223 237 255
223 237 255
223 237 255
223 237 255
223 237 255
223 237 255
223 237 255
223 237 255
223 237 255
223 237 255
223 237 255
224 237 255
224 237 255
224 237 255
224 237 255
224 237 255
224 237 255
224 237 255
224 237 255
224 237 255
224 237 255
224 237 255
224 237 255
224 237 255
224 237 255
169 185 211
61 96 144
62 97 142
62 97 145
61 96 139
61 96 145
61 96 143
61 95 136
63 98 152
61 96 143
60 95 136
62 97 145
60 96 144
62 97 151
60 95 135
61 96 145
61 96 144
60 95 134
60 95 142
60 95 131
60 94 140
61 95 140
61 97 144
62 97 150
60 94 128
60 96 142
60 94 130
61 97 147
61 96 147
61 96 142
62 97 145
60 95 141
60 95 131
59 93 140
61 97 149
61 96 142
60 95 139
60 95 142
60 95 135
61 96 141
60 94 142
60 95 143
61 96 144
62 97 149
61 96 141
60 94 126
61 96 143
60 94 136
60 94 135
60 95 139
60 95 137
60 95 139
61 97 150
61 97 148
59 93 140
60 95 134
60 95 131
61 96 143
61 95 139
60 95 136
60 94 137
61 96 144
61 96 141
61 96 140
61 96 141
62 97 148
60 94 139
60 95 140
61 95 151
62 97 144
60 95 135
61 96 147
61 96 143
62 97 143
60 94 129
60 95 137
58 93 130
60 94 131
59 94 133
60 95 140
59 94 133
60 95 134
60 95 137
61 96 140
61 96 141
61 97 148
61 96 140
61 96 139
61 96 135
60 95 139
60 95 137
59 94 134
59 94 131
60 94 134
60 95 138
62 97 150
61 96 140
60 95 142
60 94 133
59 94 135
59 93 133
61 96 141
59 93 140
59 93 135
59 94 134
61 95 139
60 94 133
60 95 139
60 95 135
59 93 130
60 94 134
60 94 139
59 92 134
61 95 146
60 94 145
61 96 147
59 93 130
60 94 144
59 93 134
61 96 147
60 93 139
60 93 139
59 92 132
57 90 128
59 92 141
58 91 132
59 92 137
57 89 125
57 87 122
67 83 102
59 65 47
63 68 50
66 70 50
73 79 57
73 78 56
78 82 58
73 78 58
80 86 59
83 88 64
86 91 63
96 100 70
88 91 62
95 98 62
111 113 74
113 114 75
103 105 69
111 112 73
108 111 75
119 119 72
124 124 79
122 122 77
127 127 80
120 120 73
127 126 78
131 131 83
129 129 77
134 133 83
147 144 86
135 134 83
141 140 85
135 134 85
133 133 80
142 139 84
137 135 82
143 141 79
154 151 88
148 145 87
143 141 84
158 154 90
152 149 86
143 141 80
154 150 84
154 151 86
154 150 88
149 146 81
156 152 85
164 158 92
157 153 86
155 152 87
157 153 81
162 158 94
157 154 90
166 160 92
159 155 89
159 156 87
166 161 95
164 159 92
165 159 90
160 156 86
166 161 95
169 163 94
167 162 90
168 163 90
167 162 94
172 166 95
171 165 93
170 164 94
169 164 96
165 160 90
167 162 90
171 165 98
166 161 86
171 164 92
166 160 91
170 163 89
170 163 90
169 164 89
171 165 89
169 163 93
170 163 91
173 166 93
175 167 100
175 167 97
170 164 88
167 161 89
168 163 88
169 163 91
172 166 93
167 161 87
170 164 92
167 161 83
166 160 91
168 161 90
167 160 85
165 160 87
169 163 90
165 159 89
168 162 89
166 160 84
166 160 87
168 163 87
165 159 87
166 159 90
166 160 86
163 157 85
168 162 91
168 161 87
161 156 83
165 159 90
167 160 86
164 157 87
167 160 87
165 159 94
165 159 88
161 154 84
169 162 87
161 155 86
166 159 91
157 150 80
158 152 81
153 147 80
159 153 83
160 154 82
167 160 87
160 154 83
166 159 89
159 153 82
162 155 87
157 151 76
160 154 85
163 156 90
157 151 80
158 152 79
156 150 79
156 150 82
223 236 255
223 236 255
223 236 255
223 236 255
223 236 255
223 236 255
223 236 255
223 236 255
223 236 255
223 236 255
223 236 255
223 236 255
223 236 255
223 236 255
223 236 255
223 236 255
223 236 255
223 236 255
223 236 255
223 236 255
223 236 255
223 236 255
223 236 255
223 236 255
223 236 255
223 236 255
223 236 255
223 236 255
223 236 255
223 236 255
223 236 255
223 236 255
223 236 255
223 236 255
223 236 255
223 236 255
223 236 255
223 236 255
223 236 255
223 236 255
223 236 255
223 236 255
223 236 255
223 236 255
223 236 255
223 236 255
223 236 255
223 236 255
223 236 255
223 236 255
223 236 255
223 236 255
223 236 255
223 236 255
223 236 255
223 236 255
223 236 255
223 236 255
223 236 255
223 236 255
223 236 255
223 236 255
223 236 255
223 236 255
223 236 255
223 236 255
223 236 255
223 236 255
223 236 255
223 236 255
223 236 255
223 236 255
223 236 255
223 236 255
223 236 255
223 236 255
223 236 255
223 236 255
223 236 255
223 236 255
223 236 255
223 236 255
223 236 255
223 236 255
223 236 255
223 236 255
223 236 255
223 236 255
223 236 255
223 236 255
223 236 255
223 236 255
223 236 255
223 236 255
223 236 255
223 236 255
223 236 255
223 236 255
223 236 255
223 236 255
223 236 255
223 236 255
223 236 255
223 236 255
223 236 255
223 236 255
223 236 255
223 236 255
223 236 255
223 236 255
223 236 255
223 237 255
223 237 255
223 237 255
223 237 255
223 237 255
223 237 255
223 237 255
223 237 255
223 237 255
223 237 255
223 237 255
223 237 255
223 237 255
223 237 255
223 237 255
223 237 255
223 237 255
224 237 255
224 237 255
224 237 255
224 237 255
224 237 255
224 237 255
224 237 255
140 159 191
61 96 141
61 96 139
62 97 147
61 96 140
61 96 145
63 98 151
61 96 147
62 97 142
61 96 140
61 96 140
61 96 137
60 95 140
61 97 142
61 96 139
60 95 144
59 94 134
61 96 142
61 95 140
60 95 137
60 95 135
60 95 141
60 94 129
60 95 137
61 96 137
61 96 150
61 96 140
60 94 136
60 94 128
60 95 141
58 93 124
62 97 144
60 95 134
62 97 143
61 96 144
59 94 129
61 96 143
61 95 141
61 97 144
61 96 140
61 95 140
60 94 131
60 95 136
59 93 129
61 96 137
61 95 140
60 96 141
60 95 143
62 97 152
59 94 133
60 95 141
60 95 131
61 96 139
61 96 142
60 95 135
59 94 134
61 95 139
61 96 135
61 95 141
59 94 140
60 94 133
60 95 145
61 96 148
61 97 149
60 95 140
60 94 135
60 95 142
61 96 134
60 95 136
60 95 135
61 96 144
60 94 130
61 96 143
61 96 142
62 97 148
59 94 133
60 95 145
60 95 139
61 96 147
59 94 134
59 94 137
59 94 134
61 96 149
61 96 148
59 94 135
61 96 142
60 95 144
60 94 133
60 95 142
60 95 137
60 96 144
61 95 141
60 95 140
59 93 132
60 95 138
61 97 150
60 95 140
59 94 139
58 93 126
59 93 133
60 95 134
59 94 125
60 95 141
60 95 139
61 96 149
60 95 140
59 94 133
59 94 139
61 96 152
61 96 147
59 93 142
60 94 141
62 97 148
60 94 134
59 93 132
60 95 137
60 94 134
61 95 148
59 93 134
59 93 134
58 91 136
58 91 128
59 92 131
59 92 145
58 90 120
59 92 144
56 88 129
59 92 135
57 89 129
52 74 107
52 58 43
63 68 47
69 75 56
64 69 48
62 70 54
65 72 54
82 85 61
69 75 54
96 99 67
90 94 69
85 89 61
91 94 66
93 96 65
95 98 67
101 103 67
103 106 68
118 119 73
112 112 74
103 105 70
113 114 70
116 117 69
115 117 74
132 132 81
126 125 78
125 124 83
125 125 80
130 130 80
123 124 76
139 138 84
138 136 85
141 139 85
142 140 83
148 145 86
140 138 84
154 150 90
154 150 87
151 148 85
154 151 89
156 152 89
150 147 89
154 150 85
145 143 78
159 154 84
161 156 86
147 145 83
163 157 93
157 154 89
155 151 87
160 156 93
159 155 90
161 156 84
158 153 85
163 157 87
163 159 91
167 162 95
163 158 90
164 159 91
164 158 89
159 155 86
165 160 89
168 162 90
164 159 90
159 154 81
167 161 90
163 158 88
160 155 86
167 161 90
165 160 86
164 159 86
169 163 89
170 164 91
163 158 78
170 163 92
169 163 94
163 158 82
170 163 89
169 162 91
170 164 91
170 164 95
169 163 87
170 164 89
171 164 94
168 162 87
167 160 86
174 167 97
165 160 84
168 161 87
172 166 94
170 165 90
170 163 90
167 161 87
169 163 87
166 159 93
162 157 84
169 162 92
164 158 88
164 159 90
159 153 82
171 164 93
167 161 86
168 162 91
163 157 84
166 160 84
163 156 86
167 162 90
164 157 82
163 156 84
162 156 85
164 158 89
160 154 80
158 151 84
164 157 87
162 156 90
164 157 89
164 158 90
170 163 90
163 157 85
160 155 86
158 152 84
161 155 87
166 160 92
160 154 80
168 161 94
158 152 84
167 160 87
170 162 90
165 158 89
158 152 82
159 152 85
158 152 81
151 145 75
151 145 78
156 150 80
151 145 80
151 144 75
223 236 255
223 236 255
223 236 255
223 236 255
223 236 255
223 236 255
223 236 255
223 236 255
223 236 255
223 236 255
223 236 255
223 236 255
222 236 255
223 236 255
223 236 255
222 236 255
222 236 255
222 236 255
222 236 255
222 236 255
222 236 255
222 236 255
222 236 255
222 236 255
222 236 255
222 236 255
222 236 255
222 236 255
222 236 255
222 236 255
222 236 255
222 236 255
222 236 255
222 236 255
222 236 255
222 236 255
222 236 255
222 236 255
222 236 255
222 236 255
222 236 255
222 236 255
222 236 255
222 236 255
222 236 255
222 236 255
222 236 255
222 236 255
222 236 255
222 236 255
222 236 255
222 236 255
222 236 255
222 236 255
222 236 255
222 236 255
222 236 255
222 236 255
222 236 255
222 236 255
222 236 255
222 236 255
222 236 255
222 236 255
222 236 255
222 236 255
222 236 255
222 236 255
222 236 255
222 236 255
222 236 255
222 236 255
222 236 255
222 236 255
222 236 255
222 236 255
222 236 255
222 236 255
222 236 255
222 236 255
222 236 255
222 236 255
222 236 255
222 236 255
222 236 255
222 236 255
222 236 255
222 236 255
222 236 255
222 236 255
222 236 255
222 236 255
222 236 255
222 236 255
222 236 255
222 236 255
223 236 255
223 236 255
223 236 255
223 236 255
223 236 255
223 236 255
223 236 255
223 236 255
223 236 255
223 236 255
223 236 255
223 236 255
223 236 255
223 236 255
223 236 255
223 236 255
223 236 255
223 236 255
223 236 255
223 236 255
223 236 255
223 236 255
223 236 255
223 236 255
223 236 255
223 236 255
223 237 255
223 237 255
223 237 255
223 237 255
223 237 255
223 237 255
223 237 255
223 237 255
223 237 255
223 237 255
223 237 255
223 237 255
224 237 255
146 165 195
62 97 145
62 97 147
61 95 144
61 96 139
61 96 141
61 96 134
62 97 147
60 95 126
61 96 144
62 97 143
61 96 137
61 96 141
62 97 149
62 97 145
60 94 131
61 97 149
61 96 140
60 95 137
60 94 125
61 96 143
61 96 144
62 97 149
61 96 133
61 96 141
61 96 147
61 97 144
60 95 137
61 96 144
61 96 140
60 95 134
61 96 141
61 96 140
61 96 143
61 96 143
61 96 144
61 97 147
59 94 139
61 97 150
61 96 137
61 96 136
60 94 140
60 95 139
61 97 152
60 95 142
62 97 147
61 96 137
60 95 141
60 94 139
61 96 143
60 95 136
61 96 136
61 96 141
60 95 136
62 97 147
59 94 124
59 94 134
60 95 144
60 95 139
60 95 134
60 95 136
60 95 140
59 94 135
60 95 137
62 97 148
60 95 135
61 96 140
61 95 141
60 94 133
60 96 141
60 94 131
61 96 149
61 97 152
60 94 131
60 95 137
62 97 145
60 94 135
59 93 126
61 96 139
60 94 128
61 97 143
60 95 143
60 95 140
61 96 137
59 93 126
59 94 133
59 94 131
58 92 126
59 94 133
61 96 152
60 95 139
60 95 135
61 96 144
60 94 134
60 95 135
61 96 142
61 96 140
61 96 149
60 94 139
61 96 148
62 97 151
59 93 128
59 94 136
60 94 132
60 95 143
59 93 135
60 94 133
59 93 134
60 95 147
61 96 146
60 95 135
60 94 147
59 93 134
60 95 142
60 94 138
60 95 135
58 92 135
59 93 138
60 94 146
58 91 133
57 89 125
61 96 147
60 94 138
58 91 131
57 90 131
58 91 126
60 93 134
57 88 121
55 86 126
54 76 102
56 62 47
49 54 39
52 59 44
53 59 42
70 75 53
68 72 51
70 75 53
67 73 55
92 95 63
85 88 60
89 92 61
101 103 65
100 100 63
99 101 66
112 113 71
99 102 64
102 105 68
110 112 70
121 122 77
112 112 68
117 117 71
132 131 84
126 125 75
127 127 73
132 130 79
125 125 76
130 129 79
131 131 79
133 132 79
136 134 81
140 137 79
142 139 84
136 135 79
143 141 83
136 134 77
149 146 87
142 140 79
151 148 87
140 139 81
158 153 90
146 143 77
154 150 89
143 141 79
155 150 90
156 153 89
158 154 90
159 155 86
161 156 85
158 154 88
155 151 80
164 160 92
156 152 87
164 159 90
170 164 97
168 161 90
155 152 81
165 160 91
168 162 94
162 157 84
164 159 89
168 162 91
169 164 98
164 158 86
171 165 92
163 158 80
167 161 89
168 163 87
172 166 91
170 165 92
165 160 84
168 162 88
170 163 83
167 161 89
169 164 88
166 160 85
168 163 90
169 162 92
167 162 89
166 160 82
167 161 86
168 162 88
168 162 90
165 159 90
166 160 90
167 161 90
166 160 83
169 163 85
168 161 90
170 164 88
175 168 95
165 159 89
167 161 86
166 160 87
167 160 85
164 158 90
168 161 80
164 158 81
169 162 87
165 158 89
167 161 89
168 162 90
168 161 95
167 161 88
167 162 89
167 161 88
163 157 86
162 156 81
167 161 86
167 160 85
163 157 83
165 159 87
164 157 87
156 149 77
165 158 86
159 153 84
159 154 87
158 152 82
161 155 80
165 159 83
160 154 86
162 155 88
159 153 77
156 150 81
165 158 91
160 154 86
156 150 79
161 155 84
162 155 86
156 151 80
160 154 82
153 147 82
152 146 74
158 153 81
159 153 85
152 146 78
222 236 255
222 236 255
222 236 255
222 236 255
222 236 255
222 236 255
222 236 255
222 236 255
222 236 255
222 236 255
222 236 255
222 236 255
222 236 255
222 236 255
222 236 255
222 236 255
222 236 255
222 236 255
222 236 255
222 236 255
222 236 255
222 236 255
222 236 255
222 236 255
222 236 255
222 236 255
222 236 255
222 236 255
222 236 255
222 236 255
222 236 255
222 236 255
222 236 255
222 236 255
222 236 255
222 236 255
222 236 255
222 236 255
222 236 255
222 236 255
222 236 255
222 236 255
222 236 255
222 236 255
222 236 255
222 236 255
222 236 255
222 236 255
222 236 255
222 236 255
222 236 255
222 236 255
222 236 255
222 236 255
222 236 255
222 236 255
222 236 255
222 236 255
222 236 255
222 236 255
222 236 255
222 236 255
222 236 255
222 236 255
222 236 255
222 236 255
222 236 255
222 236 255
222 236 255
222 236 255
222 236 255
222 236 255
222 236 255
222 236 255
222 236 255
222 236 255
222 236 255
222 236 255
222 236 255
222 236 255
222 236 255
222 236 255
222 236 255
222 236 255
222 236 255
222 236 255
222 236 255
222 236 255
222 236 255
222 236 255
222 236 255
222 236 255
222 236 255
222 236 255
222 236 255
222 236 255
222 236 255
222 236 255
222 236 255
222 236 255
222 236 255
222 236 255
222 236 255
222 236 255
222 236 255
222 236 255
222 236 255
222 236 255
222 236 255
222 236 255
222 236 255
222 236 255
222 236 255
222 236 255
222 236 255
223 236 255
223 236 255
223 236 255
223 236 255
223 236 255
223 236 255
223 236 255
223 236 255
223 236 255
223 236 255
223 236 255
223 236 255
223 236 255
223 236 255
223 236 255
223 236 255
223 237 255
223 237 255
223 237 255
223 237 255
120 142 178
62 97 149
60 95 142
60 95 139
61 97 147
60 95 131
61 96 133
62 97 141
61 95 148
61 96 136
62 97 147
62 97 145
62 97 148
61 96 137
60 95 143
60 95 134
61 96 141
61 96 143
60 95 133
61 96 137
61 96 139
61 95 139
62 97 150
61 96 141
59 94 133
60 94 134
60 95 134
61 96 134
61 95 140
58 93 134
61 95 145
59 94 134
61 96 145
61 95 133
61 96 144
59 94 136
60 95 135
60 95 142
60 95 142
60 95 142
60 95 130
60 95 140
61 96 147
61 96 139
60 95 139
60 95 133
61 95 137
60 95 135
62 97 151
61 96 141
61 96 141
61 96 143
62 97 148
61 96 145
60 95 133
60 95 140
60 96 144
61 97 144
60 95 141
61 96 143
60 95 137
60 95 143
61 95 141
59 94 135
59 94 137
59 93 129
60 95 137
59 93 137
62 97 148
59 94 134
60 94 133
61 96 140
59 93 131
61 96 141
61 96 139
60 94 142
60 94 134
61 95 136
61 95 139
60 95 133
62 98 150
60 95 140
59 94 136
59 93 135
61 96 144
59 93 133
60 95 133
59 94 136
61 96 144
62 98 149
60 94 136
60 94 145
60 95 142
62 96 141
60 95 134
61 95 140
58 91 126
60 95 141
58 92 126
60 95 141
59 92 134
59 92 123
61 95 135
60 94 135
60 95 143
60 95 141
58 92 124
61 95 139
60 94 139
58 92 136
60 94 129
60 94 138
61 96 144
59 93 133
61 95 145
58 91 127
60 93 133
59 92 135
59 92 133
61 94 139
58 91 129
60 94 138
58 90 134
59 92 131
59 93 138
57 88 115
58 90 125
58 89 134
56 88 135
58 81 106
55 61 43
39 48 37
58 64 48
50 58 44
59 66 49
67 72 49
67 72 51
71 77 52
100 104 72
80 85 60
75 80 53
82 88 59
91 94 60
91 95 63
93 97 65
108 111 70
106 107 65
106 108 68
121 120 75
105 107 68
110 112 65
131 131 82
127 126 78
121 122 74
121 122 74
127 127 78
129 128 79
122 122 73
126 125 76
139 139 84
142 140 85
128 127 68
142 140 76
138 136 80
137 135 77
145 142 85
147 144 85
141 139 76
157 152 90
150 147 87
153 150 84
150 147 82
154 150 87
150 146 80
152 148 81
152 149 82
160 155 87
159 154 91
164 158 87
162 156 89
157 152 84
164 158 87
156 153 78
158 153 85
162 158 88
163 158 86
168 162 90
170 164 91
165 160 86
165 160 91
164 158 82
161 156 83
168 162 90
161 156 88
169 163 89
165 158 81
166 160 85
168 162 87
164 158 87
171 165 95
169 162 92
170 163 90
164 159 87
168 162 87
173 166 95
171 164 89
166 161 87
173 167 99
165 159 84
166 160 86
165 159 85
174 167 91
165 159 83
170 164 88
169 163 90
168 162 86
170 163 86
168 162 87
167 161 86
167 161 90
167 160 87
172 164 93
171 165 90
165 158 83
164 158 78
169 162 89
170 164 93
173 166 93
166 160 85
167 160 83
164 158 82
164 158 82
164 158 87
166 159 85
162 156 81
164 158 84
164 157 80
168 161 85
166 159 89
168 161 84
163 156 84
161 155 80
163 157 84
160 154 83
161 155 79
160 153 85
154 148 76
165 159 87
157 151 81
160 154 79
159 152 83
161 155 84
155 149 76
165 159 87
162 156 86
157 151 78
161 156 84
161 153 83
160 154 76
150 144 75
162 156 87
158 151 80
159 153 84
155 150 80
153 148 79
222 236 255
222 236 255
222 236 255
222 236 255
222 236 255
222 236 255
222 236 255
222 236 255
222 236 255
222 236 255
222 236 255
222 236 255
222 236 255
222 236 255
222 236 255
222 236 255
222 236 255
222 236 255
222 236 255
222 236 255
222 236 255
222 236 255
222 236 255
222 236 255
222 236 255
222 236 255
222 236 255
222 236 255
222 236 255
222 236 255
222 236 255
222 236 255
222 236 255
222 236 255
222 236 255
222 236 255
222 236 255
222 236 255
222 236 255
222 236 255
222 236 255
222 236 255
222 236 255
222 236 255
222 236 255
222 236 255
222 236 255
222 236 255
222 236 255
222 236 255
222 236 255
222 236 255
222 236 255
222 236 255
222 236 255
222 236 255
222 236 255
222 236 255
222 236 255
222 236 255
222 236 255
222 236 255
222 236 255
222 236 255
222 236 255
222 236 255
222 236 255
222 236 255
222 236 255
222 236 255
222 236 255
222 236 255
222 236 255
222 236 255
222 236 255
222 236 255
222 236 255
222 236 255
222 236 255
222 236 255
222 236 255
222 236 255
222 236 255
222 236 255
222 236 255
222 236 255
222 236 255
222 236 255
222 236 255
222 236 255
222 236 255
222 236 255
222 236 255
222 236 255
222 236 255
222 236 255
222 236 255
222 236 255
222 236 255
222 236 255
222 236 255
222 236 255
222 236 255
222 236 255
222 236 255
222 236 255
222 236 255
222 236 255
222 236 255
222 236 255
222 236 255
222 236 255
222 236 255
222 236 255
222 236 255
222 236 255
222 236 255
222 236 255
222 236 255
222 236 255
222 236 255
222 236 255
222 236 255
222 236 255
222 236 255
222 236 255
222 236 255
222 236 255
223 236 255
223 236 255
223 236 255
223 236 255
223 236 255
223 236 255
223 236 255
114 137 179
61 95 136
61 96 143
62 97 142
61 97 144
60 95 140
61 96 142
61 96 139
61 96 143
62 97 148
61 96 136
61 96 142
61 95 137
61 96 144
60 94 124
60 95 139
60 94 139
61 95 135
60 94 134
59 94 133
60 95 135
60 94 130
60 94 133
60 95 140
59 94 125
60 95 134
61 96 143
60 94 129
61 95 142
61 96 143
60 95 139
59 94 125
60 95 135
60 94 134
59 94 131
61 95 133
60 95 137
60 95 139
60 95 141
59 93 125
60 94 129
61 96 147
61 95 142
60 95 128
60 94 136
60 95 135
60 94 136
60 95 131
61 95 133
61 95 135
61 96 144
60 95 143
61 96 141
61 96 143
61 96 141
60 95 137
60 95 139
61 96 144
60 95 142
61 96 141
59 94 131
60 95 130
61 96 142
59 94 130
60 94 133
60 95 136
61 96 137
61 96 140
60 95 139
60 95 139
61 96 141
61 95 145
61 97 143
60 94 136
59 94 135
60 95 140
61 96 147
60 94 134
60 95 143
60 94 136
61 96 142
59 94 135
60 95 139
60 95 137
59 94 131
60 95 139
60 95 137
60 95 139
59 93 130
60 95 142
59 94 136
59 94 130
60 95 136
60 95 139
59 93 131
60 95 141
60 95 142
59 94 133
60 94 136
61 96 136
60 94 132
61 96 144
59 92 125
60 95 136
59 93 135
60 94 140
60 94 132
60 95 137
60 94 133
59 93 128
59 93 127
60 94 139
58 91 132
58 91 128
59 92 134
60 95 144
59 93 134
59 92 139
60 94 142
58 91 125
58 92 127
58 91 130
60 94 138
58 91 131
59 92 136
59 92 129
57 89 134
58 91 139
56 87 126
55 82 108
46 53 44
39 47 37
51 58 43
55 60 40
60 65 45
61 68 47
65 72 53
59 65 44
74 80 55
72 77 52
85 88 58
95 97 59
86 89 57
91 95 63
106 108 71
97 99 61
114 115 72
106 107 63
113 114 71
110 112 62
122 122 73
123 122 71
121 122 73
114 116 74
118 119 74
120 121 73
127 126 75
133 131 72
125 124 68
139 136 81
134 133 79
143 141 82
136 134 76
147 144 81
133 131 76
132 131 75
145 143 80
150 147 87
135 133 77
149 145 88
156 152 88
156 151 88
148 145 78
155 151 81
151 149 86
151 148 83
153 149 83
158 153 82
150 147 81
158 154 94
158 153 90
165 159 86
170 164 97
161 157 82
164 159 94
164 159 87
167 162 89
164 158 83
161 156 90
167 161 95
165 159 86
164 158 83
161 155 79
168 163 90
167 162 91
156 152 78
167 161 87
169 163 91
172 165 87
168 162 88
170 164 88
168 162 83
171 164 94
172 166 93
159 154 81
173 166 87
168 162 88
169 162 88
172 165 90
172 165 90
171 165 92
174 167 92
173 165 91
167 161 88
168 162 88
167 160 80
168 162 84
168 162 86
170 163 90
170 163 89
162 156 88
166 160 83
164 157 88
167 161 82
164 158 85
167 160 93
171 164 92
162 155 80
168 161 90
159 152 78
168 161 90
164 157 84
167 161 90
167 161 87
165 158 82
162 156 83
167 161 91
171 163 85
163 157 84
165 159 85
162 155 84
166 160 90
163 157 82
167 159 88
157 151 75
161 155 84
164 158 81
168 162 89
160 154 84
160 153 77
168 161 87
157 153 80
161 155 87
156 150 79
155 149 82
154 148 78
160 153 85
159 152 84
160 154 87
155 149 78
159 152 79
158 152 85
158 151 81
155 150 80
147 142 76
222 236 255
222 236 255
222 236 255
222 236 255
222 236 255
222 236 255
222 236 255
222 236 255
222 236 255
222 236 255
222 236 255
222 236 255
222 236 255
222 236 255
222 236 255
222 236 255
222 236 255
222 236 255
222 236 255
222 236 255
222 236 255
222 236 255
222 236 255
222 236 255
222 236 255
222 236 255
222 236 255
222 236 255
222 236 255
222 236 255
222 236 255
222 236 255
222 236 255
222 236 255
222 236 255
222 236 255
222 236 255
222 236 255
222 236 255
222 236 255
222 236 255
222 236 255
222 236 255
222 236 255
222 236 255
222 236 255
222 236 255
222 236 255
222 236 255
222 236 255
222 236 255
222 236 255
222 236 255
222 236 255
222 236 255
222 236 255
222 236 255
222 236 255
222 236 255
222 236 255
222 236 255
222 236 255
222 236 255
222 236 255
222 236 255
222 236 255
222 236 255
222 236 255
222 236 255
222 236 255
222 236 255
222 236 255
222 236 255
222 236 255
222 236 255
222 236 255
222 236 255
222 236 255
222 236 255
222 236 255
222 236 255
222 236 255
222 236 255
222 236 255
222 236 255
222 236 255
222 236 255
222 236 255
222 236 255
222 236 255
222 236 255
222 236 255
222 236 255
222 236 255
222 236 255
222 236 255
222 236 255
222 236 255
222 236 255
222 236 255
222 236 255
222 236 255
222 236 255
222 236 255
222 236 255
222 236 255
222 236 255
222 236 255
222 236 255
222 236 255
222 236 255
222 236 255
222 236 255
222 236 255
222 236 255
222 236 255
222 236 255
222 236 255
222 236 255
222 236 255
222 236 255
222 236 255
222 236 255
222 236 255
222 236 255
222 236 255
222 236 255
222 236 255
222 236 255
222 236 255
222 236 255
222 236 255
222 236 255
222 236 255
222 236 255
92 119 164
61 95 134
62 97 148
60 95 141
62 97 141
61 96 143
61 96 136
61 95 137
62 97 145
61 97 143
61 96 143
59 94 135
61 97 140
61 96 145
60 94 126
61 96 142
60 95 133
60 95 141
60 95 137
61 95 130
60 95 133
61 96 149
59 93 135
60 94 134
60 95 142
59 94 133
59 94 130
60 95 136
60 94 137
61 96 145
60 95 133
60 94 135
61 96 143
60 95 142
61 96 142
60 95 137
60 95 129
60 95 128
59 94 131
61 96 141
61 96 135
61 95 139
60 95 135
59 93 134
60 95 136
60 95 137
60 95 129
59 94 129
58 92 120
61 97 145
61 96 147
60 95 141
61 96 148
60 95 137
61 96 143
60 95 137
61 96 147
60 94 136
61 96 145
59 93 129
62 97 148
59 94 129
61 96 139
61 96 145
59 93 131
60 95 137
61 97 148
61 96 137
61 95 140
60 95 137
61 96 143
60 95 135
59 93 121
60 95 136
60 94 133
60 95 136
61 96 139
61 96 142
60 94 133
61 96 147
60 94 130
60 94 134
60 96 143
62 98 151
59 94 134
61 96 137
59 93 136
61 95 136
60 95 136
60 94 137
60 94 131
60 95 135
61 96 143
59 94 136
61 96 141
61 95 144
61 96 139
60 94 139
60 94 136
60 95 139
60 95 142
60 95 135
60 95 141
60 95 134
59 93 131
60 95 134
62 97 146
61 95 140
60 95 143
59 93 139
59 93 128
59 94 133
59 92 132
60 94 137
59 94 133
60 94 132
59 93 128
59 92 135
59 93 132
57 89 123
59 92 133
58 91 123
59 92 140
58 91 127
59 92 134
58 91 134
58 91 130
57 88 117
56 86 117
55 82 120
39 44 32
50 57 43
52 59 40
45 53 39
50 56 36
74 77 52
68 73 49
76 81 55
80 85 56
85 88 59
81 85 56
80 85 58
88 91 61
90 93 57
97 100 60
104 106 71
92 96 62
94 97 67
95 97 55
113 113 65
117 117 71
124 123 73
127 127 78
127 125 73
133 131 76
128 127 74
126 126 71
119 120 71
135 133 78
139 136 78
126 125 66
140 138 85
141 138 78
136 134 79
148 145 82
146 143 81
145 142 84
143 142 80
152 148 88
156 151 86
150 147 84
152 148 81
158 153 91
150 146 82
153 148 76
155 151 81
158 155 88
152 148 75
150 147 80
160 154 84
164 158 86
159 155 81
163 158 83
166 160 87
165 159 87
156 152 81
157 153 84
163 158 86
159 155 81
160 156 83
165 159 90
166 161 90
164 158 86
164 159 88
165 159 86
168 161 86
170 163 91
170 165 86
169 163 86
166 160 87
168 162 88
168 162 89
171 165 95
166 160 83
166 161 86
167 161 87
168 163 85
169 163 92
161 155 78
162 157 80
174 167 89
166 160 82
170 164 87
170 163 90
168 162 80
173 166 89
169 161 87
167 161 90
167 160 81
164 159 82
169 163 90
165 159 82
162 156 83
164 158 83
161 156 78
166 160 87
171 165 91
171 165 90
168 162 85
167 160 84
159 154 79
167 160 82
167 160 85
166 159 84
170 163 90
166 159 81
165 158 87
171 164 89
165 159 86
168 161 86
165 160 85
159 154 81
161 154 81
163 156 78
163 156 81
164 157 80
162 157 83
165 158 87
161 155 80
161 156 82
161 155 80
166 160 84
163 157 81
163 156 80
166 160 87
155 150 79
162 154 84
155 149 75
154 149 76
157 151 79
160 153 82
159 153 78
163 156 87
156 150 77
156 150 87
222 236 255
222 236 255
222 236 255
222 236 255
222 236 255
222 236 255
222 236 255
222 236 255
222 236 255
222 236 255
222 236 255
222 236 255
222 236 255
222 236 255
222 236 255
222 236 255
222 236 255
222 236 255
222 236 255
222 236 255
222 236 255
222 236 255
222 236 255
222 236 255
222 236 255
222 236 255
222 236 255
222 236 255
222 236 255
222 236 255
222 236 255
222 236 255
222 236 255
222 236 255
222 236 255
222 236 255
222 236 255
222 236 255
222 236 255
222 236 255
222 236 255
222 236 255
222 236 255
222 236 255
222 236 255
222 236 255
222 236 255
222 236 255
222 236 255
222 236 255
222 236 255
222 236 255
222 236 255
222 236 255
222 236 255
222 236 255
222 236 255
222 236 255
222 236 255
222 236 255
222 236 255
222 236 255
222 236 255
222 236 255
222 236 255
222 236 255
222 236 255
222 236 255
222 236 255
222 236 255
222 236 255
222 236 255
222 236 255
222 236 255
222 236 255
222 236 255
222 236 255
222 236 255
222 236 255
222 236 255
222 236 255
222 236 255
222 236 255
222 236 255
222 236 255
222 236 255
222 236 255
222 236 255
222 236 255
222 236 255
222 236 255
222 236 255
222 236 255
222 236 255
222 236 255
222 236 255
222 236 255
222 236 255
222 236 255
222 236 255
222 236 255
222 236 255
222 236 255
222 236 255
222 236 255
222 236 255
222 236 255
222 236 255
222 236 255
222 236 255
222 236 255
222 236 255
222 236 255
222 236 255
222 236 255
222 236 255
222 236 255
222 236 255
222 236 255
222 236 255
222 236 255
222 236 255
222 236 255
222 236 255
222 236 255
222 236 255
222 236 255
222 236 255
222 236 255
222 236 255
222 236 255
222 236 255
222 236 255
222 236 255
222 236 255
85 114 160
62 97 147
62 96 140
62 96 140
60 94 135
61 96 141
61 96 145
61 96 137
59 94 126
61 95 142
61 96 141
60 96 140
62 97 148
61 96 137
61 96 141
61 95 137
60 94 130
59 94 126
60 95 136
59 93 130
60 95 133
60 95 139
61 97 147
60 95 141
60 95 130
60 95 141
60 95 136
60 95 131
62 97 144
61 96 139
61 95 137
60 95 139
62 97 144
61 96 144
60 95 135
61 96 139
61 96 141
60 94 126
60 95 135
60 95 141
60 95 143
60 94 133
60 95 142
61 96 136
58 93 131
60 94 136
60 95 142
61 95 135
61 96 140
62 97 144
61 96 147
60 95 131
60 94 133
62 97 147
59 94 130
60 95 137
61 96 141
61 96 139
59 94 134
60 95 131
62 98 151
62 97 150
61 96 137
60 94 133
60 95 143
62 97 151
59 94 134
59 93 136
61 95 137
62 97 145
61 95 143
59 92 120
60 95 136
61 96 144
61 96 142
59 93 134
60 95 143
60 95 137
60 95 133
59 93 130
60 95 136
60 95 137
59 94 137
60 95 133
61 95 133
60 94 125
60 94 142
60 94 131
60 95 140
57 91 125
59 94 128
59 93 136
60 95 133
60 95 137
61 95 137
59 93 131
60 95 141
61 95 146
60 95 135
58 92 133
59 94 134
59 93 124
60 95 134
59 94 136
59 93 133
57 91 122
60 95 145
58 92 130
58 92 129
58 91 125
59 92 129
59 93 131
59 93 134
60 94 138
59 93 133
59 93 136
60 94 141
60 94 140
58 91 123
59 92 131
58 92 128
58 92 136
55 87 119
56 88 118
57 89 121
58 90 127
58 90 134
57 89 131
56 86 108
52 81 106
36 42 30
53 58 41
53 59 43
57 62 38
49 59 43
46 53 39
67 70 45
75 79 50
71 75 47
80 84 51
78 82 57
86 90 58
97 98 63
86 90 58
87 90 56
94 97 63
91 93 59
96 98 62
112 113 67
110 110 67
116 117 72
117 117 67
136 133 78
124 123 74
125 124 66
119 119 67
130 129 76
123 124 72
131 129 75
131 130 78
127 126 70
138 137 77
142 138 76
145 142 77
138 136 76
140 138 77
145 142 81
142 139 78
136 134 72
149 147 85
147 145 77
147 143 81
151 147 82
150 146 84
151 148 80
154 150 84
153 149 81
162 157 90
157 152 82
158 154 82
161 156 84
158 154 79
158 154 82
159 155 86
164 159 81
163 158 85
161 157 81
160 155 87
162 157 88
164 159 86
167 162 88
164 158 86
162 157 85
164 158 86
166 161 82
167 161 89
166 160 87
166 160 91
164 159 81
163 158 81
163 159 81
168 162 87
170 164 89
170 163 87
170 163 89
168 162 86
161 155 76
169 163 86
169 162 83
166 160 84
166 160 77
164 158 80
167 161 84
168 161 84
163 158 83
166 160 82
168 162 88
174 167 93
163 157 84
165 159 84
167 161 86
167 160 84
168 161 85
159 154 75
174 166 93
166 160 85
164 159 83
164 158 80
169 162 88
163 156 80
165 158 87
172 165 93
164 158 84
164 158 81
162 156 82
168 161 84
164 158 85
160 154 78
166 160 86
163 157 83
163 157 81
164 158 83
167 160 83
163 156 85
165 158 86
163 155 84
163 157 84
160 153 83
165 159 84
156 149 80
163 158 82
156 150 72
160 153 82
156 151 80
162 155 81
168 162 89
160 154 76
158 152 80
154 148 78
160 154 82
163 157 83
158 152 83
159 152 77
156 150 75
162 155 89
221 236 255
221 236 255
221 236 255
221 236 255
221 236 255
221 236 255
221 236 255
221 236 255
221 236 255
221 236 255
221 236 255
221 236 255
221 236 255
221 236 255
221 236 255
221 236 255
221 236 255
221 236 255
221 236 255
221 236 255
221 236 255
221 236 255
221 236 255
221 236 255
221 236 255
221 236 255
221 236 255
221 236 255
221 236 255
221 236 255
221 236 255
221 236 255
221 236 255
221 236 255
221 236 255
221 236 255
221 236 255
221 236 255
221 236 255
221 236 255
221 236 255
221 236 255
221 236 255
221 236 255
221 236 255
221 236 255
221 236 255
221 236 255
221 236 255
221 236 255
221 236 255
221 236 255
221 236 255
221 236 255
221 236 255
221 236 255
221 236 255
221 236 255
221 236 255
221 236 255
221 236 255
221 236 255
221 236 255
221 236 255
221 236 255
221 236 255
221 236 255
221 236 255
221 236 255
221 236 255
221 236 255
221 236 255
221 236 255
221 236 255
221 236 255
221 236 255
221 236 255
221 236 255
221 236 255
221 236 255
221 236 255
221 236 255
221 236 255
221 236 255
221 236 255
221 236 255
221 236 255
221 236 255
221 236 255
221 236 255
221 236 255
221 236 255
221 236 255
221 236 255
221 236 255
221 236 255
221 236 255
221 236 255
221 236 255
221 236 255
221 236 255
221 236 255
221 236 255
221 236 255
221 236 255
221 236 255
221 236 255
221 236 255
221 236 255
221 236 255
221 236 255
221 236 255
221 236 255
221 236 255
221 236 255
221 236 255
221 236 255
221 236 255
222 236 255
221 236 255
221 236 255
221 236 255
221 236 255
222 236 255
222 236 255
222 236 255
222 236 255
222 236 255
222 236 255
222 236 255
222 236 255
222 236 255
222 236 255
222 236 255
222 236 255
75 106 151
61 96 141
61 96 140
61 96 143
61 96 140
61 96 137
60 95 136
60 95 131
60 94 134
62 97 144
60 94 124
61 96 137
61 95 140
60 94 136
61 96 140
61 96 142
61 96 140
62 97 145
60 94 133
61 96 145
60 95 134
61 96 137
59 94 131
61 96 144
60 95 143
60 94 133
60 95 136
60 95 143
61 96 148
61 96 142
60 95 135
59 94 130
60 94 135
60 95 140
61 95 142
59 93 129
61 95 136
61 96 135
60 94 139
60 95 141
61 96 140
60 95 135
60 95 136
59 94 129
61 97 148
61 97 144
61 96 137
59 94 129
59 94 128
61 96 144
61 96 141
59 93 126
60 94 133
59 94 126
61 96 140
60 95 141
60 95 141
59 94 128
61 95 142
60 95 141
61 96 142
60 95 136
61 95 143
60 95 136
59 94 133
60 94 128
59 94 133
61 95 133
60 95 136
61 96 142
61 96 139
60 94 137
60 95 140
61 95 141
60 95 137
60 95 133
61 96 150
61 96 139
60 95 129
60 95 140
60 95 139
59 94 134
58 92 124
59 94 136
60 93 133
61 95 144
61 96 147
60 95 135
60 94 133
60 95 135
60 95 131
60 95 136
60 94 132
60 94 136
60 94 135
59 93 135
59 93 141
60 95 137
59 92 125
59 93 134
60 93 133
59 94 134
60 94 135
60 95 136
59 93 135
60 94 138
60 95 140
60 95 140
60 95 135
61 95 140
58 91 127
59 93 140
58 92 135
59 92 133
60 95 138
60 94 128
58 92 133
59 93 138
59 93 138
58 91 128
57 90 125
56 89 128
59 91 123
59 92 130
58 91 129
58 91 131
57 89 133
57 87 120
58 90 128
54 84 117
36 43 30
41 47 33
43 49 34
54 59 38
50 58 42
54 60 40
44 53 36
63 70 49
64 71 47
81 85 49
80 83 50
88 92 60
77 82 55
100 102 60
98 101 67
104 106 64
110 112 59
113 113 65
107 106 64
112 114 65
105 106 64
113 115 65
117 116 71
125 125 73
132 130 75
123 123 74
119 119 67
130 129 71
128 128 75
133 132 76
137 135 77
131 130 73
139 137 74
140 138 83
141 139 77
144 141 83
146 143 78
150 147 83
138 136 73
144 141 76
150 147 82
145 141 83
155 151 81
151 148 76
152 149 79
156 151 88
159 154 89
158 154 84
156 152 84
154 150 78
157 153 79
161 157 87
159 155 87
159 155 83
162 156 81
163 158 84
163 157 85
161 156 84
166 161 90
163 158 86
162 157 86
162 158 84
169 163 86
167 160 87
170 163 90
160 156 76
167 161 87
167 161 88
164 158 90
170 163 87
170 163 86
167 161 87
166 161 83
167 160 88
169 164 87
163 158 80
169 163 85
168 162 84
169 163 86
169 163 80
171 164 88
168 162 86
168 162 84
166 161 84
168 161 82
167 162 83
164 158 84
164 159 76
164 158 83
173 166 90
165 159 83
167 160 85
170 164 86
165 159 84
169 162 87
169 162 84
167 160 84
160 155 84
163 157 86
165 158 88
164 158 80
167 160 85
163 157 82
164 158 84
159 154 77
159 154 79
164 158 83
164 158 84
152 147 71
171 164 87
166 160 85
165 159 87
163 157 78
165 158 83
159 153 76
164 158 82
163 157 81
163 157 84
161 154 80
158 152 75
157 149 80
155 150 79
158 153 74
160 154 75
160 153 80
164 159 82
165 158 78
159 153 81
160 154 79
164 157 85
161 155 76
160 153 77
157 151 74
156 150 79
165 158 86
221 236 255
221 236 255
221 236 255
221 236 255
221 236 255
221 236 255
221 236 255
221 236 255
221 236 255
221 236 255
221 236 255
221 236 255
221 236 255
221 236 255
221 236 255
221 236 255
221 236 255
221 236 255
221 236 255
221 236 255
221 236 255
221 236 255
221 236 255
221 236 255
221 236 255
221 236 255
221 236 255
221 236 255
221 236 255
221 236 255
221 236 255
221 236 255
221 236 255
221 236 255
221 236 255
221 236 255
221 236 255
221 236 255
221 236 255
221 236 255
221 236 255
221 236 255
221 236 255
221 236 255
221 236 255
221 236 255
221 236 255
221 236 255
221 236 255
221 236 255
221 236 255
221 236 255
221 236 255
221 236 255
221 236 255
221 236 255
221 236 255
221 236 255
221 236 255
221 236 255
221 236 255
221 236 255
221 236 255
221 236 255
221 236 255
221 236 255
221 236 255
221 236 255
221 236 255
221 236 255
221 236 255
221 236 255
221 236 255
221 236 255
221 236 255
221 236 255
221 236 255
221 236 255
221 236 255
221 236 255
221 236 255
221 236 255
221 236 255
221 236 255
221 236 255
221 236 255
221 236 255
221 236 255
221 236 255
221 236 255
221 236 255
221 236 255
221 236 255
221 236 255
221 236 255
221 236 255
221 236 255
221 236 255
221 236 255
221 236 255
221 236 255
221 236 255
221 236 255
221 236 255
221 236 255
221 236 255
221 236 255
221 236 255
221 236 255
221 236 255
221 236 255
221 236 255
221 236 255
221 236 255
221 236 255
221 236 255
221 236 255
221 236 255
221 236 255
221 236 255
221 236 255
221 236 255
221 236 255
221 236 255
221 236 255
221 236 255
221 236 255
221 236 255
221 236 255
221 236 255
221 236 255
221 236 255
221 236 255
221 236 255
221 236 255
69 102 149
61 96 143
62 96 141
61 96 136
61 96 134
62 97 143
61 96 135
61 96 140
62 96 142
62 97 145
60 94 130
62 97 150
61 95 133
59 94 129
60 94 135
60 95 140
59 93 125
61 96 139
60 95 139
61 95 144
60 95 137
61 95 133
60 95 131
60 94 131
60 95 135
60 95 140
60 95 137
60 94 130
60 95 135
61 96 149
59 94 130
60 95 135
60 95 137
60 95 142
61 96 139
60 95 134
59 94 131
59 93 131
59 93 131
60 95 139
60 94 130
59 94 126
60 95 140
60 95 137
60 95 136
60 95 140
59 94 135
60 95 136
61 96 136
60 94 133
61 96 137
59 94 135
59 94 129
60 94 129
60 94 134
60 95 136
60 94 129
59 94 134
60 94 131
61 96 139
61 95 135
61 95 135
61 96 142
61 96 148
60 94 137
60 94 136
61 97 145
60 95 135
60 95 130
60 94 133
60 95 136
59 93 130
61 95 140
60 95 139
61 96 134
59 94 141
60 94 133
60 95 134
60 94 130
59 93 130
59 94 131
61 96 139
60 95 130
61 97 147
60 94 129
59 93 131
60 94 136
60 94 134
61 95 139
59 93 135
59 93 135
59 94 128
59 93 134
61 96 140
60 94 129
59 93 140
61 95 141
61 96 143
60 94 138
61 96 140
60 94 136
62 97 148
60 95 133
60 95 142
60 94 134
60 95 144
60 94 137
59 93 128
60 93 137
59 94 137
60 94 134
58 92 124
60 94 138
59 92 133
59 93 134
59 92 127
60 94 137
59 93 132
59 92 130
58 92 134
59 92 132
60 94 135
57 89 124
58 91 132
61 95 136
56 88 114
56 87 109
56 87 125
54 83 121
54 84 125
37 44 31
26 34 20
35 43 28
55 61 41
46 52 39
54 61 41
59 65 40
60 66 44
79 82 52
76 79 49
74 78 48
68 73 48
77 81 53
80 83 43
99 101 54
109 109 65
97 100 65
98 100 63
102 104 59
105 106 62
99 102 64
111 111 65
123 123 73
122 120 71
127 126 63
128 126 70
128 126 67
135 133 77
129 127 71
126 125 69
133 132 77
129 128 71
149 143 82
137 135 73
140 138 76
148 144 79
146 143 81
141 138 77
149 145 79
147 143 79
146 143 75
147 143 80
153 149 87
149 145 75
150 147 80
158 153 82
157 152 82
163 157 84
161 157 85
154 150 79
160 153 83
161 156 88
159 154 80
162 155 88
160 155 84
161 156 82
162 157 84
161 155 85
164 158 83
164 158 78
166 159 87
161 156 87
164 158 88
167 160 84
163 157 80
165 159 81
167 160 87
161 157 84
168 162 86
166 160 84
169 162 89
164 159 81
166 160 88
167 162 82
166 160 84
166 161 84
174 166 89
169 163 84
168 162 84
167 161 85
163 157 80
164 158 82
169 163 82
166 160 82
169 162 83
173 166 95
166 159 80
171 164 87
161 154 80
166 159 81
167 160 84
161 154 82
161 156 76
162 157 83
163 157 83
167 160 84
166 160 81
159 154 75
164 158 86
163 157 79
170 164 90
165 158 84
165 159 87
166 160 87
165 158 80
157 151 80
170 163 87
161 154 77
155 150 75
164 158 81
158 151 77
167 160 82
166 159 85
161 155 75
168 161 89
162 155 80
163 157 85
156 150 76
162 155 84
167 161 82
161 156 84
156 151 73
163 157 80
161 155 84
166 159 87
164 156 85
159 152 77
155 149 80
158 151 75
160 153 80
158 152 74
153 147 80
157 151 79
153 148 75
154 148 76
221 235 255
221 235 255
221 235 255
221 235 255
221 235 255
221 235 255
221 235 255
221 235 255
221 235 255
221 235 255
221 235 255
221 235 255
221 235 255
221 235 255
221 235 255
221 235 255
221 235 255
221 235 255
221 235 255
221 235 255
221 235 255
221 235 255
221 235 255
221 235 255
221 235 255
221 235 255
221 235 255
221 235 255
221 235 255
221 235 255
221 235 255
221 235 255
221 235 255
221 235 255
221 235 255
221 235 255
221 235 255
221 235 255
221 235 255
221 235 255
221 235 255
221 235 255
221 235 255
221 235 255
221 235 255
221 235 255
221 235 255
221 235 255
221 235 255
221 235 255
221 235 255
221 235 255
221 235 255
221 235 255
221 235 255
221 235 255
221 235 255
221 235 255
221 235 255
221 235 255
221 235 255
221 235 255
221 235 255
221 235 255
221 235 255
221 235 255
221 235 255
221 235 255
221 235 255
221 235 255
221 235 255
221 235 255
221 235 255
221 235 255
221 235 255
221 235 255
221 235 255
221 235 255
221 235 255
221 235 255
221 235 255
221 235 255
221 235 255
221 235 255
221 235 255
221 235 255
221 235 255
221 235 255
221 235 255
221 235 255
221 235 255
221 235 255
221 235 255
221 235 255
221 235 255
221 235 255
221 235 255
221 235 255
221 235 255
221 235 255
221 235 255
221 235 255
221 235 255
221 235 255
221 235 255
221 235 255
221 235 255
221 235 255
221 235 255
221 235 255
221 235 255
221 235 255
221 235 255
221 235 255
221 235 255
221 235 255
221 235 255
221 235 255
221 235 255
221 235 255
221 235 255
221 235 255
221 235 255
221 235 255
221 235 255
221 235 255
221 235 255
221 235 255
221 235 255
221 235 255
221 235 255
221 235 255
221 235 255
221 235 255
221 235 255
65 98 143
61 97 147
61 96 141
61 96 142
60 95 126
61 96 134
60 96 137
61 95 134
62 97 144
62 96 141
60 94 131
60 95 130
60 94 136
60 94 135
61 96 141
61 96 141
60 95 136
61 96 135
61 95 144
60 95 133
59 94 128
61 95 142
60 94 126
60 95 135
59 94 131
59 94 129
59 93 130
59 93 124
60 94 126
60 94 137
60 94 139
60 94 136
61 96 135
60 95 128
60 95 136
60 94 131
59 94 133
59 93 131
60 94 129
60 94 126
60 94 131
60 95 135
60 95 133
61 96 135
61 96 136
60 95 144
61 95 140
60 94 134
60 95 129
60 95 141
60 94 134
58 92 129
61 96 137
60 94 131
60 95 136
62 97 142
60 94 128
61 96 137
60 95 134
61 96 141
60 94 130
60 94 131
60 95 136
59 93 131
60 94 126
59 93 129
61 95 135
58 92 118
59 93 134
60 94 134
60 95 129
59 93 133
60 95 136
60 95 136
59 94 131
59 93 129
61 96 147
59 94 133
59 94 126
60 95 137
59 93 134
59 93 134
59 93 120
60 95 148
61 96 141
61 96 148
60 94 135
59 93 131
60 94 139
61 95 135
59 93 140
59 94 139
60 95 137
60 95 137
58 91 117
60 94 135
58 92 133
60 95 140
60 94 134
61 95 138
60 94 133
60 94 135
60 94 135
61 95 140
58 92 121
60 94 132
60 94 140
58 92 136
60 94 130
58 91 120
60 94 128
59 93 134
59 93 130
59 93 134
59 93 126
59 93 130
58 90 133
58 92 128
58 92 130
60 93 130
59 92 131
59 92 132
57 87 120
59 94 138
55 87 114
57 89 120
58 90 127
58 91 131
56 87 123
50 77 100
41 46 22
34 42 31
42 48 31
41 49 32
47 53 29
56 61 36
65 71 43
74 78 44
70 75 47
62 67 39
73 78 46
77 81 54
82 86 50
97 99 55
94 96 60
98 99 59
110 109 61
97 100 60
105 106 63
103 104 57
112 113 64
113 113 64
118 118 68
131 129 74
124 123 66
121 121 66
131 131 77
132 130 71
125 124 70
124 123 65
133 131 74
128 126 68
130 128 69
134 133 76
139 135 75
142 139 79
138 135 74
146 143 79
144 142 77
148 145 75
146 142 78
154 150 78
149 146 74
154 150 76
149 146 80
152 148 78
153 149 78
159 154 74
149 146 75
160 155 80
162 156 80
157 152 78
160 155 81
158 152 80
162 155 82
158 153 82
160 154 80
162 156 84
162 158 86
159 155 76
166 159 85
162 156 81
164 159 84
167 160 86
164 158 79
161 155 80
166 160 84
162 157 80
161 157 82
168 161 86
167 162 80
162 156 80
160 155 76
165 159 79
170 163 89
165 160 81
169 163 89
168 161 82
164 157 78
167 161 85
165 159 84
166 161 83
168 161 80
167 160 86
170 164 87
164 158 75
169 161 84
166 160 84
165 158 82
170 163 86
170 164 86
160 153 76
161 154 80
167 161 84
168 162 85
166 160 82
162 156 76
155 150 72
165 159 78
168 161 82
167 160 85
166 159 84
164 158 83
158 153 72
164 158 80
163 156 80
160 154 76
157 151 76
162 156 81
169 163 89
163 156 80
162 155 81
163 157 81
161 154 81
163 157 77
159 153 76
165 158 86
164 158 80
159 154 73
162 155 84
154 148 75
152 146 75
166 159 84
157 150 79
159 153 80
162 155 85
153 147 74
159 155 78
160 154 83
158 152 80
156 150 77
146 141 67
158 150 80
163 156 84
156 150 74
221 235 255
221 235 255
221 235 255
221 235 255
221 235 255
221 235 255
221 235 255
221 235 255
221 235 255
221 235 255
221 235 255
221 235 255
221 235 255
221 235 255
221 235 255
221 235 255
221 235 255
221 235 255
221 235 255
221 235 255
221 235 255
221 235 255
221 235 255
221 235 255
221 235 255
221 235 255
221 235 255
221 235 255
221 235 255
221 235 255
221 235 255
221 235 255
221 235 255
221 235 255
221 235 255
221 235 255
221 235 255
221 235 255
221 235 255
221 235 255
221 235 255
221 235 255
221 235 255
221 235 255
221 235 255
221 235 255
221 235 255
221 235 255
221 235 255
221 235 255
221 235 255
221 235 255
221 235 255
221 235 255
221 235 255
221 235 255
221 235 255
221 235 255
221 235 255
221 235 255
221 235 255
221 235 255
221 235 255
221 235 255
221 235 255
221 235 255
221 235 255
221 235 255
221 235 255
221 235 255
221 235 255
221 235 255
221 235 255
221 235 255
221 235 255
221 235 255
221 235 255
221 235 255
221 235 255
221 235 255
221 235 255
221 235 255
221 235 255
221 235 255
221 235 255
221 235 255
221 235 255
221 235 255
221 235 255
221 235 255
221 235 255
221 235 255
221 235 255
221 235 255
221 235 255
221 235 255
221 235 255
221 235 255
221 235 255
221 235 255
221 235 255
221 235 255
221 235 255
221 235 255
221 235 255
221 235 255
221 235 255
221 235 255
221 235 255
221 235 255
221 235 255
221 235 255
221 235 255
221 235 255
221 235 255
221 235 255
221 235 255
221 235 255
221 235 255
221 235 255
221 235 255
221 235 255
221 235 255
221 235 255
221 235 255
221 235 255
221 235 255
221 235 255
221 235 255
221 235 255
221 235 255
220 235 255
220 235 255
220 235 255
220 235 255
81 110 156
61 96 139
61 95 137
62 97 142
63 98 147
62 96 136
60 95 133
61 95 137
60 94 129
59 93 124
61 96 141
59 93 124
61 95 133
60 95 131
62 97 143
62 97 142
60 94 135
61 95 136
61 96 140
59 94 130
58 92 115
60 95 139
61 96 142
61 96 134
61 96 140
61 96 143
60 95 134
61 95 135
60 95 136
60 95 136
60 94 125
60 95 134
58 92 118
60 94 134
61 96 141
60 94 135
58 92 121
61 96 134
60 95 143
60 94 133
59 94 133
61 96 141
60 94 137
61 96 144
60 94 126
60 95 135
61 96 140
60 94 130
60 94 129
59 94 129
61 95 135
59 93 125
62 96 145
60 95 134
60 95 136
59 93 124
59 94 130
60 94 140
59 93 129
60 95 133
59 93 130
60 95 141
61 96 141
60 94 134
60 94 134
59 93 134
61 96 143
59 94 129
58 92 117
61 96 141
60 96 135
60 94 130
60 95 139
59 93 129
61 95 135
61 96 137
59 94 133
61 96 144
59 94 128
60 95 130
60 94 136
60 95 134
59 93 126
61 96 136
60 94 129
59 92 130
59 94 136
60 95 135
61 95 143
60 95 140
60 94 135
60 94 138
60 95 139
60 95 140
59 93 128
59 94 130
59 93 133
60 95 133
61 95 140
61 96 142
60 94 135
60 95 125
60 94 136
59 94 136
60 94 124
60 93 136
59 92 133
58 92 129
58 91 129
60 95 134
59 92 127
58 92 124
60 94 133
60 93 139
59 92 136
59 91 127
59 93 134
59 91 129
60 93 142
59 93 134
58 91 130
59 92 131
58 91 126
57 89 127
58 91 132
58 91 131
56 87 121
55 86 110
56 85 122
52 81 103
35 41 24
35 41 29
45 51 30
49 56 38
50 56 33
56 63 43
68 73 45
52 59 34
59 65 43
71 75 43
79 82 48
69 73 40
87 90 54
80 84 50
102 103 61
98 100 55
107 108 57
101 102 64
112 112 63
96 99 51
104 106 56
109 110 61
115 115 62
124 123 71
127 125 68
123 122 69
136 132 70
135 133 72
124 123 69
135 133 68
132 130 74
134 132 76
136 134 72
142 140 72
137 134 74
144 140 68
134 132 74
142 139 74
137 135 73
157 152 80
150 146 80
150 146 77
154 150 77
147 144 73
154 149 74
151 146 72
153 149 79
147 144 72
156 151 83
157 152 79
156 151 78
159 153 78
162 156 82
154 150 77
160 155 78
158 153 79
167 161 86
165 160 86
167 161 91
162 155 81
161 155 85
171 164 93
166 159 86
161 155 81
160 154 77
164 157 78
162 156 80
163 158 84
166 160 84
162 156 78
167 160 78
168 161 78
165 160 83
168 161 82
168 161 85
162 155 78
161 156 78
167 160 80
162 156 79
169 162 88
161 156 78
164 158 81
164 158 83
167 159 78
168 161 80
168 162 84
172 164 90
164 158 79
168 161 82
169 161 82
160 154 75
167 160 81
165 159 81
164 158 77
161 156 75
164 159 80
165 158 83
165 159 80
167 161 85
162 156 77
168 161 85
161 155 80
160 155 76
160 153 75
164 158 79
165 158 90
163 157 81
160 153 78
161 156 75
163 157 79
163 156 78
163 155 82
155 149 77
158 151 79
160 154 80
166 158 83
166 159 84
164 157 83
162 156 75
158 152 77
161 155 80
154 149 76
160 154 80
160 154 80
150 144 78
158 152 77
154 147 76
159 152 75
151 145 72
159 152 83
154 147 76
151 147 70
152 147 73
156 149 77
155 149 75
221 235 255
221 235 255
221 235 255
221 235 255
221 235 255
221 235 255
221 235 255
221 235 255
221 235 255
221 235 255
221 235 255
221 235 255
221 235 255
221 235 255
221 235 255
221 235 255
221 235 255
221 235 255
221 235 255
221 235 255
221 235 255
221 235 255
221 235 255
221 235 255
221 235 255
221 235 255
221 235 255
221 235 255
221 235 255
221 235 255
221 235 255
221 235 255
221 235 255
221 235 255
221 235 255
221 235 255
221 235 255
221 235 255
221 235 255
221 235 255
221 235 255
221 235 255
221 235 255
221 235 255
221 235 255
221 235 255
221 235 255
221 235 255
221 235 255
221 235 255
221 235 255
221 235 255
221 235 255
221 235 255
221 235 255
221 235 255
221 235 255
221 235 255
221 235 255
221 235 255
221 235 255
221 235 255
221 235 255
221 235 255
221 235 255
221 235 255
221 235 255
221 235 255
221 235 255
221 235 255
221 235 255
221 235 255
221 235 255
221 235 255
221 235 255
221 235 255
221 235 255
221 235 255
221 235 255
221 235 255
221 235 255
221 235 255
221 235 255
221 235 255
221 235 255
221 235 255
221 235 255
221 235 255
221 235 255
221 235 255
221 235 255
221 235 255
221 235 255
221 235 255
221 235 255
221 235 255
221 235 255
221 235 255
221 235 255
221 235 255
221 235 255
221 235 255
221 235 255
221 235 255
221 235 255
221 235 255
220 235 255
220 235 255
220 235 255
220 235 255
220 235 255
220 235 255
220 235 255
220 235 255
220 235 255
220 235 255
220 235 255
220 235 255
220 235 255
220 235 255
220 235 255
220 235 255
220 235 255
220 235 255
220 235 255
220 235 255
220 235 255
220 235 255
220 235 255
220 235 255
220 235 255
220 235 255
220 235 255
220 235 255
220 235 255
88 116 152
61 95 141
62 97 145
60 94 129
62 97 143
61 96 136
62 98 149
60 95 130
61 96 140
62 97 150
60 95 140
60 94 130
60 95 139
60 95 130
62 97 147
60 95 139
60 94 136
61 96 142
60 95 134
61 96 135
61 95 139
61 96 139
60 94 135
59 94 128
59 94 136
60 94 128
59 94 128
60 95 136
60 94 131
60 94 141
60 94 135
61 96 143
61 96 145
60 95 136
59 94 124
60 95 139
60 95 135
60 95 135
60 94 131
60 94 129
60 94 130
60 95 134
59 94 126
59 93 128
60 95 137
60 96 134
60 94 134
60 95 135
61 96 134
61 96 140
60 95 144
59 93 135
60 95 130
59 94 133
61 96 141
60 94 135
60 95 133
61 96 137
61 96 141
58 93 128
60 95 137
61 96 137
59 94 128
62 97 151
59 94 124
59 94 133
60 94 133
60 95 140
61 96 136
60 94 135
59 93 129
60 94 133
60 95 133
61 96 137
61 95 136
59 93 131
60 94 133
60 94 135
60 95 139
60 95 139
60 94 134
60 95 137
61 95 135
59 94 133
60 95 130
60 93 130
60 94 137
61 96 136
59 93 131
59 94 136
58 90 122
59 94 125
60 95 141
59 93 129
59 93 135
60 94 129
59 93 138
61 95 139
58 92 123
60 94 135
60 95 143
60 94 139
59 93 134
58 92 128
59 92 127
59 93 133
61 97 154
59 92 135
58 92 122
59 94 122
60 94 139
60 95 142
58 92 120
59 93 133
59 92 124
59 92 135
59 92 129
58 91 123
59 93 135
59 92 138
59 93 133
58 91 134
58 90 123
56 87 119
57 89 124
59 92 129
57 88 117
55 86 117
57 88 126
51 78 108
39 44 25
32 40 28
32 41 30
38 45 23
32 42 28
53 59 32
63 68 40
55 61 35
57 64 38
57 63 41
71 75 37
86 90 54
76 82 44
84 88 49
82 85 49
89 92 52
107 107 60
110 110 61
108 108 61
105 107 59
121 120 68
108 109 56
105 107 61
130 128 71
122 120 64
123 122 64
117 117 58
130 128 68
124 123 59
123 121 66
130 128 71
139 136 70
136 133 76
138 135 70
138 135 74
138 135 71
133 132 67
147 143 82
147 142 77
145 141 78
145 142 77
142 139 69
141 138 75
144 140 70
147 143 70
154 150 86
158 152 82
153 149 80
154 149 73
162 156 79
159 153 77
147 144 69
151 146 74
156 151 80
166 160 83
158 153 80
166 160 82
162 156 78
162 156 80
166 159 86
154 150 73
165 159 83
165 158 83
159 155 82
166 160 90
161 154 78
165 159 81
167 160 80
166 160 84
162 156 73
167 161 84
170 163 81
164 158 81
168 161 86
167 161 81
159 155 75
163 157 83
163 158 78
162 156 75
170 163 85
167 160 82
166 159 80
167 160 81
166 160 81
170 163 83
167 161 79
166 160 83
167 161 84
161 155 76
167 159 80
165 159 77
165 159 81
164 157 77
164 158 83
170 162 89
163 156 77
165 159 82
160 154 68
168 161 89
166 160 83
162 155 78
168 161 83
158 152 80
164 157 77
161 155 74
153 148 71
165 158 84
158 152 72
157 152 72
160 154 75
169 162 83
162 156 79
167 161 85
161 155 76
157 151 77
156 151 67
163 157 84
160 154 81
159 152 78
163 155 77
163 156 86
156 151 75
157 151 72
155 150 73
155 149 72
157 151 75
151 145 73
163 156 84
158 152 80
150 144 68
160 155 76
158 153 74
154 148 71
149 142 75
155 150 73
220 235 255
220 235 255
220 235 255
220 235 255
220 235 255
220 235 255
220 235 255
220 235 255
220 235 255
220 235 255
220 235 255
220 235 255
220 235 255
220 235 255
220 235 255
220 235 255
220 235 255
220 235 255
220 235 255
220 235 255
220 235 255
220 235 255
220 235 255
220 235 255
220 235 255
220 235 255
220 235 255
220 235 255
220 235 255
220 235 255
220 235 255
220 235 255
220 235 255
220 235 255
220 235 255
220 235 255
220 235 255
220 235 255
220 235 255
220 235 255
220 235 255
220 235 255
220 235 255
220 235 255
220 235 255
220 235 255
220 235 255
220 235 255
220 235 255
220 235 255
220 235 255
220 235 255
220 235 255
220 235 255
220 235 255
220 235 255
220 235 255
220 235 255
220 235 255
220 235 255
220 235 255
220 235 255
220 235 255
220 235 255
220 235 255
220 235 255
220 235 255
220 235 255
220 235 255
220 235 255
220 235 255
220 235 255
220 235 255
220 235 255
220 235 255
220 235 255
220 235 255
220 235 255
220 235 255
220 235 255
220 235 255
220 235 255
220 235 255
220 235 255
220 235 255
220 235 255
220 235 255
220 235 255
220 235 255
220 235 255
220 235 255
220 235 255
220 235 255
220 235 255
220 235 255
220 235 255
220 235 255
220 235 255
220 235 255
220 235 255
220 235 255
220 235 255
220 235 255
220 235 255
220 235 255
220 235 255
220 235 255
220 235 255
220 235 255
220 235 255
220 235 255
220 235 255
220 235 255
220 235 255
220 235 255
220 235 255
220 235 255
220 235 255
220 235 255
220 235 255
220 235 255
220 235 255
220 235 255
220 235 255
220 235 255
220 235 255
220 235 255
220 235 255
220 235 255
220 235 255
220 235 255
220 235 255
220 235 255
220 235 255
220 235 255
113 137 175
63 98 147
62 97 143
59 94 128
60 94 129
60 95 137
60 95 129
59 94 125
59 94 121
60 95 139
61 95 133
61 96 136
60 94 128
61 96 139
61 96 140
60 95 134
61 96 136
60 95 134
60 95 135
60 95 130
60 94 129
59 94 133
61 96 140
59 93 118
61 96 137
60 95 137
60 94 135
61 96 139
59 94 133
60 95 131
60 95 136
59 94 133
59 93 130
62 96 143
59 93 128
61 96 141
60 95 131
60 95 136
59 95 133
59 94 126
60 95 142
59 93 130
60 95 130
61 96 139
60 94 135
59 93 121
60 94 134
59 94 129
60 94 133
60 94 137
60 94 136
60 95 136
60 94 129
60 95 135
59 94 135
61 96 137
60 95 136
60 94 135
59 93 118
60 95 134
61 96 141
59 93 122
59 93 133
61 96 140
60 94 134
58 92 120
61 95 140
60 94 130
59 93 130
58 92 118
60 95 139
60 95 140
58 92 122
62 97 140
59 94 122
60 95 130
59 93 121
61 95 135
60 94 126
60 94 134
60 95 135
60 95 133
59 93 135
59 94 131
59 93 129
60 94 135
61 96 141
60 95 133
60 95 131
59 94 136
59 94 125
60 95 136
60 94 134
59 93 125
60 94 134
60 94 129
59 94 125
59 92 130
59 93 128
61 95 129
60 95 139
59 93 120
58 92 131
58 91 120
60 94 142
59 93 130
60 94 139
59 93 133
58 90 121
58 92 121
60 94 128
59 93 134
59 92 117
60 94 140
59 93 127
59 92 136
59 92 128
59 93 130
58 90 126
58 90 130
58 91 123
58 90 126
60 93 139
56 88 116
58 92 127
57 89 132
57 89 119
57 88 120
54 84 109
50 75 102
33 39 24
43 49 32
43 49 26
43 51 31
51 56 29
64 68 39
64 68 37
63 67 34
73 75 35
70 74 44
67 71 37
80 85 49
95 97 60
93 95 47
85 86 49
105 105 51
97 98 55
94 97 53
92 94 49
94 96 58
109 109 59
116 115 57
114 113 65
118 118 66
120 119 64
133 131 69
128 128 71
120 120 64
123 123 60
125 124 65
128 126 66
126 125 61
139 135 66
134 130 68
143 140 76
142 138 77
136 134 74
140 137 72
131 130 63
141 138 71
138 135 68
148 144 80
148 145 69
152 148 75
155 150 76
151 147 69
142 139 67
153 149 80
153 149 73
150 146 71
160 154 80
156 152 76
157 152 72
158 153 82
154 150 76
156 151 78
163 157 87
156 151 77
161 155 80
163 158 78
163 157 83
165 159 86
163 158 81
162 156 80
167 160 84
168 161 86
157 152 72
160 156 75
167 160 80
165 159 76
162 156 72
168 162 81
163 157 75
169 161 89
170 164 82
165 159 75
161 156 75
165 158 75
163 156 79
167 160 84
168 161 84
164 159 81
165 160 80
166 160 80
163 157 78
165 159 78
167 160 79
162 156 71
172 165 87
162 155 76
169 162 82
164 159 80
168 161 83
166 160 82
165 158 84
164 157 77
163 157 78
162 156 73
164 157 73
167 160 84
164 158 80
164 157 80
165 158 82
163 156 78
163 156 83
164 157 76
162 156 79
160 153 81
156 149 77
162 156 81
162 156 78
166 158 85
161 155 73
157 151 72
156 151 75
155 149 70
158 152 75
157 151 74
161 154 80
164 157 84
159 153 75
163 156 83
151 146 67
157 150 81
163 157 76
149 144 75
150 145 73
154 148 75
158 152 74
152 147 72
153 147 72
158 152 74
151 144 76
159 153 77
150 145 69
220 235 255
220 235 255
220 235 255
220 235 255
220 235 255
220 235 255
220 235 255
220 235 255
220 235 255
220 235 255
220 235 255
220 235 255
220 235 255
220 235 255
220 235 255
220 235 255
220 235 255
220 235 255
220 235 255
220 235 255
220 235 255
220 235 255
220 235 255
220 235 255
220 235 255
220 235 255
220 235 255
220 235 255
220 235 255
220 235 255
220 235 255
220 235 255
220 235 255
220 235 255
220 235 255
220 235 255
220 235 255
220 235 255
220 235 255
220 235 255
220 235 255
220 235 255
220 235 255
220 235 255
220 235 255
220 235 255
220 235 255
220 235 255
220 235 255
220 235 255
220 235 255
220 235 255
220 235 255
220 235 255
220 235 255
220 235 255
220 235 255
220 235 255
220 235 255
220 235 255
220 235 255
220 235 255
220 235 255
220 235 255
220 235 255
220 235 255
220 235 255
220 235 255
220 235 255
220 235 255
220 235 255
220 235 255
220 235 255
220 235 255
220 235 255
220 235 255
220 235 255
220 235 255
220 235 255
220 235 255
220 235 255
220 235 255
220 235 255
220 235 255
220 235 255
220 235 255
220 235 255
220 235 255
220 235 255
220 235 255
220 235 255
220 235 255
220 235 255
220 235 255
220 235 255
220 235 255
220 235 255
220 235 255
220 235 255
220 235 255
220 235 255
220 235 255
220 235 255
220 235 255
220 235 255
220 235 255
220 235 255
220 235 255
220 235 255
220 235 255
220 235 255
220 235 255
220 235 255
220 235 255
220 235 255
220 235 255
220 235 255
220 235 255
220 235 255
220 235 255
220 235 255
220 235 255
220 235 255
220 235 255
220 235 255
220 235 255
220 235 255
220 235 255
220 235 255
219 235 255
219 235 255
219 235 255
219 234 255
219 234 255
219 234 255
117 139 178
61 96 143
61 96 144
61 96 140
62 97 139
59 94 129
61 95 134
60 95 134
62 97 141
61 95 135
60 95 136
60 94 130
59 94 125
59 94 133
59 93 133
60 95 131
59 94 128
60 94 128
59 93 133
60 95 139
60 95 136
59 94 126
59 93 128
60 95 131
60 94 133
60 94 134
61 96 137
60 94 131
61 96 137
60 95 134
61 95 139
60 94 133
60 94 131
60 94 129
60 94 131
60 95 133
60 94 130
61 96 137
60 94 131
59 94 128
60 95 131
61 96 140
59 93 134
60 94 131
59 93 128
58 92 126
60 95 139
60 94 130
59 94 131
59 93 125
60 95 136
59 93 124
59 94 125
60 95 136
60 94 130
60 95 136
59 94 128
60 95 134
59 93 131
61 96 139
58 93 118
58 92 124
61 96 139
60 95 136
61 96 143
60 95 137
61 96 137
58 91 115
60 94 130
60 95 130
58 93 122
61 96 140
60 95 130
61 95 135
61 96 135
59 92 124
60 95 137
59 93 121
58 92 130
60 94 139
60 94 128
61 96 137
61 96 143
60 95 131
60 95 135
60 95 130
60 95 135
60 95 135
59 94 122
60 94 136
59 92 128
61 95 139
60 94 133
60 94 131
59 93 128
59 94 134
59 93 128
60 94 136
61 96 143
60 94 136
60 94 132
59 93 126
60 94 134
59 93 132
59 93 132
59 93 123
59 93 136
60 95 135
60 94 134
59 93 130
59 93 124
58 91 119
59 93 126
59 93 131
60 93 133
59 92 124
58 91 126
59 93 130
59 93 125
58 90 127
58 91 125
58 91 125
57 89 123
57 90 126
58 90 117
58 91 126
56 88 124
56 86 121
56 87 118
51 76 95
30 36 19
27 32 17
31 38 23
44 50 26
42 47 28
51 57 28
55 62 34
68 72 36
71 74 38
59 65 31
69 75 46
84 86 44
83 86 50
89 92 46
106 106 56
103 104 57
102 102 54
97 99 53
109 109 59
102 104 53
104 105 55
102 103 58
110 110 56
107 107 54
116 115 63
119 118 63
113 114 62
130 128 72
117 116 66
136 133 72
123 122 62
137 135 76
131 129 64
130 128 63
133 131 70
148 144 72
147 143 72
138 136 72
133 131 69
149 145 74
137 133 65
144 141 70
154 148 75
146 142 76
144 141 73
150 146 69
151 147 71
165 158 84
154 150 75
154 149 73
157 152 78
159 153 75
160 153 80
161 155 76
162 156 81
156 151 75
160 154 82
161 155 77
169 162 87
159 153 78
160 155 80
165 159 85
158 153 81
161 155 78
161 155 72
163 157 79
162 157 76
166 160 80
157 152 75
163 157 80
159 154 73
163 157 78
165 159 82
165 158 82
166 159 83
164 158 80
163 157 72
162 156 80
167 160 82
163 157 82
165 160 77
165 159 79
170 164 76
167 160 81
165 159 78
163 157 84
164 157 77
163 157 77
168 160 79
165 159 81
168 160 84
166 160 80
166 159 80
161 155 75
160 154 77
163 156 78
169 162 87
161 155 74
160 154 75
170 163 86
166 160 80
160 154 82
158 152 75
163 157 79
161 154 77
163 157 82
166 159 73
161 154 82
162 155 83
161 155 79
158 151 74
156 151 74
165 158 83
161 155 76
158 152 72
160 154 81
156 151 71
158 152 77
157 150 75
158 152 77
159 152 74
157 151 80
164 157 80
160 154 79
152 146 75
158 152 74
164 156 80
155 150 72
158 151 77
158 151 73
152 146 70
157 151 77
150 144 71
157 151 75
155 149 72
220 235 255
220 235 255
220 235 255
220 235 255
220 235 255
220 235 255
220 235 255
220 235 255
220 235 255
220 235 255
220 235 255
220 235 255
220 235 255
220 235 255
220 235 255
220 235 255
220 235 255
220 235 255
220 235 255
220 235 255
220 235 255
220 235 255
220 235 255
220 235 255
220 235 255
220 235 255
220 235 255
220 235 255
220 235 255
220 235 255
220 235 255
220 235 255
220 235 255
220 235 255
220 235 255
220 235 255
220 235 255
220 235 255
220 235 255
220 235 255
220 235 255
220 235 255
220 235 255
220 235 255
220 235 255
220 235 255
220 235 255
220 235 255
220 235 255
220 235 255
220 235 255
220 235 255
220 235 255
220 235 255
220 235 255
220 235 255
220 235 255
220 235 255
220 235 255
220 235 255
220 235 255
220 235 255
220 235 255
220 235 255
220 235 255
220 235 255
220 235 255
220 235 255
220 235 255
220 235 255
220 235 255
220 235 255
220 235 255
220 235 255
220 235 255
220 235 255
220 235 255
220 235 255
220 235 255
220 235 255
220 235 255
220 235 255
220 235 255
220 235 255
220 235 255
220 235 255
220 235 255
220 235 255
220 235 255
220 235 255
220 235 255
220 235 255
220 235 255
220 235 255
220 235 255
220 235 255
220 235 255
220 235 255
220 235 255
220 235 255
220 235 255
220 235 255
220 235 255
220 235 255
220 235 255
220 235 255
220 235 255
220 235 255
220 235 255
220 235 255
220 235 255
220 235 255
220 235 255
220 235 255
220 235 255
220 235 255
220 235 255
220 235 255
220 235 255
220 235 255
219 235 255
219 235 255
219 235 255
219 235 255
219 234 255
219 234 255
219 234 255
219 234 255
219 234 255
219 234 255
219 234 255
219 234 255
219 234 255
219 234 255
219 234 255
147 166 198
62 97 141
62 97 142
61 95 145
60 95 129
61 96 140
60 94 129
62 97 144
60 95 133
60 94 130
59 94 134
60 95 136
61 96 136
60 95 134
60 94 133
61 96 144
60 95 129
60 95 133
61 96 141
60 95 144
59 93 129
61 96 140
61 96 136
62 97 139
59 94 136
60 94 135
61 96 135
59 94 133
57 91 125
60 95 135
61 96 135
59 94 124
60 95 142
59 93 120
60 94 135
61 96 140
61 96 139
60 94 122
59 94 136
60 94 126
60 95 140
60 95 135
60 95 133
60 95 139
58 92 131
60 95 137
59 93 131
59 93 134
58 92 121
58 92 129
61 95 141
61 96 141
60 95 128
60 94 128
59 94 126
59 93 129
60 95 137
59 94 126
59 93 126
60 94 141
60 95 140
60 95 136
60 95 141
59 93 139
60 94 134
59 93 135
61 96 137
60 95 133
58 93 117
60 94 137
58 93 124
60 94 134
60 95 134
61 96 144
59 94 126
61 96 136
59 93 129
61 95 137
61 95 141
60 95 137
60 94 131
59 94 126
59 93 130
61 95 136
60 95 129
61 95 137
59 93 130
59 94 134
59 94 131
59 92 130
58 92 125
60 94 135
60 94 129
59 94 125
60 94 130
59 93 128
60 95 141
60 94 134
59 94 131
60 94 130
59 93 126
59 93 130
60 95 131
57 89 120
61 96 140
58 92 125
60 94 134
59 92 129
59 92 122
58 91 123
58 92 130
60 94 129
59 92 124
59 93 130
58 91 126
56 90 123
58 92 125
59 93 134
60 94 136
58 91 121
56 88 125
57 90 135
58 90 122
57 90 119
56 87 116
56 87 115
54 85 119
56 87 126
54 85 108
50 74 99
35 40 25
44 49 20
54 59 31
42 48 20
42 52 34
55 59 25
51 59 35
67 71 38
57 62 29
70 74 35
77 80 46
84 87 43
88 91 49
92 94 51
81 84 48
80 85 50
95 97 47
87 90 46
104 104 54
117 117 61
103 105 51
98 99 50
117 117 65
113 112 60
119 117 62
132 130 76
125 123 57
126 123 63
126 123 60
130 128 66
124 122 64
129 126 67
133 130 66
131 129 68
135 133 69
139 137 73
137 134 72
136 132 68
137 134 70
145 141 72
156 151 78
148 144 72
150 146 80
149 142 74
149 146 73
148 143 68
151 147 76
152 148 71
153 148 81
157 152 77
155 150 72
149 145 73
145 141 70
161 156 81
162 157 82
158 154 72
161 155 78
156 152 77
160 155 83
163 156 78
165 158 82
160 155 74
163 157 84
163 157 79
159 154 75
165 158 75
161 155 75
158 152 80
165 157 78
163 156 80
164 157 82
165 159 80
166 159 84
166 159 78
166 159 78
163 157 76
170 163 86
164 158 79
166 159 78
163 156 80
166 160 78
166 160 78
162 155 78
164 158 75
160 155 71
162 156 76
166 160 77
161 154 72
160 154 75
162 155 80
165 158 76
165 158 80
162 156 81
162 157 80
165 158 77
162 156 77
164 158 72
161 156 77
163 157 80
166 160 75
164 157 80
162 156 75
159 153 74
163 157 76
163 157 76
165 158 83
159 152 78
169 162 90
164 158 83
157 152 74
155 149 74
158 153 75
155 148 75
157 150 78
167 161 84
161 154 80
154 149 73
162 156 84
157 152 75
153 148 74
155 148 79
158 151 75
160 154 75
158 152 80
156 150 75
159 153 80
155 149 69
154 149 70
156 150 71
163 156 87
153 147 71
156 151 71
160 154 75
163 157 82
157 152 72
220 235 255
220 235 255
220 235 255
220 235 255
220 235 255
220 235 255
220 235 255
220 235 255
220 235 255
220 235 255
220 235 255
220 235 255
220 235 255
220 235 255
220 235 255
220 235 255
220 235 255
220 235 255
220 235 255
220 235 255
220 235 255
220 235 255
220 235 255
220 235 255
220 235 255
220 235 255
220 235 255
220 235 255
220 235 255
220 235 255
220 235 255
220 235 255
220 235 255
220 235 255
220 235 255
220 235 255
220 235 255
220 235 255
220 235 255
220 235 255
220 235 255
220 235 255
220 235 255
220 235 255
220 235 255
220 235 255
220 235 255
220 235 255
220 235 255
220 235 255
220 235 255
220 235 255
220 235 255
220 235 255
220 235 255
220 235 255
220 235 255
220 235 255
220 235 255
220 235 255
220 235 255
220 235 255
220 235 255
220 235 255
220 235 255
220 235 255
220 235 255
220 235 255
220 235 255
220 235 255
220 235 255
220 235 255
220 235 255
220 235 255
220 235 255
220 235 255
220 235 255
220 235 255
220 235 255
220 235 255
220 235 255
220 235 255
220 235 255
220 235 255
220 235 255
220 235 255
220 235 255
220 235 255
220 235 255
220 235 255
220 235 255
220 235 255
220 235 255
220 235 255
220 235 255
220 235 255
220 235 255
220 235 255
220 235 255
220 235 255
220 235 255
220 235 255
220 235 255
220 235 255
220 235 255
220 235 255
220 235 255
220 235 255
219 235 255
219 235 255
219 235 255
219 235 255
219 235 255
219 235 255
219 234 255
219 234 255
219 234 255
219 234 255
219 234 255
219 234 255
219 234 255
219 234 255
219 234 255
219 234 255
219 234 255
219 234 255
219 234 255
219 234 255
219 234 255
219 234 255
219 234 255
219 234 255
219 234 255
219 234 255
218 234 255
153 173 203
62 97 140
62 97 143
61 95 130
58 93 122
60 94 135
60 94 135
60 94 131
60 94 124
61 96 129
60 95 125
61 95 133
62 96 140
59 93 126
60 94 135
60 94 130
60 95 131
59 94 129
61 96 144
61 95 134
60 95 129
60 95 134
60 95 126
60 94 133
57 91 121
61 96 136
59 94 135
58 92 118
61 96 141
60 95 135
61 96 137
60 94 126
62 96 134
60 94 130
60 94 134
59 94 128
60 94 129
59 94 125
61 96 142
59 93 124
60 95 133
61 95 134
60 95 135
60 94 128
59 93 124
60 95 133
60 95 142
58 92 137
60 94 131
60 95 136
59 93 126
60 95 135
60 94 128
61 96 143
59 94 136
60 94 139
59 93 126
60 95 139
60 94 134
59 94 131
60 94 134
60 95 139
61 95 139
60 94 133
60 94 128
60 94 129
59 94 133
59 94 133
61 96 133
59 94 118
60 95 140
59 92 129
62 97 147
59 92 126
60 94 136
61 96 139
59 93 129
60 95 140
60 95 134
62 96 141
60 95 134
59 94 125
60 94 135
59 94 125
58 92 126
60 95 142
59 93 125
61 95 133
59 93 124
60 94 134
58 92 120
60 94 141
60 94 139
59 93 126
59 93 133
59 93 124
60 94 141
59 93 130
61 95 137
59 93 126
58 93 128
59 92 133
58 92 128
60 94 140
60 95 129
60 93 129
59 94 135
59 93 134
59 93 128
59 93 126
60 95 132
58 92 130
60 94 138
58 92 135
57 91 120
59 93 128
59 93 132
59 92 129
58 92 131
56 89 115
57 90 119
58 90 120
57 89 120
57 89 117
58 90 117
58 90 121
57 88 116
56 85 116
55 85 110
42 63 83
27 32 18
47 51 20
42 46 25
42 49 26
57 59 27
42 49 28
52 57 24
71 75 34
83 86 49
76 78 39
79 80 29
84 86 39
76 80 39
83 85 46
78 82 40
89 92 43
89 92 53
99 100 51
103 103 51
109 110 51
106 106 53
104 104 55
118 117 61
116 114 52
107 109 57
129 127 61
113 112 56
123 122 55
123 122 62
126 124 63
126 124 60
134 130 70
142 139 70
131 127 61
139 136 64
131 128 65
145 142 68
142 139 71
142 138 72
138 135 63
144 141 70
153 149 71
152 148 75
144 141 69
147 143 70
150 145 67
149 145 72
148 145 71
151 147 71
146 143 70
153 148 74
155 150 76
163 157 78
156 151 72
156 150 78
153 148 73
163 157 80
157 151 75
153 148 73
157 152 75
162 156 75
159 153 71
154 149 74
157 152 72
164 157 79
159 154 74
165 158 74
168 161 81
158 152 75
163 157 75
165 157 77
165 159 82
165 158 77
160 155 73
173 165 85
168 162 82
161 156 78
164 158 78
163 157 73
167 160 84
157 151 66
164 158 76
162 155 80
168 162 83
161 156 71
168 161 82
161 156 70
162 156 72
166 159 81
164 157 78
160 154 77
165 158 76
167 161 79
162 156 73
166 159 78
164 156 78
164 158 75
163 158 75
159 154 76
163 157 80
163 157 80
156 150 70
161 155 75
160 154 75
162 155 75
162 155 75
161 155 80
161 155 80
162 156 77
160 153 80
162 156 79
163 156 80
162 155 79
169 161 84
158 151 73
162 155 75
155 149 75
154 148 73
157 151 72
159 153 75
157 151 72
157 151 75
166 159 83
158 151 80
158 151 74
168 160 82
158 152 73
158 152 71
148 142 74
164 156 82
159 152 81
152 146 71
150 144 71
153 148 72
159 152 78
219 234 255
219 234 255
219 234 255
219 234 255
219 234 255
219 235 255
219 235 255
219 235 255
219 235 255
219 235 255
219 235 255
219 235 255
219 235 255
219 235 255
219 235 255
219 235 255
219 235 255
219 235 255
219 235 255
219 235 255
220 235 255
219 235 255
220 235 255
220 235 255
220 235 255
220 235 255
220 235 255
220 235 255
220 235 255
220 235 255
220 235 255
220 235 255
220 235 255
220 235 255
220 235 255
220 235 255
220 235 255
220 235 255
220 235 255
220 235 255
220 235 255
220 235 255
220 235 255
220 235 255
220 235 255
220 235 255
220 235 255
220 235 255
220 235 255
220 235 255
220 235 255
220 235 255
220 235 255
220 235 255
220 235 255
220 235 255
220 235 255
220 235 255
220 235 255
220 235 255
220 235 255
220 235 255
220 235 255
220 235 255
220 235 255
220 235 255
220 235 255
220 235 255
220 235 255
220 235 255
220 235 255
220 235 255
220 235 255
220 235 255
220 235 255
220 235 255
220 235 255
220 235 255
220 235 255
220 235 255
220 235 255
220 235 255
220 235 255
220 235 255
220 235 255
220 235 255
220 235 255
220 235 255
220 235 255
220 235 255
219 235 255
219 235 255
219 235 255
219 235 255
219 235 255
219 235 255
219 235 255
219 235 255
219 235 255
219 235 255
219 235 255
219 234 255
219 234 255
219 234 255
219 234 255
219 234 255
219 234 255
219 234 255
219 234 255
219 234 255
219 234 255
219 234 255
219 234 255
219 234 255
219 234 255
219 234 255
219 234 255
219 234 255
219 234 255
219 234 255
219 234 255
219 234 255
219 234 255
219 234 255
219 234 255
219 234 255
219 234 255
219 234 255
219 234 255
218 234 255
218 234 255
218 234 255
218 234 255
218 234 255
218 234 255
165 183 211
61 96 139
61 96 136
61 97 141
61 96 139
60 95 135
60 95 131
60 94 133
61 95 140
62 97 144
59 92 124
60 95 137
60 94 129
60 95 128
59 93 131
59 94 130
59 94 126
59 93 128
60 95 130
60 94 125
60 94 134
61 96 140
60 95 129
59 94 126
61 95 133
59 93 122
59 93 126
58 91 115
59 93 125
60 94 136
60 95 133
60 95 139
60 95 136
61 96 136
58 92 120
60 95 135
60 94 129
59 94 130
59 93 125
61 96 139
59 93 113
61 96 141
60 95 134
60 94 134
60 95 129
60 94 128
60 94 135
58 92 125
60 95 130
60 95 131
60 95 139
61 95 137
60 94 141
58 93 125
61 96 141
60 94 131
58 92 120
62 97 145
58 92 128
61 95 135
61 96 141
59 93 126
60 94 124
59 94 133
59 94 128
59 94 137
58 92 128
60 95 130
60 95 142
60 94 130
60 95 140
60 94 133
59 94 129
60 95 137
60 94 129
59 94 130
59 92 125
61 95 134
60 93 129
60 95 135
60 94 124
59 93 129
61 95 137
59 93 125
60 94 131
59 93 131
60 95 135
59 93 133
60 94 137
59 92 126
59 93 129
60 94 129
61 96 139
60 94 134
60 95 134
61 95 137
58 92 125
60 94 130
59 94 126
61 95 136
60 95 135
59 92 129
60 93 134
59 92 125
58 91 125
58 91 118
59 92 126
61 95 140
60 95 131
60 94 136
57 89 123
57 90 120
58 91 121
58 91 120
57 90 118
57 90 123
60 93 135
56 89 118
56 88 116
57 90 126
57 91 125
57 89 122
58 91 120
58 91 126
55 86 119
57 89 122
53 83 119
56 86 121
53 82 94
41 58 63
45 50 18
43 49 21
39 47 18
37 44 24
57 61 32
63 66 27
58 62 24
70 73 31
56 62 27
77 81 36
73 76 38
80 82 40
80 82 41
85 89 45
92 93 50
85 89 43
104 105 47
96 98 50
95 96 50
91 93 41
98 101 53
119 118 57
110 110 59
110 110 54
118 116 65
128 126 62
115 114 52
123 122 62
126 126 60
122 122 61
126 125 63
130 128 66
142 138 67
130 128 63
132 130 68
139 136 67
139 136 63
133 131 66
145 141 73
142 139 74
134 131 58
140 137 64
139 136 68
150 146 66
153 148 77
149 145 75
151 146 73
153 149 72
152 148 74
151 147 70
150 145 71
156 151 74
159 153 77
152 146 73
154 149 68
155 150 73
156 151 72
162 156 85
162 156 77
166 159 79
152 147 67
161 155 75
160 153 76
164 158 78
160 154 70
165 159 79
157 152 75
163 156 78
163 157 77
161 155 75
169 161 82
158 153 80
160 154 78
164 158 75
165 158 80
163 157 72
161 155 73
159 152 74
161 154 78
164 158 75
159 153 73
168 161 84
166 161 80
160 155 70
164 158 78
164 157 73
165 158 80
165 156 82
168 161 80
164 158 74
161 156 76
163 156 75
165 158 80
167 161 87
162 156 71
162 156 72
156 150 75
165 158 78
157 151 74
165 158 80
162 156 75
168 161 78
160 154 74
165 158 75
162 155 70
155 149 71
166 159 77
155 149 77
160 154 78
155 150 75
155 151 76
162 156 78
159 152 77
149 143 69
159 152 80
163 156 79
149 144 63
156 149 66
156 149 68
159 153 72
160 153 81
156 150 74
156 150 73
158 152 67
160 155 75
155 149 69
153 148 70
156 149 72
154 149 77
156 149 76
154 148 70
152 146 73
155 149 76
158 153 75
155 148 74
219 234 255
219 234 255
219 234 255
219 234 255
219 234 255
219 234 255
219 234 255
219 234 255
219 234 255
219 234 255
219 234 255
219 234 255
219 234 255
219 234 255
219 234 255
219 234 255
219 234 255
219 234 255
219 234 255
219 234 255
219 234 255
219 234 255
219 234 255
219 234 255
219 234 255
219 234 255
219 234 255
219 234 255
219 234 255
219 234 255
219 234 255
219 234 255
219 234 255
219 234 255
219 234 255
219 234 255
219 234 255
219 234 255
219 234 255
219 234 255
219 234 255
219 234 255
219 235 255
219 235 255
219 235 255
219 235 255
219 235 255
219 235 255
219 235 255
219 235 255
219 235 255
219 235 255
219 235 255
219 235 255
219 235 255
219 235 255
219 235 255
219 235 255
219 235 255
219 235 255
219 235 255
219 235 255
219 235 255
219 235 255
219 235 255
219 235 255
219 235 255
219 235 255
219 235 255
219 235 255
219 235 255
219 235 255
219 235 255
219 235 255
219 235 255
219 234 255
219 234 255
219 234 255
219 234 255
219 234 255
219 234 255
219 234 255
219 234 255
219 234 255
219 234 255
219 234 255
219 234 255
219 234 255
219 234 255
219 234 255
219 234 255
219 234 255
219 234 255
219 234 255
219 234 255
219 234 255
219 234 255
219 234 255
219 234 255
219 234 255
219 234 255
219 234 255
219 234 255
219 234 255
219 234 255
219 234 255
219 234 255
219 234 255
219 234 255
219 234 255
219 234 255
219 234 255
219 234 255
219 234 255
219 234 255
219 234 255
219 234 255
219 234 255
219 234 255
219 234 255
219 234 255
219 234 255
218 234 255
218 234 255
218 234 255
218 234 255
218 234 255
218 234 255
218 234 255
218 234 255
218 234 255
218 234 255
218 234 255
218 234 255
218 234 255
179 196 220
62 97 143
61 96 139
61 96 140
60 95 137
61 96 136
62 96 144
59 93 122
59 93 129
61 95 141
61 96 134
61 96 142
59 94 129
59 94 122
60 95 135
60 94 128
60 95 131
59 93 114
60 95 131
59 93 118
59 94 134
61 96 141
60 95 137
60 94 128
61 95 139
58 92 120
60 94 136
59 94 125
60 95 134
61 96 135
60 95 131
59 93 120
59 93 120
60 95 134
60 94 136
60 94 129
60 94 134
60 94 128
59 93 126
57 90 111
60 95 131
60 95 133
60 95 136
57 91 118
60 95 136
59 93 122
58 92 130
59 94 125
59 93 128
61 96 137
60 94 126
61 96 135
60 94 131
59 93 124
59 93 130
58 92 124
60 94 131
60 94 125
60 95 129
60 94 131
59 92 122
60 95 136
58 92 120
60 94 134
60 94 128
60 94 125
60 94 136
59 93 124
60 95 139
61 96 139
59 93 128
60 95 141
59 93 126
60 94 130
60 94 131
59 93 124
58 92 117
59 93 126
59 93 129
59 93 124
59 93 126
59 93 129
59 94 135
59 94 135
60 94 139
58 91 118
61 95 138
59 93 125
60 94 137
58 91 121
57 91 113
59 94 126
60 95 139
60 94 138
59 93 130
58 92 117
60 95 135
59 93 121
58 91 121
58 92 125
60 94 135
59 93 131
58 92 122
60 95 130
59 93 128
60 93 139
61 95 141
61 95 133
58 92 123
58 92 128
58 91 121
58 90 128
59 92 125
59 93 123
57 90 116
58 91 123
58 91 118
59 92 126
59 92 121
60 93 133
57 89 117
58 91 126
58 91 121
58 90 126
57 90 122
57 88 124
58 90 128
53 83 106
55 84 101
40 56 65
36 43 22
43 47 16
49 53 21
53 56 16
59 63 27
46 53 31
58 62 26
69 73 37
63 67 31
68 71 28
80 82 45
79 81 32
82 83 41
83 85 32
78 82 47
90 92 43
100 100 49
99 100 50
93 95 45
112 110 58
110 110 57
109 109 57
115 114 56
112 111 63
122 121 61
113 111 50
126 125 64
122 120 59
128 125 64
127 124 63
133 131 64
124 122 61
127 125 61
125 122 57
129 127 60
135 132 67
133 131 54
136 133 63
139 135 68
141 138 64
137 134 69
143 139 66
140 137 66
153 148 71
151 146 75
150 144 71
152 147 72
140 138 63
146 143 72
150 146 74
154 148 78
155 150 72
154 150 70
157 153 73
153 149 74
157 152 68
158 152 72
151 148 68
158 153 69
156 151 70
154 149 72
157 152 68
159 154 73
167 159 78
161 155 73
164 157 75
162 156 73
164 158 76
163 157 76
164 158 75
160 154 73
158 153 71
160 155 71
167 160 78
167 161 78
162 156 79
157 151 70
168 161 82
168 162 80
165 158 75
157 151 70
158 152 70
153 148 69
164 157 74
164 157 77
167 159 72
166 160 77
168 160 79
163 156 77
154 148 63
161 155 72
165 159 80
162 155 69
158 152 73
163 156 74
164 157 77
161 154 75
159 153 73
163 157 73
166 160 79
162 156 74
164 158 74
157 151 77
159 152 75
157 151 73
161 155 77
160 154 75
157 151 74
162 155 74
163 156 74
162 157 78
163 156 80
156 151 72
158 152 72
158 151 68
160 154 76
163 157 77
158 152 73
157 151 72
157 150 74
160 154 74
161 154 78
164 156 76
165 158 85
161 154 79
158 151 74
152 147 71
150 145 67
141 136 58
161 154 71
156 150 76
155 150 72
148 142 72
146 140 68
154 148 75
219 234 255
219 234 255
219 234 255
219 234 255
219 234 255
219 234 255
219 234 255
219 234 255
219 234 255
219 234 255
219 234 255
219 234 255
219 234 255
219 234 255
219 234 255
219 234 255
219 234 255
219 234 255
219 234 255
219 234 255
219 234 255
219 234 255
219 234 255
219 234 255
219 234 255
219 234 255
219 234 255
219 234 255
219 234 255
219 234 255
219 234 255
219 234 255
219 234 255
219 234 255
219 234 255
219 234 255
219 234 255
219 234 255
219 234 255
219 234 255
219 234 255
219 234 255
219 234 255
219 234 255
219 234 255
219 234 255
219 234 255
219 234 255
219 234 255
219 234 255
219 234 255
219 234 255
219 234 255
219 234 255
219 234 255
219 234 255
219 234 255
219 234 255
219 234 255
219 234 255
219 234 255
219 234 255
219 234 255
219 234 255
219 234 255
219 234 255
219 234 255
219 234 255
219 234 255
219 234 255
219 234 255
219 234 255
219 234 255
219 234 255
219 234 255
219 234 255
219 234 255
219 234 255
219 234 255
219 234 255
219 234 255
219 234 255
219 234 255
219 234 255
219 234 255
219 234 255
219 234 255
219 234 255
219 234 255
219 234 255
219 234 255
219 234 255
219 234 255
219 234 255
219 234 255
219 234 255
219 234 255
219 234 255
219 234 255
219 234 255
219 234 255
219 234 255
219 234 255
219 234 255
219 234 255
219 234 255
219 234 255
219 234 255
219 234 255
219 234 255
219 234 255
219 234 255
219 234 255
219 234 255
219 234 255
219 234 255
218 234 255
218 234 255
218 234 255
218 234 255
218 234 255
218 234 255
218 234 255
218 234 255
218 234 255
218 234 255
218 234 255
218 234 255
218 234 255
218 234 255
218 234 255
218 233 255
217 233 255
217 233 255
217 233 255
199 216 240
62 96 144
62 97 143
61 95 137
60 95 139
60 95 128
59 94 131
61 95 136
60 95 136
60 95 135
61 96 142
60 95 135
60 94 128
59 94 128
60 95 126
63 98 147
59 93 126
59 93 131
58 93 121
60 94 129
60 94 126
60 95 133
60 94 129
60 95 133
58 92 117
59 94 136
60 94 131
60 95 133
60 94 124
61 95 136
61 96 137
61 95 136
59 93 133
59 93 124
60 94 129
59 93 129
61 96 131
59 93 135
60 95 131
59 93 125
60 94 133
61 95 131
58 91 120
60 95 136
59 93 125
59 93 130
60 94 129
59 94 128
59 93 129
60 95 139
60 95 136
60 95 131
59 92 122
58 93 124
59 93 120
60 95 133
60 95 133
60 94 134
59 93 133
59 93 126
58 91 122
59 94 133
61 96 141
61 96 137
59 94 139
59 94 130
58 92 130
60 95 136
60 95 140
61 95 134
60 95 131
60 95 139
59 93 121
59 94 130
58 92 120
60 95 137
60 94 134
61 96 134
59 93 125
60 94 131
58 91 115
59 93 121
60 94 128
59 93 125
59 92 125
60 94 135
57 91 124
58 93 122
59 93 130
59 92 130
59 93 129
60 94 135
59 93 123
60 95 135
61 95 137
59 93 134
60 94 140
60 94 130
59 93 133
59 93 121
58 91 120
58 91 125
58 91 118
60 95 132
60 94 130
58 91 124
58 91 130
60 94 129
58 92 122
59 92 133
59 92 125
58 91 121
59 92 130
60 94 129
58 91 116
58 91 120
56 88 117
58 92 123
57 90 121
57 90 127
58 90 122
57 88 120
58 90 116
56 86 119
57 89 121
56 87 114
56 88 122
56 87 116
55 84 113
45 53 46
53 58 22
37 41 14
54 57 18
53 56 24
52 56 25
42 49 25
68 72 24
65 69 26
55 59 24
63 66 28
83 85 42
95 94 41
82 84 38
84 87 42
86 87 45
96 97 44
86 89 36
92 94 43
85 87 37
98 98 40
99 100 40
114 113 49
111 110 53
119 118 58
105 105 44
111 110 55
118 116 53
118 117 50
122 120 56
126 124 56
113 112 47
124 123 64
126 125 59
123 122 58
143 139 70
137 132 65
128 126 66
143 139 65
133 131 66
142 137 63
143 139 67
148 144 65
142 138 70
140 136 58
148 144 68
143 141 60
150 145 72
153 148 69
149 144 69
155 150 68
144 142 69
152 146 75
154 148 70
155 150 77
150 145 72
158 152 75
158 152 77
153 149 68
162 157 78
165 158 79
161 154 76
159 153 77
153 148 65
158 152 71
158 153 72
165 159 79
164 157 76
159 153 71
163 157 74
159 153 69
163 157 72
170 163 84
162 156 73
159 153 70
160 154 75
166 158 76
159 153 66
156 151 71
159 153 77
170 162 84
164 158 78
164 158 78
161 154 77
163 157 78
161 155 75
165 159 75
164 157 72
165 158 74
162 155 75
164 157 74
164 158 73
155 150 67
160 153 72
160 154 76
162 155 76
160 155 70
163 156 75
160 154 71
156 150 74
159 153 71
156 150 71
156 148 68
162 155 76
162 155 73
155 150 69
162 156 77
154 148 68
166 159 73
158 151 75
157 152 71
164 156 78
162 156 82
162 156 75
156 150 72
161 155 75
153 148 66
155 149 68
157 151 75
156 150 64
152 147 62
157 151 74
157 151 72
159 153 75
162 155 76
155 149 68
157 151 71
148 143 69
154 148 70
155 149 67
162 156 72
163 155 78
153 147 72
158 151 73
150 145 73
155 149 77
219 234 255
219 234 255
219 234 255
219 234 255
219 234 255
219 234 255
219 234 255
219 234 255
219 234 255
219 234 255
219 234 255
219 234 255
219 234 255
219 234 255
219 234 255
219 234 255
219 234 255
219 234 255
219 234 255
219 234 255
219 234 255
219 234 255
219 234 255
219 234 255
219 234 255
219 234 255
219 234 255
219 234 255
219 234 255
219 234 255
219 234 255
219 234 255
219 234 255
219 234 255
219 234 255
219 234 255
219 234 255
219 234 255
219 234 255
219 234 255
219 234 255
219 234 255
219 234 255
219 234 255
219 234 255
219 234 255
219 234 255
219 234 255
219 234 255
219 234 255
219 234 255
219 234 255
219 234 255
219 234 255
219 234 255
219 234 255
219 234 255
219 234 255
219 234 255
219 234 255
219 234 255
219 234 255
219 234 255
219 234 255
219 234 255
219 234 255
219 234 255
219 234 255
219 234 255
219 234 255
219 234 255
219 234 255
219 234 255
219 234 255
219 234 255
219 234 255
219 234 255
219 234 255
219 234 255
219 234 255
219 234 255
219 234 255
219 234 255
219 234 255
219 234 255
219 234 255
219 234 255
219 234 255
219 234 255
219 234 255
219 234 255
219 234 255
219 234 255
219 234 255
219 234 255
219 234 255
219 234 255
219 234 255
219 234 255
219 234 255
219 234 255
219 234 255
219 234 255
219 234 255
219 234 255
219 234 255
219 234 255
218 234 255
218 234 255
218 234 255
218 234 255
218 234 255
218 234 255
218 234 255
218 234 255
218 234 255
218 234 255
218 234 255
218 234 255
218 234 255
218 234 255
218 234 255
218 234 255
218 234 255
218 234 255
218 234 255
218 233 255
217 233 255
217 233 255
217 233 255
217 233 255
217 233 255
217 233 255
217 233 255
217 233 255
213 230 252
64 97 140
61 95 137
61 96 143
60 94 130
59 93 121
60 94 131
59 94 128
60 94 120
59 94 126
60 95 133
58 92 121
60 95 129
60 95 129
61 95 133
60 94 128
60 94 134
61 95 136
61 95 133
61 97 139
60 95 128
60 95 134
59 94 126
59 94 135
60 94 135
60 94 128
61 95 134
60 94 129
60 94 129
58 92 120
59 93 124
59 93 122
60 94 125
59 93 124
59 94 125
59 93 122
60 94 133
59 94 126
61 95 129
59 94 125
59 94 122
61 95 131
60 95 139
61 96 137
60 95 135
59 93 117
60 95 129
58 92 126
60 95 131
59 94 129
60 94 130
60 94 133
58 92 122
59 92 131
58 92 117
59 93 133
60 95 134
58 92 126
59 93 125
61 96 141
59 93 124
61 96 142
61 95 142
60 95 133
58 92 128
58 92 120
59 94 135
60 94 125
60 94 134
58 92 124
59 93 122
60 95 136
59 93 128
61 95 143
59 93 130
58 92 114
60 94 131
59 94 128
60 95 131
58 92 120
58 92 120
60 94 134
57 90 120
58 92 121
59 94 131
58 92 122
60 94 133
60 94 135
59 93 131
58 92 121
60 94 129
57 91 108
59 92 129
58 92 116
59 93 131
57 91 113
58 92 114
60 94 135
60 94 124
60 94 132
59 94 125
59 92 128
59 93 129
58 91 120
58 92 126
58 92 118
58 92 121
59 94 133
58 92 133
60 94 138
57 89 120
58 91 121
58 92 129
60 94 138
57 91 121
56 88 116
58 91 127
59 92 123
59 92 128
57 91 127
58 92 128
58 91 134
58 91 118
56 87 116
57 89 117
57 89 126
55 84 118
55 85 110
55 84 112
41 46 22
48 50 14
53 56 15
52 55 14
47 53 22
57 61 20
56 62 29
59 65 30
64 69 29
59 62 27
77 78 33
65 69 31
69 73 32
85 88 34
75 77 33
78 82 42
102 102 39
86 89 43
103 104 52
100 100 43
92 94 47
110 110 49
107 106 44
117 116 52
118 117 54
112 111 60
111 111 45
115 114 58
117 116 54
116 116 56
132 128 61
124 122 56
127 125 59
132 129 61
133 129 62
132 129 66
139 135 66
129 127 56
140 137 65
139 136 60
138 136 65
133 131 59
137 134 61
136 133 59
146 142 65
145 142 63
146 141 67
148 144 63
151 146 73
142 138 67
145 142 64
151 147 60
150 146 71
153 147 72
149 144 70
157 152 67
152 147 72
160 153 69
156 150 67
156 149 75
158 152 72
151 146 65
156 150 69
161 155 78
157 152 68
162 155 75
150 144 66
157 151 69
156 150 69
157 152 72
159 153 74
161 155 74
160 155 68
159 154 71
156 150 70
163 156 78
164 156 78
163 157 76
157 151 65
160 153 64
158 152 65
166 158 76
162 156 74
169 161 80
165 158 80
162 155 75
162 155 79
159 153 67
169 161 80
164 157 73
164 158 76
161 154 73
163 157 75
161 155 75
164 158 82
163 156 75
156 150 68
162 155 75
155 149 68
158 152 71
161 155 75
156 150 63
165 159 74
158 151 74
157 152 68
162 156 78
161 154 71
159 152 72
155 148 72
156 149 67
168 161 80
159 153 71
153 148 67
156 149 71
160 154 73
162 155 80
157 151 71
160 154 72
154 148 73
158 151 74
157 151 70
161 154 78
157 151 74
155 148 77
160 153 74
157 152 71
156 149 72
158 152 78
154 148 73
148 142 69
152 146 70
147 141 72
164 156 82
161 154 75
158 151 74
154 148 73
218 234 255
218 234 255
218 234 255
218 234 255
218 234 255
218 234 255
218 234 255
218 234 255
218 234 255
219 234 255
219 234 255
219 234 255
219 234 255
219 234 255
219 234 255
219 234 255
219 234 255
219 234 255
219 234 255
219 234 255
219 234 255
219 234 255
219 234 255
219 234 255
219 234 255
219 234 255
219 234 255
219 234 255
219 234 255
219 234 255
219 234 255
219 234 255
219 234 255
219 234 255
219 234 255
219 234 255
219 234 255
219 234 255
219 234 255
219 234 255
219 234 255
219 234 255
219 234 255
219 234 255
219 234 255
219 234 255
219 234 255
219 234 255
219 234 255
219 234 255
219 234 255
219 234 255
219 234 255
219 234 255
219 234 255
219 234 255
219 234 255
219 234 255
219 234 255
219 234 255
219 234 255
219 234 255
219 234 255
219 234 255
219 234 255
219 234 255
219 234 255
219 234 255
219 234 255
219 234 255
219 234 255
219 234 255
219 234 255
219 234 255
219 234 255
219 234 255
219 234 255
219 234 255
219 234 255
219 234 255
219 234 255
219 234 255
219 234 255
219 234 255
219 234 255
219 234 255
219 234 255
219 234 255
219 234 255
219 234 255
219 234 255
219 234 255
219 234 255
219 234 255
219 234 255
219 234 255
219 234 255
218 234 255
218 234 255
218 234 255
218 234 255
218 234 255
218 234 255
218 234 255
218 234 255
218 234 255
218 234 255
218 234 255
218 234 255
218 234 255
218 234 255
218 234 255
218 234 255
218 234 255
218 234 255
218 234 255
218 234 255
218 234 255
218 234 255
218 234 255
218 234 255
218 233 255
218 233 255
217 233 255
217 233 255
217 233 255
217 233 255
217 233 255
217 233 255
217 233 255
217 233 255
217 233 255
217 233 255
216 233 255
216 233 255
216 233 255
100 125 161
61 95 133
60 95 133
60 94 136
61 96 142
58 92 130
61 96 135
60 94 126
59 93 133
59 94 130
59 93 124
61 95 130
61 96 137
59 94 133
60 94 133
59 93 134
59 94 134
59 93 126
61 96 136
58 91 120
59 93 128
61 95 135
58 91 108
59 94 133
60 94 135
60 94 126
59 93 122
59 93 124
60 94 133
61 96 139
60 95 136
58 92 122
59 93 118
60 94 129
59 94 133
58 92 126
59 93 121
60 94 128
60 95 130
61 95 134
61 96 140
58 93 130
59 94 126
60 94 128
59 94 126
58 92 128
58 93 121
58 92 118
60 94 134
61 95 133
59 93 128
58 92 122
60 94 126
58 92 125
59 94 129
60 94 126
60 94 128
59 93 125
61 95 142
58 92 126
61 95 137
60 95 131
58 93 130
60 94 131
60 94 129
59 93 133
60 94 125
58 92 128
60 94 125
59 93 126
58 93 121
60 95 131
61 96 136
60 95 131
58 93 122
58 92 114
60 94 133
60 94 131
58 92 134
58 92 124
59 93 130
59 93 122
59 93 135
60 94 126
58 91 125
58 92 124
61 96 143
59 93 124
60 95 136
57 90 125
59 94 129
57 91 121
59 93 128
59 93 126
57 90 120
61 95 140
58 92 126
57 90 121
59 92 124
59 93 124
60 93 133
60 94 137
60 94 136
61 95 130
58 91 120
58 91 125
58 90 107
57 90 121
59 93 136
59 92 131
58 91 125
60 94 129
59 93 133
59 92 121
59 92 120
58 91 129
58 91 118
57 89 118
58 91 126
56 88 111
57 89 117
58 91 118
58 90 123
56 86 116
60 93 134
55 86 111
55 87 118
53 79 98
51 54 12
52 55 13
54 56 10
58 61 20
56 60 17
49 52 19
69 71 21
57 61 23
72 75 26
63 67 30
80 81 38
66 70 24
79 80 31
82 84 38
84 85 39
70 75 35
95 97 40
96 97 42
97 98 44
94 94 45
104 103 45
104 103 45
103 103 49
106 106 52
106 106 48
109 109 51
111 110 50
114 114 47
118 118 55
116 115 53
137 134 55
129 126 61
134 131 63
134 130 55
127 123 53
136 132 64
137 133 61
141 138 62
135 132 53
144 140 64
140 136 65
135 133 60
141 137 65
144 139 59
150 145 68
143 139 68
148 144 66
146 142 65
148 143 65
155 150 75
146 143 59
156 150 65
152 148 70
150 145 65
150 145 69
158 152 73
154 148 70
155 150 69
150 146 63
151 145 73
157 151 67
155 149 66
158 152 74
155 150 66
158 151 74
154 149 69
159 154 70
152 147 63
157 151 70
157 152 65
160 154 75
166 159 79
163 156 74
155 150 62
161 155 67
164 158 78
159 153 70
167 160 76
161 154 73
164 156 78
170 162 75
159 153 75
164 158 77
165 157 75
161 154 72
157 151 73
162 155 74
168 161 79
165 159 74
160 155 67
161 155 70
159 152 72
154 148 66
160 154 73
160 155 72
158 152 69
169 162 76
154 148 66
165 159 73
156 151 70
155 149 67
160 153 70
162 155 73
157 150 75
154 149 66
157 151 68
162 156 70
157 151 74
161 155 77
162 155 72
155 150 66
156 150 71
159 152 72
159 152 74
158 151 72
157 151 68
154 149 59
151 145 69
153 148 66
159 153 73
162 155 72
154 148 72
148 143 65
152 148 66
160 154 74
152 146 67
154 147 68
161 154 78
149 142 60
153 148 66
158 151 77
158 152 70
160 154 78
153 146 72
157 150 72
152 146 65
218 234 255
218 234 255
218 234 255
218 234 255
218 234 255
218 234 255
218 234 255
218 234 255
218 234 255
218 234 255
218 234 255
218 234 255
218 234 255
218 234 255
218 234 255
218 234 255
218 234 255
218 234 255
218 234 255
218 234 255
218 234 255
218 234 255
218 234 255
218 234 255
218 234 255
218 234 255
218 234 255
218 234 255
218 234 255
218 234 255
218 234 255
218 234 255
218 234 255
218 234 255
218 234 255
219 234 255
219 234 255
219 234 255
219 234 255
219 234 255
219 234 255
219 234 255
219 234 255
219 234 255
219 234 255
219 234 255
219 234 255
219 234 255
219 234 255
219 234 255
219 234 255
219 234 255
219 234 255
219 234 255
219 234 255
219 234 255
219 234 255
219 234 255
219 234 255
219 234 255
219 234 255
219 234 255
219 234 255
219 234 255
219 234 255
219 234 255
219 234 255
219 234 255
219 234 255
219 234 255
219 234 255
219 234 255
219 234 255
219 234 255
219 234 255
219 234 255
219 234 255
219 234 255
219 234 255
218 234 255
219 234 255
218 234 255
218 234 255
218 234 255
218 234 255
218 234 255
218 234 255
218 234 255
218 234 255
218 234 255
218 234 255
218 234 255
218 234 255
218 234 255
218 234 255
218 234 255
218 234 255
218 234 255
218 234 255
218 234 255
218 234 255
218 234 255
218 234 255
218 234 255
218 234 255
218 234 255
218 234 255
218 234 255
218 234 255
218 234 255
218 234 255
218 234 255
218 234 255
218 234 255
218 234 255
218 234 255
218 233 255
218 233 255
217 233 255
217 233 255
217 233 255
217 233 255
217 233 255
217 233 255
217 233 255
217 233 255
217 233 255
217 233 255
217 233 255
217 233 255
216 233 255
216 233 255
216 233 255
216 233 255
216 233 255
216 232 255
140 160 191
61 96 141
61 95 139
58 92 121
59 93 129
59 94 120
60 95 126
59 94 124
61 96 140
60 94 134
60 94 126
59 93 124
60 94 137
57 91 113
59 94 122
60 94 142
60 94 135
59 94 122
60 94 129
61 96 141
60 95 131
61 95 139
59 93 129
60 94 131
60 94 126
61 95 128
60 94 126
58 92 118
58 92 122
60 95 131
60 95 134
61 95 135
60 94 128
59 94 124
59 93 121
60 94 130
61 96 135
59 94 128
59 93 130
60 95 130
60 94 122
59 94 122
60 95 136
59 94 128
59 93 122
60 95 128
59 93 125
59 93 125
59 94 126
59 93 128
59 94 125
59 93 128
58 91 122
60 94 134
60 95 136
61 96 141
60 95 134
60 94 128
59 93 128
60 95 137
59 93 129
59 93 118
60 95 142
60 94 120
59 94 126
58 91 118
60 94 126
58 91 120
60 95 135
60 94 133
59 93 128
59 93 125
61 96 137
61 95 134
60 94 139
58 91 117
59 93 124
59 93 124
57 91 125
58 92 125
59 93 128
59 93 125
59 93 122
58 92 124
59 93 125
59 93 136
59 93 124
60 95 131
58 92 118
58 92 124
59 93 126
60 93 134
58 92 125
58 91 117
58 93 121
59 93 124
59 92 122
57 91 121
60 94 131
57 89 125
59 93 126
59 93 120
58 92 128
59 94 121
60 94 129
59 93 125
60 94 138
58 91 121
59 93 128
58 91 128
56 89 114
57 91 120
58 92 130
57 90 115
58 91 124
59 92 128
59 92 134
58 92 122
57 89 119
57 89 108
56 88 118
55 86 110
57 88 121
57 89 130
55 86 109
53 83 108
53 83 108
59 75 77
54 57 17
59 61 14
50 53 12
52 56 13
61 63 22
62 66 29
75 76 25
62 64 22
67 68 29
60 64 30
83 84 30
68 71 27
82 84 32
75 78 29
82 84 37
85 87 36
97 97 34
87 87 33
105 103 43
109 108 47
107 107 39
116 114 51
97 98 42
116 114 48
114 112 46
110 109 44
120 118 53
118 117 58
108 108 48
123 121 51
130 127 51
120 119 55
116 113 52
129 125 57
128 125 48
127 124 58
130 127 53
121 120 58
138 135 67
142 139 61
132 129 59
136 133 59
145 141 68
150 145 71
149 144 68
139 135 60
149 144 64
148 142 62
148 143 62
142 139 60
146 141 65
147 142 66
146 141 65
147 143 63
150 145 62
157 152 66
151 145 64
149 145 65
160 154 64
156 151 65
158 153 76
158 153 69
156 150 71
153 147 69
155 150 72
152 147 65
161 155 72
158 151 75
159 153 72
158 151 71
159 152 69
162 156 72
163 157 67
158 152 68
162 156 74
161 154 71
162 156 69
154 149 71
156 150 74
150 145 58
162 156 70
151 147 58
153 148 68
159 152 69
163 156 73
156 150 65
160 154 69
166 158 73
161 154 69
163 157 70
165 159 75
163 157 80
160 154 71
163 157 72
158 153 62
162 155 69
161 154 74
162 155 74
159 154 69
162 155 71
160 154 73
157 152 67
164 158 77
158 151 69
157 151 71
160 154 72
156 150 67
165 158 81
160 154 71
163 156 77
158 152 67
158 152 70
158 151 75
155 148 72
159 152 72
154 147 71
155 149 73
164 157 74
153 147 71
149 143 67
159 152 71
154 148 69
153 147 69
154 148 71
163 157 80
155 149 69
158 152 71
151 144 68
152 147 62
161 154 76
155 148 65
152 145 69
158 151 72
162 155 78
149 143 71
155 149 76
218 234 255
218 234 255
218 234 255
218 234 255
218 234 255
218 234 255
218 234 255
218 234 255
218 234 255
218 234 255
218 234 255
218 234 255
218 234 255
218 234 255
218 234 255
218 234 255
218 234 255
218 234 255
218 234 255
218 234 255
218 234 255
218 234 255
218 234 255
218 234 255
218 234 255
218 234 255
218 234 255
218 234 255
218 234 255
218 234 255
218 234 255
218 234 255
218 234 255
218 234 255
218 234 255
218 234 255
218 234 255
218 234 255
218 234 255
218 234 255
218 234 255
218 234 255
218 234 255
218 234 255
218 234 255
218 234 255
218 234 255
218 234 255
218 234 255
218 234 255
218 234 255
218 234 255
218 234 255
218 234 255
218 234 255
218 234 255
218 234 255
218 234 255
218 234 255
218 234 255
218 234 255
218 234 255
218 234 255
218 234 255
218 234 255
218 234 255
218 234 255
218 234 255
218 234 255
218 234 255
218 234 255
218 234 255
218 234 255
218 234 255
218 234 255
218 234 255
218 234 255
218 234 255
218 234 255
218 234 255
218 234 255
218 234 255
218 234 255
218 234 255
218 234 255
218 234 255
218 234 255
218 234 255
218 234 255
218 234 255
218 234 255
218 234 255
218 234 255
218 234 255
218 234 255
218 234 255
218 234 255
218 234 255
218 234 255
218 234 255
218 234 255
218 234 255
218 234 255
218 234 255
218 234 255
218 234 255
218 234 255
218 234 255
218 234 255
218 233 255
218 233 255
218 233 255
217 233 255
217 233 255
217 233 255
217 233 255
217 233 255
217 233 255
217 233 255
217 233 255
217 233 255
217 233 255
217 233 255
217 233 255
217 233 255
217 233 255
216 233 255
216 233 255
216 233 255
216 233 255
216 233 255
216 233 255
216 232 255
216 232 255
215 232 255
215 232 255
163 183 213
60 94 131
59 94 130
61 97 139
60 95 130
60 94 131
60 94 129
58 92 120
59 93 124
60 94 124
59 94 131
60 94 131
59 93 135
60 96 134
59 94 133
59 93 125
61 96 142
61 96 131
59 93 117
60 95 131
59 93 125
58 91 113
59 93 122
60 95 134
61 95 133
60 94 125
59 93 125
60 94 125
60 95 133
60 95 134
59 93 120
59 94 126
58 92 126
59 93 120
59 93 131
58 91 124
59 93 125
59 93 129
59 94 133
60 94 131
59 93 125
60 94 129
58 92 125
60 94 130
60 94 126
60 95 136
60 94 133
59 93 124
59 93 122
59 93 126
59 94 131
59 93 126
60 95 131
59 93 126
60 95 136
58 92 115
58 92 126
60 95 137
60 94 125
58 92 124
60 95 128
60 95 131
59 93 122
58 93 120
58 92 111
60 94 137
59 93 129
60 94 124
58 92 121
59 94 128
59 93 124
59 92 130
60 95 130
60 94 129
58 92 121
60 94 128
59 92 122
59 94 130
59 92 117
59 94 128
59 93 124
59 93 118
58 92 124
59 92 130
59 93 122
59 93 131
60 94 137
59 94 131
60 94 130
59 93 122
59 93 122
60 94 139
59 94 124
58 92 129
60 94 125
59 93 126
57 90 121
58 91 122
58 92 124
59 92 126
60 94 129
59 92 130
59 93 131
58 91 124
59 92 127
57 90 117
58 91 125
56 88 113
58 91 118
58 92 125
58 92 128
60 94 134
56 89 116
57 89 113
56 88 117
56 88 113
57 90 123
57 90 116
57 89 116
57 88 116
58 90 125
55 86 113
56 88 117
57 88 118
55 86 110
55 85 116
52 81 99
50 62 48
60 61 10
53 55 16
51 54 17
66 68 23
64 67 15
68 69 19
54 59 18
67 70 22
65 68 19
64 68 28
75 78 23
75 76 31
81 81 25
83 86 33
73 74 26
86 89 39
85 88 35
93 95 45
102 101 39
109 108 44
106 107 39
101 101 39
97 98 37
100 100 46
101 103 38
116 116 43
117 115 58
108 108 41
125 123 54
122 121 51
125 122 56
120 119 48
117 116 49
129 127 57
128 125 47
122 121 46
128 125 50
133 129 55
136 133 58
144 139 70
139 135 66
141 137 63
135 132 60
145 140 58
141 138 55
134 131 55
151 146 65
139 135 67
145 140 59
151 146 69
144 140 65
150 145 64
144 139 54
146 141 68
145 141 62
153 147 66
155 149 68
150 146 60
152 146 69
150 145 63
152 147 66
161 155 75
158 152 66
160 154 73
154 149 67
160 153 73
161 155 71
160 154 66
157 151 68
156 150 71
157 150 68
157 151 61
156 150 64
161 155 69
150 146 62
162 155 78
155 149 69
160 154 70
163 156 74
157 152 69
154 148 65
154 149 57
154 148 63
157 151 57
160 154 64
155 150 66
162 156 69
158 153 65
158 151 68
154 148 66
161 154 72
157 152 60
162 156 82
160 153 67
161 154 71
159 153 69
158 151 68
160 154 71
160 154 72
155 149 69
156 149 71
159 155 59
153 148 66
157 152 70
166 158 74
156 150 67
156 151 67
161 154 73
155 148 71
150 145 62
155 149 64
158 152 66
159 152 72
156 150 73
161 155 73
151 145 68
153 148 69
161 153 78
154 149 75
161 155 73
161 153 75
161 155 69
153 147 66
145 139 59
155 148 68
149 143 64
153 147 67
153 147 65
148 142 70
154 147 70
152 146 67
154 148 67
155 149 66
150 144 62
150 144 71
146 140 68
218 234 255
218 234 255
218 234 255
218 234 255
218 234 255
218 234 255
218 234 255
218 234 255
218 234 255
218 234 255
218 234 255
218 234 255
218 234 255
218 234 255
218 234 255
218 234 255
218 234 255
218 234 255
218 234 255
218 234 255
218 234 255
218 234 255
218 234 255
218 234 255
218 234 255
218 234 255
218 234 255
218 234 255
218 234 255
218 234 255
218 234 255
218 234 255
218 234 255
218 234 255
218 234 255
218 234 255
218 234 255
218 234 255
218 234 255
218 234 255
218 234 255
218 234 255
218 234 255
218 234 255
218 234 255
218 234 255
218 234 255
218 234 255
218 234 255
218 234 255
218 234 255
218 234 255
218 234 255
218 234 255
218 234 255
218 234 255
218 234 255
218 234 255
218 234 255
218 234 255
218 234 255
218 234 255
218 234 255
218 234 255
218 234 255
218 234 255
218 234 255
218 234 255
218 234 255
218 234 255
218 234 255
218 234 255
218 234 255
218 234 255
218 234 255
218 234 255
218 234 255
218 234 255
218 234 255
218 234 255
218 234 255
218 234 255
218 234 255
218 234 255
218 234 255
218 234 255
218 234 255
218 234 255
218 234 255
218 234 255
218 234 255
218 234 255
218 234 255
218 234 255
218 234 255
218 234 255
218 234 255
218 234 255
218 234 255
218 234 255
218 234 255
218 234 255
218 233 255
218 233 255
218 233 255
217 233 255
217 233 255
217 233 255
217 233 255
217 233 255
217 233 255
217 233 255
217 233 255
217 233 255
217 233 255
217 233 255
217 233 255
217 233 255
217 233 255
217 233 255
217 233 255
217 233 255
216 233 255
216 233 255
216 233 255
216 233 255
216 233 255
216 233 255
216 233 255
216 232 255
215 232 255
215 232 255
215 232 255
215 232 255
215 232 255
215 232 255
189 207 231
61 96 134
60 94 142
61 96 136
61 96 139
58 92 122
61 95 130
60 94 126
59 93 122
60 95 126
60 94 126
60 94 125
59 93 124
58 92 121
60 94 130
59 93 125
59 93 126
57 90 121
60 95 128
60 95 136
58 93 118
60 95 131
58 93 121
59 93 133
61 95 136
60 95 125
59 94 129
60 94 131
57 91 117
59 94 120
60 95 129
59 93 122
60 94 130
60 95 136
59 94 128
61 95 137
59 94 128
60 94 128
58 92 121
58 92 108
60 94 129
59 94 129
60 95 135
59 93 128
59 94 124
58 92 114
58 91 117
59 94 126
57 91 118
59 92 124
59 93 120
61 96 137
58 93 121
59 93 126
60 94 136
59 94 122
58 92 121
59 93 124
59 93 122
60 95 128
59 93 136
59 94 125
59 94 122
59 94 125
58 92 124
59 93 124
58 92 125
59 93 124
60 94 135
60 94 133
59 93 121
59 93 133
58 91 120
59 93 126
60 94 129
59 93 126
58 91 126
60 94 128
59 94 124
58 91 118
58 92 124
59 93 120
60 94 133
60 94 133
60 94 135
59 93 121
57 90 118
60 94 131
59 93 128
59 93 120
60 94 134
59 93 122
58 92 126
57 89 117
58 92 128
58 91 125
58 91 120
58 91 125
57 90 125
58 91 125
57 90 120
58 92 124
59 92 120
60 94 135
60 94 141
59 92 126
58 91 118
58 92 121
60 94 134
59 93 130
57 90 114
56 89 117
57 90 118
58 91 118
57 91 128
59 92 130
58 91 129
58 91 125
56 88 115
56 88 115
56 88 116
57 89 121
54 85 105
53 82 95
55 86 114
54 83 107
50 76 85
52 58 52
60 62 8
49 51 12
58 60 11
49 53 24
56 60 16
53 56 20
70 70 21
58 61 21
63 66 26
68 71 24
69 73 24
69 72 30
76 76 27
84 86 40
88 87 32
79 82 28
103 103 40
94 94 39
81 85 35
95 96 33
100 101 42
106 102 38
118 116 47
100 99 45
111 111 54
112 111 50
119 116 47
116 115 48
106 106 48
116 115 46
128 125 48
122 121 56
124 121 49
134 130 51
132 127 62
130 127 55
131 129 53
138 135 61
132 129 53
140 136 59
131 128 49
127 124 49
137 134 56
139 136 58
142 137 66
143 138 55
149 144 63
149 144 70
139 136 57
156 150 66
143 137 71
147 142 55
149 144 64
157 151 70
146 142 60
151 147 62
149 142 63
150 145 60
151 146 63
152 146 68
148 144 58
149 143 56
156 151 69
158 152 67
155 150 65
158 152 68
154 149 69
163 156 76
156 151 63
163 157 64
159 152 70
156 150 72
153 149 56
158 152 70
163 156 70
154 148 65
157 152 61
156 150 63
159 153 66
160 154 69
152 147 69
161 155 67
165 158 74
160 153 69
158 151 66
157 152 65
158 152 64
159 152 64
166 159 75
158 152 62
159 153 70
157 151 64
154 149 61
162 156 70
160 153 75
159 154 63
154 149 61
155 149 70
153 147 71
158 153 68
162 156 75
156 150 66
165 159 74
164 157 80
159 153 71
158 152 68
160 153 75
158 151 71
154 148 60
159 153 68
160 153 72
160 153 70
153 148 66
153 147 68
156 151 73
156 150 71
157 151 68
157 151 70
154 148 64
148 141 67
152 147 66
149 143 63
157 151 74
157 151 62
151 145 64
152 146 64
149 142 66
151 146 70
154 148 74
154 148 68
159 152 77
151 145 66
160 152 75
153 147 69
154 147 70
151 144 65
217 233 255
217 233 255
217 233 255
217 233 255
217 233 255
217 233 255
217 233 255
218 233 255
218 233 255
218 233 255
218 233 255
218 233 255
218 233 255
218 233 255
218 234 255
218 234 255
218 234 255
218 234 255
218 234 255
218 234 255
218 234 255
218 234 255
218 234 255
218 234 255
218 234 255
218 234 255
218 234 255
218 234 255
218 234 255
218 234 255
218 234 255
218 234 255
218 234 255
218 234 255
218 234 255
218 234 255
218 234 255
218 234 255
218 234 255
218 234 255
218 234 255
218 234 255
218 234 255
218 234 255
218 234 255
218 234 255
218 234 255
218 234 255
218 234 255
218 234 255
218 234 255
218 234 255
218 234 255
218 234 255
218 234 255
218 234 255
218 234 255
218 234 255
218 234 255
218 234 255
218 234 255
218 234 255
218 234 255
218 234 255
218 234 255
218 234 255
218 234 255
218 234 255
218 234 255
218 234 255
218 234 255
218 234 255
218 234 255
218 234 255
218 234 255
218 234 255
218 234 255
218 234 255
218 234 255
218 234 255
218 234 255
218 234 255
218 234 255
218 234 255
218 234 255
218 234 255
218 234 255
218 234 255
218 234 255
218 234 255
218 234 255
218 234 255
218 234 255
218 233 255
218 233 255
218 233 255
218 233 255
217 233 255
217 233 255
217 233 255
217 233 255
217 233 255
217 233 255
217 233 255
217 233 255
217 233 255
217 233 255
217 233 255
217 233 255
217 233 255
217 233 255
217 233 255
217 233 255
217 233 255
217 233 255
217 233 255
217 233 255
217 233 255
216 233 255
216 233 255
216 233 255
216 233 255
216 233 255
216 233 255
216 233 255
216 232 255
216 232 255
216 232 255
215 232 255
215 232 255
215 232 255
215 232 255
215 232 255
215 232 255
214 232 255
214 232 255
212 230 254
84 113 151
60 94 128
61 95 129
60 94 126
59 92 124
59 93 129
58 92 124
60 94 131
61 95 134
58 92 130
59 94 126
62 97 136
59 94 129
59 92 120
58 92 115
60 95 131
60 94 125
60 94 125
58 92 114
59 93 124
57 91 113
60 94 129
59 94 131
59 94 130
59 94 125
59 93 130
61 95 136
59 93 120
60 96 133
59 93 120
60 94 134
59 93 126
59 93 133
60 94 135
60 95 131
59 93 121
59 93 130
60 94 126
57 90 122
59 93 133
59 94 126
59 93 129
58 92 122
58 92 111
59 93 121
56 89 120
58 93 117
60 94 133
59 93 131
61 95 133
58 92 118
60 95 135
59 93 126
60 95 129
60 94 134
60 94 130
57 90 120
59 93 128
58 91 111
59 94 133
57 91 118
60 94 129
60 95 131
59 92 128
61 96 135
59 93 124
59 93 130
60 94 125
57 91 125
58 92 115
59 94 131
60 95 133
58 91 125
60 94 133
60 94 137
60 94 137
59 94 131
59 93 126
59 93 115
58 92 124
59 93 126
59 92 121
59 93 130
60 93 129
59 92 128
58 92 118
57 90 121
59 93 129
59 93 134
60 94 134
60 94 129
59 92 134
59 93 121
58 91 120
58 91 118
57 91 118
59 92 126
59 92 124
59 93 128
58 92 121
58 91 122
58 91 121
59 93 129
59 92 124
59 92 127
58 91 116
58 91 123
57 90 114
59 92 126
57 90 125
58 91 110
56 88 117
58 91 130
56 88 113
57 90 115
56 88 109
57 89 123
58 91 121
57 89 112
56 87 120
56 87 124
55 86 107
56 88 130
54 83 105
54 84 110
57 82 101
68 71 22
68 70 21
58 60 17
53 57 20
66 69 27
62 64 19
64 67 14
65 67 19
68 70 19
76 78 15
68 70 17
75 78 26
70 70 22
84 85 33
83 85 36
75 76 32
86 88 26
89 91 32
96 96 32
88 91 35
100 100 35
100 101 39
99 99 40
104 102 41
111 108 45
108 107 41
105 105 36
109 109 40
116 114 46
111 112 40
121 118 52
126 124 51
116 115 53
122 121 48
126 123 55
121 120 52
135 130 58
140 136 67
129 127 57
131 128 55
128 126 52
137 132 60
140 137 55
141 136 55
136 132 65
131 129 49
141 138 63
142 137 61
141 136 60
146 141 62
137 134 48
146 141 63
145 140 53
151 145 68
151 147 60
149 143 60
153 147 73
149 145 62
154 148 70
153 147 57
148 142 59
151 146 66
159 153 76
146 141 52
156 150 67
151 146 58
153 148 56
159 153 70
154 148 60
154 148 66
163 157 69
158 151 69
155 151 64
161 154 70
157 150 61
158 152 67
157 151 67
159 152 65
154 149 60
158 152 65
156 151 65
158 152 64
159 152 62
164 157 68
159 153 62
157 152 68
159 154 72
154 149 62
155 149 61
158 152 73
161 154 73
156 151 64
159 152 73
164 158 73
160 154 68
157 151 70
163 157 75
158 152 63
158 152 71
158 153 70
156 150 64
159 153 72
160 154 73
159 152 69
157 150 67
161 154 73
156 151 70
155 147 67
158 152 71
156 149 73
150 146 56
148 143 60
158 150 75
156 149 67
163 155 75
163 156 76
156 150 70
155 150 63
156 149 66
155 149 75
153 147 65
153 147 63
149 143 63
153 147 69
150 144 64
151 145 63
152 146 66
148 143 62
157 151 66
149 143 65
151 145 69
146 141 58
156 149 73
149 143 60
146 140 62
153 148 63
151 144 72
217 233 255
217 233 255
217 233 255
217 233 255
217 233 255
217 233 255
217 233 255
217 233 255
217 233 255
217 233 255
217 233 255
217 233 255
217 233 255
217 233 255
217 233 255
217 233 255
217 233 255
217 233 255
217 233 255
217 233 255
217 233 255
217 233 255
217 233 255
217 233 255
217 233 255
217 233 255
218 233 255
218 233 255
218 233 255
218 233 255
218 233 255
218 233 255
218 233 255
218 233 255
218 233 255
218 234 255
218 234 255
218 234 255
218 234 255
218 234 255
218 234 255
218 234 255
218 234 255
218 234 255
218 234 255
218 234 255
218 234 255
218 234 255
218 234 255
218 234 255
218 234 255
218 234 255
218 234 255
218 234 255
218 234 255
218 234 255
218 234 255
218 234 255
218 234 255
218 234 255
218 234 255
218 234 255
218 234 255
218 234 255
218 234 255
218 234 255
218 234 255
218 234 255
218 234 255
218 234 255
218 234 255
218 234 255
218 234 255
218 234 255
218 234 255
218 234 255
218 234 255
218 234 255
218 233 255
218 233 255
218 233 255
218 233 255
218 233 255
218 233 255
218 233 255
217 233 255
217 233 255
217 233 255
217 233 255
217 233 255
217 233 255
217 233 255
217 233 255
217 233 255
217 233 255
217 233 255
217 233 255
217 233 255
217 233 255
217 233 255
217 233 255
217 233 255
217 233 255
217 233 255
217 233 255
217 233 255
217 233 255
217 233 255
217 233 255
217 233 255
217 233 255
217 233 255
217 233 255
216 233 255
216 233 255
216 233 255
216 233 255
216 233 255
216 233 255
216 233 255
216 233 255
216 233 255
216 232 255
216 232 255
215 232 255
215 232 255
215 232 255
215 232 255
215 232 255
215 232 255
215 232 255
214 232 255
214 232 255
214 232 255
214 231 255
213 231 255
213 231 255
138 159 186
59 93 129
61 95 129
61 95 141
60 94 133
60 94 136
58 92 118
60 95 137
60 94 122
61 95 131
61 95 128
60 94 129
58 92 121
60 95 142
59 93 118
58 92 129
59 93 126
60 94 128
58 92 121
60 95 137
59 93 133
60 94 128
59 94 121
59 93 124
59 92 115
59 93 124
59 93 125
59 93 121
58 92 117
60 95 130
60 94 130
60 94 121
59 94 124
60 95 131
60 94 128
60 94 125
60 94 129
60 94 129
58 92 113
58 91 121
59 93 113
59 93 124
59 93 124
57 90 125
59 94 134
59 93 135
60 94 133
59 94 120
58 92 118
59 93 126
58 92 120
60 95 136
59 93 129
60 94 129
60 95 126
60 95 134
59 93 114
59 93 121
60 94 130
59 93 133
60 94 139
60 95 129
58 92 126
60 95 129
57 91 121
59 93 120
57 91 118
59 92 113
60 94 128
58 92 128
59 93 131
58 92 125
57 91 120
60 94 122
60 94 130
59 93 118
59 93 128
59 94 124
59 93 130
59 94 131
59 94 126
60 94 128
59 93 130
58 92 129
60 94 134
58 92 113
59 92 131
59 93 118
59 94 130
58 91 125
59 93 129
59 93 131
59 93 118
59 92 128
58 92 117
57 90 107
57 90 121
60 93 128
59 93 126
60 94 132
57 90 116
58 92 120
60 94 129
58 91 120
57 90 116
57 90 120
57 90 116
58 90 120
57 90 115
57 89 113
57 91 118
57 91 116
59 92 121
58 91 124
57 90 118
59 93 130
56 88 117
57 89 109
57 90 120
57 90 124
56 88 107
58 90 118
57 90 121
55 85 106
53 82 102
52 72 82
65 65 9
70 69 20
63 65 17
69 70 10
67 67 7
58 61 11
67 70 21
68 70 19
67 70 14
73 76 18
70 73 23
79 79 27
81 81 23
78 79 27
81 80 29
83 84 31
84 85 33
83 85 40
91 92 29
83 84 30
90 91 27
100 99 40
108 107 42
108 107 42
104 103 33
101 103 46
111 109 38
107 107 35
116 113 37
121 119 43
123 121 55
121 119 53
118 117 35
123 121 47
129 127 56
122 120 40
132 129 59
125 122 46
129 126 55
139 135 55
134 131 57
138 136 55
146 141 63
121 120 48
139 135 57
140 136 59
145 140 65
149 144 61
145 141 54
149 142 60
143 139 57
139 136 50
152 146 69
151 145 61
147 143 58
149 145 61
147 141 64
148 144 62
157 151 63
149 144 58
150 144 67
149 143 58
149 144 57
151 147 65
152 147 58
151 147 60
152 147 47
153 146 56
154 147 65
161 155 67
146 140 62
158 152 67
160 153 70
155 149 62
158 152 66
165 158 70
152 146 64
157 151 69
158 151 72
160 154 70
154 148 63
156 151 59
151 146 51
158 153 68
163 156 70
160 154 68
161 154 69
161 154 73
160 153 72
159 153 68
160 154 71
159 152 71
158 152 64
163 156 79
160 154 66
158 152 66
156 150 71
157 152 64
152 147 67
159 152 71
159 153 67
158 151 73
155 150 66
155 148 68
156 148 74
157 150 69
154 148 64
160 154 70
163 156 78
152 146 59
153 148 67
157 151 67
157 150 72
154 149 61
152 145 59
154 146 66
151 145 63
155 149 69
153 147 71
147 140 61
148 142 68
150 144 62
152 147 66
159 152 71
149 144 61
150 144 62
152 146 64
150 145 67
149 143 62
157 152 67
151 145 64
143 138 65
160 152 76
149 143 66
152 146 70
147 141 65
152 146 66
217 233 255
217 233 255
217 233 255
217 233 255
217 233 255
217 233 255
217 233 255
217 233 255
217 233 255
217 233 255
217 233 255
217 233 255
217 233 255
217 233 255
217 233 255
217 233 255
217 233 255
217 233 255
217 233 255
217 233 255
217 233 255
217 233 255
217 233 255
217 233 255
217 233 255
217 233 255
217 233 255
217 233 255
217 233 255
217 233 255
217 233 255
217 233 255
217 233 255
217 233 255
217 233 255
217 233 255
217 233 255
217 233 255
217 233 255
217 233 255
217 233 255
217 233 255
217 233 255
217 233 255
217 233 255
217 233 255
217 233 255
217 233 255
217 233 255
217 233 255
217 233 255
217 233 255
217 233 255
217 233 255
217 233 255
217 233 255
217 233 255
217 233 255
217 233 255
217 233 255
217 233 255
217 233 255
217 233 255
217 233 255
217 233 255
217 233 255
217 233 255
217 233 255
217 233 255
217 233 255
217 233 255
217 233 255
217 233 255
217 233 255
217 233 255
217 233 255
217 233 255
217 233 255
217 233 255
217 233 255
217 233 255
217 233 255
217 233 255
217 233 255
217 233 255
217 233 255
217 233 255
217 233 255
217 233 255
217 233 255
217 233 255
217 233 255
217 233 255
217 233 255
217 233 255
217 233 255
217 233 255
217 233 255
217 233 255
217 233 255
217 233 255
217 233 255
217 233 255
217 233 255
217 233 255
217 233 255
217 233 255
217 233 255
216 233 255
216 233 255
216 233 255
216 233 255
216 233 255
216 233 255
216 233 255
216 233 255
216 233 255
216 233 255
216 232 255
216 232 255
216 232 255
215 232 255
215 232 255
215 232 255
215 232 255
215 232 255
215 232 255
215 232 255
214 232 255
214 232 255
214 232 255
214 231 255
214 231 255
213 231 255
213 231 255
213 231 255
213 231 255
169 188 216
60 94 130
60 95 131
60 94 129
59 93 129
58 92 113
60 95 130
59 93 125
59 93 124
58 91 117
58 92 111
60 94 126
59 93 128
60 94 134
59 93 134
59 94 128
58 92 125
60 94 129
59 93 122
59 93 128
57 90 113
57 91 113
59 93 126
59 94 121
59 94 130
59 93 118
59 93 133
59 93 125
58 92 114
60 94 124
59 93 125
58 92 113
59 94 122
59 93 128
58 92 121
60 95 133
57 90 121
59 93 128
61 96 134
58 92 128
60 95 135
59 94 124
59 93 122
60 94 128
59 93 133
59 93 122
58 93 121
59 93 118
58 91 117
58 92 118
59 93 120
58 92 117
59 94 129
60 94 122
57 91 118
59 93 125
59 93 126
60 94 130
58 92 125
60 94 129
58 92 130
58 91 121
59 93 120
60 94 121
58 92 126
58 92 111
59 93 126
60 95 129
59 93 128
60 94 135
59 92 133
60 95 128
59 93 121
60 95 124
58 92 113
60 94 135
59 93 121
59 93 125
60 94 131
59 93 125
60 94 128
61 95 137
59 93 125
59 94 129
59 93 128
59 93 122
59 94 126
59 92 123
59 93 124
58 92 122
58 92 120
58 92 120
60 94 134
59 92 126
58 91 129
57 91 122
57 90 118
60 94 128
57 90 110
58 91 121
58 91 120
58 92 126
57 89 117
59 93 131
59 92 124
58 91 123
58 91 121
57 89 123
58 92 130
58 91 122
57 90 120
58 91 120
56 89 124
58 91 133
57 90 123
58 91 123
56 88 115
56 88 107
57 90 103
54 85 96
55 86 106
57 89 118
56 87 118
54 85 105
53 82 102
59 70 62
70 69 18
69 70 14
54 56 10
74 73 14
67 69 21
60 62 17
77 76 14
74 75 16
66 70 17
62 66 20
66 68 19
73 74 19
87 87 25
80 81 17
83 85 23
82 83 23
77 78 28
79 81 31
86 86 32
99 99 36
106 106 35
99 99 34
93 94 34
102 101 39
96 96 37
106 104 38
116 114 47
109 109 44
116 114 36
113 112 40
108 108 47
116 115 41
114 113 46
128 125 52
126 123 53
119 117 44
125 123 52
136 132 49
118 116 51
131 129 61
129 127 48
133 129 52
138 134 54
141 137 55
136 132 60
133 129 46
140 136 56
151 144 67
152 146 60
143 139 61
137 134 52
146 142 63
146 141 53
146 140 58
146 141 60
140 134 58
161 154 72
156 150 63
145 140 57
157 150 70
157 149 64
155 148 66
156 149 64
155 149 67
154 147 61
154 149 61
150 145 58
157 150 64
156 150 67
153 148 56
165 159 72
155 148 64
155 150 60
162 155 71
155 149 62
156 150 67
160 154 63
156 150 62
153 147 68
160 153 73
157 151 62
162 156 72
160 154 64
156 149 64
160 154 71
159 153 67
148 143 61
160 154 68
162 154 74
155 151 61
157 151 66
162 156 78
157 151 66
159 151 65
158 152 66
161 153 76
152 146 64
155 149 62
155 149 65
158 153 75
150 145 60
151 145 61
157 152 71
156 150 64
159 152 69
156 149 64
156 150 65
154 148 60
154 150 60
158 151 68
153 147 60
157 151 67
159 153 74
155 149 70
155 149 69
151 144 65
158 153 69
147 141 59
161 154 68
154 147 64
155 149 70
157 151 66
154 149 62
153 146 63
149 143 57
158 151 70
151 145 64
152 145 62
153 147 67
151 146 62
153 147 69
152 145 71
151 145 67
153 147 68
157 150 70
150 145 64
151 145 67
217 233 255
217 233 255
217 233 255
217 233 255
217 233 255
217 233 255
217 233 255
217 233 255
217 233 255
217 233 255
217 233 255
217 233 255
217 233 255
217 233 255
217 233 255
217 233 255
217 233 255
217 233 255
217 233 255
217 233 255
217 233 255
217 233 255
217 233 255
217 233 255
217 233 255
217 233 255
217 233 255
217 233 255
217 233 255
217 233 255
217 233 255
217 233 255
217 233 255
217 233 255
217 233 255
217 233 255
217 233 255
217 233 255
217 233 255
217 233 255
217 233 255
217 233 255
217 233 255
217 233 255
217 233 255
217 233 255
217 233 255
217 233 255
217 233 255
217 233 255
217 233 255
217 233 255
217 233 255
217 233 255
217 233 255
217 233 255
217 233 255
217 233 255
217 233 255
217 233 255
217 233 255
217 233 255
217 233 255
217 233 255
217 233 255
217 233 255
217 233 255
217 233 255
217 233 255
217 233 255
217 233 255
217 233 255
217 233 255
217 233 255
217 233 255
217 233 255
217 233 255
217 233 255
217 233 255
217 233 255
217 233 255
217 233 255
217 233 255
217 233 255
217 233 255
217 233 255
217 233 255
217 233 255
217 233 255
217 233 255
217 233 255
217 233 255
217 233 255
217 233 255
217 233 255
217 233 255
217 233 255
217 233 255
217 233 255
217 233 255
217 233 255
216 233 255
216 233 255
216 233 255
216 233 255
216 233 255
216 233 255
216 233 255
216 233 255
216 233 255
216 233 255
216 233 255
216 233 255
216 232 255
216 232 255
216 232 255
216 232 255
215 232 255
215 232 255
215 232 255
215 232 255
215 232 255
215 232 255
215 232 255
215 232 255
215 232 255
214 232 255
214 232 255
214 232 255
214 231 255
214 231 255
213 231 255
213 231 255
213 231 255
213 231 255
212 231 255
212 230 255
201 220 246
59 93 118
59 93 125
59 93 122
59 93 129
61 95 131
60 95 133
59 92 125
58 92 115
58 91 117
59 94 134
59 93 120
59 93 129
59 94 128
60 95 122
59 92 121
61 95 133
59 93 130
59 93 121
59 93 125
61 96 136
58 92 117
59 93 124
60 94 124
58 92 117
60 94 120
59 93 115
58 91 115
60 95 129
59 94 128
59 93 118
61 95 134
60 94 124
59 93 114
60 95 133
60 95 133
59 93 134
60 95 130
59 94 126
59 93 118
58 92 120
60 94 121
58 93 125
58 92 118
59 93 129
59 94 117
59 93 133
57 91 115
58 92 118
57 90 111
59 93 125
60 94 130
58 91 115
58 92 117
59 93 122
60 94 130
59 94 131
59 93 129
61 96 135
60 94 125
59 92 120
60 94 126
59 93 122
59 93 125
59 93 118
59 93 134
57 90 114
57 90 117
58 92 125
60 95 133
58 91 121
58 92 121
59 93 128
59 92 136
59 93 130
59 94 134
60 94 121
58 92 124
59 93 124
58 91 121
59 93 121
58 92 126
59 92 130
57 90 111
60 93 134
59 92 122
58 92 117
57 90 105
59 93 133
58 91 125
59 93 124
58 92 117
60 94 131
59 93 126
59 93 118
59 93 121
59 92 125
59 93 120
59 93 124
58 91 116
58 90 122
58 92 121
58 91 121
57 91 113
58 91 122
59 92 130
56 87 107
60 93 126
58 92 116
57 90 118
60 93 124
58 91 118
57 90 119
57 89 107
58 90 123
59 92 123
57 89 116
57 90 124
57 89 113
56 88 112
58 90 126
54 84 97
53 82 102
55 86 113
53 82 102
62 65 32
80 78 20
65 67 9
78 76 10
68 68 5
60 60 15
73 74 9
71 73 14
77 78 15
72 73 22
73 73 22
76 78 15
68 70 20
88 88 22
84 84 23
81 81 29
83 85 27
76 79 28
86 87 36
90 92 25
99 97 35
97 97 33
99 100 34
106 104 33
95 95 32
101 100 41
105 104 41
112 111 41
115 112 45
119 117 40
108 107 41
116 114 40
113 110 50
117 115 44
116 114 42
123 120 43
125 122 50
130 126 52
137 133 56
138 134 51
137 134 54
133 129 45
128 125 40
129 127 53
134 131 53
132 128 52
138 135 59
134 131 42
134 129 47
144 139 65
144 139 49
139 135 47
136 133 46
145 140 60
142 138 57
149 144 57
135 132 47
151 146 65
144 139 64
145 140 54
142 138 49
146 142 56
150 145 59
148 143 66
156 150 63
150 145 63
147 140 59
154 147 61
154 148 63
153 148 58
152 149 60
151 146 55
155 149 66
158 152 63
154 148 58
160 154 69
149 143 60
152 146 57
157 151 64
161 154 63
154 148 56
157 151 65
154 147 62
153 147 60
155 150 66
155 149 65
154 148 63
151 145 60
157 151 64
155 149 61
154 149 64
158 151 63
155 150 61
166 159 74
155 149 65
155 149 62
156 149 69
151 146 57
158 153 69
153 147 65
157 151 67
156 149 66
154 147 63
157 150 73
156 149 67
160 153 68
152 147 68
151 147 60
142 137 57
153 147 66
158 151 72
155 149 65
155 149 71
154 147 67
156 150 68
150 144 60
153 146 62
149 143 58
156 148 69
152 145 68
155 148 62
157 150 68
155 149 67
157 151 74
154 148 68
153 147 64
155 149 66
149 143 59
152 146 67
156 149 69
147 140 61
155 148 69
153 146 65
149 143 60
148 142 65
151 144 63
150 143 68
151 144 64
216 233 255
216 233 255
216 233 255
216 233 255
216 233 255
216 233 255
216 233 255
216 233 255
216 233 255
217 233 255
217 233 255
217 233 255
217 233 255
217 233 255
217 233 255
217 233 255
217 233 255
217 233 255
217 233 255
217 233 255
217 233 255
217 233 255
217 233 255
217 233 255
217 233 255
217 233 255
217 233 255
217 233 255
217 233 255
217 233 255
217 233 255
217 233 255
217 233 255
217 233 255
217 233 255
217 233 255
217 233 255
217 233 255
217 233 255
217 233 255
217 233 255
217 233 255
217 233 255
217 233 255
217 233 255
217 233 255
217 233 255
217 233 255
217 233 255
217 233 255
217 233 255
217 233 255
217 233 255
217 233 255
217 233 255
217 233 255
217 233 255
217 233 255
217 233 255
217 233 255
217 233 255
217 233 255
217 233 255
217 233 255
217 233 255
217 233 255
217 233 255
217 233 255
217 233 255
217 233 255
217 233 255
217 233 255
217 233 255
217 233 255
217 233 255
217 233 255
217 233 255
217 233 255
217 233 255
217 233 255
217 233 255
217 233 255
217 233 255
217 233 255
217 233 255
217 233 255
217 233 255
217 233 255
217 233 255
217 233 255
217 233 255
217 233 255
217 233 255
217 233 255
216 233 255
216 233 255
216 233 255
216 233 255
216 233 255
216 233 255
216 233 255
216 233 255
216 233 255
216 233 255
216 233 255
216 233 255
216 233 255
216 233 255
216 233 255
216 232 255
216 232 255
216 232 255
216 232 255
215 232 255
215 232 255
215 232 255
215 232 255
215 232 255
215 232 255
215 232 255
215 232 255
215 232 255
214 232 255
214 232 255
214 232 255
214 232 255
214 231 255
214 231 255
214 231 255
213 231 255
213 231 255
213 231 255
213 231 255
212 231 255
212 230 255
212 230 255
211 230 255
211 230 255
124 147 180
59 93 130
60 94 129
60 94 125
60 94 130
59 93 125
59 93 114
60 95 131
60 95 131
59 93 129
60 94 134
59 93 130
59 93 122
58 91 117
59 93 130
59 93 125
60 95 135
60 94 128
60 94 125
59 92 121
60 94 139
59 93 121
59 93 124
58 92 118
59 93 124
58 92 117
58 92 117
60 94 125
58 92 117
59 93 115
60 94 130
59 94 133
57 90 114
59 93 121
60 95 135
60 94 129
59 94 130
59 93 128
58 91 114
60 94 135
58 92 124
60 94 135
61 95 136
59 92 122
59 94 125
57 90 115
59 92 122
57 90 114
58 92 117
59 93 128
60 94 129
61 95 135
59 93 125
58 91 128
58 93 117
59 93 128
58 92 125
59 93 126
58 92 124
58 91 120
58 92 128
60 95 129
60 95 130
60 94 130
60 94 124
57 90 108
59 94 130
58 92 122
59 92 124
60 94 128
59 93 122
60 94 130
59 93 122
59 93 130
58 92 126
59 92 117
58 92 124
58 93 128
59 93 129
58 93 115
60 94 128
59 93 129
59 93 124
59 92 121
59 93 135
59 93 131
59 92 125
58 92 126
58 91 111
57 90 114
58 92 121
60 94 135
59 92 126
58 91 117
60 93 129
58 91 117
58 91 125
58 91 121
60 94 126
60 94 133
58 91 128
57 90 118
58 91 113
56 88 107
60 94 134
58 91 121
59 93 129
58 91 118
58 91 114
58 91 124
56 88 115
56 87 110
57 88 125
57 88 126
57 89 120
56 89 110
56 87 112
57 89 120
56 87 111
55 86 123
57 88 118
54 84 90
55 84 111
67 84 84
63 64 16
73 73 23
74 73 22
76 75 11
77 78 16
74 73 14
78 77 16
77 77 17
74 75 15
74 75 20
66 65 21
75 76 19
78 78 10
80 80 23
85 86 25
84 86 24
82 81 26
96 95 23
88 87 24
100 99 31
95 96 24
108 105 38
99 100 36
101 100 31
115 112 52
102 102 31
109 107 42
111 109 32
113 112 35
115 113 34
111 108 43
113 112 45
109 109 42
112 110 41
121 119 43
123 120 41
132 128 54
117 116 51
120 119 48
136 131 60
131 129 48
137 132 56
126 124 49
133 130 46
132 130 49
142 137 56
143 138 56
142 138 48
143 138 51
130 126 46
131 127 50
137 134 61
144 139 58
142 137 53
152 146 69
144 141 50
148 142 61
139 136 49
150 144 64
153 148 60
142 138 49
153 146 65
154 148 61
146 140 61
149 144 60
153 147 64
149 143 60
156 150 64
152 147 54
148 143 53
160 154 68
150 144 58
151 146 62
155 150 62
156 150 63
150 144 57
154 148 60
152 147 63
154 147 66
149 144 66
154 148 60
156 150 59
154 149 62
159 151 68
156 150 68
153 148 63
154 149 62
152 146 56
156 150 71
159 152 66
161 154 70
157 151 63
154 148 62
157 151 66
166 159 71
153 147 62
161 155 71
157 149 68
160 154 67
159 154 68
155 149 65
151 147 59
156 149 64
160 153 68
153 147 64
161 155 64
147 141 64
153 147 61
150 144 60
153 148 63
151 146 57
161 153 71
148 142 53
149 143 61
153 147 64
154 149 65
162 155 74
156 150 64
156 149 65
158 150 67
152 146 70
155 149 62
157 150 70
152 147 59
152 146 64
150 144 67
145 141 59
146 140 62
158 151 66
144 139 54
150 145 64
159 153 76
140 134 59
146 140 63
150 145 62
149 143 63
145 140 60
156 150 68
216 233 255
216 233 255
216 233 255
216 233 255
216 233 255
216 233 255
216 233 255
216 233 255
216 233 255
216 233 255
216 233 255
216 233 255
216 233 255
216 233 255
216 233 255
216 233 255
216 233 255
216 233 255
216 233 255
216 233 255
216 233 255
216 233 255
216 233 255
216 233 255
217 233 255
217 233 255
217 233 255
217 233 255
217 233 255
217 233 255
217 233 255
217 233 255
217 233 255
217 233 255
217 233 255
217 233 255
217 233 255
217 233 255
217 233 255
217 233 255
217 233 255
217 233 255
217 233 255
217 233 255
217 233 255
217 233 255
217 233 255
217 233 255
217 233 255
217 233 255
217 233 255
217 233 255
217 233 255
217 233 255
217 233 255
217 233 255
217 233 255
217 233 255
217 233 255
217 233 255
217 233 255
217 233 255
217 233 255
217 233 255
217 233 255
217 233 255
217 233 255
217 233 255
217 233 255
217 233 255
217 233 255
217 233 255
217 233 255
217 233 255
217 233 255
217 233 255
217 233 255
217 233 255
217 233 255
217 233 255
217 233 255
217 233 255
217 233 255
217 233 255
216 233 255
216 233 255
216 233 255
216 233 255
216 233 255
216 233 255
216 233 255
216 233 255
216 233 255
216 233 255
216 233 255
216 233 255
216 233 255
216 233 255
216 233 255
216 233 255
216 233 255
216 233 255
216 233 255
216 232 255
216 232 255
216 232 255
216 232 255
216 232 255
215 232 255
215 232 255
215 232 255
215 232 255
215 232 255
215 232 255
215 232 255
215 232 255
215 232 255
215 232 255
215 232 255
214 232 255
214 232 255
214 232 255
214 232 255
214 231 255
214 231 255
214 231 255
213 231 255
213 231 255
213 231 255
213 231 255
213 231 255
212 231 255
212 230 255
212 230 255
211 230 255
211 230 255
211 230 255
210 229 255
156 177 207
59 93 130
59 94 128
58 91 110
59 92 121
60 94 135
60 94 129
57 90 117
58 92 111
59 93 130
58 92 126
59 93 120
59 93 122
60 94 129
61 95 130
57 91 115
59 93 124
59 93 124
59 92 117
59 93 128
56 89 110
59 93 114
59 93 130
59 93 131
58 92 122
59 93 125
59 93 113
59 93 122
59 93 117
57 91 111
60 94 126
60 94 131
61 96 131
59 93 115
60 94 121
59 93 128
59 93 129
59 92 121
59 93 125
59 93 118
57 90 117
57 91 124
59 93 126
59 93 125
59 93 130
59 93 129
58 92 120
59 93 125
59 93 121
58 92 118
60 94 131
57 91 107
59 93 121
58 92 120
59 93 117
59 93 129
59 92 130
60 95 133
59 93 122
58 92 118
59 92 129
58 92 120
59 93 113
59 93 120
58 92 126
59 93 128
58 92 122
58 92 124
59 92 117
58 92 121
58 92 121
58 91 124
59 94 128
59 94 120
57 91 115
58 92 117
59 92 125
59 93 124
58 91 128
59 93 130
58 91 122
60 94 126
57 90 118
59 93 123
58 91 125
59 93 128
58 92 132
58 91 111
57 89 103
58 91 113
59 94 121
57 91 115
60 94 136
58 91 128
58 91 121
57 90 118
60 94 132
60 93 125
59 93 122
59 93 125
58 92 129
57 90 107
58 91 112
56 89 113
58 91 112
58 91 130
56 88 113
57 90 116
57 90 121
56 88 110
57 89 114
57 89 126
58 89 125
57 89 116
56 88 113
57 89 113
56 88 113
55 87 115
55 87 107
56 88 116
56 88 110
55 85 102
54 83 99
64 79 79
72 72 18
81 81 23
74 74 19
90 89 20
84 83 8
74 74 15
70 71 9
63 65 13
66 67 12
76 77 18
71 72 20
75 77 16
77 77 23
76 77 14
83 85 22
91 90 28
73 74 28
78 79 19
86 86 26
108 105 38
87 86 29
95 94 32
108 107 28
96 97 32
113 111 34
103 103 29
113 111 37
99 99 32
112 110 39
105 104 38
120 117 36
105 105 35
117 115 36
121 119 38
124 120 48
127 123 45
122 118 46
123 119 51
126 125 43
135 131 51
140 136 55
139 135 55
131 127 60
137 132 47
146 142 57
130 125 45
140 136 52
133 130 48
140 136 44
133 130 49
132 129 51
137 133 49
147 141 58
143 138 57
143 137 57
140 136 45
152 146 59
157 150 61
148 144 53
152 146 63
143 138 54
149 143 63
150 145 60
145 141 51
155 148 61
147 143 56
151 146 57
155 150 62
155 149 61
149 144 48
150 143 58
153 146 61
151 145 49
153 145 59
150 146 61
147 142 60
153 148 65
152 146 59
157 151 59
154 148 58
155 149 63
155 148 66
158 152 57
156 151 64
160 155 61
157 151 62
155 148 62
148 142 61
152 147 64
155 149 61
157 151 71
161 153 69
149 143 56
153 148 61
157 152 61
155 149 59
153 147 58
157 150 63
158 152 64
157 151 65
150 145 59
153 148 60
150 145 62
160 154 71
160 154 68
148 143 60
147 142 59
157 151 63
156 151 61
156 150 66
158 153 66
158 151 67
150 144 62
155 150 61
142 137 57
149 142 65
150 143 62
154 149 67
159 153 70
150 144 61
148 142 60
150 144 64
157 150 75
147 141 54
153 147 69
155 148 65
148 142 65
152 147 59
144 138 62
154 146 70
160 154 78
151 145 62
144 138 54
143 137 59
152 145 64
147 141 54
159 152 72
136 130 56
216 232 255
216 232 255
216 232 255
216 233 255
216 233 255
216 233 255
216 233 255
216 233 255
216 233 255
216 233 255
216 233 255
216 233 255
216 233 255
216 233 255
216 233 255
216 233 255
216 233 255
216 233 255
216 233 255
216 233 255
216 233 255
216 233 255
216 233 255
216 233 255
216 233 255
216 233 255
216 233 255
216 233 255
216 233 255
216 233 255
216 233 255
216 233 255
216 233 255
216 233 255
216 233 255
216 233 255
216 233 255
216 233 255
216 233 255
216 233 255
216 233 255
216 233 255
216 233 255
216 233 255
216 233 255
216 233 255
216 233 255
217 233 255
216 233 255
216 233 255
216 233 255
216 233 255
217 233 255
217 233 255
217 233 255
216 233 255
217 233 255
217 233 255
217 233 255
216 233 255
217 233 255
216 233 255
216 233 255
216 233 255
216 233 255
216 233 255
216 233 255
216 233 255
216 233 255
216 233 255
216 233 255
216 233 255
216 233 255
216 233 255
216 233 255
216 233 255
216 233 255
216 233 255
216 233 255
216 233 255
216 233 255
216 233 255
216 233 255
216 233 255
216 233 255
216 233 255
216 233 255
216 233 255
216 233 255
216 233 255
216 233 255
216 233 255
216 233 255
216 233 255
216 233 255
216 233 255
216 233 255
216 232 255
216 232 255
216 232 255
216 232 255
216 232 255
216 232 255
215 232 255
215 232 255
215 232 255
215 232 255
215 232 255
215 232 255
215 232 255
215 232 255
215 232 255
215 232 255
215 232 255
215 232 255
215 232 255
214 232 255
214 232 255
214 232 255
214 232 255
214 231 255
214 231 255
214 231 255
213 231 255
213 231 255
213 231 255
213 231 255
213 231 255
212 231 255
212 230 255
212 230 255
212 230 255
211 230 255
211 230 255
211 230 255
210 229 255
210 229 255
209 229 255
195 215 240
63 96 131
60 94 131
58 92 122
60 94 130
58 92 121
58 92 130
58 92 117
59 93 124
58 92 121
59 93 117
57 90 108
58 92 107
58 92 117
59 93 121
60 93 115
58 92 115
60 94 128
59 93 122
58 92 113
60 94 125
56 90 117
59 94 120
58 93 130
59 93 125
59 94 121
58 91 118
59 93 117
59 93 122
59 93 126
59 93 124
58 91 121
59 93 121
59 93 114
59 94 128
57 90 105
59 93 118
59 93 122
59 93 122
61 95 131
58 92 115
60 94 125
59 94 126
57 91 120
58 91 113
60 94 128
59 93 115
60 94 131
59 93 122
58 92 110
60 94 134
58 93 120
57 91 113
61 96 133
57 90 105
58 92 125
59 93 124
59 94 133
59 94 122
59 92 130
59 93 126
61 95 126
58 92 114
59 93 124
57 91 120
59 93 122
57 91 114
59 93 124
60 94 134
59 93 124
59 93 126
58 92 118
59 94 125
58 91 117
59 94 120
59 93 130
57 91 120
59 93 130
57 91 114
58 92 111
59 93 126
59 93 126
58 92 110
59 93 124
59 92 122
59 92 122
59 93 118
59 94 125
57 90 114
58 92 120
57 90 121
57 90 113
61 95 135
58 92 115
60 94 125
59 93 125
58 92 122
57 90 118
57 90 113
59 93 108
58 91 124
58 92 118
58 92 123
58 92 124
57 90 120
59 92 132
55 87 107
57 89 115
57 90 118
57 89 123
58 91 121
57 90 114
58 90 119
57 89 123
57 90 114
57 88 121
55 86 110
53 83 110
55 87 110
57 89 120
55 86 109
56 86 110
51 77 85
86 86 39
77 76 28
72 71 20
69 68 18
82 80 23
73 74 27
67 69 11
72 72 18
71 70 20
72 72 14
80 80 16
77 78 19
79 78 15
76 77 16
82 83 28
82 83 16
81 82 31
82 83 25
92 92 28
82 82 19
85 87 25
97 97 21
92 90 25
95 94 36
97 98 34
95 93 29
101 100 32
105 104 33
102 103 29
110 107 36
114 111 38
117 115 38
117 115 33
117 115 32
123 121 38
116 114 37
110 109 35
130 127 38
122 119 32
121 119 43
123 121 43
129 125 48
128 124 38
127 124 45
119 116 39
142 137 52
122 120 42
135 131 45
136 133 47
143 138 60
127 123 46
136 132 56
133 129 49
132 128 46
153 147 56
143 137 55
137 133 55
145 140 57
145 140 55
148 141 59
144 139 53
150 143 57
147 142 49
142 136 56
145 141 51
150 145 59
152 145 60
152 147 53
160 153 66
156 150 62
148 142 56
154 146 64
149 144 58
154 148 61
147 142 52
150 145 58
156 150 58
147 142 52
153 147 66
148 142 54
156 150 66
143 138 51
158 151 64
149 143 52
159 153 71
158 151 62
153 147 49
159 152 64
149 143 53
153 146 64
156 150 62
148 141 54
155 148 60
153 147 61
152 146 54
147 142 53
145 140 54
157 151 64
156 149 63
153 147 62
150 144 60
150 143 59
155 149 54
153 146 63
155 148 59
153 147 65
149 143 56
151 145 61
150 144 59
155 149 65
158 151 71
152 145 61
156 150 68
159 151 65
152 147 64
152 145 66
151 145 60
150 142 67
145 140 51
154 147 61
145 140 62
150 143 62
155 149 71
147 141 59
150 145 62
152 146 61
150 144 52
144 139 52
150 144 66
146 140 62
156 150 69
146 141 59
152 146 59
147 141 63
151 145 63
144 139 62
154 149 64
150 145 58
145 141 64
215 232 255
216 232 255
216 232 255
216 232 255
216 232 255
216 232 255
216 232 255
216 232 255
216 232 255
216 232 255
216 232 255
216 232 255
216 232 255
216 232 255
216 233 255
216 233 255
216 233 255
216 233 255
216 233 255
216 233 255
216 233 255
216 233 255
216 233 255
216 233 255
216 233 255
216 233 255
216 233 255
216 233 255
216 233 255
216 233 255
216 233 255
216 233 255
216 233 255
216 233 255
216 233 255
216 233 255
216 233 255
216 233 255
216 233 255
216 233 255
216 233 255
216 233 255
216 233 255
216 233 255
216 233 255
216 233 255
216 233 255
216 233 255
216 233 255
216 233 255
216 233 255
216 233 255
216 233 255
216 233 255
216 233 255
216 233 255
216 233 255
216 233 255
216 233 255
216 233 255
216 233 255
216 233 255
216 233 255
216 233 255
216 233 255
216 233 255
216 233 255
216 233 255
216 233 255
216 233 255
216 233 255
216 233 255
216 233 255
216 233 255
216 233 255
216 233 255
216 233 255
216 233 255
216 233 255
216 233 255
216 233 255
216 233 255
216 233 255
216 233 255
216 233 255
216 233 255
216 233 255
216 233 255
216 233 255
216 232 255
216 232 255
216 232 255
216 232 255
216 232 255
216 232 255
216 232 255
216 232 255
215 232 255
215 232 255
215 232 255
215 232 255
215 232 255
215 232 255
215 232 255
215 232 255
215 232 255
215 232 255
215 232 255
215 232 255
215 232 255
215 232 255
215 232 255
214 232 255
214 232 255
214 232 255
214 232 255
214 231 255
214 231 255
214 231 255
214 231 255
213 231 255
213 231 255
213 231 255
213 231 255
213 231 255
213 231 255
212 231 255
212 230 255
212 230 255
212 230 255
211 230 255
211 230 255
211 230 255
210 229 255
210 229 255
209 229 255
209 229 255
208 228 255
208 228 255
110 134 158
61 96 135
59 92 121
60 95 129
60 94 128
60 94 128
60 94 122
58 91 120
59 92 115
58 93 113
59 93 122
60 94 136
58 92 115
59 94 129
59 93 117
58 92 113
60 94 131
58 92 114
59 93 120
59 93 129
57 91 121
58 92 115
58 92 126
60 94 126
59 93 124
59 94 129
58 92 118
59 92 118
58 92 113
59 93 121
59 93 108
59 93 125
57 90 115
58 91 115
57 90 114
58 91 103
59 93 121
59 93 113
58 92 117
58 92 115
59 93 120
60 94 126
59 92 117
59 93 122
60 94 131
57 91 110
59 93 114
59 93 124
57 90 107
60 94 133
59 93 126
58 92 121
58 91 125
61 95 128
59 93 111
59 94 118
59 93 122
59 93 129
59 93 115
59 93 128
59 93 121
58 92 117
59 92 118
57 90 107
58 91 113
58 92 129
58 92 122
58 92 121
59 93 120
59 93 118
58 92 130
58 91 118
61 95 141
57 90 110
57 90 113
56 89 108
60 94 122
60 94 128
58 92 118
59 92 121
59 92 129
59 93 121
58 91 115
59 93 122
60 94 131
57 90 111
59 94 126
58 92 117
57 90 118
59 92 131
57 90 108
59 93 130
58 91 121
59 93 126
59 92 129
58 92 125
58 91 114
58 92 122
58 91 118
57 90 119
57 89 120
58 90 120
56 88 108
58 91 121
57 90 105
56 88 119
58 90 118
58 91 117
57 90 120
56 89 120
58 92 128
57 90 119
56 88 114
56 88 116
56 88 112
56 87 112
54 84 112
55 86 98
54 85 99
53 82 105
53 82 111
71 90 92
86 85 31
72 70 21
79 78 19
81 79 8
78 77 16
90 87 25
78 77 16
76 76 20
75 75 18
80 80 19
85 85 14
77 76 9
76 77 13
85 83 22
85 84 20
77 78 16
94 92 20
85 84 24
95 94 20
99 99 27
103 100 33
89 89 25
86 86 21
94 93 24
102 102 24
97 97 24
110 107 34
116 115 32
111 109 32
97 95 33
116 113 36
113 112 33
111 110 30
112 109 39
118 115 39
132 128 44
119 117 42
116 113 33
124 121 41
130 126 48
124 122 49
137 131 51
138 134 51
126 123 46
121 117 45
126 124 42
136 131 49
137 134 49
142 137 58
125 121 47
138 134 50
135 131 51
142 137 43
138 134 57
145 140 53
141 137 51
140 135 48
143 139 47
145 140 53
144 138 55
145 140 56
142 137 55
151 146 64
152 146 56
151 145 60
140 136 57
142 137 51
146 141 56
148 142 57
148 142 61
149 144 54
149 143 64
145 138 53
151 146 61
153 147 65
145 141 48
143 139 44
150 145 54
152 146 58
144 139 58
153 147 60
147 142 59
157 151 61
153 147 60
152 145 61
150 144 53
152 147 50
148 143 51
155 148 63
159 153 60
154 148 57
164 157 72
154 147 64
150 144 62
159 152 64
155 150 59
162 155 67
155 150 59
154 147 61
154 149 60
150 145 52
153 147 66
159 152 67
150 144 57
153 146 61
153 147 62
155 149 53
152 146 59
153 146 61
146 142 52
157 150 66
149 143 63
156 150 66
152 146 60
154 148 61
162 154 73
155 149 64
158 151 73
153 146 64
154 147 66
148 143 62
143 137 60
151 145 61
153 147 70
151 144 65
146 140 60
146 142 58
145 140 57
149 144 59
144 139 59
142 137 62
146 138 62
150 144 58
148 142 62
147 143 58
150 144 72
150 143 61
146 140 60
152 146 65
215 232 255
215 232 255
215 232 255
215 232 255
215 232 255
215 232 255
215 232 255
215 232 255
215 232 255
215 232 255
215 232 255
215 232 255
215 232 255
216 232 255
216 232 255
216 232 255
216 232 255
216 232 255
216 232 255
216 232 255
216 232 255
216 232 255
216 232 255
216 232 255
216 232 255
216 232 255
216 232 255
216 232 255
216 232 255
216 232 255
216 232 255
216 233 255
216 233 255
216 233 255
216 233 255
216 233 255
216 233 255
216 233 255
216 233 255
216 233 255
216 233 255
216 233 255
216 233 255
216 233 255
216 233 255
216 233 255
216 233 255
216 233 255
216 233 255
216 233 255
216 233 255
216 233 255
216 233 255
216 233 255
216 233 255
216 233 255
216 233 255
216 233 255
216 233 255
216 233 255
216 233 255
216 233 255
216 233 255
216 233 255
216 233 255
216 233 255
216 233 255
216 233 255
216 233 255
216 233 255
216 233 255
216 233 255
216 233 255
216 233 255
216 233 255
216 233 255
216 233 255
216 233 255
216 232 255
216 232 255
216 232 255
216 232 255
216 232 255
216 232 255
216 232 255
216 232 255
216 232 255
216 232 255
216 232 255
216 232 255
215 232 255
215 232 255
215 232 255
215 232 255
215 232 255
215 232 255
215 232 255
215 232 255
215 232 255
215 232 255
215 232 255
215 232 255
215 232 255
215 232 255
215 232 255
215 232 255
215 232 255
215 232 255
214 232 255
214 232 255
214 232 255
214 232 255
214 232 255
214 231 255
214 231 255
214 231 255
214 231 255
213 231 255
213 231 255
213 231 255
213 231 255
213 231 255
213 231 255
212 231 255
212 231 255
212 230 255
212 230 255
212 230 255
211 230 255
211 230 255
211 230 255
210 229 255
210 229 255
210 229 255
209 229 255
209 229 255
208 228 255
207 228 255
207 228 255
170 192 216
59 93 122
59 93 128
58 92 125
58 93 122
58 92 114
57 90 110
60 94 125
59 93 114
58 91 110
59 94 125
58 92 120
57 90 105
60 94 125
59 93 113
59 93 128
59 94 131
58 92 124
59 93 128
58 91 117
58 92 129
59 93 122
58 92 117
57 91 117
59 92 121
59 93 121
57 90 110
58 92 117
59 93 124
57 90 120
59 93 130
59 92 120
58 92 118
59 93 120
59 93 115
58 91 111
59 93 126
58 92 122
59 93 125
58 93 111
60 93 129
58 92 122
58 92 114
59 94 125
58 92 120
58 91 121
59 93 118
58 91 122
59 93 128
58 92 117
59 93 129
57 91 107
58 91 118
58 92 124
59 93 134
58 91 120
59 92 120
60 94 125
59 94 130
58 92 111
56 90 100
58 90 117
60 94 128
57 91 111
60 95 129
59 93 125
58 92 117
59 93 121
57 90 117
57 91 111
58 92 124
58 91 120
58 92 117
60 94 133
58 92 126
59 92 120
58 91 121
58 92 122
59 93 122
57 91 117
57 90 118
58 92 118
57 91 117
58 93 125
59 93 122
58 92 121
57 90 120
59 93 129
57 91 105
59 92 120
57 90 116
59 93 125
58 91 121
56 89 113
60 94 130
56 89 112
57 90 114
57 91 118
58 91 116
58 91 117
59 93 123
59 92 115
58 92 125
56 88 110
58 91 114
59 92 124
57 89 113
57 90 114
56 88 115
57 90 118
55 87 104
56 87 107
56 89 118
54 84 100
58 90 127
54 85 108
57 88 115
54 84 98
55 86 111
54 85 108
54 84 103
96 99 73
83 82 25
82 79 26
87 86 26
75 73 16
78 78 24
89 86 25
63 65 22
69 70 9
65 66 14
79 79 14
70 72 8
81 79 6
69 70 18
70 69 14
89 86 15
80 81 20
87 88 19
88 88 12
82 80 20
86 88 14
83 83 19
89 92 20
106 103 33
98 96 19
100 99 29
101 100 21
96 95 31
107 105 30
109 106 36
103 103 32
105 104 38
110 108 36
125 122 39
107 106 33
115 112 32
115 112 43
117 115 33
121 117 44
122 120 35
124 121 38
125 122 48
128 125 43
130 126 45
123 119 41
135 132 48
136 132 47
128 125 37
138 134 47
135 131 49
134 129 47
128 127 39
132 128 46
139 136 38
139 135 43
144 139 53
150 144 55
144 138 50
137 132 48
148 142 58
142 137 58
150 144 60
145 141 54
151 146 57
138 134 45
141 137 43
144 139 49
143 138 51
145 141 45
144 140 48
153 146 59
150 143 56
153 146 54
153 147 63
156 150 60
148 142 56
154 148 58
149 143 49
152 147 57
146 141 55
152 145 61
151 144 66
151 146 53
149 142 56
154 149 61
150 145 55
145 139 52
152 146 54
154 147 54
152 147 56
151 144 62
151 144 62
158 152 64
153 147 59
153 147 60
152 146 63
146 140 54
152 147 59
153 147 64
146 140 57
152 146 56
151 146 59
155 148 60
159 152 64
158 152 65
157 150 63
157 150 59
141 137 53
148 143 57
146 139 65
154 148 65
155 149 62
158 152 64
153 147 66
158 151 66
152 147 63
148 143 58
153 147 54
150 143 65
141 136 54
149 144 59
151 145 66
150 145 56
151 145 59
145 139 65
159 152 69
148 143 56
154 147 71
147 141 65
151 144 67
151 145 62
151 144 66
149 143 62
153 146 69
153 146 65
151 144 64
160 152 72
148 142 64
145 138 65
143 138 56
215 232 255
215 232 255
215 232 255
215 232 255
215 232 255
215 232 255
215 232 255
215 232 255
215 232 255
215 232 255
215 232 255
215 232 255
215 232 255
215 232 255
215 232 255
215 232 255
215 232 255
215 232 255
215 232 255
215 232 255
215 232 255
215 232 255
215 232 255
215 232 255
215 232 255
215 232 255
215 232 255
216 232 255
216 232 255
216 232 255
216 232 255
216 232 255
216 232 255
216 232 255
216 232 255
216 232 255
216 232 255
216 232 255
216 232 255
216 232 255
216 232 255
216 232 255
216 232 255
216 232 255
216 232 255
216 232 255
216 232 255
216 232 255
216 232 255
216 232 255
216 232 255
216 232 255
216 232 255
216 232 255
216 232 255
216 232 255
216 232 255
216 232 255
216 232 255
216 232 255
216 232 255
216 232 255
216 232 255
216 232 255
216 232 255
216 232 255
216 232 255
216 232 255
216 232 255
216 232 255
216 232 255
216 232 255
216 232 255
216 232 255
216 232 255
216 232 255
216 232 255
216 232 255
216 232 255
216 232 255
215 232 255
215 232 255
215 232 255
215 232 255
215 232 255
215 232 255
215 232 255
215 232 255
215 232 255
215 232 255
215 232 255
215 232 255
215 232 255
215 232 255
215 232 255
215 232 255
215 232 255
215 232 255
215 232 255
215 232 255
215 232 255
215 232 255
215 232 255
214 232 255
214 232 255
214 232 255
214 232 255
214 232 255
214 232 255
214 231 255
214 231 255
214 231 255
214 231 255
214 231 255
213 231 255
213 231 255
213 231 255
213 231 255
213 231 255
213 231 255
213 231 255
212 231 255
212 230 255
212 230 255
212 230 255
211 230 255
211 230 255
211 230 255
211 230 255
210 229 255
210 229 255
210 229 255
209 229 255
209 229 255
208 228 255
208 228 255
207 228 255
206 227 255
206 227 255
202 223 252
92 118 137
60 95 133
60 94 121
59 93 118
59 93 115
58 91 113
58 92 125
58 91 121
59 93 122
60 94 129
60 94 122
59 93 122
59 92 131
60 95 128
58 92 122
57 90 117
57 90 117
59 93 120
58 91 120
59 93 122
58 92 121
59 93 124
59 94 117
57 91 107
58 92 120
58 92 117
59 93 131
56 90 103
58 91 118
57 91 118
59 93 128
58 92 114
58 92 118
58 92 120
58 92 121
59 93 122
58 92 118
58 92 120
59 93 128
59 94 124
57 90 102
59 93 120
59 93 131
59 93 124
58 92 120
57 90 117
58 92 121
58 92 117
58 92 115
58 92 114
59 92 118
58 92 113
58 92 114
57 90 108
58 91 115
58 92 114
59 93 122
59 93 125
59 93 131
57 91 120
57 91 117
60 94 126
59 92 122
58 92 121
57 91 120
59 93 124
58 92 120
57 90 113
58 91 121
59 93 117
59 93 130
59 93 122
56 89 107
59 93 122
58 91 121
59 93 128
57 90 120
58 92 122
58 90 114
60 94 128
58 92 117
58 91 124
59 92 120
57 91 113
58 92 111
60 94 136
58 92 124
58 91 124
58 91 120
58 91 121
58 91 124
58 91 125
58 91 120
57 91 110
58 91 120
58 91 125
58 90 126
58 91 112
57 90 115
59 92 131
57 89 108
57 89 113
57 91 113
59 93 124
57 89 120
56 88 110
56 88 118
58 91 124
57 90 123
56 88 113
58 91 125
56 88 115
55 86 116
56 87 109
56 87 108
54 85 96
56 87 114
54 85 111
54 84 105
54 79 94
102 98 49
94 92 29
98 93 30
87 86 22
82 82 20
82 81 14
81 80 21
80 78 0
88 86 18
91 89 24
76 76 21
79 79 16
89 88 9
76 74 16
85 85 18
80 82 14
74 76 21
91 90 17
90 90 14
70 71 12
91 90 14
96 95 24
94 94 15
98 96 20
99 98 33
95 95 19
99 98 25
102 101 33
96 94 30
107 105 33
112 110 37
111 108 34
112 110 35
112 109 40
112 109 36
105 103 29
116 113 31
113 111 33
123 121 35
122 120 33
121 118 36
127 123 48
132 127 47
131 129 42
132 128 45
126 123 43
127 123 41
126 122 44
126 122 42
136 133 45
133 129 49
137 133 51
143 137 56
139 134 49
137 132 47
143 138 45
143 137 57
144 138 56
148 142 61
149 144 51
140 135 45
146 140 49
142 135 58
147 142 54
146 141 54
139 134 33
139 135 46
147 141 49
147 143 54
149 144 51
143 138 53
149 141 57
149 144 54
147 141 54
145 140 49
145 139 58
148 142 54
147 141 54
158 152 61
152 146 57
147 141 53
155 149 63
149 143 52
150 144 53
156 150 57
149 143 57
148 141 52
152 146 51
159 151 65
150 145 59
153 145 56
156 149 58
156 149 60
151 145 60
153 148 60
154 147 56
147 141 52
156 149 63
141 135 44
149 143 54
161 154 71
156 150 63
147 142 57
151 145 62
156 149 58
149 144 60
151 144 60
147 141 59
158 152 69
151 145 57
149 142 57
151 145 59
153 147 60
150 144 60
149 143 56
148 142 58
155 149 62
151 145 64
144 139 51
152 147 62
149 144 56
151 146 58
147 141 63
152 146 63
152 146 61
149 144 54
148 142 65
142 137 53
147 140 63
145 139 54
147 141 62
145 139 56
153 147 64
146 139 61
147 143 57
145 139 60
138 132 59
148 142 60
146 140 59
152 145 69
215 232 255
215 232 255
215 232 255
215 232 255
215 232 255
215 232 255
215 232 255
215 232 255
215 232 255
215 232 255
215 232 255
215 232 255
215 232 255
215 232 255
215 232 255
215 232 255
215 232 255
215 232 255
215 232 255
215 232 255
215 232 255
215 232 255
215 232 255
215 232 255
215 232 255
215 232 255
215 232 255
215 232 255
215 232 255
215 232 255
215 232 255
215 232 255
215 232 255
215 232 255
215 232 255
215 232 255
215 232 255
215 232 255
215 232 255
215 232 255
215 232 255
215 232 255
215 232 255
215 232 255
215 232 255
215 232 255
215 232 255
215 232 255
215 232 255
215 232 255
215 232 255
215 232 255
215 232 255
215 232 255
215 232 255
215 232 255
215 232 255
215 232 255
215 232 255
215 232 255
215 232 255
215 232 255
215 232 255
215 232 255
215 232 255
215 232 255
215 232 255
215 232 255
215 232 255
215 232 255
215 232 255
215 232 255
215 232 255
215 232 255
215 232 255
215 232 255
215 232 255
215 232 255
215 232 255
215 232 255
215 232 255
215 232 255
215 232 255
215 232 255
215 232 255
215 232 255
215 232 255
215 232 255
215 232 255
215 232 255
215 232 255
215 232 255
215 232 255
215 232 255
215 232 255
215 232 255
215 232 255
214 232 255
214 232 255
214 232 255
214 232 255
214 232 255
214 232 255
214 232 255
214 231 255
214 231 255
214 231 255
214 231 255
214 231 255
214 231 255
213 231 255
213 231 255
213 231 255
213 231 255
213 231 255
213 231 255
213 231 255
213 231 255
212 231 255
212 230 255
212 230 255
212 230 255
212 230 255
211 230 255
211 230 255
211 230 255
211 230 255
210 229 255
210 229 255
210 229 255
209 229 255
209 229 255
208 228 255
208 228 255
207 228 255
207 228 255
206 227 255
205 227 255
204 226 255
203 226 255
144 168 198
59 93 124
58 91 117
57 90 120
58 92 122
58 92 113
58 92 115
57 90 99
58 92 113
59 93 125
60 94 128
60 94 131
59 93 129
59 92 124
58 91 111
58 92 124
57 90 103
57 90 111
60 94 134
60 94 124
58 91 113
59 93 115
58 91 113
60 95 131
58 92 122
59 92 118
58 91 122
58 92 111
58 92 117
57 91 105
58 92 115
58 91 107
58 91 113
58 92 117
59 92 125
58 92 121
58 92 118
58 92 110
59 92 121
58 92 118
60 94 131
57 90 114
58 93 126
58 92 111
58 91 120
59 94 121
58 91 114
58 92 118
59 93 129
57 90 113
56 89 102
58 92 113
59 93 120
58 92 124
56 88 105
57 90 114
59 92 125
57 90 115
59 92 125
59 93 115
58 91 114
59 93 126
58 91 124
60 94 129
59 93 118
58 91 113
58 92 117
56 90 108
57 91 115
60 94 130
59 92 129
56 90 117
57 90 118
57 90 114
58 92 124
60 94 128
59 94 128
60 94 121
57 91 105
57 91 115
59 94 129
57 90 107
58 91 123
58 92 120
60 95 131
59 93 120
57 90 111
57 91 115
57 89 110
58 92 113
57 90 99
59 93 125
58 92 121
59 92 120
59 93 126
59 93 125
59 92 117
57 90 120
57 90 124
57 90 126
57 89 113
57 89 113
56 88 120
57 90 116
57 90 115
58 92 129
57 90 119
57 90 117
56 89 101
55 87 104
56 88 110
58 91 122
58 90 121
57 89 104
54 85 109
54 84 87
54 84 91
52 80 99
53 82 97
84 92 72
93 90 36
110 106 31
91 87 30
73 71 26
85 82 24
82 79 23
65 66 14
87 86 22
90 88 24
88 87 12
75 73 14
87 86 21
83 82 14
73 74 16
76 76 12
87 87 14
72 74 18
69 70 19
85 85 15
84 82 18
90 88 16
102 99 20
93 90 22
90 91 25
106 103 23
101 100 29
108 105 21
107 105 21
97 97 29
99 97 23
109 107 29
107 106 35
110 108 31
111 109 37
114 112 32
117 112 36
120 116 34
117 114 35
111 109 21
119 115 37
130 126 46
129 125 35
132 127 44
125 122 37
120 116 38
125 122 30
134 130 51
122 117 38
135 131 43
128 124 47
133 128 47
141 136 42
136 132 49
142 138 47
131 126 42
139 133 38
135 131 38
142 137 49
147 140 49
136 131 49
149 144 51
140 134 50
145 140 49
143 137 52
145 140 58
147 142 53
144 138 53
145 141 48
147 141 52
144 138 54
154 146 56
151 144 54
152 146 51
151 144 59
142 138 47
147 142 49
156 149 58
153 147 61
148 142 52
147 141 57
145 140 51
149 143 51
156 150 57
148 143 53
150 143 48
150 144 53
154 147 58
153 146 57
145 139 53
152 146 57
147 141 54
145 139 53
159 152 60
152 145 59
157 152 69
149 144 49
148 143 58
149 142 61
147 141 57
150 144 52
152 146 59
151 146 58
156 149 59
155 149 59
149 142 57
153 145 60
148 142 51
154 148 64
148 143 57
149 143 53
151 144 60
142 135 58
151 144 63
154 148 54
151 145 57
147 142 47
148 142 53
148 141 56
147 141 64
141 135 51
148 142 58
153 146 63
144 138 58
144 138 54
145 139 57
149 142 58
152 144 65
138 132 58
153 146 65
153 146 73
149 143 61
149 143 63
140 135 48
152 146 64
149 143 65
146 140 59
148 141 63
149 143 61
141 133 58
148 142 68
214 232 255
214 232 255
214 232 255
214 232 255
214 232 255
214 232 255
214 232 255
214 232 255
215 232 255
215 232 255
215 232 255
215 232 255
215 232 255
215 232 255
215 232 255
215 232 255
215 232 255
215 232 255
215 232 255
215 232 255
215 232 255
215 232 255
215 232 255
215 232 255
215 232 255
215 232 255
215 232 255
215 232 255
215 232 255
215 232 255
215 232 255
215 232 255
215 232 255
215 232 255
215 232 255
215 232 255
215 232 255
215 232 255
215 232 255
215 232 255
215 232 255
215 232 255
215 232 255
215 232 255
215 232 255
215 232 255
215 232 255
215 232 255
215 232 255
215 232 255
215 232 255
215 232 255
215 232 255
215 232 255
215 232 255
215 232 255
215 232 255
215 232 255
215 232 255
215 232 255
215 232 255
215 232 255
215 232 255
215 232 255
215 232 255
215 232 255
215 232 255
215 232 255
215 232 255
215 232 255
215 232 255
215 232 255
215 232 255
215 232 255
215 232 255
215 232 255
215 232 255
215 232 255
215 232 255
215 232 255
215 232 255
215 232 255
215 232 255
215 232 255
215 232 255
215 232 255
215 232 255
215 232 255
215 232 255
215 232 255
215 232 255
214 232 255
214 232 255
214 232 255
214 232 255
214 232 255
214 232 255
214 232 255
214 232 255
214 232 255
214 231 255
214 231 255
214 231 255
214 231 255
214 231 255
214 231 255
213 231 255
213 231 255
213 231 255
213 231 255
213 231 255
213 231 255
213 231 255
213 231 255
212 231 255
212 231 255
212 230 255
212 230 255
212 230 255
212 230 255
211 230 255
211 230 255
211 230 255
211 230 255
210 230 255
210 229 255
210 229 255
210 229 255
209 229 255
209 229 255
209 228 255
208 228 255
208 228 255
207 228 255
206 227 255
206 227 255
205 227 255
204 226 255
203 225 255
201 225 255
168 192 125
66 99 131
60 94 125
57 90 114
57 90 115
58 91 120
58 91 115
57 91 117
59 93 124
58 92 115
57 91 108
59 92 117
58 92 120
59 94 129
58 92 115
57 90 110
60 94 131
58 92 110
60 94 125
58 91 108
58 92 120
58 92 118
58 91 110
56 90 100
58 91 113
59 93 124
58 92 107
59 93 121
57 90 108
60 94 121
59 93 120
59 93 120
60 94 115
59 94 125
58 92 115
57 91 114
59 93 126
58 91 115
59 93 120
57 90 107
57 91 113
58 92 118
60 94 128
58 91 117
59 94 114
60 94 130
58 91 114
59 93 130
57 91 108
58 92 111
57 91 108
58 91 125
59 92 108
59 92 126
59 93 129
58 92 115
58 92 120
58 92 118
57 90 115
57 91 115
57 90 107
58 91 115
57 90 114
58 92 122
57 90 110
60 93 131
57 90 115
60 94 121
60 94 135
58 92 117
58 92 113
58 92 124
58 92 120
56 89 100
58 91 111
58 92 122
58 91 115
56 89 103
58 92 124
59 92 129
60 94 131
57 90 116
58 92 120
58 91 118
58 92 128
59 92 124
58 92 125
57 91 114
57 90 117
58 92 129
58 90 120
56 89 104
58 91 111
57 90 124
56 89 105
56 89 108
57 90 124
58 90 117
57 90 111
56 88 108
55 87 104
57 89 117
57 89 113
57 90 108
57 90 118
54 86 110
58 91 122
56 88 115
53 84 102
56 88 115
55 87 113
54 85 98
55 86 107
56 88 111
57 90 112
54 84 98
53 83 98
55 85 105
56 84 98
153 170 22
88 84 31
102 98 38
88 84 25
96 92 31
84 84 26
98 94 31
97 94 29
87 85 12
89 85 25
71 70 8
71 71 11
87 86 14
72 73 19
79 80 22
86 85 13
90 88 12
78 78 18
81 80 17
79 80 18
93 92 15
91 91 4
79 78 14
97 96 21
104 102 20
90 89 8
90 88 21
98 95 28
104 102 20
112 110 34
111 109 33
118 115 29
109 106 19
113 110 28
115 113 22
109 106 32
113 109 41
109 106 35
121 118 26
109 108 36
115 113 35
122 119 38
121 116 42
122 119 42
133 128 38
121 119 37
130 126 47
124 121 31
127 124 41
130 126 37
127 123 39
136 134 37
132 128 41
138 133 49
132 127 47
136 131 45
134 130 38
145 140 49
140 135 52
144 138 48
137 132 49
133 129 42
136 130 44
139 135 37
140 135 58
144 139 47
153 147 58
142 137 47
149 143 52
143 138 47
146 140 49
147 141 46
147 142 44
143 139 49
148 141 58
145 140 50
148 143 49
137 132 47
141 136 45
148 141 57
147 141 52
147 141 46
152 146 52
148 143 56
153 145 61
143 138 45
151 146 51
155 148 65
150 144 57
156 150 63
154 147 59
152 145 66
150 145 54
149 144 63
155 149 57
152 145 64
149 144 54
149 143 53
152 147 52
153 145 58
154 149 52
148 142 48
151 145 48
151 146 52
153 147 59
148 141 54
146 141 54
151 145 60
151 145 61
150 145 56
146 142 51
148 143 58
161 154 65
151 146 54
141 136 47
148 142 58
151 144 61
149 143 53
147 140 53
141 135 53
148 142 65
149 143 57
152 146 64
143 138 51
150 143 63
139 133 52
143 138 62
148 142 62
145 139 63
147 140 57
148 142 53
154 147 67
143 137 57
143 139 53
149 142 62
139 134 48
147 141 65
141 136 54
157 149 71
150 144 64
143 138 54
214 231 255
214 231 255
214 232 255
214 232 255
214 232 255
214 232 255
214 232 255
214 232 255
214 232 255
214 232 255
214 232 255
214 232 255
214 232 255
214 232 255
214 232 255
214 232 255
214 232 255
214 232 255
214 232 255
214 232 255
215 232 255
215 232 255
215 232 255
215 232 255
215 232 255
215 232 255
215 232 255
215 232 255
215 232 255
215 232 255
215 232 255
215 232 255
215 232 255
215 232 255
215 232 255
215 232 255
215 232 255
215 232 255
215 232 255
215 232 255
215 232 255
215 232 255
215 232 255
215 232 255
215 232 255
215 232 255
215 232 255
215 232 255
215 232 255
215 232 255
215 232 255
215 232 255
215 232 255
215 232 255
215 232 255
215 232 255
215 232 255
215 232 255
215 232 255
215 232 255
215 232 255
215 232 255
215 232 255
215 232 255
215 232 255
215 232 255
215 232 255
215 232 255
215 232 255
215 232 255
215 232 255
215 232 255
215 232 255
215 232 255
215 232 255
215 232 255
215 232 255
215 232 255
215 232 255
215 232 255
215 232 255
215 232 255
214 232 255
214 232 255
214 232 255
214 232 255
214 232 255
214 232 255
214 232 255
214 232 255
214 232 255
214 232 255
214 232 255
214 232 255
214 231 255
214 231 255
214 231 255
214 231 255
214 231 255
214 231 255
214 231 255
213 231 255
213 231 255
213 231 255
213 231 255
213 231 255
213 231 255
213 231 255
213 231 255
213 231 255
213 231 255
212 231 255
212 231 255
212 230 255
212 230 255
212 230 255
212 230 255
212 230 255
211 230 255
211 230 255
211 230 255
211 230 255
210 230 255
210 229 255
210 229 255
210 229 255
209 229 255
209 229 255
209 228 255
208 228 255
208 228 255
207 228 255
207 227 255
206 227 255
205 227 255
205 226 255
204 226 255
203 225 255
201 225 255
187 210 182
173 196 0
123 147 82
59 93 125
59 93 120
59 93 118
57 91 113
58 92 130
58 91 113
57 91 110
59 93 120
57 90 113
57 90 117
58 92 126
58 92 115
58 91 115
60 94 131
57 90 118
59 93 117
57 90 110
59 92 117
57 90 114
58 91 113
57 90 103
59 93 121
59 93 120
59 92 131
58 92 114
57 90 113
57 91 118
58 91 122
59 93 126
58 91 110
56 89 94
58 92 117
58 92 113
59 92 124
57 90 115
59 93 113
57 91 117
58 91 117
59 92 114
55 88 103
57 90 103
60 94 134
57 91 118
60 94 128
57 91 110
58 91 107
58 92 114
58 92 122
57 90 113
57 89 110
58 91 113
57 91 115
60 94 121
58 92 117
59 93 117
59 94 120
59 93 118
58 92 120
58 91 114
58 91 121
59 92 126
58 92 121
58 92 114
58 91 120
56 87 107
59 93 122
59 94 115
59 94 129
58 92 122
59 93 121
58 92 123
58 91 114
58 92 122
58 92 120
58 91 121
58 92 118
57 90 117
56 89 105
58 91 114
56 89 118
56 89 111
59 93 115
58 91 126
58 92 128
58 91 124
58 91 121
58 91 121
56 89 114
57 90 113
57 90 125
56 88 108
55 87 108
59 92 128
58 91 120
56 88 115
58 91 115
58 91 119
58 91 116
56 88 101
56 89 106
58 91 107
57 89 120
56 88 107
56 88 122
54 85 101
56 88 113
57 89 111
57 90 115
56 87 105
54 86 104
53 84 105
56 86 108
55 87 101
53 84 102
55 85 109
52 81 98
110 131 70
168 190 0
141 152 32
91 88 30
83 81 23
93 91 24
98 94 20
92 87 20
93 91 21
93 91 8
79 78 14
74 72 18
84 82 18
85 84 21
78 76 14
71 71 11
87 85 12
84 84 14
97 94 14
86 85 19
86 83 12
83 81 14
92 90 19
83 80 19
81 81 0
91 90 12
91 89 27
94 94 18
100 98 18
100 98 26
93 91 18
100 96 21
115 111 31
101 100 23
105 103 33
119 116 32
110 108 37
105 102 32
109 109 33
110 108 29
125 119 39
121 118 30
124 120 39
124 121 39
124 119 33
128 125 40
126 120 43
119 116 33
134 130 45
125 122 41
135 130 32
121 117 28
138 134 38
128 124 42
126 123 36
128 125 37
140 136 43
133 129 45
137 133 45
132 128 43
144 138 46
144 138 50
135 130 51
139 133 46
143 137 52
133 129 35
152 146 57
135 131 43
143 137 44
140 136 37
141 137 43
144 138 49
141 138 45
144 140 42
147 142 50
141 137 39
141 136 45
149 143 54
142 138 49
150 146 48
147 140 56
145 140 44
148 143 53
142 138 41
148 143 49
153 147 53
142 136 52
152 145 58
145 140 47
140 135 44
152 146 51
143 138 51
148 142 45
151 146 53
145 140 47
144 140 51
154 149 58
154 148 67
152 145 58
143 139 52
147 141 56
152 145 53
146 140 57
150 144 56
147 142 48
144 138 60
150 144 54
153 146 53
147 140 56
153 145 57
151 144 62
151 146 57
152 146 60
147 142 53
145 139 53
143 137 57
155 148 53
153 148 59
149 143 62
154 147 62
148 143 60
150 144 61
142 137 52
146 139 56
155 150 61
138 133 53
142 137 51
150 142 61
153 147 60
145 140 56
150 143 62
146 139 53
148 141 61
151 144 60
153 147 58
142 137 52
141 134 54
145 140 58
145 139 60
144 138 59
134 128 48
137 131 54
214 231 255
214 231 255
214 231 255
214 231 255
214 231 255
214 231 255
214 231 255
214 231 255
214 231 255
214 231 255
214 231 255
214 231 255
214 231 255
214 232 255
214 232 255
214 232 255
214 232 255
214 232 255
214 232 255
214 232 255
214 232 255
214 232 255
214 232 255
214 232 255
214 232 255
214 232 255
214 232 255
214 232 255
214 232 255
214 232 255
214 232 255
214 232 255
214 232 255
214 232 255
214 232 255
214 232 255
214 232 255
215 232 255
215 232 255
215 232 255
215 232 255
215 232 255
215 232 255
215 232 255
215 232 255
215 232 255
215 232 255
215 232 255
215 232 255
215 232 255
215 232 255
215 232 255
215 232 255
215 232 255
215 232 255
215 232 255
215 232 255
215 232 255
215 232 255
215 232 255
215 232 255
215 232 255
215 232 255
215 232 255
215 232 255
215 232 255
215 232 255
215 232 255
215 232 255
214 232 255
214 232 255
214 232 255
214 232 255
214 232 255
214 232 255
214 232 255
214 232 255
214 232 255
214 232 255
214 232 255
214 232 255
214 232 255
214 232 255
214 232 255
214 232 255
214 232 255
214 232 255
214 231 255
214 231 255
214 231 255
214 231 255
214 231 255
214 231 255
214 231 255
214 231 255
214 231 255
213 231 255
213 231 255
213 231 255
213 231 255
213 231 255
213 231 255
213 231 255
213 231 255
213 231 255
213 231 255
213 231 255
212 231 255
212 231 255
212 231 255
212 230 255
212 230 255
212 230 255
212 230 255
211 230 255
211 230 255
211 230 255
211 230 255
211 230 255
211 230 255
210 229 255
210 229 255
210 229 255
210 229 255
209 229 255
209 229 255
209 228 255
208 228 255
208 228 255
207 228 255
207 228 255
206 227 255
206 227 255
205 227 255
204 226 255
203 226 255
202 225 255
201 224 255
193 217 227
171 193 25
173 196 0
167 189 36
63 95 120
58 92 114
57 90 118
59 93 125
57 91 108
58 92 117
57 91 113
58 92 115
58 92 124
58 92 114
59 93 120
56 89 118
57 90 115
59 93 118
58 92 115
60 94 128
56 90 103
59 93 128
60 94 130
57 90 120
57 91 108
58 91 107
58 91 114
60 94 128
58 91 117
57 91 103
58 92 117
57 90 113
58 92 121
57 90 114
58 91 122
58 92 105
58 91 121
60 94 133
59 93 121
57 90 107
57 91 107
59 93 108
57 90 110
59 93 122
57 91 115
59 93 115
58 91 115
57 90 107
58 91 122
58 91 115
58 92 121
58 92 113
58 91 124
59 93 126
58 91 114
59 93 124
57 90 114
56 89 115
58 91 114
60 94 133
57 91 110
55 88 111
57 90 108
56 90 105
59 93 126
57 90 113
57 89 108
59 92 117
59 93 122
59 92 117
58 91 121
57 90 118
58 92 128
58 91 108
59 93 128
58 91 117
57 91 102
59 92 126
56 89 111
58 92 117
57 90 123
59 93 124
58 91 121
58 92 115
57 90 110
59 92 120
60 94 128
57 90 102
58 91 110
59 93 122
58 92 114
57 90 121
57 90 105
56 88 101
57 89 110
59 94 117
55 87 113
57 89 121
57 90 115
57 90 119
56 88 111
58 91 114
57 90 113
57 90 120
55 87 107
58 91 123
56 87 106
54 86 97
55 87 104
54 86 100
56 89 106
55 86 108
56 87 113
57 88 112
53 83 91
52 80 94
55 86 98
52 80 94
53 82 99
55 80 87
163 186 18
164 187 0
168 188 0
125 131 33
110 105 38
100 96 37
92 89 31
81 79 19
88 84 28
87 85 25
87 85 24
88 84 18
85 84 0
77 77 14
83 83 5
87 84 18
77 77 3
80 78 8
84 82 14
87 85 14
87 84 18
86 83 8
86 84 16
83 81 22
89 87 20
93 91 20
91 89 16
97 96 29
98 96 18
95 92 19
110 108 27
101 100 23
111 110 24
105 102 27
103 101 23
117 111 28
103 101 34
115 112 38
111 109 32
118 113 28
124 121 34
116 112 30
114 113 25
116 113 31
123 118 45
120 117 38
129 124 35
122 118 36
130 126 38
125 120 41
129 125 38
129 125 38
138 132 46
128 125 38
142 137 49
133 128 42
136 131 35
133 128 40
137 132 45
136 132 47
141 136 36
140 135 49
141 136 49
135 131 37
138 133 50
150 145 44
136 130 45
137 131 48
141 135 49
138 132 47
140 135 48
153 146 56
139 132 41
147 139 56
144 139 46
143 138 43
142 137 44
143 138 45
148 142 49
152 146 53
139 134 39
150 144 54
143 137 53
151 144 53
147 142 52
146 140 48
141 136 51
143 137 44
151 145 49
146 140 54
151 145 53
146 140 53
147 142 48
151 145 52
145 139 47
140 136 44
150 145 51
152 147 54
150 144 51
147 141 52
152 146 57
150 144 53
154 147 60
149 142 58
151 145 54
150 144 58
146 139 54
149 143 57
152 146 48
146 141 45
148 142 52
154 146 64
152 147 61
150 144 49
145 139 59
144 138 52
147 141 58
152 146 56
157 150 57
148 140 56
145 139 54
149 144 58
150 144 58
152 145 57
142 137 59
146 141 59
145 139 52
143 138 48
141 136 48
143 138 52
151 144 61
153 145 64
146 140 49
147 140 64
151 144 59
137 132 53
137 133 47
139 132 56
148 143 56
137 131 53
141 135 58
145 139 61
213 231 255
213 231 255
213 231 255
213 231 255
213 231 255
213 231 255
214 231 255
214 231 255
214 231 255
214 231 255
214 231 255
214 231 255
214 231 255
214 231 255
214 231 255
214 231 255
214 231 255
214 231 255
214 231 255
214 231 255
214 231 255
214 231 255
214 231 255
214 231 255
214 231 255
214 232 255
214 232 255
214 232 255
214 232 255
214 232 255
214 232 255
214 232 255
214 232 255
214 232 255
214 232 255
214 232 255
214 232 255
214 232 255
214 232 255
214 232 255
214 232 255
214 232 255
214 232 255
214 232 255
214 232 255
214 232 255
214 232 255
214 232 255
214 232 255
214 232 255
214 232 255
214 232 255
214 232 255
214 232 255
214 232 255
214 232 255
214 232 255
214 232 255
214 232 255
214 232 255
214 232 255
214 232 255
214 232 255
214 232 255
214 232 255
214 232 255
214 232 255
214 232 255
214 232 255
214 232 255
214 232 255
214 232 255
214 232 255
214 232 255
214 232 255
214 232 255
214 232 255
214 231 255
214 231 255
214 231 255
214 231 255
214 231 255
214 231 255
214 231 255
214 231 255
214 231 255
214 231 255
214 231 255
214 231 255
214 231 255
213 231 255
213 231 255
213 231 255
213 231 255
213 231 255
213 231 255
213 231 255
213 231 255
213 231 255
213 231 255
213 231 255
213 231 255
213 231 255
212 231 255
212 231 255
212 231 255
212 230 255
212 230 255
212 230 255
212 230 255
212 230 255
211 230 255
211 230 255
211 230 255
211 230 255
211 230 255
211 230 255
210 230 255
210 229 255
210 229 255
210 229 255
209 229 255
209 229 255
209 229 255
208 228 255
208 228 255
208 228 255
207 228 255
207 228 255
206 227 255
206 227 255
205 227 255
205 226 255
204 226 255
203 225 255
202 225 255
201 224 255
196 220 238
174 197 51
171 194 0
173 196 0
171 194 0
109 135 102
59 93 126
60 95 134
56 88 115
58 91 113
58 92 114
58 92 111
59 93 122
58 91 118
59 93 111
58 91 118
58 91 114
60 94 124
58 92 121
57 90 114
57 90 111
57 90 100
59 93 122
58 92 121
58 92 122
57 90 117
58 92 113
58 92 108
58 92 108
58 91 111
57 90 113
57 90 118
57 91 117
58 91 102
56 89 110
59 93 122
59 92 114
59 93 120
58 92 111
58 91 114
58 92 118
58 91 113
58 92 126
57 91 118
58 91 117
59 92 126
59 93 128
57 90 120
59 93 128
58 91 117
58 91 117
59 93 124
58 92 115
58 92 124
55 88 110
59 92 126
59 93 130
59 93 121
58 91 108
57 90 110
60 94 125
57 91 125
59 93 120
57 90 114
58 91 113
59 93 118
58 91 110
57 90 118
58 92 111
55 87 102
58 91 122
59 93 124
58 91 117
58 91 118
58 91 114
58 91 114
57 90 117
58 93 124
56 89 107
57 90 113
56 89 108
58 90 111
58 91 118
59 93 128
58 91 120
59 92 126
58 90 115
60 95 139
57 90 115
59 93 120
57 90 108
57 91 121
57 90 114
58 91 121
60 94 135
57 90 117
55 87 114
56 89 113
56 88 101
56 87 114
56 88 114
55 87 99
55 87 107
55 87 104
57 90 111
59 92 123
56 87 110
57 89 110
55 86 117
55 86 103
55 86 108
56 88 119
58 91 124
53 83 91
57 88 111
52 82 85
54 83 98
54 85 108
54 83 110
53 82 97
102 123 85
165 187 0
170 191 0
167 190 0
159 178 11
107 107 28
112 106 36
86 81 25
100 96 28
84 82 22
86 83 23
88 85 22
83 79 3
63 62 12
86 83 24
88 85 11
81 79 18
85 83 11
99 95 21
85 83 11
81 79 14
98 95 11
89 86 6
84 84 11
103 100 20
96 93 14
90 90 19
97 95 16
80 80 14
99 97 19
97 98 14
107 104 11
109 106 25
112 110 31
108 105 24
109 106 24
104 102 21
100 98 24
124 121 26
110 108 28
105 102 32
114 112 29
119 117 25
125 122 32
127 123 37
121 119 30
119 115 24
120 117 32
130 124 31
124 121 37
122 119 37
121 118 27
134 128 40
134 131 38
120 117 35
128 123 41
138 134 36
130 126 45
135 130 42
133 129 44
132 128 37
131 126 40
137 132 38
141 135 44
135 130 44
135 131 40
136 131 51
135 131 39
134 129 43
140 135 45
150 144 53
143 138 44
143 138 44
146 140 49
144 137 52
144 137 41
149 143 51
144 139 45
143 139 44
149 143 50
144 138 47
140 135 45
141 136 41
145 140 47
152 145 62
144 139 37
149 143 57
148 142 48
147 142 49
151 145 51
147 142 57
144 138 54
147 140 51
150 145 53
156 150 61
151 144 56
142 135 52
149 143 54
147 141 54
146 140 49
145 141 52
145 139 47
150 144 56
144 139 56
148 142 54
147 141 57
147 140 51
150 145 58
145 139 49
144 139 47
151 145 56
145 141 44
148 142 51
147 141 56
147 141 60
147 141 47
149 143 54
153 148 66
154 148 60
147 140 57
146 139 60
145 139 52
144 138 54
145 139 54
152 146 57
149 142 57
145 140 59
143 138 59
135 131 48
150 144 54
146 140 49
151 146 52
143 138 56
148 142 62
144 138 56
146 140 57
144 139 49
137 132 47
143 137 58
146 140 54
143 138 56
147 142 54
149 143 59
213 231 255
213 231 255
213 231 255
213 231 255
213 231 255
213 231 255
213 231 255
213 231 255
213 231 255
213 231 255
213 231 255
213 231 255
213 231 255
213 231 255
213 231 255
213 231 255
213 231 255
214 231 255
214 231 255
214 231 255
214 231 255
214 231 255
214 231 255
214 231 255
214 231 255
214 231 255
214 231 255
214 231 255
214 231 255
214 231 255
214 231 255
214 231 255
214 231 255
214 231 255
214 231 255
214 231 255
214 231 255
214 231 255
214 231 255
214 231 255
214 231 255
214 231 255
214 231 255
214 231 255
214 231 255
214 231 255
214 231 255
214 231 255
214 231 255
214 231 255
214 231 255
214 231 255
214 231 255
214 231 255
214 231 255
214 231 255
214 231 255
214 231 255
214 231 255
214 231 255
214 231 255
214 231 255
214 231 255
214 231 255
214 231 255
214 231 255
214 231 255
214 231 255
214 231 255
214 231 255
214 231 255
214 231 255
214 231 255
214 231 255
214 231 255
214 231 255
214 231 255
214 231 255
214 231 255
214 231 255
214 231 255
214 231 255
213 231 255
213 231 255
213 231 255
213 231 255
213 231 255
213 231 255
213 231 255
213 231 255
213 231 255
213 231 255
213 231 255
213 231 255
213 231 255
213 231 255
213 231 255
213 231 255
213 231 255
212 231 255
212 231 255
212 231 255
212 230 255
212 230 255
212 230 255
212 230 255
212 230 255
212 230 255
211 230 255
211 230 255
211 230 255
211 230 255
211 230 255
211 230 255
210 230 255
210 229 255
210 229 255
210 229 255
210 229 255
209 229 255
209 229 255
209 229 255
208 228 255
208 228 255
208 228 255
207 228 255
207 228 255
206 227 255
206 227 255
205 227 255
205 226 255
204 226 255
203 226 255
203 225 255
202 225 255
200 224 255
198 223 254
179 202 135
167 190 0
172 195 0
168 191 0
171 193 0
154 178 47
69 100 113
57 90 111
56 89 105
57 90 113
58 92 117
58 92 117
58 91 105
57 90 108
57 91 107
58 91 110
56 89 111
57 91 120
58 91 115
56 88 99
58 91 108
57 90 121
56 89 108
57 90 114
57 91 113
56 89 105
58 91 114
59 93 118
55 88 105
58 91 115
59 92 120
57 91 111
58 92 113
58 91 124
58 91 118
57 90 105
58 92 113
57 90 107
56 88 108
57 91 102
57 91 114
58 91 108
57 90 110
59 93 125
59 93 118
58 92 121
58 91 110
57 91 122
56 88 102
59 93 128
58 91 114
59 93 120
57 90 115
58 91 118
57 89 111
55 88 97
57 91 115
60 95 129
58 91 118
58 91 118
59 93 115
57 91 103
58 92 117
57 89 118
59 93 121
58 91 118
58 92 115
57 90 107
57 90 108
57 90 108
59 92 124
57 90 111
59 92 124
56 88 108
57 91 115
57 91 115
57 91 110
57 90 115
59 92 111
59 92 120
58 91 114
58 91 120
58 90 114
57 91 117
59 92 121
57 89 108
57 90 118
59 92 121
56 89 113
58 91 120
57 90 124
56 88 105
57 90 110
58 92 118
56 88 111
56 88 108
53 84 100
57 89 115
56 89 106
56 88 111
57 89 113
57 90 111
55 86 105
56 88 114
57 89 111
54 86 107
57 89 115
56 88 103
56 88 117
54 86 96
57 90 105
53 84 91
56 87 105
56 88 108
55 86 104
55 86 107
55 86 100
52 81 92
52 82 97
61 89 92
153 174 31
164 186 0
165 185 0
168 187 0
160 178 0
157 173 22
101 100 39
95 90 34
100 95 32
90 88 31
95 89 28
82 79 16
79 77 11
95 90 28
88 85 22
84 82 21
93 90 11
87 85 12
86 83 11
88 85 22
89 87 20
78 77 12
94 93 11
100 98 12
86 84 9
98 96 23
93 92 18
99 96 22
93 92 14
85 86 14
91 90 18
100 99 18
110 107 26
100 97 18
102 100 21
109 105 31
104 100 19
101 100 18
116 113 28
103 101 27
117 112 35
116 113 31
119 116 35
114 110 24
114 110 32
108 106 29
119 116 26
116 112 26
127 122 36
116 113 22
120 117 28
113 111 35
126 121 27
124 122 35
131 128 37
140 134 40
134 129 36
126 123 37
137 132 40
125 121 30
135 130 36
133 129 37
136 132 40
129 124 36
141 135 49
138 133 50
136 133 34
143 138 34
135 131 41
140 134 47
138 134 41
138 133 49
149 142 49
148 143 44
136 131 44
142 137 41
142 138 41
144 139 42
144 138 44
144 136 54
141 137 41
146 139 56
144 140 42
137 132 36
150 144 54
147 141 52
145 139 52
150 143 54
145 140 45
144 138 52
143 136 51
143 138 47
145 141 52
140 135 51
151 145 54
149 142 48
150 143 49
144 140 41
152 145 56
142 137 42
150 145 58
151 144 54
146 140 56
149 143 45
154 146 56
153 146 56
144 136 53
150 143 53
151 145 48
162 155 68
148 141 52
150 144 60
143 138 47
146 141 53
144 139 49
147 141 48
143 137 56
149 143 59
141 135 56
139 134 48
145 139 60
149 142 56
140 134 49
145 138 53
144 138 47
137 131 52
146 140 57
142 137 52
134 129 51
140 135 47
149 143 58
147 141 58
139 133 60
147 141 52
136 131 52
151 143 59
140 135 56
134 129 47
141 134 53
145 138 52
146 141 58
145 139 56
136 131 47
213 231 255
213 231 255
213 231 255
213 231 255
213 231 255
213 231 255
213 231 255
213 231 255
213 231 255
213 231 255
213 231 255
213 231 255
213 231 255
213 231 255
213 231 255
213 231 255
213 231 255
213 231 255
213 231 255
213 231 255
213 231 255
213 231 255
213 231 255
213 231 255
213 231 255
213 231 255
213 231 255
213 231 255
213 231 255
213 231 255
213 231 255
214 231 255
214 231 255
214 231 255
214 231 255
214 231 255
214 231 255
214 231 255
214 231 255
214 231 255
214 231 255
214 231 255
214 231 255
214 231 255
214 231 255
214 231 255
214 231 255
214 231 255
214 231 255
214 231 255
214 231 255
214 231 255
214 231 255
214 231 255
214 231 255
214 231 255
214 231 255
214 231 255
214 231 255
214 231 255
214 231 255
214 231 255
214 231 255
214 231 255
214 231 255
214 231 255
214 231 255
214 231 255
214 231 255
214 231 255
214 231 255
213 231 255
213 231 255
213 231 255
213 231 255
213 231 255
213 231 255
213 231 255
213 231 255
213 231 255
213 231 255
213 231 255
213 231 255
213 231 255
213 231 255
213 231 255
213 231 255
213 231 255
213 231 255
213 231 255
213 231 255
213 231 255
213 231 255
212 231 255
212 231 255
212 231 255
212 231 255
212 230 255
212 230 255
212 230 255
212 230 255
212 230 255
212 230 255
212 230 255
211 230 255
211 230 255
211 230 255
211 230 255
211 230 255
211 230 255
211 230 255
210 230 255
210 229 255
210 229 255
210 229 255
210 229 255
209 229 255
209 229 255
209 229 255
209 229 255
208 228 255
208 228 255
208 228 255
207 228 255
207 228 255
207 227 255
206 227 255
206 227 255
205 227 255
204 226 255
204 226 255
203 225 255
202 225 255
201 224 255
200 224 255
198 223 255
180 204 142
172 196 0
171 194 0
166 189 0
172 195 0
167 191 0
169 192 0
132 155 78
54 85 92
57 90 117
56 89 108
58 92 107
56 89 111
59 92 118
58 91 121
57 90 118
56 88 105
57 90 102
58 91 121
58 91 113
57 90 113
58 91 111
59 93 124
58 91 114
59 92 128
59 93 121
56 89 100
58 92 113
57 90 117
58 92 122
57 90 108
56 89 102
58 92 114
56 90 103
56 89 102
58 91 115
58 92 114
57 90 125
58 91 113
56 89 113
58 91 114
58 92 115
57 90 111
58 91 129
58 92 117
58 92 111
57 90 111
58 92 118
57 89 117
58 91 117
58 91 120
58 91 111
56 89 114
57 91 105
58 92 117
57 91 111
58 92 118
57 90 110
57 91 121
58 92 125
58 92 118
57 91 113
57 90 113
58 91 114
57 91 110
57 90 115
59 93 125
57 90 110
58 92 115
57 90 115
57 90 110
56 90 113
57 90 110
56 89 115
58 92 114
57 89 111
59 93 115
59 92 115
59 93 124
58 92 124
59 93 118
56 89 108
58 91 114
58 91 114
58 92 113
55 88 110
57 90 110
57 90 120
55 87 97
57 90 126
55 88 99
54 85 88
56 89 110
58 91 116
60 94 124
57 89 115
55 87 102
58 91 110
57 89 113
56 88 107
58 91 126
55 87 111
59 93 126
54 85 103
55 87 99
55 87 107
54 85 94
57 89 105
54 86 93
55 86 108
55 87 113
56 87 110
56 87 111
56 88 97
53 83 93
54 84 91
53 83 90
54 84 100
51 80 99
51 81 97
123 143 42
162 182 0
161 182 0
163 181 0
165 185 0
163 184 0
164 183 0
146 161 24
103 100 44
106 102 33
95 91 28
95 91 33
80 79 16
86 84 11
89 86 22
86 83 25
80 77 24
82 80 16
89 87 16
93 89 14
88 87 16
87 86 12
95 93 8
90 86 18
89 87 11
86 83 0
91 89 12
95 91 22
90 87 16
98 95 14
91 88 18
90 88 18
103 101 9
95 93 14
103 99 18
108 105 11
112 110 19
103 99 28
116 112 28
116 112 28
101 98 26
104 103 14
114 110 21
115 111 16
110 108 22
119 117 25
115 111 31
114 111 35
124 119 31
121 117 29
115 113 32
122 117 37
119 116 28
121 118 34
129 123 31
127 122 40
121 118 26
137 130 37
131 126 34
136 131 36
127 123 32
128 124 36
138 133 41
136 132 39
137 131 39
139 133 45
143 136 44
143 139 40
141 137 41
142 137 39
147 141 43
141 135 53
134 129 36
144 140 45
137 132 39
137 131 37
138 133 45
149 141 53
141 135 52
150 143 51
143 138 44
144 137 51
144 139 51
145 139 48
143 138 44
143 138 48
148 142 47
144 137 45
138 132 45
149 142 53
144 138 48
149 143 52
147 140 52
148 142 53
154 148 60
138 133 37
137 132 42
140 134 44
146 140 53
147 142 49
150 145 49
147 141 52
146 140 54
144 138 53
149 143 54
152 145 59
145 140 48
141 135 52
148 143 51
145 139 53
146 142 48
146 140 49
148 141 56
145 139 51
145 139 47
148 142 54
145 137 51
147 141 47
138 133 39
151 143 53
145 139 52
139 133 52
139 133 54
150 144 58
144 139 49
142 137 45
149 143 57
142 137 51
152 146 57
142 135 56
146 139 59
152 143 62
147 141 58
147 142 52
143 137 58
146 142 51
134 129 49
137 133 42
145 139 54
135 129 49
139 133 51
143 136 59
147 141 60
143 137 59
212 231 255
212 231 255
212 231 255
212 231 255
212 231 255
212 231 255
212 231 255
213 231 255
213 231 255
213 231 255
213 231 255
213 231 255
213 231 255
213 231 255
213 231 255
213 231 255
213 231 255
213 231 255
213 231 255
213 231 255
213 231 255
213 231 255
213 231 255
213 231 255
213 231 255
213 231 255
213 231 255
213 231 255
213 231 255
213 231 255
213 231 255
213 231 255
213 231 255
213 231 255
213 231 255
213 231 255
213 231 255
213 231 255
213 231 255
213 231 255
213 231 255
213 231 255
213 231 255
213 231 255
213 231 255
213 231 255
213 231 255
213 231 255
213 231 255
213 231 255
213 231 255
213 231 255
213 231 255
213 231 255
213 231 255
213 231 255
213 231 255
213 231 255
213 231 255
213 231 255
213 231 255
213 231 255
213 231 255
213 231 255
213 231 255
213 231 255
213 231 255
213 231 255
213 231 255
213 231 255
213 231 255
213 231 255
213 231 255
213 231 255
213 231 255
213 231 255
213 231 255
213 231 255
213 231 255
213 231 255
213 231 255
213 231 255
213 231 255
213 231 255
213 231 255
213 231 255
213 231 255
212 231 255
212 231 255
212 231 255
212 231 255
212 231 255
212 230 255
212 230 255
212 230 255
212 230 255
212 230 255
212 230 255
212 230 255
212 230 255
211 230 255
211 230 255
211 230 255
211 230 255
211 230 255
211 230 255
211 230 255
211 230 255
210 230 255
210 229 255
210 229 255
210 229 255
210 229 255
209 229 255
209 229 255
209 229 255
209 229 255
208 228 255
208 228 255
208 228 255
208 228 255
207 228 255
207 228 255
207 227 255
206 227 255
206 227 255
205 227 255
205 226 255
204 226 255
203 226 255
202 225 255
202 225 255
200 224 255
199 224 255
198 223 255
182 207 165
172 195 0
171 194 0
170 194 0
171 194 0
170 193 0
166 190 0
171 193 0
170 193 0
81 109 92
57 90 110
56 89 111
59 92 118
56 89 105
58 92 115
57 90 103
58 91 111
57 90 107
58 91 118
56 88 100
58 91 113
58 92 115
59 93 120
59 92 121
56 89 99
57 91 117
57 91 110
59 93 118
58 91 121
58 91 118
57 90 108
56 88 90
58 91 120
58 91 121
59 93 118
57 91 97
58 91 113
57 90 105
57 90 117
57 90 121
58 92 107
56 89 103
58 92 115
58 91 111
58 91 115
58 92 121
57 90 111
59 93 120
57 91 117
57 91 105
56 88 105
57 89 107
57 90 110
58 91 110
60 94 122
57 90 105
58 92 111
59 93 120
57 91 117
56 88 99
58 91 121
57 90 110
58 91 117
58 91 121
56 89 113
58 92 110
58 92 122
58 92 124
56 89 110
58 91 118
57 91 107
58 91 124
56 89 99
58 92 118
58 92 120
59 92 121
59 92 114
58 92 113
57 90 102
56 88 100
56 90 103
57 90 111
57 91 115
58 91 113
57 90 107
58 91 122
59 92 120
56 89 105
58 91 116
57 90 114
57 90 113
56 88 111
57 90 122
57 89 111
56 88 107
57 90 104
56 89 113
58 91 105
57 90 117
56 88 111
56 88 113
57 90 117
58 91 115
55 87 101
57 90 111
56 89 107
56 89 110
57 90 108
55 87 102
57 90 117
54 85 106
55 87 107
54 84 97
51 81 89
56 87 111
54 85 107
53 83 101
53 83 87
52 81 102
53 83 96
67 93 100
159 178 0
164 185 0
159 179 0
167 186 0
162 181 0
163 184 0
168 188 0
159 178 0
134 147 11
101 97 37
94 89 28
102 98 24
102 98 29
94 90 25
90 86 24
101 96 31
88 83 21
94 88 19
83 81 12
90 88 16
87 84 0
90 89 14
94 92 16
92 90 18
90 89 8
89 86 16
92 88 16
93 91 3
98 97 20
87 86 18
93 89 8
102 98 16
92 91 18
98 97 22
105 102 11
96 94 11
110 106 22
115 111 24
107 103 24
112 109 22
113 109 25
110 106 25
120 115 30
110 107 19
121 116 31
118 115 25
113 109 19
117 113 27
121 116 25
122 119 25
121 117 26
125 121 30
114 112 25
119 116 28
124 119 28
122 118 32
133 127 42
128 121 28
121 117 28
125 123 31
133 127 39
130 125 32
132 127 32
134 129 42
136 131 37
133 129 35
127 122 28
133 129 22
138 133 41
135 131 39
133 128 36
129 124 29
138 135 37
135 130 43
143 138 49
139 134 39
140 135 49
146 140 45
135 130 39
139 132 45
141 134 41
139 135 37
144 137 44
139 133 39
134 129 42
141 136 39
142 137 41
146 141 53
147 140 34
145 139 45
145 140 47
143 137 52
136 131 39
145 139 45
139 133 37
138 133 41
142 135 51
154 147 54
145 139 51
146 138 47
144 138 52
146 139 44
146 141 48
141 136 51
135 131 37
150 144 44
149 141 59
148 142 52
146 141 57
139 134 45
147 140 56
142 136 47
145 139 47
145 139 51
146 140 47
150 143 61
149 143 56
144 138 54
143 138 56
146 140 53
148 142 52
153 147 60
139 134 45
144 139 52
147 142 54
147 141 57
144 138 54
149 143 56
140 133 52
153 147 53
144 137 58
146 140 58
140 135 48
144 138 58
145 138 49
139 134 37
145 139 47
145 139 54
144 138 54
150 143 54
138 133 47
138 133 49
141 134 53
135 131 42
212 230 255
212 230 255
212 230 255
212 230 255
212 230 255
212 230 255
212 230 255
212 230 255
212 230 255
212 231 255
212 231 255
212 231 255
212 231 255
212 231 255
212 231 255
212 231 255
212 231 255
213 231 255
213 231 255
213 231 255
213 231 255
213 231 255
213 231 255
213 231 255
213 231 255
213 231 255
213 231 255
213 231 255
213 231 255
213 231 255
213 231 255
213 231 255
213 231 255
213 231 255
213 231 255
213 231 255
213 231 255
213 231 255
213 231 255
213 231 255
213 231 255
213 231 255
213 231 255
213 231 255
213 231 255
213 231 255
213 231 255
213 231 255
213 231 255
213 231 255
213 231 255
213 231 255
213 231 255
213 231 255
213 231 255
213 231 255
213 231 255
213 231 255
213 231 255
213 231 255
213 231 255
213 231 255
213 231 255
213 231 255
213 231 255
213 231 255
213 231 255
213 231 255
213 231 255
213 231 255
213 231 255
213 231 255
213 231 255
213 231 255
213 231 255
213 231 255
213 231 255
213 231 255
213 231 255
212 231 255
212 231 255
212 231 255
212 231 255
212 231 255
212 231 255
212 230 255
212 230 255
212 230 255
212 230 255
212 230 255
212 230 255
212 230 255
212 230 255
212 230 255
212 230 255
211 230 255
211 230 255
211 230 255
211 230 255
211 230 255
211 230 255
211 230 255
211 230 255
211 230 255
210 230 255
210 229 255
210 229 255
210 229 255
210 229 255
210 229 255
209 229 255
209 229 255
209 229 255
209 229 255
209 229 255
208 228 255
208 228 255
208 228 255
207 228 255
207 228 255
207 228 255
206 227 255
206 227 255
206 227 255
205 227 255
205 226 255
204 226 255
203 226 255
203 225 255
202 225 255
201 224 255
200 224 255
199 223 255
197 222 255
182 206 181
173 195 0
173 195 0
170 193 0
170 192 0
172 195 0
172 195 0
171 194 0
170 193 0
167 191 0
147 169 65
57 90 108
56 89 108
57 91 113
57 91 103
57 91 113
58 92 114
57 91 118
57 90 110
57 91 114
56 89 122
58 92 108
56 90 94
58 91 114
59 93 122
57 90 113
57 91 114
57 90 118
58 91 111
59 93 121
58 91 120
57 90 107
57 90 120
56 88 107
57 91 113
56 89 110
58 91 121
58 91 118
56 89 111
57 90 118
57 91 114
57 91 113
57 90 114
57 91 120
57 90 117
58 91 115
57 91 118
57 90 117
58 91 115
59 93 124
56 89 99
59 92 118
58 91 114
58 91 118
57 91 115
57 90 111
55 87 99
57 90 103
58 92 113
56 88 100
57 91 107
59 93 118
58 92 118
56 89 102
57 91 118
58 91 114
58 91 125
58 91 110
54 86 95
58 92 113
57 90 110
56 89 105
57 91 118
57 90 113
57 89 107
57 90 115
57 90 103
55 87 108
59 92 122
57 90 113
58 91 120
58 92 113
57 90 113
58 90 118
57 90 107
56 89 100
55 86 117
59 92 122
56 89 110
57 89 107
58 91 113
56 88 111
55 87 97
56 88 118
56 89 108
54 86 107
57 90 123
55 86 100
58 90 122
58 90 118
56 88 116
56 89 111
54 85 105
56 89 107
55 87 100
57 89 116
57 89 114
53 84 91
57 89 122
55 86 104
56 88 103
56 89 117
54 85 97
55 86 110
55 86 97
55 86 106
54 85 99
55 85 101
52 81 90
54 84 112
51 80 92
134 153 51
158 176 0
162 181 0
153 171 0
161 178 0
159 176 0
165 184 0
155 175 0
165 184 0
162 182 0
131 140 25
104 98 30
102 96 30
95 90 37
98 93 30
94 91 25
96 90 19
98 93 19
86 81 18
83 80 12
94 90 11
89 85 12
94 89 12
92 91 14
88 86 5
95 90 11
97 94 12
70 69 9
88 87 5
86 85 14
106 102 14
95 93 18
99 97 8
90 88 8
94 92 14
110 106 23
103 99 11
102 96 18
97 95 8
105 103 20
111 109 26
103 100 12
105 101 16
116 112 21
108 106 22
117 112 8
109 105 21
114 112 22
116 111 33
119 116 32
131 127 29
129 126 31
127 124 32
117 114 24
121 116 18
123 120 26
116 113 26
124 121 29
128 124 32
123 119 33
127 123 32
118 114 30
135 130 38
123 119 24
128 124 37
128 123 31
135 129 32
136 131 38
134 128 42
138 133 39
136 130 47
136 132 34
135 131 35
137 133 39
139 135 37
142 136 36
135 129 44
129 124 36
139 133 45
141 136 41
144 140 41
141 134 48
151 145 52
143 137 44
138 133 32
144 137 58
138 133 37
148 142 47
138 133 45
149 143 51
138 133 45
137 130 47
142 137 42
148 142 51
147 142 49
146 140 49
142 137 49
147 140 53
142 136 44
147 141 51
142 136 45
140 135 44
141 135 48
142 136 42
141 137 45
144 138 56
150 144 48
146 139 49
140 134 49
144 138 57
135 130 52
140 134 52
143 138 47
151 143 54
146 140 48
146 140 49
149 143 56
142 135 52
142 135 57
151 145 56
140 134 51
143 136 48
142 135 53
140 135 45
149 143 57
150 142 56
151 144 63
149 141 58
141 135 52
138 132 41
138 133 47
145 138 59
135 130 39
141 136 45
145 137 52
141 136 48
134 128 45
144 139 53
145 140 56
139 133 54
150 143 66
132 127 48
145 138 60
140 134 54
141 133 58
211 230 255
212 230 255
212 230 255
212 230 255
212 230 255
212 230 255
212 230 255
212 230 255
212 230 255
212 230 255
212 230 255
212 230 255
212 230 255
212 230 255
212 230 255
212 230 255
212 230 255
212 230 255
212 230 255
212 231 255
212 231 255
212 231 255
212 231 255
212 231 255
212 231 255
212 231 255
212 231 255
212 231 255
212 231 255
212 231 255
212 231 255
213 231 255
213 231 255
213 231 255
213 231 255
213 231 255
213 231 255
213 231 255
213 231 255
213 231 255
213 231 255
213 231 255
213 231 255
213 231 255
213 231 255
213 231 255
213 231 255
213 231 255
213 231 255
213 231 255
213 231 255
213 231 255
213 231 255
213 231 255
213 231 255
213 231 255
213 231 255
213 231 255
213 231 255
213 231 255
213 231 255
213 231 255
213 231 255
213 231 255
213 231 255
213 231 255
213 231 255
213 231 255
212 231 255
212 231 255
212 231 255
212 231 255
212 231 255
212 231 255
212 231 255
212 231 255
212 231 255
212 230 255
212 230 255
212 230 255
212 230 255
212 230 255
212 230 255
212 230 255
212 230 255
212 230 255
212 230 255
212 230 255
212 230 255
212 230 255
211 230 255
211 230 255
211 230 255
211 230 255
211 230 255
211 230 255
211 230 255
211 230 255
211 230 255
211 230 255
210 230 255
210 229 255
210 229 255
210 229 255
210 229 255
210 229 255
210 229 255
209 229 255
209 229 255
209 229 255
209 229 255
209 229 255
208 228 255
208 228 255
208 228 255
208 228 255
207 228 255
207 228 255
207 227 255
206 227 255
206 227 255
206 227 255
205 227 255
205 226 255
204 226 255
204 226 255
203 225 255
202 225 255
201 225 255
201 224 255
199 224 255
198 223 255
197 222 255
184 208 193
172 195 0
173 195 0
170 193 0
169 192 0
168 191 0
172 195 0
170 193 0
166 190 0
170 193 0
171 194 0
168 192 0
88 116 94
57 90 108
58 91 108
58 91 115
56 89 99
57 91 100
58 92 113
59 93 117
59 93 129
57 90 113
58 91 113
58 92 111
59 93 117
58 91 117
58 91 121
58 91 111
55 87 105
59 93 107
55 88 100
56 89 103
56 89 108
58 91 120
57 90 107
57 90 107
56 88 99
57 90 103
58 92 117
57 90 110
57 90 110
57 90 108
55 88 97
57 90 103
57 90 120
58 92 121
57 90 113
56 89 103
57 90 113
58 91 115
59 93 118
57 90 115
55 87 97
58 91 111
57 90 111
59 93 115
56 90 105
56 90 110
58 92 118
57 90 120
56 89 102
55 87 100
57 90 108
57 90 117
57 90 102
57 90 115
58 92 118
58 91 114
56 89 100
56 89 103
57 90 108
59 93 121
58 92 121
56 88 110
58 91 111
57 90 122
58 90 114
57 90 110
57 90 113
58 91 117
55 87 97
54 86 108
57 90 107
55 86 99
56 88 105
59 92 117
57 90 114
56 89 113
58 91 117
58 91 124
57 90 108
56 88 100
56 88 110
57 90 115
57 90 111
57 90 108
57 90 111
57 90 113
56 89 107
55 88 102
57 90 114
56 88 102
57 89 113
54 86 104
57 89 99
58 91 117
57 90 113
57 89 116
57 89 113
55 87 114
54 86 96
55 87 107
55 86 108
54 85 105
56 87 108
54 84 99
56 87 106
51 81 79
54 84 92
53 82 91
50 78 90
93 113 73
161 181 0
157 175 0
160 178 0
158 176 0
158 175 0
152 172 0
158 178 0
159 177 0
163 181 0
158 176 0
159 178 0
128 135 28
117 110 34
93 89 28
90 85 16
101 95 30
94 91 16
100 94 28
82 79 21
89 85 8
94 91 16
95 89 19
93 90 18
97 91 0
91 89 14
93 90 3
92 88 0
92 90 8
92 89 0
89 86 14
98 94 12
101 98 11
97 92 12
99 95 8
90 87 11
86 83 8
84 83 18
104 100 21
107 104 26
108 105 19
107 103 29
115 110 24
114 110 26
112 109 14
106 105 18
111 106 18
112 107 18
103 100 16
120 116 11
115 113 8
120 116 31
121 116 26
113 108 24
112 109 21
123 119 32
124 120 32
120 117 28
126 122 37
118 115 21
122 119 36
128 124 35
129 124 30
131 127 26
134 129 34
133 128 36
136 131 37
136 130 47
134 129 28
136 131 37
139 134 42
142 137 37
140 135 34
135 131 37
136 130 42
136 132 30
131 127 32
142 136 44
132 126 37
138 132 41
138 133 37
143 137 42
137 132 37
132 127 30
136 130 39
142 136 44
140 136 44
145 138 45
141 136 48
134 128 36
143 138 42
134 129 34
143 137 44
142 136 45
139 133 41
146 140 45
150 143 57
145 138 52
137 131 37
136 130 39
144 139 41
144 138 42
139 133 44
142 136 41
138 132 41
143 136 51
143 137 45
152 146 54
148 143 45
153 147 48
142 137 48
142 138 37
139 133 44
143 136 49
139 134 45
143 137 48
142 136 44
142 136 49
141 134 49
147 140 52
148 141 57
138 133 41
143 138 48
146 140 57
149 143 47
140 135 37
149 143 51
136 132 37
140 135 53
134 128 37
138 132 45
148 142 52
140 134 49
137 131 51
152 145 60
144 139 60
143 136 48
137 131 49
141 133 57
139 133 53
139 134 48
138 131 58
139 134 44
146 140 57
138 131 51
144 138 48
211 230 255
211 230 255
211 230 255
211 230 255
211 230 255
211 230 255
211 230 255
211 230 255
211 230 255
212 230 255
212 230 255
212 230 255
212 230 255
212 230 255
212 230 255
212 230 255
212 230 255
212 230 255
212 230 255
212 230 255
212 230 255
212 230 255
212 230 255
212 230 255
212 230 255
212 230 255
212 230 255
212 230 255
212 230 255
212 230 255
212 230 255
212 230 255
212 230 255
212 230 255
212 230 255
212 231 255
212 231 255
212 231 255
212 231 255
212 231 255
212 231 255
212 231 255
212 231 255
212 231 255
212 231 255
212 231 255
212 231 255
212 231 255
212 231 255
212 231 255
212 231 255
212 231 255
212 231 255
212 231 255
212 231 255
212 231 255
212 231 255
212 231 255
212 231 255
212 231 255
212 231 255
212 231 255
212 231 255
212 230 255
212 230 255
212 230 255
212 230 255
212 230 255
212 230 255
212 230 255
212 230 255
212 230 255
212 230 255
212 230 255
212 230 255
212 230 255
212 230 255
212 230 255
212 230 255
212 230 255
212 230 255
212 230 255
212 230 255
211 230 255
211 230 255
211 230 255
211 230 255
211 230 255
211 230 255
211 230 255
211 230 255
211 230 255
211 230 255
211 230 255
211 230 255
211 230 255
210 230 255
210 229 255
210 229 255
210 229 255
210 229 255
210 229 255
210 229 255
209 229 255
209 229 255
209 229 255
209 229 255
209 229 255
209 229 255
208 228 255
208 228 255
208 228 255
208 228 255
207 228 255
207 228 255
207 228 255
207 227 255
206 227 255
206 227 255
205 227 255
205 227 255
205 226 255
204 226 255
204 226 255
203 225 255
202 225 255
202 225 255
201 224 255
200 224 255
199 223 255
198 223 255
196 222 255
186 211 188
170 194 25
169 192 0
171 194 0
171 195 0
171 193 0
171 194 0
169 192 0
171 194 0
167 190 0
168 191 0
164 186 0
170 192 0
160 183 31
75 103 103
54 87 107
60 94 125
54 86 88
57 90 113
56 89 111
57 90 107
57 91 108
55 88 107
57 90 107
58 92 113
59 92 118
57 89 107
57 91 108
55 88 105
57 90 113
56 89 102
57 90 105
56 89 99
59 93 118
58 91 111
58 92 115
58 92 117
56 90 108
57 90 105
58 91 121
55 88 102
56 89 105
59 93 124
57 91 113
56 88 102
57 90 105
57 90 114
58 91 111
56 89 108
57 91 114
59 94 126
58 91 121
56 89 108
56 89 95
57 90 113
58 91 115
58 92 115
59 92 125
58 91 115
58 91 107
59 92 122
55 87 100
58 91 105
57 90 117
57 90 117
60 94 126
57 90 115
56 89 100
56 89 103
57 91 110
56 88 99
58 91 113
59 92 124
58 92 111
59 93 118
57 89 120
56 89 108
56 89 108
57 90 110
58 91 124
58 91 114
57 90 108
58 91 113
56 88 102
56 89 103
57 90 110
56 88 105
56 89 105
57 89 107
58 91 120
56 89 107
56 89 99
56 88 100
57 89 113
57 90 115
57 91 111
58 90 114
58 91 114
57 90 110
56 88 102
58 91 113
58 90 120
57 90 108
56 89 107
58 91 120
55 86 108
54 86 100
57 89 113
54 85 89
55 87 99
55 86 106
56 89 110
54 85 100
52 81 97
52 82 93
53 84 104
53 84 104
51 80 97
53 83 96
51 80 93
52 82 87
60 85 88
147 165 18
156 173 0
155 172 0
162 181 0
161 179 0
157 174 0
155 173 0
160 176 0
156 174 0
158 174 0
161 179 0
157 175 0
158 176 0
124 132 22
93 88 34
98 93 30
91 86 19
91 86 11
100 95 21
90 87 14
82 79 11
71 70 0
84 80 11
82 77 11
89 85 12
83 80 11
88 87 3
87 83 14
91 88 16
96 93 0
86 83 0
97 94 14
92 90 11
106 100 14
96 93 0
96 94 12
94 91 8
103 101 11
106 103 11
97 94 19
108 103 18
108 103 16
111 107 21
111 107 21
104 100 20
108 104 12
109 105 14
111 106 24
120 115 32
123 118 21
127 120 18
116 111 28
116 112 26
123 119 30
116 112 25
123 118 33
114 111 28
124 119 29
112 108 18
116 112 19
132 127 22
133 130 25
127 121 28
137 130 39
139 132 37
128 122 29
132 127 31
135 130 42
135 129 36
134 129 38
136 131 41
130 125 34
129 123 28
137 132 40
143 138 36
141 136 39
136 131 32
136 130 32
135 129 39
139 133 44
138 132 34
136 131 36
134 128 41
146 140 52
134 129 37
144 138 48
133 128 36
136 130 37
143 137 39
139 133 41
134 130 37
143 137 39
141 136 36
137 132 34
138 133 36
144 136 39
139 133 44
145 138 45
138 133 44
146 140 49
145 139 51
135 130 48
142 136 39
145 140 45
143 136 45
133 128 32
133 128 37
141 134 54
133 128 41
147 140 41
146 140 51
144 138 49
142 135 49
141 136 42
142 137 48
142 137 49
146 140 45
143 137 49
146 140 52
146 139 51
137 130 42
148 141 49
132 126 45
144 138 57
146 140 57
135 130 39
142 137 49
137 133 53
145 140 48
134 128 42
144 139 54
143 136 51
145 139 52
139 133 51
134 128 45
135 129 52
141 135 51
140 134 49
136 130 47
135 129 52
141 135 56
143 137 58
150 144 53
133 128 51
129 124 42
130 125 39
211 230 255
211 230 255
211 230 255
211 230 255
211 230 255
211 230 255
211 230 255
211 230 255
211 230 255
211 230 255
211 230 255
211 230 255
211 230 255
211 230 255
211 230 255
211 230 255
211 230 255
211 230 255
211 230 255
211 230 255
212 230 255
212 230 255
212 230 255
212 230 255
212 230 255
212 230 255
212 230 255
212 230 255
212 230 255
212 230 255
212 230 255
212 230 255
212 230 255
212 230 255
212 230 255
212 230 255
212 230 255
212 230 255
212 230 255
212 230 255
212 230 255
212 230 255
212 230 255
212 230 255
212 230 255
212 230 255
212 230 255
212 230 255
212 230 255
212 230 255
212 230 255
212 230 255
212 230 255
212 230 255
212 230 255
212 230 255
212 230 255
212 230 255
212 230 255
212 230 255
212 230 255
212 230 255
212 230 255
212 230 255
212 230 255
212 230 255
212 230 255
212 230 255
212 230 255
212 230 255
212 230 255
212 230 255
212 230 255
212 230 255
212 230 255
211 230 255
211 230 255
211 230 255
211 230 255
211 230 255
211 230 255
211 230 255
211 230 255
211 230 255
211 230 255
211 230 255
211 230 255
211 230 255
211 230 255
211 230 255
211 230 255
210 230 255
210 229 255
210 229 255
210 229 255
210 229 255
210 229 255
210 229 255
210 229 255
209 229 255
209 229 255
209 229 255
209 229 255
209 229 255
209 229 255
209 228 255
208 228 255
208 228 255
208 228 255
208 228 255
207 228 255
207 228 255
207 228 255
207 227 255
206 227 255
206 227 255
206 227 255
205 227 255
205 227 255
205 226 255
204 226 255
204 226 255
203 225 255
202 225 255
202 225 255
201 224 255
200 224 255
199 224 255
198 223 255
197 222 255
195 221 255
182 206 179
171 193 25
168 191 0
166 189 0
167 190 0
174 197 0
168 191 0
169 192 0
171 194 0
164 187 0
169 192 0
167 190 0
169 192 0
167 190 0
166 189 0
124 147 70
57 90 111
58 92 113
55 87 103
54 86 94
59 93 111
54 86 99
56 89 110
56 89 99
58 91 117
58 91 117
57 91 108
57 90 111
57 90 100
56 89 111
58 91 111
58 91 105
57 90 110
57 90 108
58 91 105
56 89 110
58 92 118
58 92 113
57 91 107
57 90 111
57 91 110
58 91 114
55 88 108
57 90 100
58 92 108
55 88 99
58 91 113
57 90 110
57 91 117
57 91 111
58 92 121
57 90 108
59 93 134
59 92 121
56 89 113
56 89 103
56 89 111
57 90 110
57 90 117
57 90 100
58 91 121
58 92 124
56 89 114
55 88 102
57 90 115
55 88 99
57 90 103
57 90 110
56 89 118
55 88 102
58 91 110
59 93 120
58 91 111
59 92 120
58 91 120
58 91 108
57 89 114
57 91 117
57 90 108
57 90 115
57 90 110
55 88 110
59 93 121
57 90 110
57 90 103
58 91 115
58 91 114
55 87 114
55 87 102
57 90 108
57 90 111
57 89 103
55 87 98
57 90 114
56 89 104
57 89 118
56 89 102
58 91 115
56 88 103
56 88 105
56 88 105
54 85 95
55 87 107
55 86 99
57 90 121
55 87 102
54 85 103
56 87 110
56 88 116
55 87 99
56 88 107
57 90 111
57 89 108
56 88 102
57 90 111
55 86 106
53 83 111
54 84 102
54 84 105
51 79 89
53 83 94
48 75 83
116 134 43
153 170 0
148 165 0
150 167 0
154 173 0
148 164 0
153 166 0
153 169 0
154 168 0
154 170 0
157 175 0
153 170 0
156 173 0
152 168 0
152 169 0
124 129 25
102 97 33
82 77 20
85 81 25
94 87 23
79 76 11
79 77 0
91 86 19
84 79 0
95 91 19
94 89 16
70 67 18
96 92 16
85 82 11
88 85 14
92 89 16
88 86 11
89 85 0
102 98 0
101 97 16
94 91 8
85 81 8
106 101 0
96 91 0
102 99 11
99 95 14
105 102 18
96 93 14
99 97 0
104 99 0
119 114 18
101 98 14
117 113 18
111 105 16
113 109 11
116 111 25
121 115 22
111 105 11
122 117 11
111 107 25
119 115 21
125 121 20
115 111 16
127 123 30
125 120 25
130 126 25
129 123 25
128 124 32
114 111 11
128 122 28
131 125 45
120 116 32
127 123 22
127 121 29
131 126 32
131 127 30
125 119 34
131 127 34
133 128 28
131 126 22
137 131 41
133 130 22
136 130 36
129 124 32
127 121 37
141 135 42
130 126 32
140 134 44
133 128 30
138 133 45
142 136 45
132 127 28
140 135 37
137 131 42
145 139 39
136 131 32
139 133 39
146 140 48
141 137 32
133 127 39
132 127 30
146 140 48
137 133 25
141 135 44
136 131 36
142 135 48
140 136 41
136 132 36
141 136 45
142 134 49
138 132 42
139 134 32
137 131 41
143 137 48
147 141 53
142 136 45
146 140 44
137 132 48
143 137 48
148 141 54
136 129 41
133 128 41
145 138 49
138 132 42
139 133 51
142 137 47
143 138 48
145 138 53
138 132 39
146 139 41
145 140 48
136 129 44
143 138 47
144 137 42
143 137 47
145 140 45
135 130 42
137 131 39
147 140 49
139 133 48
147 140 56
138 133 48
141 135 48
134 127 41
130 124 48
136 129 49
142 134 54
140 134 53
144 138 56
134 128 45
136 129 51
137 130 49
210 229 255
210 229 255
210 229 255
210 230 255
210 230 255
211 230 255
211 230 255
211 230 255
211 230 255
211 230 255
211 230 255
211 230 255
211 230 255
211 230 255
211 230 255
211 230 255
211 230 255
211 230 255
211 230 255
211 230 255
211 230 255
211 230 255
211 230 255
211 230 255
211 230 255
211 230 255
211 230 255
211 230 255
211 230 255
211 230 255
211 230 255
211 230 255
211 230 255
211 230 255
211 230 255
211 230 255
211 230 255
211 230 255
211 230 255
212 230 255
212 230 255
212 230 255
212 230 255
212 230 255
212 230 255
212 230 255
212 230 255
212 230 255
212 230 255
212 230 255
212 230 255
212 230 255
212 230 255
212 230 255
212 230 255
212 230 255
212 230 255
212 230 255
212 230 255
211 230 255
211 230 255
211 230 255
211 230 255
211 230 255
211 230 255
211 230 255
211 230 255
211 230 255
211 230 255
211 230 255
211 230 255
211 230 255
211 230 255
211 230 255
211 230 255
211 230 255
211 230 255
211 230 255
211 230 255
211 230 255
211 230 255
211 230 255
211 230 255
211 230 255
210 230 255
210 230 255
210 229 255
210 229 255
210 229 255
210 229 255
210 229 255
210 229 255
210 229 255
210 229 255
210 229 255
209 229 255
209 229 255
209 229 255
209 229 255
209 229 255
209 229 255
209 229 255
208 228 255
208 228 255
208 228 255
208 228 255
208 228 255
207 228 255
207 228 255
207 228 255
207 227 255
206 227 255
206 227 255
206 227 255
206 227 255
205 227 255
205 226 255
204 226 255
204 226 255
204 226 255
203 225 255
202 225 255
202 225 255
201 224 255
200 224 255
200 224 255
199 223 255
198 223 255
196 222 255
194 221 255
181 206 186
171 193 0
168 192 0
172 195 0
168 191 0
166 189 0
171 194 0
168 192 0
172 194 0
162 185 0
167 190 0
167 190 0
165 189 0
169 191 0
166 189 0
163 186 0
166 188 0
112 137 88
55 88 100
56 89 103
56 89 97
56 89 105
59 92 124
57 90 99
57 90 111
56 89 102
55 88 111
56 89 107
57 91 114
58 91 103
57 91 102
56 89 99
57 90 103
56 89 110
58 91 121
58 91 117
57 89 110
57 90 105
55 87 100
57 90 114
57 90 120
56 89 107
57 90 110
56 89 110
56 89 102
57 91 118
58 91 121
56 90 107
57 90 102
56 89 103
57 91 107
57 91 113
59 92 121
58 91 114
57 90 102
58 90 117
57 90 99
57 90 108
57 89 105
59 93 122
57 90 111
59 92 117
59 93 117
56 89 95
56 88 108
56 89 105
57 90 117
57 91 113
58 91 118
58 92 120
57 91 113
56 89 100
56 89 99
57 90 110
55 87 108
56 88 105
56 89 105
56 89 107
55 87 99
55 87 110
56 89 102
58 91 107
58 91 113
55 86 108
57 91 103
57 90 111
57 91 115
56 89 96
55 88 95
58 91 125
57 89 111
57 90 114
58 90 110
56 88 100
56 89 105
55 88 110
57 89 113
55 87 95
56 88 100
54 85 95
57 89 108
56 88 102
58 92 113
55 88 111
57 89 115
52 82 99
55 88 104
53 84 102
53 85 92
56 88 107
57 89 110
55 87 103
57 89 110
55 85 105
55 87 113
54 84 95
52 81 89
53 84 84
53 83 90
53 83 94
53 83 98
53 83 96
91 112 80
149 166 0
148 168 0
148 162 0
147 163 0
146 163 0
153 169 0
151 165 0
147 163 0
148 164 0
146 161 0
158 175 0
157 173 0
153 169 0
147 160 0
154 168 0
156 170 0
126 135 19
96 91 25
100 93 30
94 87 22
102 97 30
86 81 23
88 82 11
85 81 12
77 76 16
96 91 11
88 83 0
89 86 16
103 98 11
95 90 0
100 96 14
90 87 0
99 96 0
95 91 8
99 95 16
103 98 14
97 95 8
100 97 8
89 87 3
83 81 11
99 96 14
109 106 20
105 101 11
103 98 16
104 99 16
112 108 11
98 95 14
107 104 22
112 107 21
106 103 14
98 96 0
112 107 16
111 108 14
115 110 16
117 114 12
116 113 16
120 114 28
122 116 19
114 111 18
117 112 28
123 120 29
125 120 18
126 120 11
122 116 31
128 123 25
126 122 32
124 118 30
132 126 25
123 117 25
123 118 28
129 125 32
128 123 34
130 124 34
122 117 32
133 127 36
134 128 32
136 131 32
131 126 33
133 128 34
133 129 28
135 130 25
140 134 36
131 127 39
140 134 32
135 130 32
137 131 41
140 134 41
134 129 36
136 129 34
134 130 36
135 129 32
137 131 45
133 127 36
147 140 47
142 138 41
133 128 34
141 135 39
135 130 32
141 135 41
138 131 45
140 133 39
137 131 28
142 137 42
143 137 48
145 139 45
138 132 45
137 130 30
144 137 54
136 131 34
143 136 45
132 126 37
136 131 42
137 132 36
142 136 42
138 134 34
148 141 53
152 146 56
143 138 37
140 135 41
144 139 45
138 132 44
144 138 52
139 132 42
141 137 45
134 128 41
142 137 48
134 131 41
134 128 42
143 138 42
144 137 59
133 129 45
148 141 45
147 141 52
142 136 42
138 132 48
138 133 53
138 132 49
143 137 56
138 133 45
137 130 53
145 139 48
146 139 53
135 129 41
131 125 47
144 139 53
134 129 51
134 127 49
210 229 255
210 229 255
210 229 255
210 229 255
210 229 255
210 229 255
210 229 255
210 229 255
210 229 255
210 229 255
210 229 255
210 229 255
210 230 255
210 230 255
211 230 255
211 230 255
211 230 255
211 230 255
211 230 255
211 230 255
211 230 255
211 230 255
211 230 255
211 230 255
211 230 255
211 230 255
211 230 255
211 230 255
211 230 255
211 230 255
211 230 255
211 230 255
211 230 255
211 230 255
211 230 255
211 230 255
211 230 255
211 230 255
211 230 255
211 230 255
211 230 255
211 230 255
211 230 255
211 230 255
211 230 255
211 230 255
211 230 255
211 230 255
211 230 255
211 230 255
211 230 255
211 230 255
211 230 255
211 230 255
211 230 255
211 230 255
211 230 255
211 230 255
211 230 255
211 230 255
211 230 255
211 230 255
211 230 255
211 230 255
211 230 255
211 230 255
211 230 255
211 230 255
211 230 255
211 230 255
211 230 255
211 230 255
211 230 255
211 230 255
211 230 255
211 230 255
211 230 255
210 230 255
210 230 255
210 229 255
210 229 255
210 229 255
210 229 255
210 229 255
210 229 255
210 229 255
210 229 255
210 229 255
210 229 255
210 229 255
209 229 255
209 229 255
209 229 255
209 229 255
209 229 255
209 229 255
209 229 255
209 229 255
208 228 255
208 228 255
208 228 255
208 228 255
208 228 255
208 228 255
207 228 255
207 228 255
207 228 255
207 227 255
207 227 255
206 227 255
206 227 255
206 227 255
205 227 255
205 227 255
205 226 255
204 226 255
204 226 255
203 226 255
203 225 255
202 225 255
202 225 255
201 225 255
201 224 255
200 224 255
199 223 255
198 223 255
197 222 255
195 221 255
194 220 254
178 203 161
169 191 0
169 193 0
171 194 0
170 194 0
169 192 0
173 196 0
171 194 0
165 188 0
167 190 0
165 188 0
167 190 0
165 188 0
165 188 0
163 186 0
167 190 0
166 188 0
165 188 0
159 182 0
77 106 108
57 90 108
56 88 108
56 88 113
55 88 94
56 89 113
56 89 110
57 90 95
56 90 107
56 89 107
54 87 94
55 87 97
56 89 114
56 88 113
56 88 102
55 86 99
56 88 102
57 91 105
58 92 117
57 90 108
58 91 117
55 88 103
57 90 111
57 90 113
55 88 97
56 89 105
58 91 111
57 90 107
56 89 111
57 89 118
57 90 113
57 90 105
58 91 105
57 90 107
56 89 111
56 88 90
56 89 115
55 87 111
58 92 107
58 92 113
56 88 110
58 91 117
54 86 102
57 89 110
56 89 110
57 89 110
57 91 105
56 89 100
58 90 114
57 90 100
55 87 105
57 90 115
56 88 114
56 88 107
56 88 97
56 89 107
54 86 95
57 90 102
57 91 107
57 90 108
58 92 108
57 90 110
54 86 99
58 91 118
57 89 108
57 90 114
54 86 97
55 88 105
57 90 113
58 91 126
54 86 90
53 85 105
56 88 86
56 88 110
56 89 114
57 89 111
57 90 101
56 89 111
54 86 97
56 89 111
56 89 107
56 89 94
57 90 115
57 90 118
55 88 104
56 89 100
55 87 103
55 86 97
54 87 97
57 90 105
54 86 97
56 88 99
54 84 90
55 86 107
51 81 95
53 83 93
55 87 100
53 83 104
55 86 102
53 82 99
55 86 101
49 78 81
51 80 87
72 93 73
140 157 31
145 161 0
131 144 0
146 163 0
144 159 0
142 157 0
148 164 0
147 164 0
149 164 0
143 156 0
149 162 0
151 165 0
144 157 0
146 160 0
154 169 0
150 165 0
151 164 0
155 168 0
130 137 19
95 89 28
105 98 36
94 88 22
82 78 16
93 87 19
92 86 16
88 83 24
92 88 11
85 79 11
73 71 8
100 97 0
82 79 0
94 89 16
99 93 0
90 86 0
90 84 0
88 85 11
101 96 8
98 93 8
91 86 8
101 97 0
87 84 0
91 90 14
106 102 24
112 107 8
108 105 18
96 92 8
100 96 0
110 107 8
104 100 11
107 104 14
102 97 8
105 104 0
111 109 18
110 106 16
104 99 0
121 116 19
112 108 11
119 114 26
125 120 25
117 113 16
124 119 22
124 119 28
122 116 16
126 121 29
125 121 26
128 125 25
121 117 22
128 121 34
132 125 25
123 118 18
136 131 34
126 121 32
128 124 28
125 121 32
131 126 25
128 123 30
128 122 33
131 126 36
131 126 34
126 122 36
133 128 34
133 127 37
125 122 32
139 134 34
141 135 36
142 137 42
139 132 41
145 139 49
135 129 36
142 136 34
139 133 42
132 124 37
139 133 30
134 130 41
140 134 39
135 130 22
131 127 25
141 135 36
133 128 37
138 132 28
132 125 39
141 134 34
141 134 48
138 133 37
144 138 42
139 132 41
141 135 45
136 130 47
146 140 44
146 140 41
139 133 39
133 128 39
135 130 37
137 132 39
141 136 42
141 136 41
147 141 54
140 134 45
141 135 52
147 141 42
141 134 48
145 139 47
129 124 34
139 132 48
135 129 47
141 134 51
139 134 52
141 134 54
140 133 47
139 133 44
143 137 53
140 133 47
131 127 37
138 131 45
135 130 39
143 136 54
140 134 47
141 135 51
134 128 48
138 132 51
143 137 52
138 131 53
138 132 52
143 137 51
128 121 41
130 125 45
132 127 47
140 134 45
209 229 255
209 229 255
209 229 255
210 229 255
210 229 255
210 229 255
210 229 255
210 229 255
210 229 255
210 229 255
210 229 255
210 229 255
210 229 255
210 229 255
210 229 255
210 229 255
210 229 255
210 229 255
210 229 255
210 229 255
210 229 255
210 229 255
210 229 255
210 230 255
210 230 255
210 230 255
210 230 255
211 230 255
211 230 255
211 230 255
211 230 255
211 230 255
211 230 255
211 230 255
211 230 255
211 230 255
211 230 255
211 230 255
211 230 255
211 230 255
211 230 255
211 230 255
211 230 255
211 230 255
211 230 255
211 230 255
211 230 255
211 230 255
211 230 255
211 230 255
211 230 255
211 230 255
211 230 255
211 230 255
211 230 255
211 230 255
211 230 255
211 230 255
211 230 255
211 230 255
211 230 255
211 230 255
211 230 255
211 230 255
211 230 255
211 230 255
211 230 255
210 230 255
210 230 255
210 229 255
210 229 255
210 229 255
210 229 255
210 229 255
210 229 255
210 229 255
210 229 255
210 229 255
210 229 255
210 229 255
210 229 255
210 229 255
210 229 255
210 229 255
210 229 255
209 229 255
209 229 255
209 229 255
209 229 255
209 229 255
209 229 255
209 229 255
209 229 255
209 229 255
208 228 255
208 228 255
208 228 255
208 228 255
208 228 255
208 228 255
208 228 255
207 228 255
207 228 255
207 228 255
207 227 255
206 227 255
206 227 255
206 227 255
206 227 255
205 227 255
205 227 255
205 226 255
204 226 255
204 226 255
204 226 255
203 226 255
203 225 255
202 225 255
202 225 255
201 224 255
201 224 255
200 224 255
199 223 255
198 223 255
197 222 255
196 222 255
195 221 255
192 219 250
177 202 125
168 192 0
171 194 0
167 191 0
163 186 0
171 193 0
164 187 0
162 185 0
166 189 0
162 185 0
166 189 0
168 191 0
161 185 0
166 189 0
167 190 0
162 185 0
166 188 0
160 183 0
162 186 0
163 186 0
150 173 31
60 92 108
54 86 90
55 88 95
56 89 111
57 90 107
56 89 114
55 88 99
57 91 110
56 88 100
57 90 114
56 90 100
57 91 108
57 90 107
58 92 117
57 89 113
56 88 92
58 92 110
55 87 105
54 87 100
57 90 114
56 88 95
56 89 100
56 89 110
58 91 113
58 91 114
56 89 107
56 88 92
59 93 114
55 88 105
57 90 115
55 88 90
59 92 115
58 91 114
56 88 105
58 92 124
55 87 94
56 89 110
54 87 88
57 90 115
58 92 118
57 90 122
57 90 90
59 92 120
55 87 97
57 90 100
57 90 111
56 88 105
55 87 110
56 89 103
57 91 105
57 90 114
56 88 105
56 88 99
58 92 113
57 90 103
56 89 99
56 89 107
56 89 115
56 89 107
55 87 90
56 89 102
56 89 105
56 89 111
54 86 101
57 90 105
55 87 102
56 90 107
56 88 103
56 89 105
57 90 108
56 88 108
57 90 107
56 88 110
57 90 117
59 92 113
57 90 110
56 89 102
58 90 117
57 90 115
56 89 99
55 87 107
55 87 103
54 86 102
54 86 110
57 90 112
56 87 101
56 88 105
56 87 99
55 87 113
55 86 110
56 88 104
54 86 107
55 87 107
52 82 97
55 86 94
50 80 86
53 83 102
52 80 86
54 85 89
49 77 91
50 79 84
59 83 70
131 146 44
153 168 0
140 155 0
146 159 0
149 164 0
140 156 0
150 163 0
137 151 0
147 162 0
142 156 0
145 158 0
150 164 0
144 156 0
145 157 0
139 153 0
137 150 0
143 155 0
139 149 0
154 167 0
149 161 0
140 151 16
99 95 28
96 90 22
104 97 25
93 88 24
78 75 0
83 78 11
78 73 11
90 85 0
96 92 11
87 83 16
89 84 0
88 85 16
96 92 14
85 82 0
87 83 11
96 91 16
101 95 11
89 86 0
96 92 0
100 96 11
94 91 0
103 99 12
96 93 0
110 105 11
98 94 16
107 102 8
107 102 14
104 100 8
100 95 8
105 103 19
116 111 11
104 100 0
115 110 14
119 115 21
115 110 20
121 118 0
114 110 14
117 112 18
124 121 19
117 113 14
123 118 24
117 113 16
123 119 0
129 123 16
121 117 19
123 116 28
123 119 19
131 125 30
130 126 31
131 126 25
121 116 25
122 117 22
130 125 22
127 122 30
131 125 24
120 114 30
128 124 31
128 122 39
131 127 22
131 127 32
141 136 30
131 125 32
134 128 30
133 127 34
134 129 32
124 118 19
138 132 41
138 132 28
137 132 28
140 135 34
138 132 36
140 134 34
129 124 37
133 127 36
135 130 32
137 131 39
142 137 36
141 134 37
128 123 30
135 130 32
139 133 36
141 136 45
139 134 30
147 140 52
137 133 34
143 137 41
132 127 30
137 133 32
142 136 32
147 140 44
134 128 52
138 133 39
140 134 47
131 125 42
140 134 49
137 131 39
145 139 44
133 127 47
136 129 51
134 129 45
132 126 41
127 120 30
142 136 48
128 122 37
145 139 45
127 123 44
135 128 45
134 129 36
134 129 41
130 125 34
135 130 36
143 137 47
142 136 45
139 134 44
139 134 48
135 130 41
138 132 37
138 132 56
136 129 47
139 133 45
139 133 44
140 134 48
139 131 58
136 130 44
133 128 41
141 134 59
138 131 52
131 125 49
209 229 255
209 229 255
209 229 255
209 229 255
209 229 255
209 229 255
209 229 255
209 229 255
209 229 255
209 229 255
209 229 255
209 229 255
210 229 255
210 229 255
210 229 255
210 229 255
210 229 255
210 229 255
210 229 255
210 229 255
210 229 255
210 229 255
210 229 255
210 229 255
210 229 255
210 229 255
210 229 255
210 229 255
210 229 255
210 229 255
210 229 255
210 229 255
210 229 255
210 229 255
210 229 255
210 229 255
210 229 255
210 229 255
210 229 255
210 229 255
210 229 255
210 229 255
210 229 255
210 229 255
210 229 255
210 229 255
210 229 255
210 229 255
210 229 255
210 229 255
210 229 255
210 229 255
210 229 255
210 229 255
210 229 255
210 229 255
210 229 255
210 229 255
210 229 255
210 229 255
210 229 255
210 229 255
210 229 255
210 229 255
210 229 255
210 229 255
210 229 255
210 229 255
210 229 255
210 229 255
210 229 255
210 229 255
210 229 255
210 229 255
210 229 255
210 229 255
210 229 255
209 229 255
209 229 255
209 229 255
209 229 255
209 229 255
209 229 255
209 229 255
209 229 255
209 229 255
209 229 255
209 229 255
209 229 255
208 228 255
208 228 255
208 228 255
208 228 255
208 228 255
208 228 255
208 228 255
208 228 255
207 228 255
207 228 255
207 228 255
207 228 255
207 227 255
206 227 255
206 227 255
206 227 255
206 227 255
205 227 255
205 227 255
205 226 255
205 226 255
204 226 255
204 226 255
203 226 255
203 225 255
203 225 255
202 225 255
202 225 255
201 224 255
201 224 255
200 224 255
199 223 255
198 223 255
197 222 255
196 222 255
195 221 255
194 221 255
185 212 223
172 196 84
166 190 0
169 192 0
169 193 0
165 187 0
168 191 0
164 187 0
168 192 0
168 191 0
169 192 0
165 188 0
168 191 0
166 190 0
166 189 0
167 190 0
164 187 0
165 188 0
166 189 0
165 188 0
165 188 0
164 186 0
159 182 0
138 160 51
54 86 105
55 87 97
57 90 122
54 86 99
54 86 100
55 88 95
55 87 102
56 89 90
57 90 100
57 90 114
57 91 110
56 89 97
57 90 102
57 89 107
56 89 111
55 87 99
57 90 105
56 88 95
56 89 100
56 88 97
57 90 108
55 88 88
56 89 105
56 89 102
55 87 95
54 86 99
56 89 107
56 89 107
57 90 121
56 88 100
54 86 94
55 87 103
57 90 113
58 91 97
54 86 102
59 92 122
57 90 110
57 90 113
57 90 110
57 90 113
57 90 111
57 90 114
57 91 117
58 92 111
58 91 103
57 90 103
55 88 94
57 91 115
57 90 117
57 90 117
55 87 110
58 91 108
57 90 111
55 87 100
56 89 102
55 87 95
58 91 111
56 89 118
57 89 102
57 90 114
55 88 102
56 89 115
58 91 117
57 90 110
56 88 105
56 88 102
56 88 100
56 88 102
54 86 94
55 87 107
58 91 113
55 86 103
56 89 110
55 87 103
56 88 110
56 89 105
57 90 117
55 87 110
53 84 88
56 89 106
56 88 108
55 88 99
56 88 97
55 87 105
54 86 95
58 91 124
54 86 105
55 88 100
55 86 97
54 85 100
53 84 94
56 88 112
55 87 114
52 82 90
53 83 93
53 84 83
52 82 99
53 83 96
52 81 100
52 81 89
113 130 55
141 157 0
139 154 0
135 149 0
142 157 0
141 154 0
142 155 0
140 155 0
143 154 0
142 153 0
150 168 0
133 145 0
141 155 0
142 153 0
143 153 0
145 157 0
134 143 0
147 160 0
144 157 0
142 152 0
148 157 0
140 150 0
132 141 11
104 101 30
78 75 16
90 83 11
86 79 16
84 79 16
91 85 11
90 84 19
91 85 11
95 90 16
88 84 0
85 82 11
95 92 18
87 82 8
98 93 0
88 84 0
88 83 8
93 87 8
98 93 0
107 102 0
105 103 12
102 98 8
84 81 8
99 94 0
99 95 0
109 105 0
108 103 11
103 97 0
113 109 11
108 104 11
93 91 8
106 101 8
112 105 14
114 109 19
114 109 18
117 112 19
97 95 16
117 114 8
117 113 0
117 113 21
117 112 24
115 110 16
122 118 25
122 118 29
132 126 25
119 113 28
121 117 19
119 116 11
123 119 14
128 124 16
120 115 19
127 123 22
112 109 21
133 127 34
123 118 22
134 129 28
120 114 30
133 127 30
126 121 28
136 131 36
137 131 30
131 125 28
136 131 32
129 124 34
130 126 28
129 123 30
130 125 32
127 121 25
130 125 36
138 133 25
128 121 32
135 127 32
132 126 37
131 126 30
133 128 34
137 131 30
138 133 39
126 121 34
132 126 41
139 133 41
135 129 41
134 128 37
131 125 34
127 122 25
140 134 36
140 133 41
136 131 45
136 132 39
135 129 39
136 131 42
141 134 42
137 131 44
140 133 44
139 134 39
131 125 42
134 128 47
142 135 47
146 138 51
140 133 48
126 123 41
138 131 48
134 129 44
138 131 42
139 133 44
139 133 48
137 129 54
137 130 34
144 137 48
136 129 45
143 136 51
134 129 41
143 137 44
145 137 53
144 137 59
135 130 34
131 126 37
138 132 41
135 130 41
133 127 44
139 134 54
139 134 47
144 138 47
128 121 47
138 132 48
141 135 44
131 126 52
138 132 52
137 131 56
208 228 255
208 228 255
208 228 255
209 229 255
209 229 255
209 229 255
209 229 255
209 229 255
209 229 255
209 229 255
209 229 255
209 229 255
209 229 255
209 229 255
209 229 255
209 229 255
209 229 255
209 229 255
209 229 255
209 229 255
209 229 255
209 229 255
210 229 255
210 229 255
210 229 255
210 229 255
210 229 255
210 229 255
210 229 255
210 229 255
210 229 255
210 229 255
210 229 255
210 229 255
210 229 255
210 229 255
210 229 255
210 229 255
210 229 255
210 229 255
210 229 255
210 229 255
210 229 255
210 229 255
210 229 255
210 229 255
210 229 255
210 229 255
210 229 255
210 229 255
210 229 255
210 229 255
210 229 255
210 229 255
210 229 255
210 229 255
210 229 255
210 229 255
210 229 255
210 229 255
210 229 255
210 229 255
210 229 255
210 229 255
210 229 255
210 229 255
210 229 255
210 229 255
209 229 255
209 229 255
209 229 255
209 229 255
209 229 255
209 229 255
209 229 255
209 229 255
209 229 255
209 229 255
209 229 255
209 229 255
209 229 255
209 229 255
209 229 255
209 228 255
208 228 255
208 228 255
208 228 255
208 228 255
208 228 255
208 228 255
208 228 255
208 228 255
207 228 255
207 228 255
207 228 255
207 228 255
207 228 255
207 227 255
207 227 255
206 227 255
206 227 255
206 227 255
206 227 255
205 227 255
205 227 255
205 227 255
205 226 255
204 226 255
204 226 255
204 226 255
203 226 255
203 225 255
202 225 255
202 225 255
202 225 255
201 224 255
200 224 255
200 224 255
199 223 255
198 223 255
198 223 255
197 222 255
195 221 255
194 221 255
193 220 255
183 209 196
168 192 51
170 194 0
167 191 0
168 193 0
168 191 0
167 191 0
166 189 0
168 192 0
164 187 0
167 190 0
166 188 0
166 190 0
162 186 0
162 186 0
162 185 0
162 184 0
161 183 0
163 186 0
164 187 0
160 182 0
165 188 0
161 183 0
162 185 0
156 178 0
117 140 62
56 89 114
54 86 94
56 88 103
55 88 92
55 88 110
55 87 110
55 88 88
57 90 113
55 88 103
55 87 99
55 88 100
56 89 97
56 89 100
56 88 107
57 90 99
57 89 110
53 85 97
57 89 103
57 90 115
56 89 107
56 89 105
55 87 100
56 89 102
58 91 114
58 91 118
57 89 107
55 88 103
56 89 105
54 87 102
55 87 105
56 88 99
57 91 108
56 88 105
55 88 95
56 88 102
56 89 95
57 90 108
56 88 99
56 89 102
56 88 115
55 87 97
54 86 97
56 89 108
55 88 97
57 90 110
56 88 103
55 88 107
56 90 108
55 88 107
56 89 105
58 91 120
59 92 115
57 90 110
57 90 102
54 86 92
55 88 102
56 88 110
56 89 113
58 91 115
57 90 107
56 88 103
55 87 86
58 91 107
54 85 94
56 89 113
56 88 99
57 90 114
55 87 103
56 88 102
57 90 121
54 86 99
55 88 110
56 88 107
57 89 110
55 87 102
57 89 111
54 86 102
55 88 94
55 87 99
53 84 102
55 87 94
56 87 99
57 90 99
58 90 118
57 89 111
55 87 101
55 85 109
56 87 114
53 84 100
54 85 99
55 86 100
53 82 96
52 82 89
53 83 92
51 81 92
54 84 105
51 79 89
51 80 94
108 126 47
144 158 0
137 152 0
145 159 0
136 150 0
135 146 0
140 153 0
133 145 0
134 145 0
142 155 0
132 145 0
136 146 0
144 156 0
144 154 0
136 148 0
142 153 0
146 159 0
139 149 0
151 163 0
151 162 0
148 159 0
147 158 0
138 149 0
143 155 0
136 145 0
113 114 19
90 83 19
88 82 16
98 90 25
80 77 16
93 88 21
101 93 19
82 73 11
86 83 12
90 83 19
93 88 16
92 88 16
89 85 0
100 94 19
98 92 0
101 96 11
93 88 8
91 87 0
92 85 11
98 93 0
92 89 8
96 93 0
90 87 0
108 103 0
97 91 11
102 99 8
108 102 0
105 101 0
109 101 0
106 100 0
110 105 11
107 102 14
116 112 16
114 110 11
116 110 11
121 118 11
103 99 19
119 114 21
117 113 14
119 114 25
115 110 19
125 120 31
122 117 16
120 116 22
127 121 25
120 114 28
122 115 21
121 118 22
123 119 28
125 119 16
132 126 19
119 114 25
121 114 11
133 127 25
128 122 28
127 122 24
130 124 25
132 126 28
130 125 32
129 123 33
129 123 34
128 124 22
124 119 25
126 121 28
136 128 34
134 129 30
135 130 32
131 125 22
133 128 34
141 134 34
126 120 19
129 124 34
139 132 39
140 134 34
137 132 36
139 135 37
138 132 32
142 136 36
137 132 44
140 135 41
145 138 41
132 126 39
131 124 34
136 130 37
139 132 42
142 136 48
141 135 41
142 135 48
140 133 37
133 129 30
133 128 36
134 128 37
141 134 49
132 126 34
136 131 37
127 121 37
141 134 44
139 133 37
131 125 42
132 127 39
133 128 41
135 129 45
139 133 45
130 125 39
134 127 48
140 134 41
142 136 51
137 132 39
134 128 36
139 134 44
130 126 36
140 135 36
132 127 39
136 130 44
141 134 54
136 130 39
142 136 51
133 125 42
134 128 45
137 131 48
132 125 42
140 134 47
130 124 42
133 128 42
136 130 45
123 117 39
208 228 255
208 228 255
208 228 255
208 228 255
208 228 255
208 228 255
208 228 255
208 228 255
208 228 255
208 228 255
209 228 255
209 229 255
209 229 255
209 229 255
209 229 255
209 229 255
209 229 255
209 229 255
209 229 255
209 229 255
209 229 255
209 229 255
209 229 255
209 229 255
209 229 255
209 229 255
209 229 255
209 229 255
209 229 255
209 229 255
209 229 255
209 229 255
209 229 255
209 229 255
209 229 255
209 229 255
209 229 255
209 229 255
209 229 255
209 229 255
209 229 255
209 229 255
209 229 255
209 229 255
209 229 255
209 229 255
209 229 255
209 229 255
209 229 255
209 229 255
209 229 255
209 229 255
209 229 255
209 229 255
209 229 255
209 229 255
209 229 255
209 229 255
209 229 255
209 229 255
209 229 255
209 229 255
209 229 255
209 229 255
209 229 255
209 229 255
209 229 255
209 229 255
209 229 255
209 229 255
209 229 255
209 229 255
209 229 255
209 229 255
209 229 255
209 229 255
209 228 255
208 228 255
208 228 255
208 228 255
208 228 255
208 228 255
208 228 255
208 228 255
208 228 255
208 228 255
208 228 255
207 228 255
207 228 255
207 228 255
207 228 255
207 228 255
207 228 255
207 227 255
207 227 255
206 227 255
206 227 255
206 227 255
206 227 255
206 227 255
205 227 255
205 227 255
205 226 255
205 226 255
204 226 255
204 226 255
204 226 255
203 226 255
203 225 255
203 225 255
202 225 255
202 225 255
201 225 255
201 224 255
200 224 255
200 224 255
199 223 255
198 223 255
197 223 255
197 222 255
196 222 255
195 221 255
193 220 255
190 218 252
173 198 144
167 190 0
167 191 0
166 190 0
169 193 0
160 184 0
164 188 0
160 184 0
164 187 0
163 187 0
163 186 0
165 189 0
163 186 0
167 190 0
165 189 0
163 186 0
169 192 0
164 188 0
164 186 0
157 180 0
153 176 0
159 181 0
159 182 0
160 183 0
156 178 0
156 178 0
160 183 0
91 116 80
55 87 100
54 87 88
54 85 82
55 87 88
55 87 92
56 88 97
55 87 92
55 87 102
56 89 103
57 90 99
56 90 97
56 88 97
53 85 95
57 90 110
56 88 110
57 91 102
56 89 102
56 89 111
56 89 105
57 90 114
56 89 103
55 87 99
55 88 113
55 87 92
55 87 107
56 88 97
55 87 102
55 87 94
56 89 111
56 88 107
56 88 103
57 90 103
54 86 88
57 90 105
56 88 111
57 90 107
57 90 113
57 90 108
57 90 110
56 89 108
56 89 102
55 87 105
56 89 105
56 89 100
56 89 107
55 88 92
56 89 114
57 90 107
57 90 105
56 88 103
56 88 103
57 90 115
57 89 103
57 89 111
56 88 107
57 90 113
56 89 102
56 88 97
55 88 95
57 90 117
56 89 102
55 87 105
56 89 103
58 91 114
56 88 100
58 90 113
56 88 105
56 89 108
56 89 107
56 89 110
56 88 99
56 88 102
56 87 103
55 87 97
56 88 105
55 87 97
54 85 99
55 87 108
54 86 88
54 85 99
54 87 97
55 86 95
57 89 103
55 87 102
52 81 90
54 85 94
54 85 96
55 86 110
53 85 95
53 84 109
52 82 97
53 83 99
55 87 103
53 84 95
51 79 75
48 77 75
83 104 73
136 148 0
130 145 0
137 150 0
148 163 0
129 140 0
134 145 0
140 151 0
140 152 0
130 140 0
128 141 0
138 151 0
129 139 0
141 155 0
142 154 0
141 154 0
141 151 0
132 142 0
143 152 0
141 153 0
134 142 0
136 145 0
141 148 0
137 146 0
138 145 0
137 146 0
139 148 0
117 124 16
80 76 22
98 90 34
88 83 21
74 70 16
84 79 0
98 91 19
101 95 16
92 89 11
94 89 14
97 92 18
89 84 14
94 88 11
82 78 0
91 88 11
94 88 11
86 81 0
97 91 0
91 88 0
101 96 0
88 84 0
110 104 0
106 100 0
111 105 0
95 91 3
112 107 0
91 87 0
93 90 0
104 102 8
110 105 0
116 112 0
107 101 0
106 101 11
121 117 11
103 98 0
114 109 21
109 103 0
115 110 14
113 108 0
114 108 0
113 109 0
116 113 21
127 120 19
119 114 25
111 107 19
114 109 19
117 110 19
120 114 16
109 105 0
127 121 28
126 122 22
125 120 22
123 118 22
126 121 30
126 120 19
123 118 28
127 121 25
127 120 28
133 127 32
132 128 30
126 121 30
136 131 30
127 122 32
134 128 25
129 121 32
130 125 28
129 124 25
131 125 32
120 114 25
125 121 34
135 129 36
124 118 30
128 122 37
126 121 25
136 131 32
136 130 34
130 123 30
132 126 28
125 119 32
134 130 32
133 127 32
137 132 32
131 126 32
137 132 30
136 130 36
130 125 30
143 136 41
139 133 37
134 128 41
129 123 36
139 133 44
140 134 32
137 132 45
136 131 36
138 132 37
132 126 45
141 134 39
134 127 36
141 134 44
130 125 30
139 133 41
136 130 37
126 121 36
140 133 42
132 127 44
148 142 51
133 127 49
137 131 42
135 129 45
136 129 48
134 128 34
132 125 42
133 128 47
126 121 34
135 129 45
129 124 42
141 135 52
132 128 42
132 126 36
133 126 49
129 125 36
134 128 49
134 130 52
135 128 52
126 120 47
207 228 255
207 228 255
207 228 255
208 228 255
208 228 255
208 228 255
208 228 255
208 228 255
208 228 255
208 228 255
208 228 255
208 228 255
208 228 255
208 228 255
208 228 255
208 228 255
208 228 255
208 228 255
208 228 255
208 228 255
208 228 255
209 228 255
209 228 255
209 229 255
209 229 255
209 229 255
209 229 255
209 229 255
209 229 255
209 229 255
209 229 255
209 229 255
209 229 255
209 229 255
209 229 255
209 229 255
209 229 255
209 229 255
209 229 255
209 229 255
209 229 255
209 229 255
209 229 255
209 229 255
209 229 255
209 229 255
209 229 255
209 229 255
209 229 255
209 229 255
209 229 255
209 229 255
209 229 255
209 229 255
209 229 255
209 229 255
209 229 255
209 229 255
209 229 255
209 229 255
209 229 255
209 229 255
209 229 255
209 229 255
209 229 255
209 229 255
209 228 255
208 228 255
208 228 255
208 228 255
208 228 255
208 228 255
208 228 255
208 228 255
208 228 255
208 228 255
208 228 255
208 228 255
208 228 255
208 228 255
208 228 255
208 228 255
207 228 255
207 228 255
207 228 255
207 228 255
207 228 255
207 228 255
207 227 255
207 227 255
206 227 255
206 227 255
206 227 255
206 227 255
206 227 255
206 227 255
205 227 255
205 227 255
205 227 255
205 226 255
204 226 255
204 226 255
204 226 255
204 226 255
203 226 255
203 226 255
203 225 255
202 225 255
202 225 255
202 225 255
201 224 255
201 224 255
200 224 255
200 224 255
199 223 255
198 223 255
197 222 255
197 222 255
196 222 255
195 221 255
193 220 255
192 220 255
185 213 221
170 195 84
167 191 0
165 190 0
166 190 0
164 188 0
164 188 0
168 192 0
166 190 0
165 189 0
166 190 0
161 184 0
161 184 0
167 190 0
157 180 0
163 185 0
161 184 0
163 186 0
164 188 0
160 184 0
162 184 0
154 177 0
161 184 0
158 181 0
168 191 0
159 181 0
156 180 0
155 177 0
151 174 0
154 177 31
87 112 97
53 84 88
52 83 90
55 87 95
56 88 103
54 87 92
54 85 82
56 88 107
55 88 95
57 89 103
57 90 114
54 85 97
56 88 99
55 87 102
56 88 108
55 87 92
55 87 102
54 86 97
56 89 105
56 88 82
56 89 99
57 89 111
56 89 108
55 88 103
55 88 102
54 85 90
58 91 110
56 89 102
55 87 90
56 89 100
57 90 108
54 86 103
57 90 108
57 90 107
55 87 92
57 90 103
58 92 120
56 89 114
55 86 105
56 89 110
56 89 105
56 88 105
56 88 107
56 88 108
56 88 107
55 88 95
53 84 99
57 91 110
58 91 107
56 88 110
57 90 105
55 87 103
55 87 111
56 88 114
57 89 107
55 87 94
54 85 102
55 87 95
55 88 88
55 88 102
53 85 102
57 89 107
56 89 105
55 87 105
54 85 97
57 89 113
56 89 97
55 86 99
56 88 90
57 89 107
55 86 95
55 87 95
54 86 95
59 92 117
56 88 94
54 85 103
52 83 84
53 84 99
56 87 95
56 88 113
52 82 81
50 79 78
55 88 103
55 87 97
53 84 94
54 85 94
53 84 85
54 85 100
53 84 101
52 81 95
53 83 92
51 80 83
52 81 101
52 81 70
50 79 84
78 96 68
107 119 19
128 143 0
135 147 0
125 139 0
138 152 0
140 156 0
135 147 0
132 146 0
133 145 0
138 150 0
139 152 0
133 142 0
140 154 0
136 146 0
131 141 0
140 149 0
134 144 0
133 143 0
132 142 0
133 142 0
145 156 0
137 144 0
133 140 0
130 138 0
132 140 0
136 143 0
117 122 0
139 146 0
128 132 11
94 91 19
96 89 16
85 80 22
82 77 22
90 84 14
89 83 11
83 77 0
75 71 11
90 83 0
96 91 8
92 85 8
78 73 0
97 93 11
87 82 0
94 89 0
91 85 8
98 94 0
93 88 0
97 92 0
104 100 14
90 87 8
108 101 0
104 98 8
95 90 0
98 92 0
103 99 0
104 99 0
113 106 16
109 103 0
114 110 8
98 94 0
119 111 16
110 105 16
120 113 11
109 102 16
118 111 19
117 112 0
124 118 16
114 109 16
121 115 11
117 113 16
115 112 0
124 119 11
116 111 14
125 119 0
123 116 22
108 105 16
121 117 19
128 121 19
127 121 19
113 108 16
129 123 22
125 121 30
122 116 11
129 123 25
116 111 22
133 128 42
135 129 32
131 124 25
127 122 22
128 123 22
134 127 30
130 124 28
140 134 34
125 121 32
132 126 32
137 130 34
132 127 25
134 127 28
129 124 34
134 130 32
135 130 28
131 124 37
139 134 34
117 113 28
127 120 16
132 125 28
132 126 34
145 139 39
132 127 34
127 122 34
138 132 41
136 129 34
136 129 39
126 121 30
141 133 37
134 128 28
126 122 25
141 135 41
129 124 39
129 124 30
128 123 36
132 126 28
139 132 42
130 124 37
141 134 45
134 127 48
132 127 39
143 135 41
134 129 37
128 120 44
134 128 45
132 125 34
133 126 49
134 129 42
130 125 41
140 132 47
136 128 48
133 126 42
130 125 37
143 136 51
134 128 48
137 130 45
134 129 49
137 130 48
133 128 36
129 123 44
139 134 54
130 125 37
133 128 44
131 126 41
140 132 49
128 122 47
207 227 255
207 228 255
207 228 255
207 228 255
207 228 255
207 228 255
207 228 255
207 228 255
207 228 255
207 228 255
207 228 255
208 228 255
208 228 255
208 228 255
208 228 255
208 228 255
208 228 255
208 228 255
208 228 255
208 228 255
208 228 255
208 228 255
208 228 255
208 228 255
208 228 255
208 228 255
208 228 255
208 228 255
208 228 255
208 228 255
208 228 255
208 228 255
208 228 255
208 228 255
208 228 255
208 228 255
208 228 255
208 228 255
208 228 255
208 228 255
208 228 255
208 228 255
208 228 255
208 228 255
208 228 255
208 228 255
208 228 255
208 228 255
208 228 255
208 228 255
208 228 255
208 228 255
208 228 255
208 228 255
208 228 255
208 228 255
208 228 255
208 228 255
208 228 255
208 228 255
208 228 255
208 228 255
208 228 255
208 228 255
208 228 255
208 228 255
208 228 255
208 228 255
208 228 255
208 228 255
208 228 255
208 228 255
208 228 255
208 228 255
208 228 255
207 228 255
207 228 255
207 228 255
207 228 255
207 228 255
207 228 255
207 228 255
207 228 255
207 227 255
207 227 255
206 227 255
206 227 255
206 227 255
206 227 255
206 227 255
206 227 255
206 227 255
205 227 255
205 227 255
205 227 255
205 226 255
205 226 255
204 226 255
204 226 255
204 226 255
204 226 255
203 226 255
203 226 255
203 225 255
202 225 255
202 225 255
202 225 255
201 225 255
201 224 255
200 224 255
200 224 255
199 223 255
199 223 255
198 223 255
197 222 255
197 222 255
196 222 255
195 221 255
194 220 255
192 220 255
191 219 255
179 206 188
167 192 36
167 191 0
167 191 0
163 187 0
166 190 0
163 188 0
166 190 0
162 186 0
159 183 0
165 189 0
166 190 0
160 183 0
161 185 0
159 182 0
164 188 0
165 190 0
157 180 0
154 177 0
156 180 0
160 183 0
161 183 0
155 177 0
164 185 0
159 181 0
161 182 0
162 186 0
149 171 0
148 170 0
153 175 0
153 174 0
150 171 36
85 110 84
54 87 88
55 87 107
55 87 90
56 89 105
57 89 108
56 88 103
55 88 99
56 88 103
55 88 103
55 88 95
56 88 113
56 89 92
54 87 82
55 88 99
53 84 90
55 88 113
56 89 95
57 90 100
55 87 97
57 91 111
53 85 99
55 87 100
54 86 92
55 87 95
55 87 100
55 87 95
54 87 90
56 88 99
58 91 115
56 88 95
56 89 99
57 90 115
56 88 110
55 87 97
55 87 103
58 90 113
55 87 99
54 86 84
55 87 102
57 90 94
56 88 97
58 92 114
56 89 94
56 88 102
55 87 105
55 88 100
56 88 107
55 88 108
55 87 97
56 88 105
56 89 97
56 88 95
56 88 108
55 87 100
56 89 99
58 91 118
54 86 99
53 85 86
57 91 110
54 85 92
56 88 105
54 86 90
56 88 103
55 88 99
56 89 107
57 90 103
54 86 97
54 86 97
55 87 95
55 87 108
52 83 87
57 89 113
54 86 90
55 87 99
54 86 95
53 85 100
55 87 104
55 87 108
53 83 103
55 86 107
53 84 99
53 83 100
55 86 105
52 82 94
53 84 99
51 80 90
53 84 99
49 77 72
55 85 110
52 81 88
49 78 82
51 79 89
73 95 76
118 134 18
130 144 0
132 146 0
116 128 0
129 143 0
122 136 0
127 140 0
128 140 0
140 150 0
126 139 0
130 141 0
130 142 0
127 138 0
129 138 0
124 139 0
125 134 0
132 143 0
138 148 0
134 143 0
133 142 0
139 150 0
124 130 0
124 134 0
131 138 0
132 140 0
126 131 0
128 132 0
125 129 0
136 142 0
129 139 0
132 137 0
113 117 11
78 73 11
87 80 22
82 78 16
71 68 0
92 86 19
104 97 19
88 81 11
96 87 0
107 102 19
92 87 16
94 88 8
91 84 0
83 79 1
94 87 0
92 86 0
106 100 0
102 97 0
103 96 0
101 97 0
86 81 0
93 88 11
106 99 0
102 96 0
109 105 8
112 106 3
98 92 0
103 100 0
111 105 0
109 105 0
111 105 0
106 99 0
109 105 0
112 108 0
111 106 16
108 103 16
104 98 0
115 110 0
115 109 16
124 117 16
123 116 11
111 106 11
120 114 11
120 116 11
121 116 11
125 122 16
110 105 19
133 127 30
121 116 11
118 113 28
121 113 22
128 121 22
131 125 25
120 113 19
128 122 16
120 115 16
122 116 32
129 123 30
130 124 37
117 112 16
126 120 19
129 125 28
125 121 16
123 118 16
131 125 30
128 122 22
132 127 25
126 119 28
131 125 34
128 122 30
138 131 37
132 126 28
130 125 25
129 124 32
125 118 32
127 122 28
127 121 30
123 118 32
134 130 30
127 122 30
133 128 30
134 126 37
141 135 36
127 122 39
131 126 34
135 129 34
127 122 34
136 130 39
128 122 19
134 127 44
133 129 34
132 126 42
135 129 36
127 122 25
134 129 41
134 129 41
132 125 42
128 122 42
127 121 34
140 133 39
139 132 42
135 130 41
137 129 41
135 129 47
131 125 30
129 124 37
136 130 45
141 134 47
127 123 30
134 128 44
148 140 54
133 127 42
135 130 34
136 130 45
138 131 53
136 130 39
134 128 41
136 129 42
134 128 45
126 121 37
135 128 49
132 127 44
206 227 255
206 227 255
206 227 255
206 227 255
207 227 255
207 227 255
207 227 255
207 227 255
207 228 255
207 228 255
207 228 255
207 228 255
207 228 255
207 228 255
207 228 255
207 228 255
207 228 255
207 228 255
207 228 255
207 228 255
207 228 255
207 228 255
208 228 255
208 228 255
208 228 255
208 228 255
208 228 255
208 228 255
208 228 255
208 228 255
208 228 255
208 228 255
208 228 255
208 228 255
208 228 255
208 228 255
208 228 255
208 228 255
208 228 255
208 228 255
208 228 255
208 228 255
208 228 255
208 228 255
208 228 255
208 228 255
208 228 255
208 228 255
208 228 255
208 228 255
208 228 255
208 228 255
208 228 255
208 228 255
208 228 255
208 228 255
208 228 255
208 228 255
208 228 255
208 228 255
208 228 255
208 228 255
208 228 255
208 228 255
208 228 255
207 228 255
207 228 255
207 228 255
207 228 255
207 228 255
207 228 255
207 228 255
207 228 255
207 228 255
207 228 255
207 228 255
207 227 255
207 227 255
207 227 255
206 227 255
206 227 255
206 227 255
206 227 255
206 227 255
206 227 255
206 227 255
206 227 255
205 227 255
205 227 255
205 227 255
205 227 255
205 226 255
205 226 255
204 226 255
204 226 255
204 226 255
204 226 255
203 226 255
203 226 255
203 225 255
203 225 255
202 225 255
202 225 255
202 225 255
201 225 255
201 224 255
200 224 255
200 224 255
200 224 255
199 223 255
198 223 255
198 223 255
197 222 255
196 222 255
196 222 255
195 221 255
194 220 255
192 220 255
191 219 255
184 213 234
172 198 122
163 187 0
168 194 0
162 187 0
165 189 0
159 183 0
165 190 0
165 189 0
162 187 0
164 188 0
164 189 0
161 186 0
162 186 0
159 183 0
157 181 0
155 177 0
155 179 0
154 177 0
160 183 0
157 180 0
156 179 0
157 180 0
155 178 0
157 179 0
154 177 0
163 185 0
159 182 0
153 175 0
158 180 0
157 179 0
148 170 0
155 177 0
152 175 0
144 166 25
83 108 74
53 84 90
53 84 97
53 84 95
56 89 99
51 82 82
55 87 94
56 88 102
54 86 99
55 87 92
55 88 99
54 86 94
55 88 97
55 87 99
55 87 95
54 85 92
57 90 97
56 89 99
57 90 107
56 89 102
57 90 111
54 87 94
53 84 97
56 88 113
56 88 100
56 89 113
57 90 100
56 89 100
53 85 95
57 90 108
56 89 103
55 87 102
56 89 103
57 90 107
54 86 84
53 85 92
57 91 100
56 88 102
58 91 111
55 87 95
56 88 103
57 90 113
56 88 99
58 91 121
54 86 105
53 85 94
55 87 100
53 85 84
55 87 95
56 88 107
53 84 95
56 88 99
55 87 105
54 86 94
56 89 97
52 83 88
53 85 94
56 89 107
56 89 103
57 89 102
55 88 97
55 88 95
54 86 90
55 87 94
56 89 114
55 88 102
55 87 105
53 84 90
56 88 110
53 83 84
51 81 90
54 86 105
52 83 84
54 86 87
52 83 86
54 86 102
56 87 100
54 85 95
52 82 98
56 89 102
56 88 92
54 86 99
51 80 89
54 86 94
53 84 80
54 85 94
50 80 74
53 83 107
53 83 81
50 78 81
50 78 77
74 96 72
125 139 0
121 134 0
127 140 0
127 142 0
129 142 0
131 144 0
122 134 0
132 143 0
133 145 0
135 146 0
123 135 0
128 139 0
121 131 0
133 145 0
125 133 0
128 139 0
131 140 0
130 140 0
129 139 0
132 141 0
132 143 0
128 136 0
133 140 0
118 124 0
137 146 0
132 138 0
117 123 0
126 132 0
128 135 0
135 143 0
124 129 0
126 132 0
128 131 0
115 117 0
90 87 22
88 80 19
67 62 16
90 84 16
92 84 26
78 71 0
94 86 0
87 80 11
87 82 8
89 84 14
90 84 0
96 91 1
92 86 0
83 78 11
94 89 8
93 89 0
103 95 0
91 85 0
99 93 0
104 98 0
97 93 0
100 94 0
92 88 0
97 93 8
94 89 0
112 106 16
115 109 0
104 99 0
106 102 0
111 106 0
109 105 0
103 99 0
108 102 0
118 112 0
110 104 0
109 103 0
110 104 0
114 109 11
121 116 16
119 113 14
109 104 19
119 113 11
107 102 16
119 113 11
118 113 11
124 117 16
113 108 19
122 116 16
108 101 16
130 122 32
130 122 22
124 120 22
121 113 19
132 127 22
119 112 19
130 125 25
120 115 19
127 121 30
126 121 22
125 119 28
119 114 22
133 127 28
128 123 28
131 124 30
133 128 30
135 128 32
118 115 0
133 128 32
130 123 30
122 118 28
131 125 30
135 128 25
131 125 34
133 128 30
127 120 32
136 130 30
124 119 32
127 122 28
134 127 36
133 128 34
126 121 30
131 125 25
130 123 28
129 124 36
133 127 41
133 127 30
133 125 39
128 122 30
141 135 39
131 127 32
130 123 39
128 121 34
137 130 45
136 130 37
136 130 30
137 131 49
137 132 36
135 129 42
132 127 34
127 122 37
132 128 34
129 123 39
115 110 34
125 119 34
132 125 41
125 120 34
127 122 37
135 129 41
126 118 37
122 117 36
131 125 37
135 128 45
129 124 39
127 121 42
124 118 51
125 118 42
128 121 45
124 119 36
126 120 36
122 116 41
206 227 255
206 227 255
206 227 255
206 227 255
206 227 255
206 227 255
206 227 255
206 227 255
206 227 255
206 227 255
206 227 255
206 227 255
206 227 255
207 227 255
207 227 255
207 227 255
207 227 255
207 228 255
207 228 255
207 228 255
207 228 255
207 228 255
207 228 255
207 228 255
207 228 255
207 228 255
207 228 255
207 228 255
207 228 255
207 228 255
207 228 255
207 228 255
207 228 255
207 228 255
207 228 255
207 228 255
207 228 255
207 228 255
207 228 255
207 228 255
207 228 255
207 228 255
207 228 255
207 228 255
207 228 255
207 228 255
207 228 255
207 228 255
207 228 255
207 228 255
207 228 255
207 228 255
207 228 255
207 228 255
207 228 255
207 228 255
207 228 255
207 228 255
207 228 255
207 228 255
207 228 255
207 228 255
207 228 255
207 228 255
207 228 255
207 228 255
207 228 255
207 228 255
207 228 255
207 227 255
207 227 255
207 227 255
206 227 255
206 227 255
206 227 255
206 227 255
206 227 255
206 227 255
206 227 255
206 227 255
206 227 255
206 227 255
205 227 255
205 227 255
205 227 255
205 227 255
205 226 255
205 226 255
205 226 255
204 226 255
204 226 255
204 226 255
204 226 255
204 226 255
203 226 255
203 225 255
203 225 255
203 225 255
202 225 255
202 225 255
202 225 255
201 225 255
201 224 255
201 224 255
200 224 255
200 224 255
199 223 255
199 223 255
198 223 255
198 223 255
197 222 255
196 222 255
195 221 255
194 221 255
194 220 255
193 220 255
191 219 255
189 217 250
180 208 188
164 190 51
167 192 0
166 191 0
165 190 0
167 192 0
163 187 0
161 186 0
166 191 0
165 190 0
160 184 0
163 187 0
159 183 0
161 185 0
160 185 0
161 184 0
156 179 0
163 186 0
162 186 0
161 185 0
157 180 0
157 180 0
158 180 0
161 183 0
159 182 0
163 186 0
162 184 0
154 176 0
147 168 0
155 177 0
149 171 0
157 179 0
156 178 0
151 173 0
156 178 0
152 174 0
141 162 18
94 118 82
52 83 95
55 88 102
54 86 97
54 85 97
54 86 103
57 90 111
53 84 76
56 88 103
54 86 95
56 88 100
55 88 99
54 85 88
55 87 105
54 86 105
57 90 105
53 85 90
55 88 97
55 87 100
55 87 110
55 88 99
54 86 95
56 89 102
55 88 103
56 88 97
56 89 103
56 87 107
58 91 100
56 88 107
56 88 107
54 86 88
57 91 113
57 90 105
57 90 110
56 88 100
55 87 105
56 88 97
58 91 110
56 88 108
56 89 102
55 87 114
55 87 105
55 88 99
56 89 103
54 86 97
55 87 103
55 87 103
53 84 105
56 88 110
55 86 110
55 86 113
52 84 84
54 86 90
54 86 94
55 87 97
57 90 110
57 90 111
57 90 108
54 86 86
54 85 102
55 87 94
54 86 97
56 88 107
55 87 92
55 87 100
52 83 90
57 89 107
53 84 88
54 86 97
54 86 94
55 87 103
55 87 105
56 88 100
57 90 105
54 85 100
54 86 95
52 83 86
54 85 90
53 84 103
56 88 107
54 84 104
53 83 95
53 84 95
53 83 97
49 78 84
50 80 88
51 81 88
51 80 88
47 75 79
75 96 70
118 133 25
125 141 0
129 144 0
125 140 0
128 141 0
121 134 0
125 137 0
124 138 0
126 139 0
126 137 0
127 136 0
118 129 0
115 126 0
127 137 0
112 123 0
125 135 0
127 138 0
120 128 0
123 132 0
127 135 0
127 137 0
123 132 0
118 127 0
134 145 0
120 128 0
124 131 0
127 131 0
128 135 0
119 120 0
131 135 0
132 132 0
121 122 0
122 126 0
125 129 0
134 142 0
125 127 0
115 112 19
74 68 11
91 83 19
78 71 16
93 85 19
84 79 16
100 92 11
89 82 0
82 76 0
83 79 0
89 83 0
92 85 0
87 79 11
92 87 11
106 100 0
89 83 0
92 87 0
100 94 0
90 84 0
102 96 0
100 95 8
101 97 0
105 99 0
112 106 8
100 95 0
107 102 8
107 103 0
101 96 0
108 103 0
106 101 0
117 110 0
109 104 0
116 111 0
115 110 0
110 104 0
109 104 11
109 102 0
114 107 0
117 113 0
121 116 11
124 117 11
110 104 11
117 113 11
120 115 16
117 112 0
119 113 16
109 104 0
120 115 19
125 120 19
120 114 22
116 110 19
129 123 25
112 108 16
128 121 22
115 111 19
129 122 22
113 108 11
128 122 22
124 119 19
129 122 30
122 116 19
133 128 25
129 123 28
127 120 16
120 115 25
134 129 28
126 121 36
129 123 36
128 122 25
133 126 30
134 127 36
137 131 25
126 120 25
124 118 32
132 126 32
132 127 32
128 123 30
134 128 34
130 124 28
131 125 36
141 134 42
128 122 30
135 130 36
126 121 25
119 113 28
134 128 30
143 137 37
123 116 44
120 116 32
139 134 44
126 121 36
128 123 36
132 125 36
127 123 32
136 129 44
132 127 32
128 122 44
125 120 39
137 132 32
131 125 42
134 129 44
140 133 44
132 125 36
139 132 37
127 120 41
133 126 48
132 125 39
130 123 47
128 123 39
132 127 41
137 131 42
128 122 42
134 128 48
133 127 48
125 120 34
135 129 53
128 122 37
128 122 39
126 120 42
205 227 255
205 227 255
205 227 255
205 227 255
205 227 255
205 227 255
205 227 255
206 227 255
206 227 255
206 227 255
206 227 255
206 227 255
206 227 255
206 227 255
206 227 255
206 227 255
206 227 255
206 227 255
206 227 255
206 227 255
206 227 255
206 227 255
206 227 255
206 227 255
207 227 255
207 227 255
207 227 255
207 227 255
207 227 255
207 227 255
207 227 255
207 227 255
207 228 255
207 228 255
207 228 255
207 228 255
207 228 255
207 228 255
207 228 255
207 228 255
207 228 255
207 228 255
207 228 255
207 228 255
207 228 255
207 228 255
207 228 255
207 228 255
207 228 255
207 228 255
207 228 255
207 228 255
207 227 255
207 228 255
207 227 255
207 227 255
207 227 255
207 227 255
207 227 255
207 227 255
207 227 255
207 227 255
206 227 255
206 227 255
206 227 255
206 227 255
206 227 255
206 227 255
206 227 255
206 227 255
206 227 255
206 227 255
206 227 255
206 227 255
206 227 255
206 227 255
205 227 255
205 227 255
205 227 255
205 227 255
205 227 255
205 226 255
205 226 255
205 226 255
204 226 255
204 226 255
204 226 255
204 226 255
204 226 255
203 226 255
203 226 255
203 226 255
203 225 255
203 225 255
202 225 255
202 225 255
202 225 255
201 225 255
201 224 255
201 224 255
201 224 255
200 224 255
200 224 255
199 223 255
199 223 255
198 223 255
198 223 255
197 222 255
197 222 255
196 222 255
195 221 255
194 221 255
193 220 255
192 220 255
191 219 255
190 218 255
182 210 211
166 192 76
162 189 0
165 190 0
165 190 0
161 186 0
162 187 0
160 186 0
160 185 0
162 187 0
160 185 0
158 183 0
155 179 0
163 188 0
162 186 0
157 181 0
157 180 0
160 184 0
158 182 0
153 176 0
159 182 0
161 184 0
157 180 0
155 178 0
155 178 0
155 179 0
152 174 0
156 178 0
154 176 0
155 177 0
155 177 0
153 175 0
151 174 0
153 175 0
145 167 0
151 173 0
146 167 0
150 171 0
147 168 0
138 158 18
103 128 76
53 84 80
53 85 100
52 83 82
53 84 94
53 85 99
55 87 103
55 87 90
55 87 100
54 86 94
55 87 99
53 84 97
53 85 97
56 88 107
56 88 94
56 88 107
57 89 105
56 89 99
57 90 105
57 89 110
54 85 100
56 88 110
54 86 90
55 87 99
56 89 108
54 87 86
55 87 107
54 86 86
53 85 92
55 88 99
55 87 97
52 83 84
56 89 86
53 85 94
55 87 105
56 88 100
53 85 102
55 88 92
54 86 94
56 88 115
55 87 100
56 88 95
55 87 99
56 88 103
54 86 86
56 88 107
55 87 92
55 86 99
54 87 99
55 87 99
54 85 95
53 85 99
52 82 92
54 86 95
57 90 103
54 85 94
55 87 113
56 89 110
54 85 95
55 87 97
55 87 99
54 86 90
52 82 84
54 86 92
53 84 90
56 88 105
55 86 88
53 84 80
56 88 107
57 90 107
54 85 99
53 85 90
52 82 90
52 82 83
52 83 86
55 86 100
52 83 90
52 83 95
52 81 84
52 83 89
54 84 96
53 84 96
53 84 100
52 81 85
55 86 98
49 78 84
48 75 75
73 91 57
123 138 18
120 132 0
122 136 0
111 123 0
111 124 0
119 129 0
121 133 0
120 134 0
125 134 0
118 130 0
132 147 0
127 140 0
129 141 0
125 136 0
109 118 0
111 123 0
127 137 0
126 136 0
120 130 0
110 119 0
125 131 0
129 139 0
122 130 0
132 139 0
122 129 0
128 138 0
121 124 0
128 135 0
113 119 0
128 133 0
121 128 0
119 121 0
117 121 0
119 123 0
118 119 0
120 123 0
124 127 0
126 127 0
108 109 11
106 101 19
75 70 19
86 80 19
74 68 11
84 76 16
87 81 11
70 65 11
98 93 22
84 78 0
90 83 0
90 83 0
99 91 11
82 78 8
87 81 0
92 85 0
99 93 0
97 90 8
93 87 0
95 88 0
97 92 0
101 94 0
94 87 0
102 97 0
106 99 0
107 104 0
106 102 0
102 96 0
105 98 0
103 98 8
113 107 11
116 109 0
116 110 0
116 111 0
107 103 0
103 97 11
112 107 0
107 102 16
125 118 11
117 113 16
115 108 19
125 120 0
117 111 0
119 112 16
117 110 16
120 114 16
117 110 16
120 113 16
127 120 22
125 118 19
115 109 16
122 116 19
118 114 11
121 114 25
122 116 30
120 116 11
127 122 25
127 121 28
127 121 19
123 117 16
123 117 22
109 103 11
123 116 16
125 120 22
125 119 16
130 124 32
129 124 25
125 119 19
130 125 22
126 121 32
135 127 36
131 125 30
123 118 30
129 122 28
121 115 16
133 127 28
126 121 22
137 131 36
132 126 37
130 124 34
124 117 32
131 125 36
131 125 25
124 118 32
127 121 32
133 126 28
135 130 37
134 128 34
134 127 41
131 124 39
122 117 30
125 121 30
135 130 42
128 122 34
132 125 47
129 124 30
132 125 34
133 125 42
123 117 37
133 126 41
134 127 34
132 125 41
121 116 28
135 128 45
133 127 44
135 130 42
127 120 42
143 135 52
133 127 39
127 121 37
133 126 45
124 118 34
133 127 45
126 119 39
135 129 49
124 118 37
128 123 42
126 121 36
204 226 255
204 226 255
204 226 255
205 226 255
205 226 255
205 226 255
205 226 255
205 226 255
205 227 255
205 227 255
205 227 255
205 227 255
205 227 255
205 227 255
205 227 255
205 227 255
206 227 255
206 227 255
206 227 255
206 227 255
206 227 255
206 227 255
206 227 255
206 227 255
206 227 255
206 227 255
206 227 255
206 227 255
206 227 255
206 227 255
206 227 255
206 227 255
206 227 255
206 227 255
206 227 255
206 227 255
206 227 255
206 227 255
206 227 255
206 227 255
206 227 255
206 227 255
206 227 255
206 227 255
206 227 255
206 227 255
206 227 255
206 227 255
206 227 255
206 227 255
206 227 255
206 227 255
206 227 255
206 227 255
206 227 255
206 227 255
206 227 255
206 227 255
206 227 255
206 227 255
206 227 255
206 227 255
206 227 255
206 227 255
206 227 255
206 227 255
206 227 255
205 227 255
205 227 255
205 227 255
205 227 255
205 227 255
205 227 255
205 227 255
205 226 255
205 226 255
205 226 255
205 226 255
204 226 255
204 226 255
204 226 255
204 226 255
204 226 255
204 226 255
204 226 255
203 226 255
203 226 255
203 225 255
203 225 255
203 225 255
202 225 255
202 225 255
202 225 255
202 225 255
201 225 255
201 224 255
201 224 255
200 224 255
200 224 255
200 224 255
199 223 255
199 223 255
198 223 255
198 223 255
197 222 255
197 222 255
196 222 255
196 221 255
195 221 255
194 221 255
193 220 255
192 220 255
191 219 255
190 218 255
185 214 230
170 197 122
165 191 0
162 188 0
160 185 0
165 190 0
160 185 0
164 189 0
160 185 0
161 187 0
165 191 0
162 187 0
158 183 0
163 187 0
163 188 0
158 182 0
158 182 0
159 183 0
152 176 0
160 183 0
163 187 0
158 182 0
154 177 0
150 173 0
160 183 0
157 179 0
159 181 0
147 169 0
146 169 0
151 172 0
157 179 0
157 179 0
142 165 0
153 175 0
141 163 0
145 167 0
152 173 0
152 173 0
151 173 0
139 160 0
139 160 0
134 155 0
136 156 18
93 116 80
54 86 82
55 87 99
53 85 94
49 79 74
52 83 76
55 88 103
53 84 99
55 87 103
52 84 90
55 87 94
54 85 92
57 90 111
55 87 99
55 86 92
55 87 92
56 88 88
55 87 92
56 89 107
52 83 95
54 85 94
54 86 82
55 87 88
52 82 88
57 91 97
56 89 97
56 89 105
55 87 88
57 89 110
55 88 111
55 87 103
55 87 99
55 87 95
54 87 97
57 90 103
54 86 95
57 90 111
56 88 103
52 82 90
55 88 99
53 84 90
56 88 103
52 82 84
57 89 118
54 86 90
56 88 111
54 86 92
54 85 97
55 87 92
56 89 97
52 84 92
53 84 102
55 88 105
55 87 107
55 87 94
54 85 97
50 80 84
54 86 108
56 89 107
51 81 80
53 84 92
54 87 92
54 86 88
55 86 95
55 86 103
50 80 78
55 87 103
52 83 95
53 85 84
54 85 99
52 82 80
52 82 85
51 80 86
51 80 86
53 83 85
49 78 89
54 85 94
53 83 90
52 82 92
51 81 81
51 80 80
52 81 86
49 77 75
49 77 79
52 81 97
85 100 51
117 132 0
110 124 0
125 137 0
126 142 0
120 134 0
123 137 0
125 136 0
118 131 0
112 124 0
111 123 0
120 131 0
117 129 0
125 137 0
122 134 0
115 127 0
109 116 0
130 140 0
126 134 0
116 126 0
125 137 0
121 130 0
128 136 0
119 126 0
118 125 0
115 120 0
118 124 0
117 123 0
118 122 0
124 131 0
117 125 0
122 128 0
117 119 0
129 133 0
110 112 0
115 120 0
105 106 0
120 121 0
111 111 0
106 106 0
110 108 0
113 112 0
89 88 0
79 71 16
76 70 11
75 68 19
94 86 22
82 77 16
91 85 0
87 79 11
87 78 0
91 85 11
88 81 0
94 86 0
97 92 0
88 82 0
87 80 11
80 76 0
83 77 0
94 86 0
95 89 0
103 96 0
102 96 0
104 97 0
104 96 0
107 103 0
109 102 0
105 98 0
103 98 0
117 111 0
107 101 0
109 102 0
108 104 0
110 103 0
110 103 0
119 112 0
104 99 0
109 103 0
116 111 0
118 112 0
119 112 0
117 111 19
132 127 11
117 111 0
114 108 19
127 120 16
113 107 22
126 116 16
123 115 16
116 111 16
120 112 16
123 117 19
120 114 0
123 119 16
125 119 22
127 119 19
115 109 0
124 118 16
128 122 30
128 123 16
125 118 16
121 113 19
128 121 19
129 121 30
126 121 16
121 115 41
119 112 28
130 125 30
125 119 25
127 120 28
125 120 22
120 114 28
122 117 16
128 122 34
130 123 19
133 127 34
134 128 30
124 118 16
121 114 28
125 117 28
128 121 41
125 119 32
134 128 32
136 129 41
131 123 32
118 113 32
136 129 41
117 112 32
134 129 30
128 122 28
126 121 36
126 119 37
119 113 25
125 118 37
126 120 34
131 125 41
126 121 30
131 125 32
135 128 36
123 117 32
126 119 41
129 124 39
126 120 28
124 119 39
129 122 42
121 117 37
132 126 48
129 122 42
129 122 39
126 120 44
125 120 37
128 122 42
112 108 28
128 122 34
126 120 41
117 112 39
135 128 52
130 123 45
203 226 255
204 226 255
204 226 255
204 226 255
204 226 255
204 226 255
204 226 255
204 226 255
204 226 255
204 226 255
204 226 255
205 226 255
205 226 255
205 226 255
205 226 255
205 226 255
205 226 255
205 227 255
205 227 255
205 227 255
205 227 255
205 227 255
205 227 255
205 227 255
205 227 255
205 227 255
205 227 255
205 227 255
205 227 255
205 227 255
205 227 255
206 227 255
206 227 255
206 227 255
206 227 255
206 227 255
206 227 255
206 227 255
206 227 255
206 227 255
206 227 255
206 227 255
206 227 255
206 227 255
206 227 255
206 227 255
206 227 255
206 227 255
206 227 255
206 227 255
206 227 255
206 227 255
206 227 255
206 227 255
205 227 255
205 227 255
205 227 255
205 227 255
205 227 255
205 227 255
205 227 255
205 227 255
205 227 255
205 227 255
205 227 255
205 227 255
205 226 255
205 226 255
205 226 255
205 226 255
205 226 255
204 226 255
204 226 255
204 226 255
204 226 255
204 226 255
204 226 255
204 226 255
204 226 255
204 226 255
203 226 255
203 226 255
203 225 255
203 225 255
203 225 255
202 225 255
202 225 255
202 225 255
202 225 255
202 225 255
201 225 255
201 224 255
201 224 255
201 224 255
200 224 255
200 224 255
200 224 255
199 223 255
199 223 255
198 223 255
198 223 255
198 223 255
197 222 255
196 222 255
196 222 255
195 221 255
194 221 255
194 220 255
193 220 255
192 219 255
191 219 255
189 218 255
186 216 246
168 196 161
164 190 36
161 188 0
162 189 0
157 183 0
161 187 0
163 188 0
160 186 0
158 184 0
164 189 0
164 189 0
160 184 0
154 178 0
161 185 0
156 180 0
160 184 0
158 182 0
162 185 0
151 175 0
162 186 0
159 183 0
164 187 0
160 183 0
160 183 0
157 180 0
153 176 0
154 177 0
160 182 0
144 166 0
148 171 0
159 182 0
154 177 0
149 171 0
158 180 0
142 163 0
149 171 0
153 175 0
153 175 0
152 173 0
140 161 0
141 161 0
144 164 0
151 171 0
144 164 0
145 166 0
104 126 65
55 87 92
53 84 82
56 88 103
54 85 84
51 82 72
53 84 95
53 84 74
56 88 95
53 84 84
54 85 100
54 84 97
50 80 74
55 88 97
56 88 95
54 85 99
52 83 90
53 84 86
55 87 103
52 82 84
56 88 99
55 88 94
54 85 94
54 86 76
55 88 95
54 86 102
54 85 99
56 88 99
55 87 97
53 85 90
52 83 86
55 87 94
57 89 108
53 85 76
56 89 100
55 87 92
54 86 95
55 86 86
56 89 111
55 87 88
53 84 92
55 87 90
52 84 84
55 87 78
55 88 102
54 86 90
55 87 92
54 86 92
54 85 97
55 86 103
54 85 88
54 86 100
54 85 90
54 86 94
53 84 99
51 82 82
54 85 89
53 85 99
54 85 88
53 84 86
55 88 102
57 89 103
54 85 86
54 86 84
53 83 97
53 85 86
54 85 86
52 83 86
55 87 92
52 83 94
53 83 92
53 85 88
51 81 88
54 85 96
50 80 70
53 83 90
53 85 99
49 77 81
52 82 94
51 81 90
50 79 79
51 80 79
52 82 88
87 104 54
105 119 0
121 136 0
113 126 0
112 126 0
115 127 0
116 127 0
108 118 0
111 123 0
120 135 0
115 127 0
132 146 0
123 134 0
119 129 0
117 127 0
126 137 0
116 126 0
124 134 0
121 131 0
120 130 0
119 133 0
116 126 0
121 131 0
116 124 0
119 127 0
118 126 0
112 121 0
123 129 0
108 113 0
118 125 0
123 132 0
115 119 0
112 118 0
120 125 0
113 118 0
113 116 0
114 119 0
118 121 0
120 126 0
106 106 0
104 105 0
105 106 0
101 100 0
109 109 0
112 111 0
91 87 0
80 73 19
87 80 11
79 71 11
71 64 0
84 76 0
91 84 11
74 66 0
86 80 11
89 83 0
90 84 11
98 93 0
88 80 0
96 87 0
86 78 0
97 88 0
97 92 0
100 93 0
89 84 0
97 90 0
96 88 0
96 89 0
104 97 0
104 99 0
101 95 0
106 99 0
100 93 0
96 89 0
107 102 0
101 95 0
111 107 0
97 90 0
100 94 0
113 107 0
99 93 0
107 101 0
107 98 16
115 109 0
113 109 0
107 101 0
113 109 0
116 109 11
117 110 16
118 111 25
120 112 11
114 108 11
121 114 19
123 118 19
119 113 16
110 105 25
115 109 11
128 120 16
124 118 11
124 118 28
120 115 16
112 105 16
117 112 19
129 122 25
125 120 11
122 116 22
115 108 19
116 109 16
116 110 16
124 117 30
115 110 25
133 127 22
126 121 19
120 114 22
129 123 36
132 125 32
124 117 32
129 121 22
125 119 22
136 129 34
119 113 30
126 120 28
128 121 34
127 121 32
133 126 32
133 127 30
137 130 34
127 121 32
129 123 32
125 118 32
122 118 32
139 133 41
126 120 32
124 120 37
135 129 45
125 119 37
127 119 45
129 121 44
129 122 36
127 122 36
129 122 44
127 119 32
138 132 37
119 112 32
126 121 36
126 119 36
132 124 37
123 116 34
124 118 37
125 118 44
128 121 49
128 122 41
113 108 28
128 121 36
127 123 39
125 120 30
127 122 36
120 115 32
121 114 39
125 119 41
203 225 255
203 225 255
203 225 255
203 225 255
203 226 255
203 226 255
203 226 255
203 226 255
204 226 255
204 226 255
204 226 255
204 226 255
204 226 255
204 226 255
204 226 255
204 226 255
204 226 255
204 226 255
204 226 255
204 226 255
204 226 255
204 226 255
205 226 255
205 226 255
205 226 255
205 226 255
205 226 255
205 226 255
205 226 255
205 226 255
205 226 255
205 226 255
205 227 255
205 227 255
205 227 255
205 227 255
205 227 255
205 227 255
205 227 255
205 227 255
205 227 255
205 227 255
205 227 255
205 227 255
205 227 255
205 227 255
205 227 255
205 227 255
205 227 255
205 227 255
205 227 255
205 226 255
205 226 255
205 226 255
205 226 255
205 226 255
205 226 255
205 226 255
205 226 255
205 226 255
205 226 255
204 226 255
204 226 255
204 226 255
204 226 255
204 226 255
204 226 255
204 226 255
204 226 255
204 226 255
204 226 255
204 226 255
204 226 255
204 226 255
203 226 255
203 226 255
203 226 255
203 225 255
203 225 255
203 225 255
203 225 255
202 225 255
202 225 255
202 225 255
202 225 255
202 225 255
201 225 255
201 224 255
201 224 255
201 224 255
200 224 255
200 224 255
200 224 255
199 224 255
199 223 255
199 223 255
198 223 255
198 223 255
197 222 255
197 222 255
196 222 255
196 222 255
195 221 255
195 221 255
194 221 255
193 220 255
192 220 255
192 219 255
190 219 255
189 218 255
186 215 248
175 204 173
165 192 44
158 185 0
163 190 0
164 191 0
161 187 0
161 187 0
164 189 0
159 185 0
160 185 0
156 182 0
169 193 0
162 188 0
156 181 0
160 184 0
159 184 0
156 180 0
159 183 0
155 179 0
155 180 0
162 186 0
153 176 0
150 174 0
156 179 0
154 177 0
149 173 0
154 176 0
154 177 0
155 177 0
153 176 0
150 172 0
142 165 0
156 178 0
142 164 0
149 172 0
151 174 0
146 168 0
141 164 0
143 164 0
146 168 0
144 164 0
149 170 0
144 165 0
134 154 0
143 163 0
133 154 0
128 149 0
141 161 0
110 132 65
63 92 107
53 85 86
51 82 74
51 81 90
53 83 90
54 85 95
50 80 82
54 85 100
53 85 97
53 84 84
54 86 94
56 88 95
51 81 76
54 86 97
54 86 84
54 85 99
55 86 95
56 88 103
55 86 99
52 82 90
53 85 82
54 86 99
52 84 94
55 88 95
54 85 110
55 87 97
54 86 94
54 86 90
53 84 84
53 85 97
55 87 102
53 85 88
54 86 100
55 87 100
55 87 100
52 82 84
53 84 88
55 87 94
55 87 102
56 88 100
54 86 97
54 86 88
57 90 114
54 85 82
55 88 94
53 84 100
55 87 100
54 85 102
53 84 92
55 87 103
53 84 90
54 85 97
54 86 95
56 88 102
52 82 82
52 82 95
53 85 86
53 84 92
53 84 88
55 86 100
54 85 97
54 86 99
54 85 95
53 84 100
52 82 94
52 83 80
51 81 87
52 82 99
50 80 82
51 81 74
53 84 92
49 79 67
49 78 70
49 78 74
50 79 88
53 82 95
49 77 86
51 80 97
51 81 66
57 85 86
92 106 26
118 132 0
118 130 0
113 126 0
112 124 0
115 127 0
121 133 0
108 115 0
111 122 0
106 120 0
109 120 0
113 128 0
119 131 0
113 124 0
126 136 0
124 135 0
107 116 0
115 123 0
123 133 0
117 130 0
118 131 0
130 139 0
114 121 0
119 126 0
109 117 0
108 115 0
121 128 0
110 117 0
112 118 0
112 118 0
127 133 0
109 111 0
110 120 0
118 123 0
116 118 0
128 132 0
111 114 0
109 112 0
107 109 0
117 118 0
100 103 0
111 111 0
103 106 0
116 117 0
104 105 0
109 108 0
95 93 0
93 92 0
80 74 16
76 69 0
89 81 11
81 75 11
73 66 0
86 78 0
83 75 0
87 79 0
81 76 11
80 73 0
92 84 11
88 83 0
93 85 0
83 79 0
104 96 0
86 79 0
80 75 0
96 89 0
102 94 0
102 98 0
100 95 0
101 94 0
109 101 0
107 100 0
112 105 0
109 101 0
106 99 0
109 102 11
109 104 0
107 100 0
111 103 0
109 102 0
102 98 11
106 98 0
111 105 11
111 104 11
113 107 0
107 101 11
109 103 0
113 106 16
106 101 11
115 109 11
112 105 11
119 113 0
117 110 0
110 103 0
114 108 11
115 109 16
118 112 11
126 120 16
119 113 19
109 104 16
126 119 19
113 107 11
116 109 22
112 105 22
121 116 19
120 112 16
117 111 16
117 111 16
118 113 16
130 123 28
124 118 25
120 114 30
122 114 22
128 121 22
122 117 22
120 114 19
122 116 25
128 121 16
126 121 19
117 111 25
116 112 16
130 124 28
128 122 32
124 119 28
114 108 19
130 123 28
115 109 28
132 126 37
121 115 22
126 120 28
132 126 34
130 124 42
118 116 22
130 122 37
131 125 34
130 124 32
114 108 36
133 125 42
126 120 36
121 115 30
125 118 32
120 113 30
127 119 36
122 116 34
125 118 37
119 113 37
113 108 22
131 123 42
129 122 36
127 121 41
122 116 28
117 114 34
123 115 36
130 122 47
109 104 22
123 116 32
124 117 41
122 116 34
119 113 41
132 126 39
202 225 255
202 225 255
202 225 255
202 225 255
202 225 255
202 225 255
203 225 255
203 225 255
203 225 255
203 225 255
203 225 255
203 226 255
203 226 255
203 226 255
203 226 255
203 226 255
203 226 255
204 226 255
204 226 255
204 226 255
204 226 255
204 226 255
204 226 255
204 226 255
204 226 255
204 226 255
204 226 255
204 226 255
204 226 255
204 226 255
204 226 255
204 226 255
204 226 255
204 226 255
204 226 255
204 226 255
204 226 255
204 226 255
204 226 255
204 226 255
204 226 255
204 226 255
204 226 255
204 226 255
204 226 255
204 226 255
204 226 255
204 226 255
204 226 255
204 226 255
204 226 255
204 226 255
204 226 255
204 226 255
204 226 255
204 226 255
204 226 255
204 226 255
204 226 255
204 226 255
204 226 255
204 226 255
204 226 255
204 226 255
203 226 255
203 226 255
203 226 255
203 226 255
203 226 255
203 226 255
203 225 255
203 225 255
203 225 255
203 225 255
202 225 255
202 225 255
202 225 255
202 225 255
202 225 255
202 225 255
202 225 255
201 225 255
201 224 255
201 224 255
201 224 255
200 224 255
200 224 255
200 224 255
200 224 255
199 224 255
199 223 255
199 223 255
198 223 255
198 223 255
198 223 255
197 222 255
197 222 255
196 222 255
196 222 255
195 221 255
195 221 255
194 221 255
193 220 255
193 220 255
192 220 255
191 219 255
190 218 255
189 218 255
184 214 241
173 202 175
163 191 57
162 189 0
165 192 0
164 191 0
159 185 0
160 187 0
159 185 0
161 188 0
165 191 0
155 181 0
158 183 0
157 182 0
160 185 0
162 186 0
158 183 0
156 180 0
151 175 0
158 181 0
159 184 0
151 175 0
153 177 0
155 179 0
149 173 0
162 185 0
159 182 0
159 182 0
159 181 0
156 178 0
145 168 0
153 175 0
149 172 0
149 171 0
157 179 0
147 168 0
152 174 0
149 170 0
152 173 0
152 173 0
149 170 0
144 166 0
145 166 0
135 156 0
135 156 0
140 161 0
143 162 0
138 159 0
135 156 0
131 151 0
131 151 0
131 149 0
124 144 25
73 97 51
54 85 103
52 84 80
49 79 74
53 84 90
51 81 82
51 82 82
53 84 92
54 86 97
53 85 94
55 87 105
55 87 94
56 88 95
53 83 100
52 84 86
55 88 86
55 87 94
53 84 92
53 84 88
53 85 95
56 89 99
54 85 95
54 86 97
55 87 94
55 87 92
54 86 94
56 89 95
54 86 88
54 86 90
52 83 82
55 87 103
52 83 86
55 87 92
56 88 105
53 83 103
55 87 97
53 85 82
53 84 84
55 86 102
55 87 95
52 83 92
55 87 108
55 87 111
56 88 103
53 83 92
53 84 94
53 85 94
55 86 100
54 86 88
55 86 90
54 86 105
54 85 95
54 85 90
52 83 94
50 80 76
54 85 94
52 83 97
54 85 110
55 87 100
54 85 100
51 82 88
51 81 72
53 84 86
53 84 90
52 83 92
50 80 80
53 84 96
51 82 82
52 83 94
53 83 90
50 80 87
51 80 90
52 82 86
50 80 82
52 82 78
47 75 70
48 75 68
75 93 72
93 105 25
99 111 0
107 119 0
111 125 0
114 125 0
112 125 0
119 130 0
90 101 0
120 134 0
110 122 0
111 124 0
117 128 0
120 133 0
122 135 0
121 133 0
122 134 0
124 136 0
115 126 0
111 120 0
117 127 0
114 124 0
124 135 0
117 127 0
117 128 0
122 129 0
122 130 0
117 128 0
112 117 0
116 124 0
126 135 0
116 120 0
122 131 0
102 110 0
117 124 0
122 130 0
105 110 0
116 123 0
113 115 0
117 123 0
112 114 0
114 120 0
112 115 0
99 99 0
120 119 0
95 95 0
107 110 0
113 114 0
103 100 0
111 110 0
98 98 0
92 94 0
94 90 11
76 67 11
78 69 11
85 78 11
73 65 0
81 72 0
88 80 11
78 71 0
94 86 0
87 79 0
89 80 0
92 84 11
92 86 0
87 79 0
103 96 0
91 83 0
96 87 0
92 85 0
96 89 0
104 99 0
104 99 0
102 92 0
102 96 0
99 92 0
102 98 0
104 97 0
109 103 0
107 100 0
108 101 0
105 97 0
113 106 11
106 101 11
102 95 11
111 105 0
118 110 0
108 102 0
111 105 0
114 108 0
119 112 0
116 111 0
117 109 11
120 114 0
109 103 19
115 109 16
119 112 16
116 110 11
107 101 0
117 111 19
113 107 0
113 104 19
123 118 16
119 112 11
120 114 16
125 119 16
123 116 16
106 98 11
123 117 16
120 112 25
118 111 16
114 105 11
118 112 25
133 127 28
116 113 22
125 118 28
120 114 25
118 112 16
125 120 16
113 108 25
119 113 19
125 119 30
125 120 19
129 121 37
128 120 32
123 118 39
118 112 25
130 124 30
117 113 25
123 118 30
126 119 34
120 114 36
123 117 25
123 117 28
118 112 28
124 118 36
120 114 25
125 119 28
126 120 37
128 123 37
116 109 34
124 119 39
124 118 34
141 134 45
125 118 32
124 119 32
126 120 28
126 120 30
118 114 25
121 115 25
141 135 42
128 122 30
124 118 39
124 118 36
122 116 37
127 120 41
117 112 36
119 112 39
132 125 41
126 118 41
124 118 44
117 111 22
201 224 255
201 224 255
201 224 255
201 225 255
201 225 255
202 225 255
202 225 255
202 225 255
202 225 255
202 225 255
202 225 255
202 225 255
202 225 255
202 225 255
203 225 255
203 225 255
203 225 255
203 225 255
203 225 255
203 225 255
203 225 255
203 226 255
203 226 255
203 226 255
203 226 255
203 226 255
203 226 255
203 226 255
203 226 255
203 226 255
203 226 255
203 226 255
204 226 255
204 226 255
204 226 255
204 226 255
204 226 255
204 226 255
204 226 255
204 226 255
204 226 255
204 226 255
204 226 255
204 226 255
204 226 255
204 226 255
204 226 255
203 226 255
204 226 255
204 226 255
203 226 255
203 226 255
203 226 255
203 226 255
203 226 255
203 226 255
203 226 255
203 226 255
203 226 255
203 226 255
203 225 255
203 225 255
203 225 255
203 225 255
203 225 255
203 225 255
203 225 255
202 225 255
202 225 255
202 225 255
202 225 255
202 225 255
202 225 255
202 225 255
201 225 255
201 225 255
201 225 255
201 224 255
201 224 255
201 224 255
200 224 255
200 224 255
200 224 255
200 224 255
200 224 255
199 224 255
199 223 255
199 223 255
198 223 255
198 223 255
198 223 255
197 222 255
197 222 255
197 222 255
196 222 255
196 222 255
195 221 255
195 221 255
194 221 255
194 220 255
193 220 255
192 220 255
191 219 255
190 219 255
189 218 255
188 217 255
183 213 238
172 201 165
164 191 44
161 189 0
164 191 0
158 185 0
161 188 0
161 187 0
162 188 0
159 186 0
156 182 0
165 190 0
163 188 0
161 186 0
162 187 0
157 183 0
154 179 0
160 186 0
158 183 0
156 180 0
156 180 0
162 186 0
156 180 0
154 179 0
157 180 0
157 180 0
148 172 0
152 174 0
146 169 0
152 175 0
156 179 0
154 176 0
145 167 0
154 177 0
147 169 0
153 175 0
141 163 0
148 170 0
148 170 0
147 168 0
147 168 0
143 165 0
147 170 0
139 160 0
139 161 0
151 173 0
149 169 0
143 163 0
141 161 0
135 156 0
136 157 0
130 150 0
137 157 0
134 154 0
131 150 0
133 152 0
86 109 74
53 84 90
53 84 84
51 82 84
52 83 94
53 85 86
50 80 65
51 81 84
53 83 84
49 79 82
54 86 90
52 82 90
52 83 78
54 85 84
51 81 72
52 84 92
51 82 80
55 87 99
54 87 100
54 85 102
54 86 88
51 81 74
54 85 100
54 85 92
53 84 84
53 84 92
53 83 94
55 87 99
52 84 94
55 87 99
52 83 82
55 87 99
54 85 94
55 87 94
54 85 95
55 86 84
52 82 94
53 85 95
53 85 84
53 83 94
56 89 100
55 88 92
54 85 94
52 83 94
55 87 105
51 82 94
54 86 92
53 84 72
57 89 107
51 82 86
52 82 84
52 83 92
54 84 83
53 84 102
52 83 92
52 83 82
52 83 82
53 84 82
52 83 88
53 83 90
53 84 90
52 82 78
52 82 95
49 77 74
53 84 94
50 80 84
51 81 85
51 80 84
51 81 80
51 81 88
51 81 90
52 81 84
48 76 76
47 74 72
55 84 84
79 98 54
105 118 18
115 128 0
120 132 0
113 126 0
114 128 0
113 124 0
112 123 0
108 121 0
109 120 0
108 121 0
108 120 0
111 123 0
124 136 0
105 117 0
110 121 0
118 131 0
109 120 0
113 123 0
119 128 0
110 117 0
117 127 0
116 126 0
113 123 0
112 121 0
117 127 0
110 117 0
124 133 0
113 122 0
115 123 0
115 122 0
124 131 0
114 121 0
118 125 0
115 121 0
116 124 0
114 120 0
103 109 0
113 121 0
104 109 0
108 114 0
111 112 0
109 111 0
108 113 0
109 111 0
105 103 0
100 100 0
99 97 0
110 111 0
97 93 0
103 100 0
99 97 0
93 90 0
93 91 0
83 80 0
93 88 0
76 67 11
85 75 19
84 76 11
79 71 0
65 60 0
81 72 11
84 75 0
74 64 0
93 84 0
89 82 0
98 92 0
79 72 0
98 89 0
99 91 0
95 88 0
87 79 0
102 96 0
100 93 0
100 92 0
103 96 0
101 94 0
97 90 0
97 90 0
99 92 0
103 97 0
105 100 0
109 102 0
108 102 0
107 98 0
100 95 0
105 100 0
103 95 11
108 103 0
113 108 0
98 93 0
113 108 11
102 94 0
111 103 11
116 109 11
117 111 11
117 112 11
107 100 0
119 112 19
120 114 16
113 106 0
123 116 22
110 104 11
116 109 0
128 122 22
122 116 0
125 119 22
117 109 0
120 114 22
120 114 16
127 119 25
127 121 22
119 113 25
116 110 19
126 119 22
117 110 11
125 118 19
135 127 36
123 117 22
117 111 30
123 115 19
131 125 32
114 108 11
120 113 19
127 119 30
126 120 28
124 119 30
121 114 34
124 117 28
127 119 34
122 114 28
126 120 16
122 116 25
114 108 30
125 119 30
121 114 25
122 115 30
129 121 28
120 115 16
120 115 30
129 122 34
125 119 34
123 116 32
116 111 34
113 107 32
130 124 36
125 118 39
133 126 39
121 116 36
129 123 39
125 118 37
127 120 32
125 119 45
122 116 36
130 124 41
106 101 11
125 119 37
116 110 34
135 128 45
122 116 41
118 111 37
128 121 42
116 110 39
200 224 255
200 224 255
200 224 255
200 224 255
200 224 255
201 224 255
201 224 255
201 224 255
201 224 255
201 224 255
201 225 255
201 225 255
202 225 255
202 225 255
202 225 255
202 225 255
202 225 255
202 225 255
202 225 255
202 225 255
202 225 255
202 225 255
202 225 255
202 225 255
202 225 255
202 225 255
203 225 255
203 225 255
203 225 255
203 225 255
203 225 255
203 225 255
203 225 255
203 225 255
203 225 255
203 225 255
203 225 255
203 225 255
203 225 255
203 225 255
203 225 255
203 225 255
203 225 255
203 225 255
203 225 255
203 225 255
203 225 255
203 225 255
203 225 255
203 225 255
203 225 255
203 225 255
203 225 255
203 225 255
202 225 255
202 225 255
202 225 255
202 225 255
202 225 255
202 225 255
202 225 255
202 225 255
202 225 255
202 225 255
202 225 255
202 225 255
202 225 255
201 225 255
201 225 255
201 224 255
201 224 255
201 224 255
201 224 255
201 224 255
200 224 255
200 224 255
200 224 255
200 224 255
200 224 255
200 224 255
199 224 255
199 223 255
199 223 255
199 223 255
198 223 255
198 223 255
198 223 255
197 222 255
197 222 255
197 222 255
196 222 255
196 222 255
196 221 255
195 221 255
195 221 255
194 221 255
193 220 255
193 220 255
192 220 255
191 219 255
191 219 255
190 218 255
189 218 255
187 217 255
179 208 212
169 198 155
166 194 44
162 190 0
164 191 0
160 187 0
164 190 0
156 183 0
162 188 0
160 186 0
160 186 0
158 184 0
159 184 0
161 187 0
164 189 0
154 179 0
156 181 0
161 185 0
164 188 0
160 185 0
160 184 0
152 176 0
163 187 0
162 186 0
153 177 0
157 179 0
154 177 0
153 177 0
154 177 0
152 175 0
153 175 0
149 172 0
148 171 0
153 175 0
157 179 0
157 179 0
153 175 0
155 177 0
141 162 0
150 172 0
142 163 0
132 153 0
137 158 0
151 171 0
142 163 0
152 174 0
141 162 0
140 160 0
138 157 0
140 161 0
138 159 0
134 155 0
133 153 0
136 155 0
134 153 0
142 160 0
132 151 0
123 143 0
125 144 0
99 121 60
61 88 74
51 82 90
53 85 86
48 76 80
52 83 82
53 84 95
51 81 70
52 83 95
52 84 84
53 84 94
53 83 84
52 83 86
51 82 74
52 82 80
52 83 92
53 84 95
54 86 90
53 84 82
53 84 90
54 85 92
53 84 90
54 86 102
55 87 99
53 85 90
53 84 88
54 86 90
54 85 84
53 83 97
51 81 84
52 83 86
51 81 86
55 87 97
56 88 95
54 86 102
55 87 99
54 86 90
54 86 86
55 87 103
53 84 99
53 84 99
52 82 88
52 83 82
55 87 103
50 80 78
53 84 74
50 80 84
51 82 95
56 88 103
52 83 78
55 87 97
52 82 90
56 87 105
53 84 86
52 82 88
53 83 99
53 84 94
52 83 84
51 81 97
54 85 92
49 77 80
53 84 92
49 78 79
51 81 80
50 80 76
51 81 88
52 82 94
51 80 86
46 73 67
48 77 65
48 76 84
52 83 96
60 84 70
89 103 31
98 112 0
108 122 0
115 127 0
94 105 0
109 120 0
107 121 0
119 132 0
107 120 0
130 144 0
107 118 0
108 120 0
97 109 0
121 133 0
107 120 0
111 124 0
117 127 0
119 132 0
125 138 0
119 131 0
115 126 0
116 125 0
124 134 0
112 122 0
115 125 0
121 131 0
105 116 0
114 122 0
107 117 0
118 125 0
106 117 0
118 128 0
110 115 0
114 122 0
118 124 0
104 113 0
108 113 0
107 110 0
105 109 0
114 123 0
104 108 0
102 103 0
112 113 0
109 112 0
103 102 0
117 119 0
99 100 0
104 103 0
106 110 0
112 112 0
97 96 0
97 95 0
98 98 0
92 95 0
96 92 0
84 83 0
97 94 0
73 68 0
80 70 16
78 69 0
76 71 11
66 60 0
74 66 0
77 71 0
80 72 11
93 84 0
88 79 0
88 80 0
93 85 11
99 92 0
82 74 0
97 88 0
96 86 0
79 73 0
98 91 0
100 93 0
90 81 0
103 96 0
108 98 0
97 90 0
105 98 0
103 96 0
103 96 0
108 101 0
104 97 0
101 94 0
107 100 0
108 100 11
108 101 11
106 98 0
118 110 0
111 105 0
111 104 0
105 98 11
108 101 16
116 108 0
110 102 11
111 104 22
115 109 0
115 109 16
103 96 0
112 107 0
110 104 11
119 113 11
119 110 16
120 112 0
120 114 19
112 105 0
119 115 19
111 106 19
115 107 0
111 106 19
118 114 11
108 102 16
121 115 22
123 115 22
123 116 19
125 118 19
124 119 22
116 109 16
128 123 28
120 113 30
124 117 30
121 114 22
120 114 19
123 116 25
125 119 25
123 114 19
130 123 32
123 116 30
126 120 30
125 118 37
104 100 25
128 121 34
125 117 37
132 125 37
129 123 30
116 109 28
125 118 19
121 115 28
125 119 32
124 119 32
127 121 32
128 121 37
118 110 37
129 123 42
122 117 37
129 122 37
112 106 22
126 120 39
110 105 36
126 120 34
119 111 39
130 123 32
128 122 41
123 117 42
120 113 37
118 112 39
117 112 30
130 123 39
122 115 44
116 110 37
121 113 34
117 112 34
199 223 255
199 223 255
199 223 255
199 223 255
199 224 255
200 224 255
200 224 255
200 224 255
200 224 255
200 224 255
200 224 255
200 224 255
201 224 255
201 224 255
201 224 255
201 224 255
201 224 255
201 224 255
201 224 255
201 225 255
201 225 255
201 225 255
202 225 255
202 225 255
202 225 255
202 225 255
202 225 255
202 225 255
202 225 255
202 225 255
202 225 255
202 225 255
202 225 255
202 225 255
202 225 255
202 225 255
202 225 255
202 225 255
202 225 255
202 225 255
202 225 255
202 225 255
202 225 255
202 225 255
202 225 255
202 225 255
202 225 255
202 225 255
202 225 255
202 225 255
202 225 255
202 225 255
202 225 255
202 225 255
202 225 255
202 225 255
202 225 255
201 225 255
201 225 255
201 225 255
201 225 255
201 224 255
201 224 255
201 224 255
201 224 255
201 224 255
201 224 255
200 224 255
200 224 255
200 224 255
200 224 255
200 224 255
200 224 255
200 224 255
199 224 255
199 223 255
199 223 255
199 223 255
199 223 255
198 223 255
198 223 255
198 223 255
198 223 255
197 222 255
197 222 255
197 222 255
196 222 255
196 222 255
196 222 255
195 221 255
195 221 255
194 221 255
194 221 255
193 220 255
193 220 255
192 220 255
191 219 255
191 219 255
190 218 255
189 218 255
188 217 255
186 216 250
175 205 191
169 197 117
160 187 0
159 187 0
161 189 0
159 186 0
163 190 0
161 188 0
161 188 0
164 190 0
159 185 0
164 189 0
165 191 0
159 184 0
156 182 0
161 187 0
161 186 0
158 183 0
158 182 0
156 181 0
154 179 0
156 180 0
161 185 0
155 179 0
162 186 0
149 173 0
157 180 0
152 175 0
152 175 0
160 184 0
154 178 0
155 178 0
151 174 0
155 177 0
148 171 0
150 172 0
152 174 0
147 170 0
139 160 0
144 165 0
140 161 0
150 172 0
146 168 0
144 166 0
151 172 0
140 161 0
146 167 0
137 158 0
138 159 0
142 163 0
134 155 0
136 157 0
141 160 0
140 160 0
142 162 0
133 152 0
130 149 0
134 153 0
125 144 0
130 148 0
129 148 0
129 147 0
120 139 18
82 102 44
49 78 74
51 82 76
50 80 86
52 82 86
51 81 92
50 80 70
50 79 84
49 79 74
53 84 80
52 83 90
55 86 82
54 85 95
50 80 74
52 82 84
53 84 80
52 83 94
54 84 100
54 85 97
56 88 100
53 85 86
51 81 84
52 82 82
52 83 88
52 82 84
51 81 84
54 85 95
52 83 88
54 86 95
51 82 84
52 83 88
54 85 76
51 82 84
53 84 90
51 81 97
53 85 88
52 83 92
53 84 88
52 82 78
50 81 78
53 84 97
53 84 74
53 83 82
55 87 103
51 81 76
52 82 86
49 78 74
53 83 100
53 84 92
50 80 84
53 85 94
53 84 94
53 85 82
54 84 92
53 84 90
53 84 86
52 82 88
50 79 82
49 78 74
50 79 78
51 80 78
51 80 84
49 78 70
49 77 90
51 81 94
51 81 76
51 80 82
48 76 74
49 78 85
67 84 47
106 117 0
103 115 0
93 105 0
102 113 0
97 111 0
101 113 0
102 112 0
102 114 0
119 132 0
98 110 0
89 101 0
112 124 0
109 119 0
118 128 0
109 121 0
102 114 0
111 124 0
99 111 0
118 130 0
121 133 0
108 118 0
122 135 0
121 131 0
114 126 0
114 124 0
114 126 0
121 129 0
113 125 0
115 126 0
107 117 0
111 119 0
112 121 0
121 129 0
127 136 0
114 124 0
114 122 0
117 125 0
105 113 0
119 127 0
112 118 0
109 115 0
122 128 0
118 121 0
117 123 0
113 119 0
105 108 0
98 101 0
117 117 0
108 108 0
109 111 0
96 95 0
107 109 0
100 99 0
105 106 0
89 88 0
98 96 0
94 91 0
98 95 0
74 70 0
85 80 0
100 97 0
77 69 0
73 66 0
69 61 0
86 75 0
81 73 0
83 78 0
84 75 0
97 88 0
75 68 0
90 79 0
86 78 0
94 87 0
102 94 0
97 88 0
91 82 0
98 89 0
103 94 0
95 85 0
98 88 0
92 84 0
89 83 0
103 96 0
87 80 0
104 96 11
95 88 0
104 95 0
100 93 0
94 85 0
111 104 0
108 102 0
111 103 11
115 106 0
103 96 16
117 108 0
109 101 16
116 106 16
107 102 0
101 93 11
99 93 0
115 108 11
108 101 0
113 105 19
117 111 16
118 110 16
109 102 19
116 109 16
120 112 22
112 104 30
120 114 16
124 117 16
126 118 19
114 106 19
111 103 16
115 109 19
121 114 22
118 110 19
111 105 19
125 116 19
116 108 19
122 114 22
123 113 30
121 117 25
123 114 34
119 113 22
120 114 19
122 115 28
116 110 11
124 118 25
117 110 25
125 118 19
111 105 16
124 118 19
117 112 19
122 114 30
113 106 11
127 120 32
120 115 22
119 112 25
127 121 30
122 115 36
126 118 30
131 123 34
121 115 22
121 113 32
119 113 30
125 119 37
122 116 37
119 112 32
116 110 32
124 116 34
124 118 36
122 115 30
116 111 34
119 112 30
118 112 34
125 117 39
117 111 34
106 99 32
105 101 36
112 107 28
115 108 37
111 106 36
119 113 39
112 106 39
191 216 228
197 222 255
198 223 255
198 223 255
198 223 255
198 223 255
199 223 255
199 223 255
199 223 255
199 223 255
199 223 255
199 224 255
199 224 255
200 224 255
200 224 255
200 224 255
200 224 255
200 224 255
200 224 255
200 224 255
200 224 255
200 224 255
201 224 255
201 224 255
201 224 255
201 224 255
201 224 255
201 224 255
201 224 255
201 224 255
201 224 255
201 224 255
201 224 255
201 224 255
201 224 255
201 224 255
201 224 255
201 224 255
201 224 255
201 224 255
201 224 255
201 224 255
201 224 255
201 224 255
201 224 255
201 224 255
201 224 255
201 224 255
201 224 255
201 224 255
201 224 255
201 224 255
201 224 255
201 224 255
201 224 255
201 224 255
201 224 255
200 224 255
200 224 255
200 224 255
200 224 255
200 224 255
200 224 255
200 224 255
200 224 255
200 224 255
200 224 255
200 224 255
199 223 255
199 223 255
199 223 255
199 223 255
199 223 255
198 223 255
198 223 255
198 223 255
198 223 255
198 223 255
197 222 255
197 222 255
197 222 255
196 222 255
196 222 255
196 222 255
196 222 255
195 221 255
195 221 255
195 221 255
194 221 255
193 220 255
193 220 255
192 220 255
192 220 255
191 219 255
191 219 255
190 218 255
189 218 255
188 217 255
186 217 255
182 212 228
170 199 159
161 190 44
162 189 0
162 190 0
160 187 0
159 187 0
164 190 0
161 189 0
160 187 0
158 185 0
163 190 0
161 187 0
164 190 0
158 185 0
159 184 0
160 185 0
164 189 0
156 180 0
161 186 0
160 185 0
159 184 0
154 178 0
154 179 0
165 189 0
152 176 0
164 187 0
158 182 0
159 183 0
157 181 0
149 172 0
149 172 0
154 177 0
153 175 0
154 176 0
150 172 0
156 178 0
152 173 0
142 164 0
150 172 0
152 174 0
150 172 0
146 167 0
147 168 0
140 162 0
145 166 0
147 168 0
144 165 0
151 172 0
140 161 0
134 155 0
137 157 0
134 155 0
140 159 0
137 156 0
127 146 0
127 146 0
129 149 0
123 142 0
130 148 0
128 147 0
123 143 0
133 153 0
128 147 0
123 141 0
126 144 0
119 138 0
103 122 36
76 99 70
49 78 82
53 84 78
50 80 82
53 84 94
49 78 62
50 81 72
50 80 72
52 82 67
51 82 84
51 81 82
50 79 65
53 85 88
52 84 82
51 81 78
51 82 67
52 83 94
51 82 70
50 80 80
54 86 82
52 83 84
52 83 86
52 82 86
51 82 90
52 83 88
51 81 86
52 83 80
50 80 76
56 88 97
53 84 82
53 84 92
51 80 82
50 80 78
52 82 82
50 79 78
51 82 82
52 83 100
53 85 88
52 84 76
53 83 90
53 84 90
52 82 84
53 84 82
51 81 86
54 85 100
51 81 80
52 83 86
51 82 90
54 85 90
50 80 74
50 80 86
51 81 84
50 78 89
50 79 89
49 78 84
48 77 70
50 80 82
50 79 72
51 81 82
50 80 92
52 82 89
47 75 67
48 77 80
49 77 72
48 75 70
55 78 67
77 90 18
91 102 0
106 119 0
107 119 0
97 109 0
105 119 0
104 115 0
98 111 0
98 110 0
109 121 0
107 120 0
116 128 0
96 109 0
121 132 0
124 137 0
114 124 0
106 117 0
108 121 0
125 138 0
127 138 0
120 135 0
112 122 0
106 117 0
118 128 0
104 114 0
115 126 0
114 125 0
110 122 0
115 127 0
118 129 0
121 131 0
122 131 0
123 132 0
111 118 0
128 139 0
122 130 0
116 121 0
108 116 0
115 122 0
118 126 0
115 122 0
112 121 0
112 118 0
112 118 0
97 102 0
106 112 0
109 112 0
114 119 0
104 110 0
115 120 0
93 97 0
99 102 0
115 118 0
113 115 0
116 115 0
112 115 0
101 100 0
86 85 0
86 83 0
97 92 0
84 78 0
95 94 0
95 88 0
80 75 0
89 84 0
81 74 0
73 65 0
80 70 11
78 70 0
75 67 11
78 69 0
70 62 0
81 74 0
85 74 0
85 75 0
83 75 0
97 90 0
95 85 0
95 84 0
101 95 0
95 87 0
95 89 0
93 85 0
90 84 0
96 86 0
92 83 0
96 89 0
106 99 0
107 100 0
98 92 0
101 93 0
105 98 0
101 94 0
102 94 0
109 103 16
113 105 0
107 99 11
105 98 0
118 110 0
103 97 0
103 95 11
110 103 11
108 99 0
112 106 0
116 109 0
114 106 11
107 100 16
99 94 0
124 117 0
108 101 11
112 105 16
115 110 16
113 105 19
116 109 11
117 109 19
117 110 16
113 105 11
116 110 11
117 112 19
115 108 16
122 114 28
114 106 22
115 109 28
111 103 22
120 112 22
118 111 22
118 111 16
122 116 22
116 109 22
117 111 30
120 114 16
115 107 19
121 112 30
121 114 32
117 110 34
121 114 19
124 116 34
107 102 22
122 115 19
124 117 28
124 117 32
123 118 32
116 110 25
122 116 32
129 122 36
118 112 28
119 110 32
120 114 30
127 121 42
123 117 36
115 109 32
116 110 32
120 112 28
115 109 34
123 116 37
108 102 28
117 111 36
114 107 34
126 120 30
117 111 32
115 108 32
115 108 36
116 111 41
124 117 42
113 106 39
96 92 28
122 122 32
173 196 0
178 202 111
187 211 188
193 219 240
197 222 255
197 222 255
197 222 255
198 223 255
198 223 255
198 223 255
198 223 255
198 223 255
199 223 255
199 223 255
199 223 255
199 223 255
199 223 255
199 223 255
199 223 255
199 223 255
199 224 255
199 224 255
200 224 255
200 224 255
200 224 255
200 224 255
200 224 255
200 224 255
200 224 255
200 224 255
200 224 255
200 224 255
200 224 255
200 224 255
200 224 255
200 224 255
200 224 255
200 224 255
200 224 255
200 224 255
200 224 255
200 224 255
200 224 255
200 224 255
200 224 255
200 224 255
200 224 255
200 224 255
200 224 255
200 224 255
200 224 255
200 224 255
200 224 255
200 224 255
200 224 255
200 224 255
200 224 255
200 224 255
199 224 255
199 223 255
199 223 255
199 223 255
199 223 255
199 223 255
199 223 255
199 223 255
198 223 255
198 223 255
198 223 255
198 223 255
198 223 255
198 223 255
197 222 255
197 222 255
197 222 255
197 222 255
196 222 255
196 222 255
196 222 255
196 222 255
195 221 255
195 221 255
195 221 255
194 221 255
194 221 255
194 220 255
193 220 255
193 220 255
192 220 255
191 219 255
191 219 255
190 219 255
190 218 255
189 218 255
188 217 255
187 217 255
183 214 241
177 207 196
166 195 99
163 191 0
165 192 0
162 189 0
160 188 0
165 192 0
158 186 0
160 186 0
160 187 0
161 189 0
158 184 0
161 187 0
161 187 0
162 187 0
154 179 0
157 182 0
159 186 0
160 185 0
161 186 0
159 184 0
162 186 0
153 177 0
158 182 0
152 176 0
162 186 0
157 180 0
154 178 0
161 185 0
154 177 0
155 178 0
154 176 0
151 174 0
155 179 0
151 174 0
159 181 0
149 171 0
154 177 0
145 167 0
152 173 0
146 169 0
149 170 0
144 166 0
145 167 0
148 169 0
146 167 0
149 170 0
143 163 0
139 160 0
135 156 0
137 158 0
142 162 0
133 153 0
140 160 0
138 159 0
140 161 0
127 147 0
132 153 0
119 139 0
142 163 0
125 145 0
125 145 0
130 149 0
119 138 0
114 132 0
136 154 0
122 139 0
106 123 0
120 138 0
111 128 0
113 130 0
105 124 40
67 92 60
48 77 65
51 81 90
50 81 67
50 80 90
50 80 80
52 84 80
53 84 94
53 85 80
50 80 82
51 81 86
51 81 86
54 85 88
51 82 86
50 80 76
53 84 84
52 82 84
52 82 88
50 79 78
52 83 76
53 85 92
52 82 90
51 82 86
52 83 88
51 82 72
53 83 84
54 85 105
47 76 84
52 83 88
52 82 92
52 82 74
53 85 90
53 84 88
52 82 92
52 82 74
50 80 80
54 86 100
52 82 74
52 82 82
52 82 78
49 79 80
53 84 86
51 80 78
53 84 84
53 84 90
51 81 76
54 85 90
52 82 86
51 81 74
51 81 94
53 84 99
53 84 84
48 76 67
48 76 65
51 81 82
48 77 80
49 79 78
47 74 76
45 71 72
48 76 74
47 75 76
64 84 72
90 103 36
90 103 0
72 83 0
96 106 0
87 98 0
97 109 0
104 116 0
93 105 0
94 106 0
109 123 0
112 125 0
101 114 0
104 117 0
106 116 0
103 115 0
111 124 0
121 133 0
103 116 0
109 121 0
110 122 0
104 114 0
110 120 0
115 128 0
112 123 0
115 126 0
116 126 0
120 132 0
114 125 0
116 127 0
107 116 0
116 127 0
115 125 0
117 127 0
127 135 0
121 133 0
118 128 0
123 134 0
115 124 0
126 137 0
116 124 0
113 120 0
105 112 0
118 126 0
120 128 0
118 125 0
116 122 0
118 125 0
102 106 0
99 104 0
112 117 0
112 118 0
99 102 0
103 103 0
101 104 0
117 119 0
113 116 0
106 109 0
95 96 0
110 112 0
100 102 0
97 97 0
108 107 0
100 98 0
92 90 0
96 94 0
93 88 0
102 100 0
92 89 0
71 65 0
77 71 0
71 64 0
76 66 0
86 79 11
73 62 0
69 60 0
80 68 0
88 78 0
81 72 0
104 94 0
88 78 0
91 80 0
81 73 0
90 81 0
102 93 0
86 77 0
104 94 0
95 86 11
90 80 0
101 92 0
99 91 0
93 84 0
100 93 0
104 97 11
111 102 11
105 97 0
109 101 11
109 103 0
101 94 0
104 97 16
111 103 0
102 91 0
107 100 0
110 102 0
108 99 11
112 105 11
112 104 16
118 109 0
99 93 11
108 100 16
112 105 19
109 102 11
100 92 19
118 110 16
113 105 0
113 107 11
107 101 11
114 104 11
114 107 16
120 113 19
121 114 11
113 106 32
119 109 19
124 115 22
110 104 16
112 105 16
120 113 25
117 112 22
120 113 22
111 103 16
103 97 16
121 114 16
109 102 19
117 109 16
126 119 30
126 117 28
122 116 28
112 106 32
125 119 34
107 101 28
117 111 30
122 114 25
117 111 28
118 113 30
123 115 30
113 104 30
121 113 28
118 111 25
119 110 34
127 118 37
115 107 28
109 102 25
110 104 22
113 106 28
113 106 34
130 124 34
115 108 30
119 113 30
123 118 32
116 108 34
119 112 39
117 110 34
119 112 28
113 107 36
118 113 36
113 106 36
125 126 36
134 140 25
162 180 16
171 192 0
174 197 0
170 193 0
168 192 0
171 195 36
178 202 125
185 210 182
193 218 234
196 222 255
196 222 255
197 222 255
197 222 255
197 222 255
197 222 255
197 222 255
198 223 255
198 223 255
198 223 255
198 223 255
198 223 255
198 223 255
198 223 255
198 223 255
198 223 255
199 223 255
199 223 255
199 223 255
199 223 255
199 223 255
199 223 255
199 223 255
199 223 255
199 223 255
199 223 255
199 223 255
199 223 255
199 223 255
199 223 255
199 223 255
199 223 255
199 223 255
199 223 255
199 223 255
199 223 255
199 223 255
199 223 255
199 223 255
199 223 255
199 223 255
199 223 255
199 223 255
199 223 255
199 223 255
199 223 255
199 223 255
199 223 255
199 223 255
198 223 255
198 223 255
198 223 255
198 223 255
198 223 255
198 223 255
198 223 255
198 223 255
198 223 255
197 222 255
197 222 255
197 222 255
197 222 255
197 222 255
197 222 255
196 222 255
196 222 255
196 222 255
196 221 255
195 221 255
195 221 255
195 221 255
194 221 255
194 221 255
194 220 255
193 220 255
193 220 255
192 220 255
192 220 255
192 219 255
191 219 255
190 219 255
190 218 255
189 218 255
188 218 255
187 217 255
186 217 255
183 214 242
174 204 175
168 197 122
164 193 0
165 193 0
165 192 0
162 190 0
160 188 0
159 186 0
161 188 0
162 189 0
164 191 0
163 189 0
164 191 0
161 186 0
164 189 0
163 189 0
157 183 0
162 188 0
161 187 0
163 189 0
157 182 0
158 183 0
161 185 0
153 178 0
159 184 0
158 182 0
154 178 0
157 180 0
149 171 0
162 185 0
154 178 0
153 177 0
155 178 0
152 175 0
150 172 0
150 173 0
154 177 0
156 179 0
154 176 0
154 176 0
152 175 0
141 163 0
150 172 0
148 170 0
147 168 0
148 170 0
148 169 0
149 171 0
141 162 0
142 164 0
150 171 0
136 157 0
136 157 0
131 152 0
136 156 0
138 159 0
135 154 0
132 152 0
132 153 0
135 155 0
140 159 0
142 162 0
126 146 0
134 153 0
115 135 0
126 143 0
132 150 0
128 146 0
120 138 0
119 138 0
130 147 0
110 129 0
105 122 0
107 123 0
132 149 0
105 122 0
91 109 31
58 83 67
51 81 78
51 81 70
51 81 95
48 76 70
50 81 76
48 77 62
52 83 95
50 80 72
50 80 70
50 80 72
49 79 67
54 85 92
49 79 62
50 80 72
51 81 92
53 84 92
53 83 82
50 80 82
52 82 90
51 82 86
51 81 82
53 83 100
53 84 97
50 80 78
49 79 65
54 85 86
52 83 84
53 85 92
53 85 92
55 86 88
51 82 80
49 78 72
50 80 84
51 82 80
50 80 80
52 83 90
51 81 84
49 78 70
51 80 84
52 83 86
50 79 80
52 81 82
50 79 92
52 83 82
51 80 87
49 77 76
50 80 82
51 81 86
51 81 82
52 82 80
48 76 70
49 77 65
47 75 74
51 82 90
48 75 67
44 70 57
46 70 60
71 86 40
90 101 0
96 105 0
91 102 0
105 120 0
101 112 0
104 115 0
101 111 0
86 98 0
95 106 0
118 131 0
99 113 0
103 116 0
98 110 0
93 104 0
110 121 0
108 120 0
109 121 0
101 112 0
114 127 0
102 113 0
124 138 0
116 128 0
123 137 0
106 117 0
106 117 0
119 131 0
115 129 0
118 128 0
111 122 0
108 118 0
118 130 0
117 129 0
111 121 0
112 122 0
118 131 0
120 131 0
116 126 0
115 125 0
115 126 0
111 117 0
118 127 0
125 133 0
109 116 0
110 117 0
116 122 0
111 118 0
115 122 0
131 136 0
110 112 0
113 117 0
111 118 0
114 117 0
108 114 0
100 106 0
115 117 0
110 112 0
103 106 0
103 106 0
107 105 0
107 107 0
99 99 0
105 104 0
91 90 0
99 98 0
90 90 0
87 86 0
91 88 0
95 94 0
76 73 0
93 88 0
80 75 0
82 75 0
77 72 0
84 79 0
83 76 0
88 81 0
77 68 0
65 57 0
77 67 11
81 72 0
87 78 0
93 84 0
80 70 0
90 80 0
94 83 0
87 77 0
95 88 0
91 85 0
91 83 0
96 86 0
95 88 0
102 94 0
95 85 11
107 98 0
101 95 0
99 90 0
115 106 11
104 95 0
105 98 11
103 96 11
98 89 11
117 108 16
100 93 11
102 93 0
98 90 0
107 98 0
110 103 11
99 90 0
113 105 0
104 96 0
110 101 19
109 101 19
110 102 19
111 103 11
114 107 19
116 107 22
123 116 16
124 115 19
113 106 19
119 112 19
114 108 22
117 109 25
119 112 16
116 109 19
111 103 19
117 110 25
116 107 22
110 102 25
120 113 22
116 108 19
114 106 30
118 112 28
110 102 11
119 111 34
113 107 25
118 110 22
115 108 30
126 119 28
125 118 28
113 105 19
118 111 32
116 109 36
126 119 28
102 95 19
108 101 19
114 106 34
122 115 28
118 111 34
116 110 30
114 108 28
110 103 25
109 103 22
117 110 42
116 110 32
116 109 25
111 106 22
110 105 25
116 110 36
107 101 25
116 109 36
107 101 30
114 108 22
123 116 34
117 113 16
141 149 22
163 179 11
168 188 0
168 188 0
166 186 0
168 187 0
169 192 0
173 196 0
174 196 0
176 198 0
172 195 0
174 197 0
171 195 0
177 200 120
182 206 177
189 215 220
195 221 255
195 221 255
196 221 255
196 222 255
196 222 255
196 222 255
196 222 255
197 222 255
197 222 255
197 222 255
197 222 255
197 222 255
197 222 255
197 222 255
197 222 255
198 223 255
198 223 255
198 223 255
198 223 255
198 223 255
198 223 255
198 223 255
198 223 255
198 223 255
198 223 255
198 223 255
198 223 255
198 223 255
198 223 255
198 223 255
198 223 255
198 223 255
198 223 255
198 223 255
198 223 255
198 223 255
198 223 255
198 223 255
198 223 255
198 223 255
198 223 255
198 223 255
198 223 255
198 223 255
197 222 255
197 222 255
197 222 255
197 222 255
197 222 255
197 222 255
197 222 255
197 222 255
196 222 255
196 222 255
196 222 255
196 222 255
196 222 255
196 222 255
195 221 255
195 221 255
195 221 255
195 221 255
195 221 255
194 221 255
194 221 255
194 220 255
193 220 255
193 220 255
193 220 255
192 220 255
192 220 255
191 219 255
191 219 255
190 219 255
190 218 255
189 218 255
188 218 255
188 217 255
187 217 255
186 216 255
179 210 220
174 204 182
169 198 122
164 192 0
160 189 0
165 193 0
163 191 0
161 189 0
162 189 0
162 190 0
164 191 0
165 192 0
158 184 0
163 189 0
157 184 0
160 187 0
164 190 0
162 187 0
161 186 0
161 187 0
156 181 0
156 181 0
159 184 0
159 185 0
154 179 0
159 184 0
163 187 0
155 180 0
155 179 0
152 177 0
164 187 0
155 179 0
159 183 0
152 175 0
158 182 0
161 184 0
152 174 0
150 173 0
149 171 0
158 181 0
153 176 0
154 176 0
150 172 0
150 173 0
150 173 0
153 175 0
145 167 0
144 167 0
149 171 0
152 174 0
137 159 0
148 169 0
141 163 0
140 161 0
140 160 0
145 166 0
137 158 0
143 164 0
144 164 0
141 162 0
140 159 0
133 153 0
130 150 0
134 153 0
136 155 0
124 144 0
130 149 0
130 149 0
100 119 0
134 153 0
110 129 0
124 141 0
122 141 0
124 142 0
115 133 0
119 137 0
102 119 0
116 134 0
99 114 0
107 123 0
120 137 0
120 135 0
100 119 36
56 82 74
48 77 70
51 82 86
51 82 84
48 77 60
52 82 78
50 80 74
52 82 80
51 81 82
53 85 86
50 80 80
50 81 82
49 79 78
51 82 78
53 84 94
51 81 80
51 81 80
51 81 84
50 80 80
50 80 82
51 81 94
48 77 72
50 79 67
51 81 88
50 80 82
50 80 84
52 82 76
51 82 84
51 81 80
51 81 92
51 81 86
53 84 88
52 82 90
50 80 92
51 81 74
52 82 80
51 81 78
48 76 82
51 81 92
52 82 90
52 82 76
52 83 84
50 80 74
48 76 80
50 79 82
52 83 76
48 76 74
50 79 67
47 75 72
49 78 76
48 76 76
47 75 76
44 71 62
57 78 44
76 90 51
84 96 0
88 98 0
101 111 0
98 108 0
101 111 0
84 95 0
92 104 0
107 119 0
99 111 0
99 110 0
82 93 0
96 108 0
103 117 0
104 116 0
100 111 0
98 109 0
109 123 0
109 120 0
106 117 0
111 124 0
110 123 0
110 122 0
106 116 0
107 120 0
107 120 0
108 121 0
115 127 0
115 126 0
124 136 0
96 107 0
119 130 0
114 125 0
114 125 0
124 137 0
119 129 0
109 118 0
115 127 0
121 133 0
114 124 0
120 129 0
117 128 0
126 136 0
118 129 0
120 131 0
104 112 0
111 119 0
114 123 0
112 120 0
112 120 0
110 114 0
126 133 0
103 110 0
108 114 0
104 113 0
118 121 0
110 114 0
110 115 0
103 107 0
107 111 0
112 114 0
109 110 0
110 112 0
99 102 0
101 101 0
97 98 0
110 109 0
96 95 0
94 93 0
94 92 0
101 100 0
86 86 0
99 97 0
94 88 0
90 83 0
92 88 0
88 83 0
95 90 0
75 70 0
86 81 0
72 64 0
69 60 0
77 69 0
74 64 0
78 68 0
80 72 0
91 78 0
91 83 0
84 74 0
86 78 0
88 79 0
84 75 0
93 84 0
95 86 0
93 83 0
98 89 0
91 82 0
86 77 0
100 91 11
100 92 11
100 91 0
103 93 0
93 85 0
103 94 11
106 96 0
96 89 0
111 102 0
106 98 11
106 98 11
105 98 0
99 92 11
102 95 22
108 100 0
95 88 0
107 99 16
98 92 11
106 98 0
109 101 19
108 100 19
104 97 0
116 110 16
113 105 19
107 101 19
107 100 28
113 105 11
109 101 19
111 101 11
108 101 11
112 104 16
115 105 16
116 109 19
113 106 19
115 108 25
109 102 19
116 109 25
113 107 32
107 100 19
112 106 19
111 104 0
110 102 25
119 111 37
118 111 32
114 107 25
124 116 30
121 113 30
116 108 30
107 102 19
119 112 34
124 117 28
117 109 28
117 109 28
112 106 25
110 101 22
115 107 36
105 99 25
121 112 34
112 105 39
114 108 32
124 116 42
113 107 37
111 103 25
109 101 34
107 102 32
131 133 36
139 145 25
162 178 16
166 184 0
166 185 0
169 188 0
165 184 0
171 190 0
166 185 0
166 185 0
173 196 0
172 194 0
173 196 0
174 196 0
173 195 0
173 196 0
172 195 0
176 199 0
177 199 0
173 196 0
174 197 76
183 208 165
186 212 199
193 219 249
194 221 255
195 221 255
195 221 255
195 221 255
195 221 255
195 221 255
196 222 255
196 222 255
196 222 255
196 222 255
196 222 255
196 222 255
196 222 255
196 222 255
196 222 255
197 222 255
197 222 255
197 222 255
197 222 255
197 222 255
197 222 255
197 222 255
197 222 255
197 222 255
197 222 255
197 222 255
197 222 255
197 222 255
197 222 255
197 222 255
197 222 255
197 222 255
197 222 255
197 222 255
197 222 255
197 222 255
196 222 255
196 222 255
196 222 255
196 222 255
196 222 255
196 222 255
196 222 255
196 222 255
196 222 255
196 221 255
195 221 255
195 221 255
195 221 255
195 221 255
195 221 255
195 221 255
194 221 255
194 221 255
194 221 255
194 220 255
193 220 255
193 220 255
193 220 255
193 220 255
192 220 255
192 220 255
191 219 255
191 219 255
191 219 255
190 219 255
190 218 255
189 218 255
189 218 255
188 217 255
187 217 255
186 216 255
183 214 242
177 207 201
171 200 153
164 192 67
165 193 0
165 193 0
163 192 0
163 191 0
165 193 0
162 191 0
163 191 0
161 188 0
162 190 0
165 191 0
164 191 0
159 185 0
162 188 0
159 186 0
159 184 0
162 189 0
156 182 0
161 187 0
155 181 0
155 181 0
158 183 0
163 188 0
157 182 0
159 184 0
160 185 0
158 183 0
156 180 0
159 183 0
163 186 0
158 181 0
156 180 0
155 178 0
157 181 0
158 182 0
158 180 0
158 181 0
160 183 0
158 181 0
162 184 0
162 185 0
152 174 0
154 176 0
148 170 0
146 168 0
154 176 0
153 175 0
151 173 0
144 166 0
151 172 0
140 161 0
139 159 0
144 165 0
145 165 0
147 168 0
142 163 0
146 166 0
138 159 0
140 160 0
131 151 0
137 157 0
139 160 0
141 160 0
138 158 0
137 156 0
134 153 0
127 147 0
117 136 0
134 153 0
123 142 0
130 149 0
132 150 0
129 147 0
124 143 0
118 136 0
124 143 0
120 137 0
105 122 0
116 133 0
110 129 0
103 119 0
103 119 0
106 122 0
100 115 0
93 109 0
82 100 40
52 76 47
47 76 57
46 74 65
48 77 65
47 76 78
47 75 70
50 79 76
50 79 86
51 82 74
51 81 74
52 83 76
52 82 95
50 80 84
53 84 92
49 79 76
46 74 65
49 78 76
49 79 84
46 75 60
52 83 86
49 79 86
49 78 86
50 79 78
49 78 80
50 80 82
52 83 78
51 81 82
51 81 76
52 82 84
51 81 82
46 73 62
49 78 62
49 77 88
51 81 70
49 78 67
51 82 70
51 81 80
48 77 62
50 79 86
46 74 74
52 82 86
48 77 74
45 73 65
45 72 74
46 73 74
47 75 62
49 77 86
43 69 54
44 71 65
58 75 51
60 74 25
82 93 0
92 103 0
91 100 0
82 94 0
99 110 0
90 100 0
92 103 0
103 116 0
90 101 0
105 116 0
102 114 0
89 100 0
92 103 0
104 115 0
98 111 0
100 116 0
99 111 0
99 110 0
106 117 0
118 132 0
95 106 0
104 116 0
109 122 0
114 128 0
98 109 0
113 127 0
116 129 0
125 138 0
113 127 0
119 128 0
112 123 0
120 133 0
113 124 0
106 117 0
120 132 0
124 138 0
116 128 0
126 136 0
118 130 0
133 144 0
116 128 0
120 131 0
119 129 0
116 127 0
117 126 0
113 123 0
115 125 0
113 122 0
125 133 0
104 110 0
108 116 0
106 113 0
111 120 0
111 119 0
109 114 0
104 111 0
110 114 0
109 116 0
117 121 0
106 112 0
113 118 0
97 98 0
98 101 0
113 116 0
111 110 0
94 97 0
102 102 0
94 94 0
110 110 0
103 103 0
98 100 0
95 95 0
109 109 0
82 78 0
89 86 0
82 80 0
92 86 0
103 98 0
95 88 0
94 88 0
75 71 0
71 62 0
80 73 0
73 64 0
77 70 0
71 59 0
79 69 0
71 61 0
74 64 0
73 63 0
83 74 0
86 76 0
87 76 0
82 75 0
90 80 0
92 82 0
81 73 11
95 87 0
97 88 0
95 88 0
103 91 11
96 87 0
93 84 0
105 94 16
88 79 0
94 86 11
103 96 0
98 90 0
104 96 11
101 94 0
94 88 0
98 89 0
95 88 0
100 91 16
106 98 11
104 94 0
101 93 0
104 96 0
112 104 19
111 101 11
104 94 19
99 94 16
108 100 16
108 101 16
113 104 22
108 100 11
108 101 16
105 99 19
112 102 19
105 99 22
118 111 19
112 106 19
107 99 19
107 101 19
115 108 22
115 107 19
110 104 25
111 103 19
121 113 19
122 115 30
114 106 28
95 89 25
114 105 22
119 111 25
106 101 25
105 99 25
121 112 36
111 103 28
105 100 16
117 110 34
106 100 19
111 104 25
119 111 28
106 99 28
105 99 19
119 111 30
106 101 30
119 111 36
113 107 30
108 102 30
109 108 32
134 141 25
150 163 25
155 171 0
162 178 0
165 184 0
165 185 0
167 187 0
170 187 0
167 187 0
171 191 0
166 184 0
165 185 0
167 187 0
171 195 0
175 198 0
172 195 0
174 197 0
175 197 0
174 197 0
174 197 0
176 198 0
175 198 0
171 195 0
174 197 0
173 196 0
174 196 0
173 196 0
177 201 108
183 208 171
184 210 198
191 217 236
193 220 255
194 220 255
194 221 255
194 221 255
194 221 255
195 221 255
195 221 255
195 221 255
195 221 255
195 221 255
195 221 255
195 221 255
195 221 255
195 221 255
195 221 255
195 221 255
195 221 255
195 221 255
195 221 255
195 221 255
195 221 255
196 221 255
195 221 255
195 221 255
196 221 255
195 221 255
195 221 255
195 221 255
195 221 255
195 221 255
195 221 255
195 221 255
195 221 255
195 221 255
195 221 255
195 221 255
195 221 255
195 221 255
194 221 255
194 221 255
194 221 255
194 221 255
194 221 255
194 220 255
193 220 255
193 220 255
193 220 255
193 220 255
193 220 255
192 220 255
192 220 255
192 219 255
192 219 255
191 219 255
191 219 255
190 219 255
190 219 255
190 218 255
189 218 255
189 218 255
188 218 255
187 217 255
187 217 255
186 216 255
182 213 240
177 207 204
173 202 163
167 196 99
163 191 0
162 191 0
164 192 0
163 191 0
163 191 0
162 191 0
163 191 0
161 189 0
163 190 0
162 189 0
162 189 0
161 187 0
158 184 0
157 183 0
161 188 0
161 187 0
161 187 0
163 188 0
157 184 0
159 186 0
162 187 0
165 191 0
168 192 0
164 189 0
162 187 0
157 182 0
161 186 0
159 184 0
159 183 0
160 185 0
157 181 0
160 184 0
158 182 0
149 171 0
159 183 0
152 176 0
144 167 0
151 174 0
152 176 0
151 173 0
155 177 0
153 175 0
154 176 0
147 170 0
157 179 0
156 178 0
150 172 0
146 167 0
147 169 0
152 173 0
156 178 0
141 162 0
149 170 0
149 170 0
141 162 0
131 152 0
132 153 0
131 152 0
137 158 0
143 164 0
133 153 0
140 160 0
135 155 0
134 155 0
129 150 0
129 148 0
130 150 0
123 143 0
131 152 0
127 146 0
124 142 0
121 140 0
124 143 0
127 145 0
111 129 0
120 138 0
129 147 0
122 140 0
104 122 0
112 128 0
122 139 0
97 115 0
92 109 0
99 117 0
98 114 0
104 120 0
108 123 0
95 111 0
77 92 0
94 110 0
83 99 18
83 98 36
52 73 54
43 70 57
51 81 80
46 74 72
50 79 57
48 77 74
49 79 86
50 79 80
49 79 72
48 77 65
52 81 84
49 78 74
48 77 84
51 81 72
49 78 80
49 78 65
49 77 72
49 78 80
51 81 80
49 79 74
48 77 72
50 80 62
50 79 82
48 78 67
50 79 76
50 81 76
44 72 60
50 79 82
51 80 80
48 77 74
49 79 72
48 77 76
47 75 70
49 77 82
45 72 72
47 75 70
46 73 70
48 77 72
46 74 62
47 75 65
49 77 86
46 74 67
44 70 65
56 77 57
55 74 51
86 97 0
68 80 0
79 90 0
75 86 0
76 87 0
77 88 0
93 104 0
91 103 0
101 112 0
92 102 0
94 105 0
92 104 0
98 108 0
93 104 0
110 122 0
94 109 0
95 106 0
102 116 0
94 103 0
109 121 0
102 116 0
118 131 0
118 130 0
94 105 0
113 126 0
113 127 0
118 131 0
115 129 0
112 124 0
111 124 0
123 137 0
133 147 0
119 132 0
107 121 0
107 119 0
124 136 0
106 116 0
114 125 0
108 118 0
111 123 0
125 138 0
111 120 0
130 143 0
124 137 0
130 142 0
119 128 0
119 130 0
118 128 0
114 123 0
124 132 0
113 121 0
119 129 0
117 126 0
112 119 0
115 124 0
119 127 0
117 123 0
121 129 0
113 118 0
114 118 0
121 128 0
114 119 0
111 115 0
120 130 0
120 127 0
107 114 0
103 105 0
117 121 0
110 113 0
105 110 0
111 115 0
105 105 0
90 89 0
113 115 0
94 95 0
112 112 0
104 103 0
102 101 0
100 99 0
100 98 0
100 98 0
99 93 0
93 90 0
85 80 0
86 81 0
95 94 0
90 82 0
98 92 0
77 71 0
75 67 0
71 67 0
78 74 0
73 65 0
72 63 0
78 65 0
73 64 0
73 61 0
73 65 0
80 70 0
88 78 0
95 85 0
83 73 0
101 91 0
98 89 0
78 70 0
92 82 0
97 87 0
99 88 0
105 94 0
92 83 0
87 79 0
87 79 0
105 93 11
105 97 11
87 79 11
99 88 0
90 82 11
108 99 0
108 100 19
109 101 11
99 88 0
102 96 19
96 88 11
110 101 19
103 93 16
106 99 19
114 106 19
90 84 22
97 91 0
106 99 0
106 97 22
101 95 11
104 97 11
111 102 16
115 107 16
113 107 22
106 99 22
108 102 16
112 103 28
111 101 16
114 108 25
103 95 19
107 101 25
118 109 16
111 104 19
105 99 28
122 116 22
109 103 22
113 105 16
104 97 16
106 99 16
127 118 37
95 89 16
104 97 25
112 106 32
108 101 30
114 106 32
117 108 28
120 113 34
121 116 34
136 141 28
136 145 11
159 174 25
168 185 0
165 182 0
163 180 0
165 183 0
164 183 0
168 185 0
168 188 0
166 185 0
168 187 0
163 181 0
165 183 0
167 186 0
170 190 0
168 187 0
174 197 0
172 195 0
173 195 0
173 196 0
175 198 0
175 198 0
172 194 0
175 197 0
172 195 0
175 198 0
173 196 0
174 197 0
174 196 0
173 196 0
172 195 0
176 198 0
173 197 0
175 198 0
176 200 80
181 205 144
183 208 182
187 213 215
191 219 249
192 220 255
193 220 255
193 220 255
193 220 255
193 220 255
193 220 255
193 220 255
193 220 255
194 220 255
194 221 255
194 220 255
194 221 255
194 221 255
194 221 255
194 221 255
194 221 255
194 221 255
194 221 255
194 221 255
194 221 255
194 221 255
194 221 255
194 221 255
194 221 255
194 221 255
194 220 255
194 220 255
193 220 255
193 220 255
193 220 255
193 220 255
193 220 255
193 220 255
193 220 255
192 220 255
192 220 255
192 220 255
192 220 255
192 220 255
192 219 255
191 219 255
191 219 255
191 219 255
191 219 255
190 219 255
190 219 255
190 218 255
189 218 255
189 218 255
188 218 255
188 217 255
187 217 255
187 217 255
186 216 255
183 213 238
177 207 203
175 204 186
170 199 135
164 192 51
164 192 0
164 192 0
164 191 0
162 189 0
164 192 0
164 192 0
160 188 0
163 191 0
162 190 0
163 191 0
161 188 0
162 188 0
161 188 0
161 188 0
160 186 0
165 192 0
159 186 0
165 191 0
161 187 0
158 185 0
162 188 0
158 184 0
161 187 0
160 185 0
162 187 0
158 183 0
156 181 0
158 183 0
159 183 0
164 188 0
159 183 0
154 178 0
154 178 0
155 179 0
159 183 0
154 178 0
151 175 0
154 178 0
151 175 0
156 179 0
158 181 0
150 173 0
155 178 0
154 177 0
157 180 0
150 173 0
145 168 0
149 171 0
140 161 0
156 178 0
142 164 0
150 172 0
144 166 0
140 161 0
149 171 0
147 168 0
153 175 0
145 166 0
137 158 0
142 164 0
136 158 0
149 170 0
141 161 0
148 169 0
136 156 0
145 165 0
136 156 0
144 164 0
138 158 0
131 151 0
140 159 0
138 157 0
128 147 0
128 148 0
125 144 0
131 150 0
117 135 0
124 144 0
110 128 0
109 129 0
108 126 0
121 138 0
120 138 0
109 127 0
109 126 0
110 127 0
106 124 0
105 121 0
106 122 0
83 100 0
101 117 0
89 104 0
91 108 0
88 103 0
69 83 0
68 82 0
78 93 0
84 98 18
63 84 54
65 86 51
48 74 62
46 73 62
45 72 65
48 77 67
47 75 72
47 76 62
51 82 67
50 79 80
49 78 76
47 76 70
47 75 70
50 79 78
49 78 82
48 77 65
50 80 67
49 78 86
47 75 72
49 78 72
48 76 72
49 78 80
45 72 67
51 81 86
49 78 74
48 77 72
46 73 70
48 77 70
51 81 80
49 78 65
50 79 84
46 73 74
44 71 67
46 74 51
48 77 82
45 72 70
44 71 51
46 74 72
54 73 54
53 70 36
62 72 18
68 78 0
82 93 0
84 94 0
84 96 0
87 99 0
83 94 0
95 106 0
85 96 0
91 103 0
108 122 0
88 101 0
81 92 0
102 114 0
83 97 0
95 106 0
103 113 0
105 117 0
102 116 0
88 101 0
116 130 0
107 120 0
107 122 0
107 120 0
97 108 0
112 125 0
115 125 0
118 130 0
101 114 0
120 134 0
107 119 0
116 129 0
121 136 0
109 121 0
120 132 0
113 126 0
107 119 0
114 127 0
126 140 0
102 112 0
113 125 0
121 132 0
115 124 0
119 131 0
122 134 0
119 131 0
124 136 0
126 137 0
118 127 0
106 115 0
106 116 0
119 131 0
118 126 0
116 125 0
115 125 0
122 133 0
126 133 0
118 125 0
117 124 0
115 123 0
111 116 0
122 129 0
121 128 0
122 130 0
116 122 0
114 121 0
118 126 0
109 113 0
102 106 0
110 112 0
108 112 0
110 116 0
110 113 0
108 110 0
121 124 0
111 113 0
118 120 0
106 106 0
111 113 0
108 108 0
104 107 0
101 102 0
97 96 0
101 100 0
104 100 0
106 105 0
109 107 0
102 99 0
93 87 0
90 85 0
93 91 0
79 75 0
89 89 0
86 78 0
84 81 0
100 95 0
95 88 0
86 79 0
76 69 0
73 61 0
78 72 0
86 78 0
79 68 0
71 62 0
83 72 0
92 82 0
79 69 0
92 80 0
90 79 0
98 88 0
97 88 0
100 90 0
87 75 11
100 90 11
104 94 11
87 77 0
107 97 19
100 89 0
101 93 16
92 82 0
91 83 0
96 87 11
97 89 11
99 89 16
102 93 0
110 101 16
102 92 16
103 95 11
98 91 0
98 91 22
104 96 19
98 88 16
99 92 0
104 97 16
106 99 11
113 105 22
105 98 16
108 99 19
112 105 11
105 99 25
106 99 11
113 106 25
99 91 16
100 92 19
113 107 25
111 104 28
109 100 22
112 103 28
115 109 22
113 103 28
111 103 32
106 98 19
97 90 19
110 103 25
104 96 25
110 104 28
109 102 28
118 115 34
127 127 11
141 144 30
141 148 19
154 166 0
164 180 0
160 177 0
163 177 0
162 176 0
158 171 0
165 182 0
167 183 0
169 187 0
164 180 0
164 182 0
167 186 0
165 184 0
168 187 0
164 183 0
167 185 0
169 190 0
165 183 0
170 187 0
172 194 0
175 198 0
173 196 0
176 198 0
172 194 0
175 198 0
173 195 0
173 196 0
174 197 0
173 195 0
174 197 0
174 196 0
174 197 0
174 197 0
175 198 0
176 199 0
174 196 0
173 196 0
175 198 0
172 195 0
175 198 0
176 199 0
173 197 0
176 199 57
179 203 137
183 208 181
184 210 193
186 213 217
190 218 246
191 219 255
191 219 255
192 219 255
192 219 255
192 219 255
192 219 255
192 220 255
192 220 255
192 220 255
192 220 255
192 220 255
192 220 255
192 220 255
192 220 255
192 220 255
192 220 255
192 220 255
192 220 255
192 220 255
192 219 255
192 219 255
191 219 255
191 219 255
191 219 255
191 219 255
191 219 255
191 219 255
191 219 255
191 219 255
190 219 255
190 219 255
190 218 255
190 218 255
189 218 255
189 218 255
189 218 255
188 218 255
188 218 255
188 217 255
187 217 255
187 217 255
186 216 255
184 215 248
181 211 224
174 204 189
171 200 147
169 198 120
166 195 80
165 193 0
163 192 0
164 192 0
164 192 0
165 192 0
163 190 0
164 191 0
164 191 0
165 193 0
160 188 0
161 189 0
163 191 0
164 192 0
162 189 0
162 189 0
164 191 0
163 190 0
162 189 0
163 190 0
161 187 0
162 189 0
160 185 0
167 192 0
162 188 0
156 181 0
157 183 0
157 183 0
160 186 0
158 184 0
160 185 0
161 186 0
158 183 0
158 182 0
157 182 0
159 184 0
160 185 0
157 182 0
151 175 0
158 182 0
152 176 0
159 183 0
158 181 0
159 183 0
156 178 0
151 174 0
155 178 0
148 170 0
152 175 0
158 181 0
155 177 0
145 167 0
146 168 0
149 170 0
152 174 0
146 169 0
146 168 0
152 175 0
151 172 0
152 174 0
150 171 0
143 165 0
154 175 0
147 169 0
144 166 0
139 160 0
143 164 0
126 147 0
140 161 0
137 157 0
144 165 0
136 157 0
140 160 0
132 152 0
132 152 0
124 143 0
129 148 0
133 153 0
125 144 0
131 150 0
132 152 0
144 164 0
125 145 0
113 131 0
121 139 0
127 146 0
117 136 0
115 132 0
111 129 0
113 131 0
107 125 0
108 125 0
105 124 0
100 117 0
102 119 0
90 107 0
103 119 0
98 114 0
94 110 0
91 106 0
95 110 0
96 112 0
77 90 0
72 86 0
76 90 0
78 89 0
74 88 0
63 81 36
51 73 25
58 81 60
46 73 57
45 73 57
48 77 70
46 74 65
47 75 62
48 77 70
45 73 74
48 77 74
47 76 67
45 73 62
45 73 72
48 76 70
49 78 80
48 76 62
45 73 67
46 74 74
49 77 76
44 71 62
47 75 74
50 79 70
47 75 65
44 71 65
48 77 74
43 69 57
44 71 57
43 69 57
43 70 57
44 70 70
45 64 44
52 71 47
66 79 31
56 70 0
78 87 0
77 86 0
78 88 0
81 93 0
82 93 0
91 100 0
90 103 0
94 105 0
71 82 0
86 98 0
83 93 0
93 106 0
88 100 0
98 111 0
98 109 0
93 104 0
82 93 0
89 101 0
104 117 0
101 113 0
100 113 0
113 128 0
99 113 0
94 105 0
107 121 0
103 115 0
99 112 0
104 117 0
101 113 0
116 131 0
104 118 0
116 129 0
117 131 0
99 109 0
118 134 0
115 129 0
107 120 0
103 116 0
112 124 0
120 133 0
114 126 0
115 127 0
129 142 0
105 117 0
111 123 0
116 127 0
122 131 0
113 123 0
123 139 0
107 118 0
117 129 0
116 125 0
113 123 0
126 136 0
112 120 0
126 137 0
119 128 0
119 131 0
113 123 0
113 121 0
108 117 0
113 122 0
114 124 0
115 124 0
121 130 0
127 135 0
119 125 0
119 130 0
119 123 0
121 127 0
117 123 0
109 115 0
110 113 0
117 122 0
119 126 0
111 115 0
114 115 0
109 112 0
109 111 0
103 107 0
112 113 0
111 112 0
106 104 0
106 108 0
104 103 0
98 97 0
109 110 0
100 97 0
98 97 0
85 80 0
100 97 0
102 101 0
95 93 0
93 90 0
91 87 0
91 89 0
94 86 0
89 85 0
95 90 0
93 84 0
93 87 0
88 81 0
87 78 0
87 81 0
95 89 0
92 85 0
88 81 0
87 82 0
83 76 0
81 72 11
77 66 0
81 69 0
84 76 0
81 73 0
83 75 0
92 81 0
88 78 0
90 80 0
96 86 0
98 88 11
91 84 11
86 77 19
105 95 0
99 88 0
87 79 11
90 83 0
98 88 16
100 91 16
98 89 11
104 95 16
100 91 11
96 88 11
97 89 11
103 93 11
94 83 0
96 89 19
99 91 16
106 97 16
100 90 19
105 96 16
115 108 25
95 86 11
98 90 16
106 99 22
102 93 28
98 89 25
101 93 11
102 96 16
102 94 16
114 105 34
95 87 19
111 101 25
101 95 25
112 107 30
119 118 19
133 137 22
141 147 16
146 152 16
161 174 0
157 171 0
163 177 0
161 174 0
159 174 0
155 169 0
164 181 0
165 183 0
169 184 0
162 175 0
166 181 0
163 179 0
165 180 0
163 178 0
163 180 0
160 176 0
162 179 0
163 179 0
170 188 0
170 189 0
165 183 0
163 180 0
167 186 0
166 184 0
174 197 0
174 197 0
176 198 0
174 197 0
175 198 0
172 196 0
173 196 0
175 198 0
173 196 0
174 197 0
173 196 0
175 198 0
175 198 0
172 196 0
175 198 0
176 198 0
174 197 0
176 198 0
173 196 0
175 198 0
172 196 0
172 195 0
175 198 0
174 197 0
174 198 0
174 198 0
172 196 0
172 195 0
173 197 0
173 197 51
177 203 130
179 204 149
179 205 169
182 209 186
185 213 215
186 214 226
187 215 237
189 217 249
189 218 254
190 218 255
190 218 255
190 218 255
190 218 255
190 218 255
190 218 255
190 218 255
190 218 255
190 218 255
189 218 255
189 218 255
189 218 255
189 218 255
189 218 255
189 218 255
189 218 255
188 218 255
188 218 255
188 217 255
188 217 255
187 217 255
187 217 255
186 217 254
185 216 249
183 213 234
182 212 226
180 210 211
177 207 191
175 205 181
172 201 151
167 195 84
165 193 51
165 193 0
164 192 0
165 193 0
164 192 0
165 193 0
163 192 0
164 191 0
164 191 0
164 192 0
164 191 0
164 192 0
162 189 0
164 191 0
163 190 0
166 193 0
165 193 0
163 191 0
161 188 0
164 191 0
159 186 0
163 189 0
160 187 0
163 188 0
161 187 0
161 187 0
159 186 0
161 187 0
159 185 0
162 188 0
158 183 0
158 184 0
159 184 0
163 188 0
160 184 0
159 183 0
162 188 0
161 185 0
155 178 0
153 178 0
165 189 0
152 176 0
155 178 0
159 184 0
156 179 0
157 180 0
159 183 0
162 185 0
153 176 0
156 179 0
154 176 0
153 176 0
157 180 0
156 179 0
156 178 0
149 172 0
152 175 0
148 169 0
151 174 0
146 169 0
151 173 0
143 165 0
151 172 0
148 170 0
144 166 0
158 180 0
147 169 0
143 164 0
144 166 0
139 161 0
145 166 0
144 165 0
136 157 0
146 167 0
141 161 0
150 170 0
145 166 0
134 155 0
144 164 0
141 162 0
123 143 0
131 151 0
128 147 0
131 151 0
128 146 0
129 147 0
120 139 0
124 143 0
120 139 0
136 154 0
126 145 0
120 139 0
117 137 0
117 134 0
110 127 0
108 125 0
111 129 0
115 131 0
111 129 0
110 128 0
97 113 0
100 116 0
98 113 0
102 118 0
122 139 0
105 120 0
100 115 0
90 106 0
84 99 0
84 98 0
77 91 0
79 94 0
77 89 0
78 92 0
81 93 0
77 89 0
59 70 0
61 75 31
57 73 40
48 67 51
50 69 40
47 72 54
42 68 40
45 73 54
44 72 44
46 74 62
46 73 70
49 78 67
48 76 76
42 68 54
42 68 51
44 71 60
46 73 65
44 71 60
45 72 70
46 73 67
45 72 54
46 71 47
42 64 44
60 80 54
52 67 47
58 72 40
60 72 18
55 65 18
72 82 0
65 75 0
72 82 0
79 89 0
67 76 0
69 83 0
70 82 0
76 86 0
75 87 0
71 81 0
80 91 0
87 96 0
81 93 0
81 91 0
92 102 0
94 107 0
87 100 0
94 105 0
80 93 0
91 103 0
96 106 0
95 109 0
99 112 0
100 113 0
100 112 0
106 118 0
115 126 0
92 105 0
97 110 0
119 134 0
106 120 0
119 133 0
111 124 0
112 126 0
108 120 0
110 123 0
116 129 0
111 123 0
104 115 0
108 122 0
110 121 0
113 126 0
125 137 0
115 126 0
121 133 0
128 141 0
121 134 0
111 122 0
103 113 0
123 135 0
125 137 0
127 140 0
123 131 0
110 119 0
116 126 0
115 127 0
117 128 0
131 141 0
111 121 0
120 133 0
122 133 0
107 117 0
118 126 0
116 128 0
116 127 0
120 130 0
112 118 0
120 127 0
110 119 0
115 125 0
114 119 0
108 112 0
107 114 0
107 114 0
122 130 0
109 114 0
109 113 0
112 117 0
113 117 0
118 122 0
113 116 0
107 109 0
115 120 0
108 112 0
117 120 0
119 122 0
113 113 0
115 118 0
114 114 0
105 110 0
89 86 0
112 115 0
98 94 0
103 101 0
105 105 0
99 94 0
100 97 0
108 103 0
103 102 0
85 85 0
90 87 0
101 97 0
107 103 0
100 98 0
107 102 0
98 94 0
99 92 0
94 86 0
99 94 0
95 88 0
96 90 0
101 96 0
98 90 0
89 83 0
105 99 0
101 95 0
100 92 0
97 90 0
107 99 0
91 80 0
98 92 0
90 80 19
79 69 11
89 78 16
92 81 11
86 78 11
91 82 16
101 88 11
92 84 11
81 74 16
91 82 11
98 88 0
94 86 25
98 89 11
93 85 0
90 82 11
99 91 16
98 89 19
100 91 16
108 100 22
87 79 16
92 84 11
95 86 11
102 94 22
101 94 19
93 85 16
105 95 16
105 97 25
115 106 19
104 99 25
117 115 19
127 124 19
122 122 16
130 130 16
136 141 19
148 157 0
152 164 0
152 158 0
153 163 0
154 166 0
157 167 0
162 175 0
156 165 0
166 179 0
157 169 0
159 172 0
158 173 0
161 175 0
162 176 0
162 176 0
158 172 0
158 172 0
165 177 0
166 183 0
160 174 0
167 184 0
165 183 0
166 181 0
159 171 0
164 179 0
161 177 0
168 186 0
170 187 0
166 186 0
163 181 0
167 184 0
174 197 0
175 197 0
174 197 0
170 194 0
176 199 0
173 196 0
174 197 0
174 196 0
176 198 0
174 197 0
176 198 0
177 199 0
171 194 0
174 197 0
175 197 0
173 197 0
173 197 0
174 197 0
173 196 0
173 197 0
176 199 0
172 196 0
173 197 0
174 198 0
172 196 0
173 196 0
171 195 0
173 197 0
174 197 0
174 197 0
173 197 0
172 197 0
172 196 0
172 197 0
174 198 0
171 195 0
173 197 0
170 194 0
173 197 51
172 197 67
176 201 105
176 201 120
175 202 135
176 203 147
175 202 142
178 206 173
177 205 165
178 205 157
178 205 173
178 205 167
178 206 177
177 205 169
173 201 144
176 204 165
175 203 159
173 201 147
173 201 137
171 199 128
171 199 122
173 200 130
166 194 51
167 194 25
168 194 0
164 192 0
166 193 0
167 194 0
165 193 0
163 191 0
166 193 0
164 192 0
163 192 0
165 192 0
165 193 0
165 192 0
165 192 0
165 192 0
164 192 0
166 194 0
164 191 0
166 192 0
165 192 0
162 190 0
165 192 0
164 191 0
162 189 0
164 190 0
162 189 0
165 191 0
162 188 0
163 190 0
165 191 0
163 189 0
161 188 0
161 187 0
158 184 0
162 188 0
154 180 0
163 188 0
166 191 0
163 188 0
159 184 0
161 186 0
162 187 0
161 186 0
161 185 0
160 185 0
162 186 0
157 181 0
159 183 0
156 181 0
163 187 0
157 181 0
157 181 0
157 180 0
162 185 0
158 181 0
154 177 0
160 183 0
156 180 0
160 183 0
154 177 0
151 173 0
158 181 0
154 176 0
151 174 0
151 173 0
149 171 0
150 172 0
162 183 0
148 170 0
154 176 0
154 176 0
141 161 0
145 166 0
150 170 0
143 164 0
128 150 0
141 161 0
139 160 0
140 160 0
149 170 0
142 163 0
143 164 0
136 156 0
146 166 0
135 156 0
128 148 0
139 160 0
134 154 0
142 163 0
147 168 0
143 162 0
136 155 0
136 155 0
128 148 0
129 149 0
135 154 0
123 142 0
109 129 0
123 142 0
123 142 0
121 139 0
109 127 0
103 121 0
113 131 0
120 138 0
112 129 0
114 131 0
109 126 0
103 119 0
109 126 0
103 119 0
100 117 0
104 120 0
101 117 0
92 107 0
83 97 0
85 101 0
93 108 0
93 108 0
84 99 0
86 100 0
93 108 0
88 102 0
77 93 0
65 78 0
88 102 0
77 90 0
73 86 0
75 88 0
84 96 0
62 75 0
69 79 18
61 74 18
58 71 44
48 64 31
55 69 31
59 76 40
59 73 25
48 63 31
58 74 40
50 66 31
55 70 36
58 73 31
57 71 31
48 61 25
61 71 18
61 70 0
57 68 0
59 68 0
64 75 0
83 94 0
56 67 0
62 72 0
69 79 0
81 92 0
52 63 0
70 81 0
89 100 0
70 81 0
81 94 0
86 97 0
73 84 0
84 95 0
86 96 0
104 116 0
91 105 0
95 107 0
73 85 0
89 102 0
87 101 0
91 104 0
94 108 0
90 101 0
105 119 0
115 129 0
100 114 0
104 117 0
97 110 0
99 112 0
104 117 0
98 109 0
96 109 0
100 114 0
99 110 0
96 109 0
110 124 0
123 139 0
107 121 0
101 116 0
118 131 0
114 127 0
109 121 0
111 124 0
111 121 0
111 122 0
108 120 0
126 140 0
121 134 0
133 145 0
121 133 0
115 127 0
120 134 0
119 130 0
109 119 0
115 126 0
124 136 0
130 145 0
115 125 0
116 129 0
116 127 0
128 138 0
118 129 0
123 134 0
126 140 0
120 131 0
124 134 0
113 124 0
123 134 0
123 133 0
127 138 0
123 131 0
116 126 0
118 126 0
114 123 0
114 123 0
122 132 0
120 127 0
122 132 0
121 129 0
118 122 0
115 119 0
118 125 0
114 120 0
113 117 0
121 127 0
113 118 0
115 120 0
119 121 0
114 117 0
114 117 0
110 111 0
101 105 0
116 121 0
119 122 0
115 117 0
118 121 0
111 109 0
103 104 0
111 112 0
108 106 0
100 97 0
110 110 0
103 98 0
117 116 0
110 107 0
107 105 0
109 104 0
111 108 0
99 94 0
109 107 0
112 110 0
96 89 0
92 86 0
95 91 0
101 95 0
85 78 0
113 108 0
95 88 0
102 98 0
107 102 0
106 102 0
106 102 0
105 103 0
106 102 0
109 104 0
108 104 0
113 111 0
100 94 0
111 105 0
109 106 0
119 116 16
116 112 11
119 115 0
116 114 0
113 111 11
110 106 11
106 103 11
105 104 0
117 117 0
120 120 0
120 117 11
114 112 0
123 121 11
113 111 11
123 122 0
125 126 16
135 136 11
126 127 0
138 141 0
151 158 0
148 155 0
148 154 0
144 148 0
151 158 0
148 154 0
145 152 0
151 161 0
152 161 0
159 169 0
148 155 0
153 162 0
152 159 0
158 169 0
159 172 0
155 166 0
157 167 0
163 177 0
160 170 0
153 167 0
156 166 0
158 172 0
165 179 0
161 173 0
156 169 0
166 182 0
163 178 0
162 177 0
160 174 0
164 179 0
164 180 0
159 173 0
165 181 0
153 168 0
161 177 0
166 180 0
163 181 0
169 185 0
168 186 0
166 183 0
175 198 0
174 197 0
174 197 0
175 198 0
175 197 0
173 197 0
176 199 0
177 199 0
175 197 0
174 197 0
175 198 0
175 198 0
171 195 0
175 198 0
173 197 0
176 199 0
173 196 0
173 197 0
173 197 0
171 194 0
174 197 0
173 196 0
174 197 0
174 197 0
173 197 0
174 197 0
176 199 0
172 196 0
174 198 0
174 197 0
173 197 0
174 198 0
173 197 0
171 196 0
172 196 0
171 196 0
171 196 0
170 196 0
170 195 0
171 196 0
172 197 0
169 195 0
171 196 0
170 196 0
168 193 0
170 196 0
170 196 0
169 195 0
169 195 0
169 195 0
168 195 0
169 194 0
170 195 0
168 195 0
168 194 0
169 195 0
167 193 0
165 193 0
167 194 0
168 195 0
165 193 0
169 195 0
167 194 0
165 192 0
166 194 0
163 191 0
167 194 0
164 192 0
168 194 0
167 194 0
166 193 0
166 193 0
165 192 0
165 192 0
165 192 0
165 193 0
165 193 0
163 190 0
167 194 0
166 193 0
162 189 0
163 191 0
164 190 0
166 193 0
163 189 0
163 190 0
164 191 0
161 187 0
163 189 0
164 190 0
165 191 0
166 191 0
165 191 0
162 187 0
163 189 0
165 191 0
164 189 0
163 189 0
159 183 0
159 183 0
159 184 0
161 185 0
160 184 0
157 182 0
161 186 0
164 189 0
160 185 0
151 175 0
153 177 0
160 183 0
162 185 0
160 184 0
157 181 0
155 178 0
155 178 0
155 177 0
154 177 0
157 180 0
152 175 0
162 184 0
162 186 0
154 176 0
155 178 0
143 166 0
151 173 0
152 174 0
154 176 0
150 172 0
151 174 0
142 164 0
147 168 0
148 170 0
152 173 0
149 170 0
153 174 0
147 169 0
142 163 0
151 171 0
139 160 0
140 160 0
141 162 0
143 163 0
141 161 0
143 162 0
135 156 0
137 157 0
141 162 0
134 153 0
133 154 0
138 157 0
140 161 0
131 151 0
138 157 0
136 155 0
139 158 0
132 151 0
119 139 0
123 141 0
133 152 0
121 140 0
124 143 0
122 140 0
126 144 0
111 130 0
111 129 0
110 127 0
101 119 0
102 120 0
97 114 0
108 125 0
100 116 0
96 113 0
108 124 0
102 117 0
95 112 0
100 116 0
91 108 0
93 108 0
91 106 0
90 104 0
100 114 0
84 98 0
77 90 0
79 92 0
86 100 0
73 86 0
77 91 0
75 88 0
79 93 0
55 67 0
69 79 0
67 78 0
60 72 0
71 83 0
63 73 0
66 77 0
61 71 0
62 72 0
63 74 0
65 76 0
64 75 0
66 76 0
66 78 0
64 75 0
79 89 0
58 68 0
65 76 0
59 69 0
72 83 0
78 88 0
60 71 0
86 98 0
68 80 0
61 75 0
67 79 0
70 80 0
81 93 0
86 98 0
90 101 0
80 93 0
81 93 0
66 76 0
86 96 0
90 101 0
79 89 0
84 97 0
90 101 0
98 110 0
103 115 0
99 112 0
92 103 0
93 104 0
92 107 0
105 119 0
108 123 0
108 119 0
85 99 0
108 122 0
98 111 0
97 112 0
102 114 0
110 124 0
97 109 0
113 126 0
109 122 0
111 123 0
102 115 0
118 132 0
116 131 0
106 120 0
107 120 0
105 117 0
118 133 0
110 124 0
103 115 0
104 119 0
113 127 0
117 130 0
123 137 0
122 135 0
120 135 0
118 130 0
103 117 0
119 134 0
123 135 0
121 133 0
117 129 0
106 116 0
126 140 0
105 115 0
128 142 0
130 142 0
128 140 0
119 130 0
116 126 0
118 130 0
120 132 0
119 129 0
130 140 0
127 138 0
122 132 0
122 132 0
120 129 0
119 127 0
124 132 0
125 136 0
116 124 0
122 129 0
126 132 0
119 126 0
132 139 0
127 135 0
114 122 0
116 121 0
114 120 0
102 105 0
112 117 0
118 122 0
120 126 0
121 128 0
112 112 0
120 124 0
115 121 0
112 117 0
118 120 0
120 120 0
112 114 0
118 121 0
113 114 0
107 109 0
111 111 0
122 122 0
104 104 0
107 106 0
116 116 0
116 117 0
107 106 0
109 105 0
107 104 0
104 99 0
107 102 0
101 97 0
108 105 0
110 103 0
106 101 0
103 96 0
108 106 0
100 96 0
103 99 0
108 106 0
105 99 0
110 107 0
104 100 0
110 104 0
91 82 0
104 98 0
112 108 0
118 115 0
112 110 0
108 103 0
120 117 0
121 121 0
123 122 0
130 128 0
120 117 0
119 116 0
131 132 0
133 133 0
128 125 0
127 128 0
131 130 0
139 140 0
114 114 0
141 141 0
124 123 0
145 147 0
145 150 0
144 149 0
137 138 0
140 146 0
146 153 0
145 152 0
139 142 0
146 150 0
146 153 0
144 148 0
146 152 0
149 156 0
146 151 0
156 163 0
157 168 0
157 168 0
153 164 0
158 168 0
152 163 0
157 168 0
153 164 0
151 159 0
161 173 0
158 171 0
154 165 0
156 168 0
160 173 0
154 163 0
155 171 0
165 178 0
165 180 0
160 174 0
162 177 0
162 179 0
166 182 0
163 180 0
167 184 0
163 178 0
165 182 0
167 182 0
166 184 0
163 178 0
163 179 0
166 184 0
174 197 0
175 197 0
175 198 0
174 197 0
173 196 0
175 198 0
174 198 0
172 196 0
173 196 0
175 198 0
174 197 0
175 197 0
175 198 0
173 196 0
174 197 0
176 199 0
175 198 0
175 198 0
175 198 0
172 197 0
173 197 0
174 197 0
172 196 0
173 196 0
174 197 0
174 198 0
173 197 0
174 198 0
173 197 0
172 196 0
174 198 0
173 197 0
173 197 0
172 196 0
172 196 0
170 195 0
173 197 0
171 196 0
171 196 0
169 195 0
170 196 0
170 195 0
172 196 0
171 196 0
169 195 0
169 195 0
170 195 0
169 195 0
169 195 0
168 194 0
168 194 0
168 195 0
167 194 0
168 195 0
166 193 0
167 194 0
166 193 0
167 193 0
167 194 0
169 195 0
166 193 0
166 193 0
167 194 0
167 194 0
166 193 0
166 193 0
166 193 0
167 193 0
166 193 0
165 192 0
166 194 0
166 192 0
164 191 0
167 194 0
166 193 0
164 192 0
165 192 0
167 194 0
163 190 0
164 191 0
162 189 0
163 189 0
165 191 0
163 188 0
159 186 0
164 189 0
164 191 0
167 193 0
162 187 0
160 185 0
160 186 0
164 189 0
156 182 0
159 184 0
160 185 0
165 189 0
162 188 0
158 183 0
160 184 0
156 180 0
159 183 0
159 183 0
158 183 0
159 183 0
153 177 0
163 187 0
158 182 0
159 183 0
157 180 0
158 182 0
158 181 0
159 182 0
157 180 0
159 182 0
158 181 0
156 179 0
149 172 0
155 177 0
159 181 0
152 176 0
153 176 0
147 169 0
148 171 0
151 173 0
149 171 0
160 182 0
159 181 0
148 169 0
144 165 0
146 167 0
151 172 0
145 165 0
147 169 0
147 169 0
152 173 0
152 173 0
147 169 0
141 162 0
142 163 0
135 156 0
133 153 0
142 163 0
129 150 0
139 159 0
142 162 0
141 162 0
140 161 0
136 157 0
132 153 0
136 156 0
131 152 0
139 159 0
135 155 0
135 155 0
141 161 0
134 152 0
124 144 0
128 147 0
120 139 0
134 153 0
109 126 0
118 137 0
125 143 0
106 123 0
121 138 0
112 130 0
113 131 0
111 128 0
119 137 0
106 123 0
101 118 0
111 128 0
100 116 0
102 118 0
90 106 0
101 117 0
94 110 0
95 111 0
101 118 0
96 111 0
85 100 0
95 109 0
87 102 0
84 98 0
80 96 0
75 88 0
75 89 0
86 100 0
70 83 0
71 83 0
73 85 0
68 81 0
76 90 0
65 76 0
74 86 0
69 81 0
84 96 0
68 81 0
73 85 0
70 81 0
67 79 0
71 83 0
63 75 0
71 83 0
70 81 0
65 77 0
59 71 0
83 95 0
72 84 0
64 75 0
68 80 0
68 80 0
86 99 0
66 79 0
54 68 0
95 107 0
93 104 0
75 88 0
75 88 0
81 94 0
93 105 0
80 92 0
92 105 0
108 120 0
87 101 0
98 111 0
91 104 0
107 119 0
85 97 0
94 107 0
102 114 0
103 118 0
100 112 0
93 107 0
109 122 0
102 115 0
110 124 0
102 116 0
106 119 0
111 126 0
104 120 0
109 122 0
106 120 0
104 117 0
112 125 0
113 128 0
101 114 0
125 139 0
124 138 0
107 118 0
106 120 0
114 126 0
121 134 0
115 130 0
112 126 0
109 125 0
113 127 0
112 126 0
113 126 0
124 139 0
123 137 0
123 137 0
115 127 0
118 131 0
117 131 0
116 129 0
124 138 0
121 133 0
133 147 0
133 147 0
124 135 0
124 135 0
122 135 0
118 130 0
119 128 0
111 122 0
103 114 0
120 132 0
121 134 0
115 127 0
127 138 0
110 119 0
133 142 0
133 144 0
122 132 0
116 125 0
123 132 0
118 126 0
123 135 0
126 134 0
113 120 0
127 134 0
127 134 0
117 125 0
124 133 0
113 119 0
108 116 0
111 116 0
126 131 0
127 133 0
117 119 0
116 120 0
128 136 0
121 127 0
115 119 0
114 116 0
116 119 0
111 113 0
114 115 0
119 120 0
112 111 0
120 123 0
107 105 0
106 109 0
116 115 0
115 116 0
119 117 0
122 121 0
113 112 0
113 114 0
120 118 0
116 115 0
110 109 0
115 115 0
113 109 0
110 107 0
105 104 0
107 105 0
116 110 0
113 109 0
104 98 0
105 98 0
120 117 0
101 95 0
112 110 0
112 107 0
114 112 0
112 109 0
123 121 0
126 124 0
115 112 0
123 122 0
125 121 0
121 118 0
125 124 0
124 122 0
123 125 0
128 124 0
129 126 0
125 123 0
128 126 0
133 131 0
132 133 0
129 127 0
136 139 0
143 144 0
141 146 0
139 140 0
137 138 0
142 144 0
144 146 0
141 144 0
149 155 0
139 143 0
145 149 0
147 151 0
147 155 0
152 157 0
151 157 0
145 152 0
151 159 0
148 155 0
146 153 0
145 153 0
147 158 0
150 158 0
157 168 0
150 160 0
150 159 0
158 168 0
159 171 0
162 176 0
156 167 0
159 170 0
161 176 0
157 171 0
159 173 0
157 168 0
159 172 0
161 176 0
165 181 0
166 180 0
158 173 0
162 176 0
162 177 0
163 177 0
161 176 0
160 176 0
165 182 0
167 182 0
175 197 0
174 197 0
174 198 0
174 198 0
174 197 0
174 197 0
176 198 0
176 198 0
174 197 0
175 198 0
173 196 0
176 199 0
174 197 0
174 197 0
175 197 0
173 197 0
173 197 0
173 197 0
173 196 0
171 195 0
173 197 0
173 197 0
172 196 0
172 196 0
172 197 0
173 197 0
173 197 0
174 198 0
172 196 0
173 197 0
171 196 0
171 195 0
172 197 0
170 196 0
172 197 0
171 196 0
172 197 0
171 196 0
170 196 0
171 196 0
172 196 0
170 195 0
169 195 0
171 196 0
170 196 0
170 195 0
169 195 0
168 194 0
171 196 0
168 195 0
168 194 0
168 195 0
170 195 0
168 194 0
168 194 0
168 194 0
167 194 0
167 194 0
166 192 0
168 194 0
166 193 0
166 193 0
167 194 0
168 194 0
168 194 0
165 192 0
168 194 0
164 190 0
164 191 0
165 192 0
164 191 0
166 193 0
164 191 0
165 192 0
165 191 0
163 190 0
163 190 0
165 191 0
164 190 0
161 187 0
163 189 0
166 192 0
166 192 0
164 190 0
164 190 0
163 190 0
162 187 0
164 190 0
162 187 0
164 190 0
164 189 0
161 185 0
164 188 0
163 188 0
164 188 0
157 181 0
158 182 0
161 186 0
167 192 0
158 182 0
165 189 0
158 182 0
163 186 0
163 187 0
153 177 0
156 179 0
163 187 0
163 187 0
158 181 0
149 172 0
159 182 0
162 185 0
152 174 0
160 183 0
164 186 0
153 175 0
151 174 0
155 177 0
157 180 0
154 177 0
159 181 0
150 172 0
156 179 0
157 180 0
154 176 0
151 173 0
149 170 0
147 169 0
154 176 0
151 173 0
133 154 0
148 170 0
154 175 0
149 171 0
141 162 0
144 166 0
143 164 0
140 161 0
146 167 0
157 177 0
140 161 0
155 175 0
140 162 0
140 160 0
143 164 0
138 158 0
137 157 0
145 166 0
136 156 0
138 157 0
136 155 0
132 151 0
134 154 0
141 160 0
130 149 0
128 147 0
128 148 0
128 147 0
130 149 0
128 147 0
124 142 0
125 144 0
131 149 0
128 147 0
114 132 0
121 140 0
109 127 0
120 139 0
117 134 0
96 114 0
95 113 0
113 129 0
106 124 0
94 111 0
89 107 0
101 118 0
115 131 0
85 100 0
92 107 0
94 109 0
78 93 0
87 102 0
90 104 0
80 94 0
92 106 0
82 98 0
85 100 0
77 91 0
75 88 0
66 79 0
86 101 0
86 99 0
73 86 0
81 93 0
76 89 0
89 102 0
75 89 0
66 79 0
74 87 0
93 106 0
66 78 0
74 85 0
74 85 0
69 81 0
88 101 0
69 80 0
69 80 0
85 97 0
87 99 0
87 100 0
76 87 0
97 110 0
72 84 0
82 94 0
92 106 0
84 98 0
89 102 0
89 101 0
88 101 0
92 106 0
82 94 0
97 110 0
93 106 0
83 97 0
92 105 0
91 103 0
90 103 0
89 102 0
83 98 0
89 104 0
95 109 0
92 104 0
88 101 0
103 116 0
91 104 0
94 109 0
89 103 0
104 119 0
98 112 0
100 113 0
107 121 0
103 117 0
106 120 0
110 123 0
113 128 0
119 134 0
110 125 0
120 133 0
124 137 0
112 129 0
118 134 0
119 134 0
122 136 0
117 132 0
110 125 0
124 137 0
123 137 0
118 131 0
110 123 0
133 149 0
118 132 0
119 133 0
127 143 0
119 132 0
128 141 0
127 140 0
118 130 0
115 126 0
128 142 0
121 135 0
113 127 0
106 116 0
122 133 0
117 128 0
119 132 0
123 133 0
130 142 0
122 132 0
124 135 0
120 130 0
125 137 0
123 135 0
121 129 0
126 136 0
132 142 0
118 125 0
118 125 0
117 129 0
119 129 0
123 132 0
110 119 0
116 122 0
129 136 0
126 134 0
127 136 0
121 128 0
129 138 0
124 133 0
123 130 0
123 130 0
126 132 0
120 124 0
118 123 0
123 127 0
123 127 0
117 120 0
113 115 0
110 110 0
116 119 0
130 131 0
116 119 0
127 129 0
96 96 0
113 112 0
121 121 0
128 134 0
112 114 0
119 120 0
116 118 0
116 118 0
111 112 0
107 105 0
121 121 0
126 127 0
118 116 0
108 107 0
122 122 0
111 110 0
114 111 0
113 113 0
107 104 0
112 110 0
116 116 0
111 109 0
102 98 0
113 111 0
118 116 0
119 115 0
111 109 0
121 117 0
105 99 0
117 116 0
117 113 0
116 116 0
125 124 0
128 128 0
124 123 0
124 125 0
130 125 0
126 123 0
135 135 0
132 132 0
132 131 0
138 139 0
132 132 0
138 140 0
144 148 0
136 140 0
134 132 0
136 138 0
142 147 0
139 142 0
141 146 0
146 151 0
151 156 0
145 150 0
151 158 0
138 138 0
152 160 0
154 160 0
155 162 0
148 156 0
150 158 0
149 154 0
148 158 0
156 166 0
156 164 0
158 168 0
156 165 0
152 160 0
157 169 0
155 166 0
157 169 0
161 171 0
155 165 0
162 173 0
156 166 0
159 170 0
159 172 0
155 168 0
161 173 0
160 173 0
158 173 0
168 183 0
159 172 0
162 178 0
162 176 0
158 171 0
166 183 0
164 179 0
176 198 0
175 198 0
176 199 0
175 198 0
175 198 0
175 198 0
174 198 0
176 199 0
175 198 0
174 197 0
175 197 0
174 196 0
172 195 0
176 198 0
175 198 0
173 197 0
173 197 0
176 199 0
175 198 0
175 198 0
176 198 0
174 198 0
172 196 0
175 198 0
172 196 0
173 197 0
172 197 0
172 197 0
170 195 0
172 197 0
172 196 0
172 197 0
170 195 0
171 196 0
171 195 0
171 196 0
170 196 0
170 195 0
170 195 0
172 196 0
170 196 0
171 196 0
170 195 0
170 195 0
170 195 0
170 195 0
170 196 0
169 195 0
169 195 0
167 194 0
170 196 0
168 195 0
170 195 0
168 194 0
170 195 0
167 194 0
168 195 0
167 194 0
167 194 0
165 192 0
168 194 0
167 194 0
167 193 0
167 194 0
167 193 0
165 190 0
166 193 0
165 191 0
168 194 0
165 192 0
164 191 0
167 194 0
164 191 0
167 193 0
166 192 0
164 191 0
165 191 0
165 191 0
162 188 0
165 192 0
165 191 0
165 191 0
164 191 0
164 189 0
166 191 0
165 191 0
165 190 0
157 183 0
164 189 0
161 186 0
161 186 0
165 191 0
165 190 0
160 185 0
162 186 0
160 184 0
161 186 0
157 181 0
161 185 0
162 187 0
162 186 0
159 183 0
161 185 0
158 181 0
154 178 0
162 185 0
157 180 0
159 183 0
154 178 0
160 183 0
161 184 0
158 181 0
155 178 0
151 174 0
160 183 0
155 178 0
142 165 0
159 182 0
152 175 0
151 174 0
160 183 0
155 177 0
153 176 0
147 169 0
155 178 0
156 178 0
155 177 0
145 166 0
136 158 0
141 163 0
151 172 0
148 169 0
151 173 0
138 160 0
149 170 0
151 172 0
136 156 0
144 165 0
141 162 0
140 162 0
144 164 0
143 163 0
146 167 0
141 161 0
139 160 0
137 158 0
147 167 0
137 158 0
130 150 0
135 156 0
123 143 0
134 154 0
129 150 0
139 160 0
130 149 0
133 152 0
119 138 0
122 140 0
129 149 0
128 147 0
125 144 0
131 150 0
121 139 0
126 144 0
131 150 0
115 133 0
118 137 0
116 134 0
102 120 0
106 124 0
99 117 0
104 122 0
105 122 0
113 130 0
101 117 0
102 118 0
98 115 0
93 109 0
94 112 0
103 119 0
88 103 0
95 111 0
97 113 0
92 106 0
94 111 0
87 100 0
88 103 0
94 109 0
94 108 0
93 107 0
65 80 0
81 95 0
64 79 0
93 108 0
73 87 0
81 95 0
83 96 0
93 105 0
62 74 0
95 108 0
83 96 0
78 91 0
76 89 0
88 101 0
77 89 0
89 100 0
83 95 0
92 106 0
77 89 0
84 95 0
76 89 0
96 109 0
87 101 0
86 98 0
75 88 0
72 83 0
86 97 0
92 106 0
81 94 0
79 92 0
89 102 0
99 111 0
94 107 0
94 108 0
87 101 0
93 107 0
92 104 0
99 114 0
107 120 0
95 108 0
106 120 0
87 102 0
111 122 0
94 108 0
104 118 0
109 124 0
106 121 0
108 121 0
106 118 0
110 126 0
97 112 0
108 122 0
103 117 0
99 113 0
123 137 0
100 114 0
108 122 0
108 121 0
99 112 0
120 136 0
110 123 0
108 120 0
120 133 0
109 122 0
115 129 0
123 138 0
112 125 0
118 129 0
121 135 0
125 137 0
120 134 0
120 135 0
116 131 0
109 123 0
122 136 0
124 136 0
121 133 0
127 140 0
124 137 0
121 132 0
116 129 0
126 140 0
132 145 0
121 133 0
118 131 0
119 133 0
130 143 0
131 144 0
132 144 0
119 130 0
117 129 0
133 144 0
127 139 0
120 131 0
109 119 0
123 135 0
120 131 0
123 132 0
119 129 0
132 144 0
135 146 0
120 130 0
110 117 0
120 126 0
128 136 0
132 143 0
126 133 0
123 131 0
120 129 0
121 128 0
127 133 0
123 132 0
116 122 0
117 121 0
108 112 0
120 127 0
135 141 0
125 128 0
123 126 0
113 118 0
121 130 0
121 125 0
119 123 0
114 118 0
121 127 0
113 117 0
115 117 0
117 120 0
116 116 0
107 107 0
109 110 0
109 110 0
123 125 0
125 122 0
113 113 0
126 125 0
110 107 0
111 105 0
116 114 0
112 109 0
113 111 0
115 111 0
116 112 0
123 120 0
120 118 0
113 113 0
116 114 0
108 106 0
124 124 0
114 112 0
109 104 0
115 113 0
121 122 0
123 121 0
119 116 0
124 123 0
134 137 0
117 111 0
123 122 0
131 131 0
133 135 0
137 140 0
128 128 0
133 133 0
127 126 0
129 131 0
133 135 0
131 129 0
135 136 0
144 149 0
137 139 0
134 136 0
137 139 0
147 151 0
144 149 0
152 156 0
151 156 0
150 157 0
153 160 0
153 159 0
145 148 0
146 154 0
154 162 0
150 158 0
148 156 0
155 164 0
161 175 0
149 157 0
156 166 0
148 156 0
155 166 0
161 173 0
152 161 0
157 168 0
155 165 0
157 167 0
155 168 0
157 168 0
157 169 0
165 178 0
157 167 0
156 169 0
161 175 0
162 176 0
156 170 0
161 174 0
161 177 0
163 177 0
167 183 0
162 178 0
175 198 0
174 197 0
174 197 0
174 197 0
174 197 0
175 198 0
174 197 0
175 197 0
174 197 0
175 198 0
174 198 0
173 197 0
173 197 0
176 198 0
175 198 0
174 198 0
173 197 0
175 198 0
175 198 0
174 198 0
173 197 0
174 198 0
173 197 0
172 197 0
173 197 0
174 197 0
172 196 0
171 196 0
171 196 0
173 197 0
171 196 0
171 196 0
172 196 0
171 196 0
171 196 0
170 195 0
171 196 0
172 196 0
172 196 0
172 197 0
169 195 0
169 195 0
168 194 0
168 194 0
168 194 0
169 194 0
171 196 0
167 193 0
169 195 0
171 196 0
168 194 0
170 196 0
167 194 0
168 193 0
169 195 0
170 195 0
167 193 0
165 192 0
168 194 0
168 195 0
169 195 0
168 194 0
165 192 0
168 194 0
169 194 0
168 195 0
164 191 0
165 192 0
167 193 0
167 192 0
165 191 0
162 189 0
162 188 0
165 191 0
166 192 0
163 189 0
166 192 0
163 188 0
163 189 0
165 191 0
166 192 0
163 189 0
166 192 0
163 189 0
166 191 0
166 192 0
164 188 0
163 187 0
166 191 0
165 190 0
160 185 0
163 187 0
160 185 0
168 192 0
159 183 0
164 188 0
168 192 0
156 180 0
162 186 0
159 183 0
158 182 0
162 184 0
160 184 0
157 181 0
157 181 0
155 178 0
162 186 0
157 179 0
160 184 0
155 178 0
159 182 0
148 171 0
153 176 0
156 179 0
154 176 0
155 178 0
159 182 0
159 182 0
153 175 0
156 178 0
158 181 0
159 181 0
154 177 0
147 170 0
157 180 0
151 173 0
148 170 0
157 178 0
148 169 0
143 165 0
148 169 0
139 160 0
147 168 0
151 173 0
146 166 0
151 171 0
149 171 0
144 165 0
140 161 0
148 169 0
140 160 0
144 164 0
137 158 0
143 163 0
142 162 0
146 168 0
134 154 0
137 158 0
141 161 0
133 153 0
136 157 0
136 155 0
128 148 0
137 157 0
134 153 0
127 147 0
131 150 0
125 144 0
124 144 0
117 136 0
119 137 0
122 140 0
118 137 0
132 151 0
130 148 0
127 146 0
109 127 0
116 135 0
101 120 0
108 126 0
114 131 0
108 125 0
101 119 0
111 130 0
113 130 0
91 108 0
105 122 0
101 117 0
106 123 0
105 121 0
110 127 0
92 110 0
97 113 0
99 115 0
84 99 0
102 118 0
81 97 0
100 115 0
91 106 0
91 106 0
89 102 0
86 99 0
92 107 0
98 111 0
93 107 0
76 90 0
74 88 0
81 95 0
76 89 0
76 89 0
81 95 0
80 94 0
67 81 0
85 97 0
79 92 0
79 91 0
80 94 0
84 98 0
88 102 0
94 109 0
91 105 0
78 92 0
90 105 0
98 111 0
98 110 0
86 97 0
86 98 0
93 107 0
85 97 0
96 110 0
86 99 0
94 110 0
85 99 0
89 103 0
102 116 0
98 110 0
94 108 0
119 135 0
104 115 0
97 113 0
94 108 0
104 119 0
100 114 0
106 120 0
98 114 0
101 117 0
103 119 0
109 122 0
112 128 0
104 119 0
120 135 0
103 115 0
107 122 0
110 123 0
106 122 0
119 133 0
97 110 0
112 128 0
106 121 0
109 124 0
114 128 0
118 134 0
119 134 0
114 128 0
127 143 0
110 125 0
119 132 0
131 144 0
117 131 0
120 133 0
129 142 0
120 133 0
110 124 0
117 131 0
117 132 0
127 141 0
129 145 0
122 136 0
123 138 0
122 134 0
128 145 0
129 144 0
111 123 0
125 137 0
127 141 0
126 138 0
132 144 0
126 138 0
128 141 0
130 143 0
126 140 0
129 142 0
127 139 0
126 138 0
126 139 0
119 128 0
126 133 0
120 130 0
129 141 0
124 130 0
121 130 0
128 139 0
124 132 0
129 140 0
124 134 0
136 147 0
124 134 0
135 147 0
127 136 0
125 132 0
121 127 0
122 126 0
113 121 0
136 144 0
125 131 0
123 131 0
115 121 0
131 136 0
125 132 0
126 131 0
116 121 0
125 126 0
122 127 0
131 137 0
133 136 0
110 113 0
122 126 0
120 121 0
115 117 0
118 120 0
120 124 0
110 111 0
122 124 0
103 101 0
114 116 0
116 115 0
109 110 0
122 120 0
121 121 0
117 118 0
113 110 0
120 118 0
119 118 0
127 126 0
122 122 0
124 122 0
121 119 0
126 125 0
118 116 0
122 122 0
113 107 0
116 114 0
124 122 0
119 117 0
122 120 0
118 119 0
122 121 0
132 134 0
124 124 0
132 132 0
127 127 0
129 129 0
128 126 0
130 130 0
136 137 0
133 133 0
131 133 0
142 144 0
129 129 0
132 132 0
137 141 0
129 133 0
137 143 0
138 141 0
139 141 0
141 146 0
147 153 0
150 152 0
142 148 0
147 152 0
145 151 0
140 143 0
154 164 0
151 156 0
151 160 0
151 160 0
147 153 0
155 161 0
147 157 0
150 160 0
149 157 0
147 157 0
157 169 0
145 153 0
159 170 0
158 170 0
155 166 0
157 169 0
152 163 0
155 166 0
162 173 0
156 167 0
158 171 0
161 172 0
152 164 0
163 179 0
160 174 0
160 174 0
159 172 0
163 180 0
175 198 0
175 198 0
174 198 0
175 198 0
173 196 0
175 198 0
174 197 0
175 198 0
173 196 0
174 198 0
171 195 0
173 197 0
173 197 0
173 197 0
173 196 0
175 198 0
172 197 0
173 196 0
173 197 0
175 198 0
173 197 0
175 198 0
172 196 0
173 197 0
174 197 0
174 198 0
174 198 0
171 196 0
172 197 0
173 197 0
171 196 0
173 197 0
171 196 0
172 197 0
172 197 0
171 196 0
171 196 0
172 197 0
169 195 0
170 196 0
170 196 0
169 195 0
173 197 0
170 196 0
169 195 0
171 196 0
170 195 0
169 195 0
169 195 0
167 194 0
168 193 0
169 194 0
168 194 0
168 194 0
167 193 0
166 192 0
169 194 0
168 194 0
167 193 0
167 193 0
168 194 0
168 194 0
170 195 0
167 193 0
168 194 0
168 194 0
165 192 0
163 189 0
167 193 0
166 191 0
165 191 0
167 193 0
169 194 0
163 189 0
167 193 0
164 189 0
164 190 0
165 191 0
159 185 0
163 189 0
165 190 0
157 182 0
157 182 0
163 188 0
163 187 0
162 187 0
164 188 0
161 186 0
164 189 0
162 187 0
158 182 0
161 185 0
159 183 0
163 188 0
164 188 0
162 186 0
163 186 0
156 179 0
162 186 0
157 181 0
164 187 0
159 182 0
160 183 0
165 189 0
159 182 0
156 180 0
155 178 0
158 182 0
155 178 0
157 180 0
148 171 0
155 177 0
163 185 0
161 183 0
156 179 0
160 182 0
157 180 0
153 175 0
152 174 0
147 169 0
153 175 0
154 177 0
152 175 0
159 182 0
152 173 0
152 174 0
156 178 0
154 177 0
142 164 0
140 161 0
143 164 0
151 172 0
145 167 0
145 165 0
160 182 0
143 163 0
140 161 0
143 165 0
146 167 0
141 161 0
138 159 0
144 165 0
144 165 0
143 164 0
145 165 0
143 162 0
137 156 0
140 160 0
136 156 0
132 152 0
126 145 0
135 155 0
132 152 0
149 169 0
132 152 0
130 149 0
118 136 0
132 151 0
123 142 0
112 131 0
125 144 0
120 138 0
118 137 0
125 144 0
134 153 0
117 136 0
120 138 0
122 140 0
119 137 0
121 138 0
106 125 0
110 128 0
112 131 0
106 122 0
101 119 0
109 127 0
104 120 0
109 127 0
115 132 0
95 112 0
97 113 0
92 109 0
90 105 0
102 117 0
93 107 0
86 101 0
99 115 0
98 113 0
102 117 0
92 107 0
75 90 0
91 106 0
94 109 0
91 106 0
91 106 0
88 102 0
93 108 0
85 99 0
105 119 0
100 113 0
92 106 0
92 106 0
90 102 0
95 108 0
87 101 0
92 106 0
93 106 0
99 114 0
87 101 0
85 99 0
78 93 0
81 95 0
90 104 0
97 110 0
85 98 0
98 112 0
105 120 0
93 107 0
89 104 0
90 105 0
106 120 0
87 100 0
81 93 0
96 109 0
87 102 0
94 110 0
97 110 0
89 104 0
84 97 0
103 117 0
97 110 0
109 125 0
102 117 0
107 124 0
99 111 0
111 126 0
110 123 0
99 115 0
122 137 0
103 117 0
108 121 0
108 123 0
118 132 0
109 124 0
107 121 0
118 133 0
112 127 0
112 125 0
116 131 0
116 132 0
124 140 0
127 142 0
121 135 0
110 124 0
127 141 0
124 139 0
127 141 0
127 141 0
129 141 0
123 137 0
120 135 0
118 131 0
119 134 0
124 140 0
118 132 0
128 141 0
125 138 0
131 146 0
108 119 0
135 150 0
126 140 0
111 121 0
133 147 0
127 142 0
133 145 0
122 133 0
131 145 0
123 136 0
124 137 0
128 141 0
136 149 0
129 142 0
125 140 0
134 146 0
121 130 0
122 132 0
121 129 0
124 134 0
120 130 0
125 137 0
109 122 0
125 135 0
130 143 0
124 134 0
122 133 0
129 138 0
136 143 0
127 134 0
127 137 0
110 119 0
129 138 0
123 129 0
121 128 0
124 129 0
124 131 0
132 139 0
127 133 0
124 130 0
114 119 0
129 133 0
123 128 0
112 118 0
119 122 0
125 130 0
114 116 0
126 128 0
126 132 0
127 131 0
118 122 0
126 129 0
123 125 0
116 118 0
121 123 0
118 118 0
120 124 0
116 118 0
122 125 0
117 118 0
113 116 0
109 108 0
117 118 0
121 122 0
127 127 0
127 130 0
126 127 0
125 126 0
129 128 0
122 119 0
111 109 0
116 117 0
127 127 0
123 122 0
127 125 0
126 127 0
126 127 0
131 130 0
121 117 0
112 112 0
131 131 0
123 122 0
126 126 0
126 127 0
131 132 0
142 145 0
133 135 0
133 134 0
143 143 0
141 142 0
132 134 0
136 138 0
138 141 0
141 144 0
145 149 0
149 153 0
141 145 0
144 148 0
143 147 0
149 153 0
140 148 0
147 153 0
144 148 0
147 154 0
148 151 0
149 155 0
145 153 0
149 158 0
152 162 0
149 157 0
153 160 0
152 159 0
150 159 0
145 151 0
151 159 0
153 164 0
158 169 0
157 164 0
152 161 0
153 164 0
158 171 0
159 173 0
157 170 0
165 177 0
156 169 0
157 170 0
155 167 0
161 176 0
159 171 0
160 174 0
161 173 0
164 179 0
176 199 0
177 199 0
173 197 0
174 197 0
175 198 0
171 194 0
173 197 0
172 196 0
173 197 0
173 197 0
172 195 0
173 197 0
172 196 0
174 198 0
174 197 0
172 196 0
173 197 0
174 198 0
173 197 0
173 197 0
174 197 0
172 197 0
171 195 0
173 197 0
172 196 0
173 197 0
172 196 0
173 197 0
172 196 0
170 195 0
174 197 0
170 196 0
169 195 0
172 196 0
172 196 0
171 196 0
171 196 0
170 195 0
170 195 0
171 196 0
171 196 0
169 195 0
170 196 0
170 195 0
172 196 0
169 195 0
170 195 0
168 194 0
168 194 0
170 196 0
168 193 0
169 195 0
168 194 0
169 195 0
165 191 0
168 195 0
168 193 0
168 194 0
167 193 0
166 193 0
167 193 0
165 191 0
166 193 0
165 192 0
166 192 0
169 194 0
166 191 0
168 194 0
164 191 0
164 190 0
166 192 0
169 195 0
167 192 0
163 188 0
167 193 0
170 195 0
162 188 0
163 188 0
163 189 0
169 194 0
161 187 0
162 186 0
167 192 0
162 187 0
163 188 0
163 187 0
160 185 0
164 189 0
165 189 0
160 184 0
156 181 0
166 190 0
162 186 0
164 189 0
166 190 0
168 192 0
162 185 0
159 184 0
157 181 0
161 184 0
165 189 0
159 182 0
162 186 0
160 183 0
156 179 0
162 185 0
164 187 0
156 179 0
154 177 0
161 184 0
157 179 0
160 184 0
158 181 0
154 176 0
150 172 0
155 178 0
154 176 0
154 176 0
157 179 0
151 174 0
150 172 0
149 170 0
150 172 0
150 172 0
144 165 0
156 178 0
147 169 0
149 172 0
152 173 0
153 175 0
151 173 0
137 158 0
149 171 0
150 171 0
150 171 0
149 170 0
152 173 0
150 171 0
143 164 0
134 155 0
150 171 0
137 158 0
144 165 0
145 166 0
135 157 0
137 158 0
136 157 0
145 165 0
140 159 0
126 145 0
136 156 0
139 159 0
138 158 0
140 161 0
134 153 0
138 158 0
122 143 0
127 147 0
119 138 0
128 147 0
118 138 0
127 146 0
130 149 0
116 134 0
126 144 0
121 139 0
123 141 0
108 126 0
126 144 0
126 144 0
109 126 0
105 122 0
101 118 0
110 127 0
111 128 0
101 118 0
104 120 0
116 134 0
89 107 0
105 123 0
98 114 0
96 112 0
101 117 0
103 120 0
97 114 0
100 116 0
94 110 0
78 92 0
89 106 0
84 98 0
92 107 0
85 99 0
89 103 0
97 113 0
90 105 0
92 107 0
101 115 0
93 108 0
88 103 0
93 108 0
104 119 0
79 93 0
81 98 0
73 88 0
90 104 0
85 100 0
99 114 0
88 103 0
99 112 0
84 98 0
98 112 0
95 109 0
71 85 0
96 108 0
91 105 0
75 88 0
91 107 0
92 107 0
89 103 0
103 117 0
100 115 0
86 101 0
99 112 0
98 114 0
104 118 0
117 131 0
107 122 0
117 133 0
104 119 0
107 122 0
111 127 0
106 119 0
104 118 0
106 122 0
92 108 0
107 123 0
93 109 0
110 127 0
120 136 0
102 116 0
110 124 0
116 133 0
114 131 0
106 121 0
115 131 0
111 127 0
117 132 0
115 130 0
117 131 0
115 130 0
111 125 0
120 136 0
121 137 0
107 123 0
127 143 0
128 143 0
112 125 0
109 124 0
119 134 0
112 125 0
124 139 0
118 135 0
126 140 0
122 135 0
127 141 0
126 138 0
126 139 0
117 132 0
120 133 0
117 130 0
125 140 0
118 132 0
119 131 0
123 138 0
126 140 0
119 133 0
113 126 0
129 142 0
120 131 0
122 135 0
128 140 0
126 136 0
123 134 0
134 146 0
115 125 0
134 146 0
120 133 0
123 135 0
129 140 0
132 142 0
131 143 0
121 131 0
131 140 0
137 147 0
139 151 0
128 139 0
121 131 0
121 129 0
125 133 0
129 141 0
132 142 0
121 128 0
127 136 0
123 131 0
115 123 0
122 129 0
126 133 0
119 124 0
131 139 0
130 136 0
129 135 0
122 131 0
125 131 0
122 127 0
117 122 0
130 137 0
126 132 0
119 123 0
126 129 0
130 137 0
124 128 0
129 131 0
120 125 0
124 127 0
130 135 0
125 126 0
133 134 0
120 122 0
121 124 0
125 127 0
121 125 0
124 125 0
130 134 0
118 119 0
124 126 0
118 120 0
132 134 0
125 127 0
117 117 0
122 127 0
128 127 0
127 128 0
116 116 0
129 132 0
123 122 0
127 130 0
120 121 0
126 126 0
128 129 0
123 122 0
141 143 0
134 139 0
134 132 0
129 129 0
130 131 0
134 134 0
132 132 0
137 137 0
139 143 0
137 139 0
142 145 0
134 137 0
142 145 0
142 145 0
148 151 0
142 146 0
144 150 0
143 148 0
141 147 0
145 151 0
147 153 0
145 151 0
145 150 0
151 159 0
153 161 0
151 159 0
146 154 0
148 157 0
148 156 0
153 161 0
150 157 0
155 165 0
147 153 0
151 156 0
154 162 0
149 159 0
151 163 0
161 169 0
157 168 0
154 163 0
157 171 0
157 168 0
159 170 0
155 166 0
160 174 0
159 171 0
158 171 0
158 171 0
161 176 0
164 178 0
174 198 0
176 198 0
175 198 0
176 198 0
174 197 0
174 197 0
174 198 0
174 198 0
175 198 0
173 197 0
174 197 0
174 197 0
173 197 0
173 197 0
174 198 0
174 197 0
173 197 0
174 198 0
173 197 0
173 197 0
173 197 0
173 197 0
171 196 0
174 198 0
172 196 0
173 197 0
172 197 0
174 198 0
171 196 0
171 196 0
172 197 0
172 197 0
171 196 0
171 196 0
172 197 0
169 194 0
170 195 0
171 196 0
171 196 0
170 196 0
170 196 0
169 195 0
168 194 0
169 195 0
168 194 0
170 195 0
171 196 0
169 194 0
167 193 0
167 193 0
167 194 0
170 195 0
169 194 0
168 194 0
168 194 0
168 193 0
169 195 0
169 194 0
167 193 0
168 194 0
164 189 0
165 192 0
167 193 0
167 193 0
166 191 0
163 189 0
169 194 0
166 192 0
164 189 0
167 192 0
164 189 0
162 188 0
167 193 0
161 186 0
168 192 0
164 189 0
163 187 0
154 179 0
164 190 0
163 188 0
164 189 0
163 187 0
167 192 0
166 191 0
162 186 0
169 193 0
168 192 0
162 186 0
164 189 0
166 190 0
165 189 0
159 183 0
161 185 0
158 182 0
162 185 0
165 188 0
157 181 0
162 185 0
161 185 0
151 175 0
156 180 0
160 183 0
165 188 0
147 170 0
161 184 0
158 182 0
162 185 0
154 178 0
163 186 0
152 174 0
157 179 0
157 179 0
148 170 0
154 177 0
156 178 0
160 182 0
153 176 0
155 177 0
156 178 0
150 172 0
141 163 0
143 166 0
158 180 0
149 171 0
155 177 0
150 172 0
157 178 0
146 168 0
147 168 0
150 172 0
140 161 0
156 176 0
147 169 0
147 168 0
143 163 0
135 156 0
148 169 0
144 166 0
143 164 0
139 159 0
147 168 0
137 157 0
131 151 0
134 154 0
137 157 0
150 170 0
126 146 0
120 140 0
140 160 0
133 153 0
134 154 0
140 160 0
131 151 0
133 153 0
139 158 0
127 145 0
139 159 0
131 150 0
123 143 0
134 153 0
136 155 0
132 150 0
127 146 0
124 143 0
117 137 0
131 149 0
114 131 0
106 124 0
115 134 0
116 133 0
114 132 0
134 152 0
115 133 0
119 137 0
103 121 0
118 136 0
110 128 0
106 123 0
108 124 0
113 131 0
96 113 0
104 121 0
96 112 0
108 124 0
100 116 0
93 109 0
96 112 0
97 112 0
99 116 0
99 114 0
73 88 0
78 93 0
104 120 0
90 104 0
74 90 0
94 110 0
102 116 0
91 106 0
83 97 0
93 107 0
85 99 0
87 103 0
95 111 0
94 108 0
99 113 0
92 107 0
98 114 0
97 112 0
94 109 0
98 112 0
90 104 0
103 117 0
91 106 0
92 108 0
89 104 0
108 122 0
106 120 0
91 108 0
98 113 0
100 114 0
93 109 0
95 111 0
104 119 0
105 120 0
98 112 0
100 116 0
104 119 0
101 116 0
89 103 0
102 117 0
104 118 0
112 129 0
107 122 0
104 119 0
105 120 0
100 115 0
116 131 0
107 120 0
118 134 0
120 137 0
90 104 0
115 131 0
118 133 0
118 136 0
124 140 0
117 131 0
121 135 0
117 131 0
110 126 0
132 149 0
113 130 0
112 126 0
113 128 0
104 120 0
124 137 0
123 138 0
123 138 0
118 133 0
129 148 0
113 126 0
118 133 0
123 138 0
123 137 0
130 146 0
127 141 0
122 138 0
117 132 0
112 125 0
133 147 0
125 137 0
127 142 0
133 146 0
124 138 0
125 140 0
122 134 0
120 133 0
124 136 0
130 144 0
128 142 0
127 140 0
129 144 0
128 141 0
139 151 0
121 134 0
123 136 0
132 145 0
128 141 0
118 128 0
130 142 0
128 142 0
132 145 0
136 149 0
130 142 0
135 148 0
129 138 0
131 143 0
131 142 0
130 140 0
123 133 0
120 130 0
127 137 0
128 138 0
135 143 0
136 149 0
135 143 0
123 130 0
117 128 0
124 133 0
128 132 0
136 142 0
126 132 0
120 129 0
136 143 0
129 136 0
129 135 0
125 131 0
115 121 0
124 128 0
127 131 0
109 110 0
124 126 0
117 123 0
128 129 0
115 119 0
125 127 0
128 131 0
119 121 0
128 129 0
124 127 0
123 125 0
132 134 0
131 132 0
129 135 0
133 135 0
131 135 0
133 137 0
123 122 0
129 132 0
123 125 0
128 128 0
132 136 0
135 133 0
129 128 0
134 135 0
135 140 0
119 118 0
126 125 0
130 129 0
128 128 0
135 134 0
136 136 0
137 140 0
136 138 0
123 123 0
134 136 0
142 144 0
136 138 0
140 141 0
138 141 0
141 144 0
134 136 0
133 135 0
143 147 0
144 148 0
140 143 0
138 140 0
136 137 0
140 143 0
147 153 0
136 140 0
144 146 0
143 148 0
145 149 0
157 164 0
139 144 0
152 158 0
147 154 0
149 154 0
154 164 0
155 166 0
149 157 0
159 167 0
152 162 0
159 170 0
153 159 0
159 171 0
149 157 0
152 164 0
156 165 0
160 169 0
160 171 0
155 165 0
158 168 0
155 167 0
158 171 0
160 171 0
156 166 0
160 173 0
163 177 0
162 178 0
174 197 0
175 198 0
175 198 0
174 198 0
176 198 0
175 198 0
174 197 0
174 198 0
174 197 0
173 196 0
173 197 0
172 196 0
173 197 0
173 197 0
172 197 0
173 197 0
174 198 0
173 197 0
174 198 0
173 197 0
173 197 0
174 197 0
170 195 0
171 195 0
173 197 0
171 196 0
173 197 0
172 196 0
172 197 0
170 195 0
172 197 0
171 196 0
172 197 0
169 194 0
169 195 0
171 196 0
173 197 0
169 195 0
171 196 0
171 195 0
169 195 0
170 196 0
170 195 0
170 195 0
167 193 0
169 194 0
168 194 0
170 195 0
169 195 0
170 195 0
170 195 0
167 193 0
166 192 0
167 193 0
167 193 0
167 194 0
168 194 0
167 193 0
168 193 0
169 195 0
168 193 0
165 190 0
167 192 0
169 194 0
166 192 0
169 194 0
164 190 0
166 192 0
168 194 0
164 189 0
168 192 0
165 190 0
165 190 0
162 188 0
164 189 0
162 186 0
166 191 0
163 187 0
165 189 0
164 189 0
161 185 0
163 187 0
164 188 0
161 185 0
168 192 0
165 189 0
160 184 0
164 188 0
157 181 0
166 190 0
165 189 0
157 181 0
164 188 0
160 184 0
165 189 0
164 188 0
159 183 0
165 189 0
160 183 0
154 178 0
163 186 0
165 188 0
158 180 0
161 184 0
154 177 0
151 173 0
159 181 0
160 182 0
153 176 0
153 175 0
153 176 0
152 175 0
154 177 0
158 180 0
165 186 0
163 185 0
159 181 0
153 174 0
154 176 0
149 171 0
151 173 0
154 176 0
160 181 0
160 182 0
154 176 0
150 173 0
144 166 0
149 171 0
145 167 0
149 170 0
153 175 0
140 160 0
139 160 0
136 156 0
145 166 0
142 164 0
138 159 0
138 158 0
150 171 0
140 161 0
139 160 0
139 159 0
145 167 0
151 171 0
131 152 0
141 162 0
142 163 0
142 163 0
127 146 0
134 154 0
133 154 0
145 164 0
123 142 0
141 162 0
136 156 0
131 151 0
134 154 0
122 142 0
123 142 0
117 136 0
129 148 0
122 141 0
123 142 0
124 142 0
116 134 0
119 138 0
125 143 0
118 136 0
120 139 0
119 137 0
120 138 0
111 129 0
118 137 0
117 135 0
118 135 0
115 132 0
104 121 0
114 132 0
104 121 0
114 132 0
105 121 0
108 126 0
97 113 0
103 120 0
108 125 0
100 117 0
107 124 0
114 129 0
103 120 0
108 125 0
95 110 0
111 127 0
97 113 0
101 117 0
103 119 0
100 115 0
95 111 0
97 112 0
97 113 0
92 107 0
91 106 0
99 114 0
98 114 0
97 114 0
94 110 0
99 116 0
110 126 0
94 109 0
95 110 0
82 98 0
86 102 0
106 120 0
101 117 0
88 102 0
95 110 0
103 118 0
110 125 0
105 119 0
103 118 0
111 128 0
104 120 0
98 113 0
109 124 0
92 107 0
103 116 0
93 107 0
108 122 0
100 116 0
106 121 0
103 118 0
107 123 0
103 120 0
101 116 0
107 121 0
111 128 0
113 128 0
111 127 0
112 129 0
112 128 0
108 123 0
115 130 0
119 133 0
111 126 0
115 132 0
112 126 0
113 128 0
119 133 0
124 140 0
118 133 0
122 138 0
122 138 0
112 127 0
121 136 0
118 132 0
122 139 0
120 134 0
117 132 0
111 127 0
114 129 0
116 131 0
120 135 0
126 140 0
118 134 0
126 142 0
117 132 0
128 143 0
135 150 0
123 138 0
127 140 0
131 148 0
124 138 0
125 140 0
117 132 0
130 142 0
137 153 0
131 148 0
128 143 0
127 140 0
135 150 0
131 147 0
131 145 0
127 140 0
131 144 0
126 141 0
127 139 0
126 139 0
131 145 0
132 142 0
131 143 0
135 145 0
130 143 0
122 134 0
132 144 0
126 139 0
134 143 0
130 139 0
126 139 0
127 138 0
128 134 0
132 141 0
130 139 0
125 136 0
138 147 0
132 141 0
122 133 0
131 141 0
139 148 0
123 131 0
132 140 0
123 130 0
127 135 0
133 138 0
122 128 0
128 136 0
128 134 0
130 134 0
126 131 0
114 120 0
131 139 0
124 130 0
133 138 0
126 130 0
121 126 0
120 127 0
125 131 0
132 135 0
124 130 0
135 142 0
127 128 0
134 139 0
122 124 0
124 123 0
131 134 0
134 137 0
121 119 0
124 127 0
127 130 0
132 137 0
134 136 0
130 131 0
133 137 0
130 132 0
128 132 0
140 142 0
123 124 0
132 134 0
135 139 0
141 144 0
129 132 0
125 124 0
129 129 0
139 143 0
135 138 0
125 126 0
132 135 0
129 130 0
136 135 0
137 139 0
143 148 0
146 150 0
137 140 0
133 135 0
138 142 0
137 140 0
142 145 0
142 149 0
140 147 0
142 146 0
138 144 0
148 153 0
137 142 0
138 139 0
143 150 0
150 158 0
150 157 0
143 145 0
149 156 0
146 154 0
140 146 0
151 159 0
152 160 0
149 156 0
151 160 0
143 150 0
146 153 0
156 165 0
153 162 0
156 167 0
148 157 0
147 156 0
160 171 0
156 165 0
151 162 0
160 171 0
155 168 0
151 163 0
159 173 0
156 165 0
155 165 0
152 164 0
174 197 0
174 197 0
174 197 0
175 198 0
173 197 0
174 197 0
176 199 0
174 198 0
175 198 0
174 198 0
174 198 0
173 197 0
172 197 0
173 196 0
173 197 0
173 197 0
173 197 0
173 197 0
172 196 0
172 197 0
173 197 0
173 196 0
173 197 0
172 196 0
173 197 0
173 197 0
172 196 0
172 196 0
171 196 0
171 196 0
171 196 0
173 197 0
172 197 0
171 195 0
169 195 0
169 195 0
171 196 0
169 194 0
171 196 0
170 195 0
169 194 0
171 196 0
169 194 0
168 194 0
169 194 0
172 196 0
170 195 0
167 193 0
169 194 0
168 193 0
168 193 0
165 191 0
169 194 0
168 193 0
167 192 0
166 192 0
166 191 0
168 193 0
168 193 0
168 193 0
167 192 0
166 191 0
167 192 0
167 192 0
171 196 0
167 192 0
166 191 0
164 189 0
164 189 0
159 185 0
163 188 0
164 189 0
165 190 0
165 190 0
166 191 0
168 193 0
167 192 0
165 189 0
164 188 0
167 191 0
167 191 0
165 190 0
165 189 0
165 188 0
164 188 0
162 187 0
162 186 0
168 191 0
166 190 0
161 185 0
161 185 0
165 189 0
159 183 0
159 183 0
158 182 0
163 186 0
162 186 0
160 184 0
155 179 0
163 186 0
160 183 0
161 183 0
161 183 0
163 187 0
155 177 0
159 182 0
156 178 0
162 185 0
160 183 0
163 185 0
152 175 0
155 178 0
152 174 0
156 178 0
157 179 0
152 174 0
158 180 0
148 170 0
154 176 0
153 175 0
153 175 0
152 173 0
151 173 0
158 179 0
153 174 0
150 171 0
151 173 0
152 174 0
151 173 0
143 165 0
151 172 0
161 183 0
157 178 0
152 174 0
144 165 0
147 168 0
140 160 0
142 163 0
139 161 0
142 163 0
133 154 0
152 173 0
140 161 0
140 161 0
140 161 0
141 161 0
134 154 0
143 163 0
132 151 0
134 154 0
129 149 0
133 155 0
129 150 0
131 151 0
138 158 0
119 139 0
135 154 0
134 154 0
138 158 0
134 152 0
116 135 0
124 143 0
119 138 0
127 146 0
119 137 0
125 144 0
119 138 0
113 132 0
115 133 0
117 136 0
109 128 0
122 140 0
127 146 0
118 136 0
112 131 0
105 122 0
111 128 0
114 133 0
116 133 0
104 120 0
108 124 0
105 122 0
101 118 0
106 124 0
109 126 0
110 128 0
90 107 0
108 124 0
109 126 0
94 110 0
107 123 0
94 111 0
98 114 0
104 119 0
107 124 0
109 125 0
92 108 0
102 119 0
110 126 0
96 112 0
92 108 0
83 98 0
93 107 0
104 118 0
84 99 0
107 123 0
93 109 0
109 123 0
100 116 0
80 93 0
102 119 0
108 124 0
106 121 0
106 119 0
109 125 0
97 113 0
98 113 0
102 116 0
106 122 0
104 120 0
92 108 0
120 136 0
108 122 0
110 126 0
102 118 0
108 124 0
93 107 0
115 129 0
115 130 0
103 118 0
104 118 0
112 126 0
109 125 0
114 129 0
105 119 0
104 118 0
106 121 0
117 132 0
111 127 0
129 147 0
119 134 0
118 134 0
112 128 0
126 142 0
103 118 0
113 128 0
126 139 0
112 126 0
127 141 0
120 136 0
113 129 0
115 131 0
120 136 0
128 144 0
117 134 0
117 133 0
123 140 0
122 139 0
117 131 0
117 134 0
116 133 0
122 136 0
119 132 0
127 143 0
114 130 0
124 140 0
122 136 0
134 150 0
123 138 0
133 149 0
119 134 0
123 135 0
124 138 0
126 139 0
131 147 0
128 142 0
124 138 0
133 147 0
123 137 0
121 135 0
135 150 0
136 151 0
130 144 0
125 141 0
124 138 0
129 141 0
130 143 0
126 140 0
130 145 0
124 138 0
135 149 0
132 144 0
135 149 0
137 150 0
130 141 0
125 137 0
137 148 0
125 135 0
124 133 0
125 133 0
125 135 0
131 143 0
122 130 0
123 131 0
132 140 0
125 131 0
135 145 0
128 140 0
131 142 0
127 137 0
122 132 0
124 131 0
120 124 0
136 143 0
123 130 0
124 131 0
130 138 0
130 137 0
126 128 0
134 141 0
128 135 0
131 137 0
134 141 0
137 142 0
122 128 0
139 146 0
134 137 0
121 122 0
128 131 0
137 141 0
128 131 0
128 130 0
136 140 0
134 137 0
114 118 0
133 136 0
136 142 0
133 135 0
130 133 0
136 137 0
141 145 0
131 135 0
134 138 0
139 144 0
131 133 0
135 135 0
128 127 0
132 135 0
138 140 0
129 131 0
140 146 0
132 131 0
133 135 0
132 134 0
128 131 0
137 138 0
136 139 0
132 135 0
142 142 0
134 136 0
136 138 0
138 144 0
147 152 0
149 152 0
144 148 0
141 147 0
144 148 0
145 149 0
135 138 0
144 149 0
147 151 0
147 154 0
140 144 0
152 158 0
153 158 0
145 151 0
150 155 0
146 154 0
145 151 0
149 156 0
144 153 0
153 159 0
152 160 0
155 164 0
151 160 0
146 154 0
147 154 0
160 172 0
147 155 0
161 171 0
158 167 0
151 160 0
158 170 0
151 162 0
157 167 0
155 168 0
154 163 0
158 174 0
161 174 0
160 172 0
174 198 0
176 199 0
176 199 0
175 198 0
174 197 0
175 198 0
174 198 0
174 197 0
174 198 0
174 197 0
174 198 0
171 195 0
174 198 0
174 197 0
172 197 0
174 197 0
173 197 0
173 197 0
174 198 0
171 194 0
174 197 0
173 197 0
172 196 0
170 195 0
172 197 0
171 196 0
172 196 0
172 197 0
171 195 0
173 197 0
171 196 0
168 193 0
170 195 0
170 195 0
171 196 0
170 195 0
170 195 0
170 195 0
170 195 0
170 195 0
170 195 0
168 194 0
171 196 0
171 196 0
168 194 0
168 193 0
171 196 0
169 194 0
169 194 0
168 193 0
171 195 0
171 196 0
168 193 0
170 195 0
165 190 0
169 194 0
168 194 0
164 190 0
164 189 0
165 190 0
166 191 0
170 195 0
168 193 0
169 194 0
164 189 0
167 192 0
163 188 0
164 189 0
161 186 0
164 189 0
168 193 0
165 190 0
163 188 0
167 191 0
163 188 0
162 186 0
167 191 0
162 186 0
165 188 0
161 184 0
161 185 0
165 189 0
164 187 0
159 183 0
169 193 0
167 191 0
155 179 0
162 185 0
160 184 0
161 186 0
154 178 0
164 187 0
161 184 0
161 185 0
157 181 0
159 182 0
164 187 0
167 190 0
160 183 0
159 182 0
161 184 0
158 181 0
154 177 0
154 176 0
159 182 0
161 185 0
162 184 0
153 175 0
157 180 0
153 175 0
151 173 0
160 183 0
152 175 0
159 181 0
157 180 0
152 174 0
147 169 0
152 174 0
148 169 0
161 183 0
141 163 0
152 174 0
149 170 0
148 169 0
144 166 0
149 170 0
147 169 0
158 180 0
145 168 0
150 172 0
149 170 0
154 176 0
145 167 0
150 173 0
158 179 0
142 163 0
141 162 0
143 163 0
137 156 0
147 169 0
143 164 0
143 164 0
150 170 0
145 165 0
139 160 0
141 161 0
139 159 0
132 153 0
138 158 0
128 147 0
135 155 0
126 146 0
135 155 0
126 145 0
138 158 0
127 147 0
133 153 0
128 147 0
127 147 0
127 146 0
124 143 0
129 148 0
116 136 0
129 148 0
125 143 0
123 142 0
111 130 0
126 146 0
121 140 0
112 132 0
123 141 0
110 128 0
111 129 0
118 136 0
119 137 0
113 130 0
114 133 0
113 131 0
116 133 0
112 128 0
120 137 0
107 124 0
117 135 0
111 128 0
107 124 0
111 128 0
99 115 0
111 127 0
103 121 0
101 118 0
107 124 0
107 124 0
106 123 0
102 119 0
106 123 0
101 118 0
97 113 0
111 127 0
100 116 0
108 124 0
98 114 0
101 115 0
98 113 0
101 117 0
104 121 0
107 122 0
106 123 0
91 107 0
87 104 0
101 114 0
107 123 0
107 122 0
102 119 0
91 108 0
109 125 0
106 121 0
103 117 0
102 119 0
104 118 0
96 111 0
103 119 0
96 110 0
107 123 0
110 125 0
111 126 0
106 120 0
101 117 0
111 125 0
113 130 0
122 138 0
99 115 0
107 123 0
105 119 0
113 131 0
121 138 0
118 134 0
118 135 0
103 118 0
109 123 0
111 127 0
117 134 0
107 124 0
123 140 0
111 127 0
109 126 0
122 138 0
117 130 0
123 137 0
114 131 0
118 132 0
126 142 0
122 138 0
128 142 0
123 139 0
126 142 0
123 139 0
118 131 0
129 145 0
132 147 0
130 144 0
112 128 0
129 143 0
128 146 0
119 135 0
127 143 0
133 149 0
124 140 0
123 139 0
138 152 0
130 142 0
127 141 0
134 149 0
123 137 0
135 151 0
129 144 0
128 144 0
141 154 0
131 147 0
132 146 0
128 141 0
138 153 0
130 146 0
131 145 0
126 140 0
128 141 0
132 146 0
144 158 0
131 147 0
126 139 0
131 144 0
133 147 0
133 145 0
116 130 0
132 145 0
121 134 0
130 143 0
127 141 0
127 138 0
130 140 0
137 149 0
130 141 0
129 140 0
132 142 0
112 121 0
132 143 0
127 138 0
131 140 0
134 145 0
119 127 0
131 139 0
124 134 0
139 147 0
130 139 0
130 140 0
133 140 0
137 144 0
129 136 0
133 142 0
132 140 0
143 152 0
129 135 0
124 131 0
128 132 0
134 141 0
123 129 0
131 135 0
138 144 0
127 133 0
128 132 0
127 131 0
127 132 0
126 128 0
129 134 0
131 138 0
130 135 0
124 127 0
129 132 0
130 135 0
137 143 0
129 134 0
139 144 0
127 132 0
124 124 0
130 132 0
132 136 0
121 123 0
137 140 0
134 136 0
131 131 0
134 138 0
129 132 0
134 137 0
133 136 0
138 141 0
136 139 0
140 146 0
134 136 0
143 145 0
138 140 0
141 145 0
141 146 0
146 146 0
140 146 0
137 141 0
134 136 0
139 143 0
139 142 0
146 151 0
139 143 0
135 138 0
148 153 0
142 147 0
143 149 0
142 148 0
147 151 0
143 147 0
145 152 0
144 152 0
150 158 0
148 156 0
147 154 0
152 160 0
149 157 0
148 155 0
151 161 0
153 163 0
152 161 0
153 163 0
158 168 0
156 166 0
153 164 0
154 166 0
158 167 0
156 168 0
155 164 0
151 162 0
155 166 0
162 174 0
163 178 0
161 175 0
174 197 0
175 198 0
174 197 0
174 197 0
173 197 0
175 198 0
173 197 0
173 197 0
174 198 0
174 198 0
174 198 0
173 197 0
174 198 0
172 196 0
174 197 0
172 196 0
173 197 0
172 196 0
173 197 0
172 197 0
173 197 0
173 197 0
172 196 0
171 195 0
171 196 0
170 194 0
170 195 0
171 196 0
171 196 0
171 195 0
172 197 0
170 195 0
169 194 0
171 196 0
171 196 0
171 196 0
170 195 0
170 195 0
169 195 0
168 194 0
168 193 0
170 195 0
169 194 0
171 196 0
169 194 0
168 194 0
169 194 0
168 193 0
169 194 0
169 194 0
168 192 0
170 195 0
169 194 0
168 192 0
169 194 0
167 192 0
166 190 0
169 194 0
167 192 0
169 194 0
163 188 0
166 191 0
167 192 0
166 191 0
167 192 0
167 191 0
170 194 0
166 191 0
165 190 0
168 193 0
161 186 0
162 187 0
158 182 0
162 186 0
166 190 0
165 189 0
169 192 0
162 187 0
164 188 0
161 185 0
160 184 0
163 188 0
167 191 0
167 192 0
160 183 0
160 184 0
166 189 0
161 185 0
163 187 0
162 186 0
157 181 0
163 187 0
159 182 0
154 176 0
153 176 0
159 182 0
154 177 0
158 181 0
160 183 0
163 186 0
156 179 0
159 182 0
154 177 0
154 176 0
156 178 0
164 188 0
152 175 0
154 176 0
160 183 0
158 180 0
156 178 0
151 173 0
153 175 0
159 182 0
156 178 0
155 177 0
158 180 0
157 179 0
155 177 0
155 177 0
158 179 0
151 173 0
152 175 0
153 174 0
156 177 0
159 181 0
151 172 0
154 175 0
140 162 0
148 170 0
147 168 0
156 177 0
144 166 0
147 168 0
139 161 0
142 163 0
150 171 0
141 161 0
140 161 0
143 164 0
143 163 0
136 157 0
139 160 0
143 163 0
141 162 0
140 161 0
139 159 0
129 150 0
136 156 0
133 153 0
122 141 0
124 144 0
136 156 0
141 161 0
131 151 0
129 150 0
135 154 0
134 154 0
134 154 0
126 145 0
118 138 0
122 141 0
124 143 0
120 140 0
117 136 0
118 137 0
122 142 0
105 124 0
134 152 0
131 150 0
113 131 0
119 138 0
105 124 0
118 138 0
111 130 0
112 130 0
119 137 0
118 136 0
120 138 0
111 131 0
105 122 0
115 132 0
87 105 0
99 116 0
103 120 0
106 124 0
115 133 0
97 114 0
120 137 0
100 116 0
114 132 0
104 122 0
93 110 0
101 117 0
102 119 0
101 117 0
104 121 0
116 133 0
98 115 0
93 110 0
110 126 0
101 116 0
102 118 0
109 125 0
97 112 0
103 120 0
120 137 0
90 107 0
97 110 0
104 119 0
87 102 0
126 143 0
100 114 0
106 121 0
100 116 0
108 122 0
103 119 0
105 119 0
112 128 0
115 129 0
105 121 0
105 121 0
104 118 0
104 119 0
104 120 0
107 124 0
115 130 0
110 128 0
110 127 0
98 113 0
109 127 0
112 127 0
111 127 0
104 119 0
105 121 0
106 122 0
105 120 0
121 137 0
111 128 0
111 128 0
109 126 0
122 138 0
115 133 0
129 147 0
108 124 0
124 138 0
118 133 0
130 145 0
115 130 0
120 137 0
118 134 0
131 146 0
107 121 0
125 141 0
124 139 0
122 138 0
126 142 0
129 145 0
127 142 0
126 142 0
124 140 0
117 130 0
133 152 0
131 150 0
127 144 0
127 143 0
134 149 0
126 140 0
126 143 0
123 139 0
124 140 0
131 146 0
124 136 0
130 146 0
123 139 0
134 149 0
137 154 0
131 144 0
132 148 0
128 141 0
117 129 0
131 147 0
136 151 0
125 139 0
133 147 0
133 147 0
128 140 0
125 139 0
124 138 0
129 142 0
128 141 0
142 155 0
129 141 0
123 135 0
128 142 0
135 148 0
126 140 0
127 139 0
131 142 0
128 139 0
139 152 0
136 149 0
130 144 0
134 144 0
127 138 0
135 146 0
134 144 0
131 139 0
128 139 0
128 138 0
134 146 0
135 145 0
137 145 0
124 132 0
132 141 0
125 134 0
136 144 0
129 140 0
126 132 0
138 147 0
135 143 0
136 147 0
134 141 0
132 140 0
118 125 0
134 140 0
130 139 0
129 139 0
128 133 0
134 138 0
136 140 0
130 134 0
132 138 0
128 132 0
131 139 0
132 140 0
137 141 0
137 141 0
142 146 0
137 142 0
133 136 0
130 134 0
143 149 0
127 128 0
131 135 0
133 138 0
133 136 0
128 128 0
135 139 0
136 138 0
134 137 0
138 140 0
132 138 0
133 136 0
139 143 0
138 141 0
134 135 0
138 140 0
145 149 0
137 142 0
148 153 0
139 143 0
137 143 0
141 145 0
148 154 0
144 146 0
139 144 0
146 153 0
148 154 0
141 142 0
143 149 0
142 145 0
143 148 0
142 148 0
146 151 0
148 153 0
145 152 0
144 151 0
146 152 0
146 154 0
147 153 0
145 151 0
141 146 0
152 162 0
157 166 0
146 156 0
155 161 0
147 155 0
148 156 0
158 166 0
153 162 0
155 166 0
147 157 0
157 166 0
153 162 0
151 163 0
152 162 0
151 161 0
156 167 0
156 168 0
174 198 0
175 198 0
174 198 0
174 197 0
173 196 0
173 197 0
174 198 0
173 197 0
174 198 0
174 197 0
174 197 0
173 197 0
173 197 0
175 198 0
173 197 0
173 197 0
174 197 0
172 196 0
172 197 0
174 198 0
171 196 0
173 197 0
170 195 0
173 197 0
171 195 0
171 196 0
173 197 0
171 196 0
171 196 0
170 195 0
171 195 0
171 196 0
171 195 0
169 193 0
167 192 0
171 195 0
170 194 0
168 193 0
171 196 0
171 196 0
170 196 0
170 195 0
171 195 0
166 190 0
168 193 0
169 194 0
169 194 0
168 193 0
168 193 0
170 195 0
166 191 0
168 193 0
167 192 0
169 194 0
170 194 0
167 193 0
167 192 0
169 193 0
166 190 0
164 188 0
169 194 0
168 192 0
170 194 0
163 187 0
165 189 0
168 192 0
168 192 0
167 190 0
165 190 0
162 187 0
166 191 0
163 187 0
168 192 0
166 190 0
167 190 0
168 192 0
169 192 0
164 188 0
165 189 0
160 184 0
165 188 0
163 187 0
166 190 0
162 186 0
159 183 0
160 184 0
164 188 0
159 183 0
164 188 0
164 187 0
162 185 0
161 185 0
162 185 0
163 187 0
156 179 0
162 185 0
166 188 0
157 181 0
161 184 0
161 184 0
164 187 0
157 180 0
156 179 0
156 180 0
158 181 0
157 180 0
159 181 0
158 181 0
164 186 0
155 177 0
153 175 0
149 171 0
159 181 0
160 182 0
156 178 0
154 176 0
153 175 0
151 173 0
151 173 0
156 178 0
156 178 0
155 176 0
150 172 0
148 170 0
150 172 0
153 174 0
146 167 0
149 171 0
149 171 0
154 177 0
148 169 0
145 166 0
148 169 0
136 157 0
149 171 0
153 174 0
144 165 0
145 166 0
140 160 0
147 168 0
130 152 0
146 166 0
138 158 0
131 152 0
138 159 0
135 155 0
141 162 0
141 162 0
136 157 0
138 158 0
138 158 0
135 154 0
131 152 0
132 152 0
132 153 0
134 154 0
131 151 0
125 146 0
128 147 0
130 149 0
120 138 0
117 137 0
133 153 0
115 134 0
126 146 0
120 139 0
114 133 0
125 144 0
126 145 0
114 133 0
122 139 0
111 130 0
125 144 0
126 145 0
121 139 0
124 143 0
117 136 0
113 132 0
121 139 0
107 125 0
113 132 0
112 130 0
105 122 0
110 129 0
110 128 0
112 130 0
119 135 0
120 138 0
110 127 0
122 141 0
106 123 0
107 125 0
110 127 0
101 118 0
107 124 0
115 131 0
104 121 0
103 120 0
111 128 0
119 136 0
97 114 0
99 116 0
113 130 0
109 126 0
118 135 0
108 124 0
112 129 0
110 127 0
109 125 0
110 125 0
99 116 0
115 131 0
112 128 0
109 124 0
109 125 0
95 111 0
123 139 0
106 122 0
107 122 0
117 133 0
108 123 0
114 130 0
120 137 0
111 127 0
114 131 0
112 129 0
115 133 0
107 122 0
112 130 0
114 130 0
118 134 0
112 128 0
115 132 0
115 132 0
115 133 0
121 137 0
115 134 0
122 139 0
115 131 0
123 139 0
117 132 0
116 133 0
113 128 0
110 125 0
108 122 0
122 139 0
131 150 0
117 131 0
131 148 0
125 141 0
125 140 0
116 132 0
109 123 0
117 133 0
134 151 0
127 143 0
121 140 0
125 142 0
123 140 0
130 147 0
135 150 0
116 133 0
125 141 0
139 153 0
127 142 0
136 153 0
124 138 0
126 141 0
127 145 0
125 139 0
122 139 0
130 147 0
132 147 0
138 154 0
126 142 0
139 155 0
127 142 0
125 140 0
127 140 0
126 141 0
133 150 0
126 140 0
132 144 0
128 142 0
135 149 0
130 146 0
138 151 0
127 143 0
132 147 0
131 145 0
121 130 0
133 147 0
135 148 0
130 143 0
124 134 0
133 146 0
137 152 0
117 131 0
126 138 0
135 148 0
127 140 0
135 149 0
133 145 0
128 139 0
134 142 0
138 147 0
137 149 0
126 138 0
141 153 0
119 129 0
134 145 0
134 144 0
134 142 0
136 143 0
134 147 0
138 149 0
131 142 0
127 137 0
134 143 0
139 147 0
138 147 0
132 138 0
134 144 0
140 149 0
141 150 0
141 151 0
126 132 0
140 148 0
136 145 0
130 138 0
134 140 0
134 140 0
130 136 0
127 134 0
133 138 0
140 144 0
132 137 0
131 137 0
132 137 0
129 131 0
131 135 0
138 140 0
135 140 0
139 143 0
135 139 0
132 137 0
131 137 0
134 138 0
136 141 0
148 154 0
136 138 0
133 139 0
135 140 0
139 144 0
135 140 0
140 146 0
134 139 0
135 138 0
134 136 0
140 148 0
135 139 0
131 131 0
135 138 0
138 143 0
140 143 0
136 141 0
143 147 0
144 148 0
147 150 0
142 147 0
139 146 0
143 149 0
144 150 0
143 147 0
142 149 0
151 157 0
141 145 0
145 149 0
141 148 0
151 159 0
152 163 0
146 156 0
150 158 0
151 160 0
149 157 0
156 163 0
152 161 0
148 155 0
156 164 0
152 162 0
151 160 0
151 161 0
161 171 0
154 163 0
153 162 0
157 168 0
153 165 0
153 165 0
154 167 0
158 169 0
174 198 0
174 197 0
173 197 0
174 198 0
175 198 0
175 198 0
175 198 0
174 198 0
173 197 0
174 197 0
173 197 0
174 198 0
174 198 0
172 196 0
171 195 0
171 195 0
172 196 0
172 196 0
171 195 0
169 194 0
170 194 0
171 195 0
172 196 0
172 196 0
172 196 0
171 196 0
174 197 0
173 197 0
172 196 0
169 194 0
169 194 0
169 194 0
169 194 0
169 194 0
168 193 0
169 194 0
170 196 0
169 194 0
171 196 0
169 194 0
167 192 0
169 195 0
168 193 0
167 192 0
169 194 0
168 192 0
169 194 0
171 195 0
166 191 0
167 193 0
165 190 0
171 196 0
165 190 0
167 192 0
166 191 0
169 193 0
168 193 0
163 189 0
164 189 0
166 191 0
168 193 0
166 190 0
163 188 0
166 189 0
167 192 0
162 187 0
166 190 0
166 191 0
164 188 0
164 188 0
166 191 0
166 190 0
163 187 0
160 184 0
164 188 0
162 185 0
164 187 0
162 186 0
163 187 0
158 181 0
162 185 0
167 191 0
158 182 0
161 184 0
163 187 0
162 185 0
165 188 0
159 182 0
162 185 0
162 186 0
165 188 0
161 184 0
161 184 0
160 183 0
162 186 0
162 185 0
160 183 0
161 184 0
162 186 0
158 180 0
151 175 0
157 180 0
159 182 0
163 185 0
160 183 0
157 180 0
160 183 0
157 179 0
155 177 0
158 180 0
158 181 0
158 180 0
150 172 0
161 183 0
156 177 0
158 179 0
153 175 0
154 176 0
153 175 0
149 171 0
147 169 0
152 173 0
158 180 0
145 166 0
149 170 0
154 175 0
151 172 0
145 167 0
147 168 0
151 173 0
150 171 0
149 170 0
142 163 0
146 169 0
144 166 0
143 164 0
141 162 0
146 167 0
136 157 0
134 154 0
143 164 0
143 164 0
138 160 0
142 162 0
149 170 0
140 161 0
140 160 0
133 154 0
126 147 0
136 156 0
138 157 0
143 163 0
134 154 0
139 159 0
128 147 0
129 149 0
131 151 0
131 151 0
115 135 0
122 140 0
130 150 0
126 146 0
119 138 0
132 151 0
117 136 0
128 147 0
114 132 0
117 138 0
117 136 0
127 145 0
128 148 0
125 143 0
128 148 0
117 136 0
119 138 0
117 135 0
116 134 0
110 127 0
106 124 0
110 128 0
125 143 0
125 144 0
115 133 0
109 126 0
108 125 0
95 114 0
105 123 0
106 124 0
108 125 0
113 130 0
114 131 0
110 127 0
118 136 0
107 124 0
106 124 0
101 118 0
117 134 0
104 120 0
113 131 0
112 129 0
110 127 0
108 125 0
104 121 0
115 133 0
105 124 0
104 119 0
97 113 0
105 122 0
112 130 0
107 125 0
120 137 0
100 117 0
115 131 0
112 130 0
114 129 0
107 123 0
114 130 0
113 128 0
109 125 0
113 131 0
105 122 0
104 119 0
106 123 0
107 122 0
112 129 0
96 114 0
119 135 0
120 137 0
124 140 0
108 124 0
118 136 0
120 137 0
107 122 0
128 145 0
109 124 0
123 139 0
114 130 0
121 138 0
121 138 0
114 130 0
115 131 0
117 134 0
120 135 0
124 139 0
118 136 0
135 152 0
117 131 0
133 150 0
129 146 0
121 136 0
117 134 0
116 132 0
134 151 0
119 135 0
122 140 0
121 137 0
119 135 0
112 127 0
126 142 0
128 144 0
128 146 0
111 128 0
125 140 0
129 146 0
115 128 0
135 152 0
123 139 0
135 150 0
130 148 0
126 142 0
130 143 0
139 156 0
120 132 0
129 144 0
124 140 0
129 143 0
125 140 0
133 147 0
129 142 0
117 129 0
135 150 0
142 158 0
135 148 0
123 140 0
134 148 0
133 146 0
135 149 0
131 144 0
129 143 0
129 142 0
135 149 0
140 153 0
132 149 0
135 150 0
135 150 0
133 147 0
129 141 0
129 144 0
130 145 0
141 154 0
133 144 0
136 150 0
130 141 0
136 149 0
124 137 0
131 143 0
132 145 0
133 144 0
135 147 0
139 149 0
139 148 0
123 135 0
134 143 0
140 150 0
137 145 0
137 150 0
132 141 0
130 139 0
137 147 0
136 147 0
132 143 0
135 143 0
134 141 0
137 145 0
138 147 0
132 141 0
134 141 0
138 146 0
143 152 0
137 145 0
138 146 0
127 136 0
126 132 0
130 135 0
140 148 0
132 138 0
137 143 0
140 145 0
138 142 0
134 141 0
134 139 0
134 139 0
140 147 0
134 140 0
133 135 0
133 138 0
139 143 0
144 148 0
130 134 0
136 140 0
136 142 0
140 143 0
129 133 0
144 149 0
139 145 0
143 147 0
140 145 0
142 144 0
136 140 0
135 139 0
145 148 0
136 140 0
136 141 0
138 143 0
137 141 0
145 150 0
140 144 0
142 146 0
152 160 0
142 146 0
146 152 0
146 152 0
146 153 0
144 150 0
147 154 0
150 158 0
143 150 0
155 165 0
138 143 0
141 149 0
138 143 0
145 149 0
151 158 0
152 159 0
153 161 0
145 151 0
150 160 0
155 162 0
154 165 0
149 158 0
151 161 0
151 158 0
152 162 0
145 151 0
152 163 0
153 162 0
149 159 0
154 163 0
154 163 0
155 165 0
174 197 0
173 197 0
173 197 0
173 196 0
172 196 0
174 197 0
172 196 0
173 197 0
173 197 0
173 197 0
173 197 0
172 197 0
171 196 0
176 198 0
173 197 0
173 197 0
172 196 0
172 195 0
174 197 0
171 195 0
173 197 0
172 197 0
171 196 0
168 193 0
171 196 0
172 197 0
171 196 0
172 197 0
171 195 0
171 196 0
171 195 0
172 196 0
169 194 0
173 196 0
169 195 0
170 195 0
172 197 0
173 197 0
172 196 0
169 194 0
169 193 0
169 194 0
166 192 0
170 195 0
171 196 0
169 194 0
167 192 0
168 192 0
170 194 0
168 192 0
169 194 0
164 189 0
167 192 0
169 194 0
167 192 0
167 192 0
167 192 0
165 190 0
164 189 0
164 187 0
166 190 0
160 185 0
167 191 0
167 191 0
162 187 0
159 183 0
165 190 0
165 189 0
165 189 0
161 185 0
166 190 0
159 183 0
162 186 0
165 189 0
163 187 0
166 190 0
165 188 0
165 189 0
165 188 0
168 192 0
168 192 0
164 188 0
164 188 0
162 186 0
162 185 0
163 186 0
158 182 0
164 187 0
164 188 0
162 185 0
160 183 0
161 183 0
160 182 0
157 179 0
164 186 0
163 186 0
160 183 0
163 185 0
155 177 0
160 183 0
152 175 0
155 178 0
158 180 0
153 175 0
152 174 0
155 177 0
155 178 0
154 176 0
153 175 0
148 170 0
155 177 0
151 174 0
159 182 0
152 174 0
152 174 0
149 172 0
148 171 0
167 189 0
156 178 0
152 173 0
148 169 0
152 173 0
155 177 0
162 184 0
149 170 0
160 182 0
148 169 0
149 170 0
156 178 0
151 172 0
156 178 0
143 164 0
149 171 0
147 168 0
135 157 0
140 162 0
150 170 0
142 163 0
134 155 0
142 163 0
140 161 0
147 168 0
130 151 0
137 157 0
140 160 0
143 163 0
141 161 0
131 151 0
136 156 0
146 167 0
141 161 0
145 166 0
138 157 0
133 154 0
131 150 0
126 146 0
133 154 0
132 152 0
119 139 0
137 157 0
128 147 0
138 157 0
127 146 0
126 145 0
129 149 0
132 152 0
123 143 0
132 152 0
130 148 0
125 142 0
127 145 0
126 145 0
122 140 0
118 137 0
116 134 0
115 135 0
117 135 0
126 146 0
112 131 0
126 144 0
133 152 0
116 135 0
107 125 0
119 137 0
125 143 0
117 135 0
123 141 0
110 128 0
119 137 0
112 131 0
106 124 0
106 123 0
107 124 0
117 135 0
124 142 0
114 133 0
114 133 0
112 130 0
118 136 0
105 122 0
110 127 0
120 138 0
100 116 0
117 133 0
108 125 0
116 133 0
101 117 0
112 129 0
120 139 0
101 117 0
120 137 0
102 120 0
108 124 0
106 124 0
118 135 0
109 125 0
124 140 0
110 127 0
107 124 0
108 124 0
104 120 0
104 121 0
113 130 0
120 138 0
109 124 0
99 115 0
121 136 0
117 135 0
104 121 0
119 136 0
116 134 0
109 126 0
114 132 0
122 138 0
119 137 0
120 138 0
112 128 0
120 138 0
116 133 0
114 130 0
123 140 0
124 141 0
119 134 0
131 149 0
130 146 0
108 124 0
121 135 0
118 135 0
127 143 0
116 132 0
111 126 0
121 137 0
119 135 0
136 153 0
127 143 0
114 129 0
123 140 0
115 132 0
127 144 0
131 148 0
126 143 0
128 144 0
130 148 0
120 133 0
120 135 0
118 131 0
130 146 0
136 152 0
129 146 0
126 143 0
130 145 0
136 154 0
121 138 0
123 139 0
140 156 0
133 150 0
136 147 0
133 148 0
141 156 0
123 139 0
135 148 0
128 140 0
134 149 0
139 152 0
131 147 0
139 154 0
138 150 0
127 141 0
134 148 0
125 138 0
138 150 0
144 159 0
129 143 0
145 160 0
137 153 0
133 146 0
131 144 0
132 145 0
126 138 0
127 140 0
130 142 0
138 149 0
129 141 0
134 145 0
117 127 0
143 158 0
138 148 0
139 150 0
138 149 0
138 151 0
134 143 0
128 140 0
141 153 0
138 150 0
134 144 0
125 135 0
126 136 0
133 145 0
143 156 0
133 142 0
135 144 0
133 142 0
133 140 0
131 141 0
130 140 0
130 138 0
135 144 0
143 154 0
141 147 0
131 139 0
132 141 0
136 143 0
139 148 0
128 134 0
138 147 0
139 147 0
146 156 0
134 140 0
132 140 0
132 135 0
135 142 0
127 133 0
136 141 0
139 145 0
140 149 0
140 148 0
133 139 0
140 142 0
139 145 0
130 132 0
131 133 0
136 142 0
137 144 0
140 147 0
138 145 0
140 147 0
138 145 0
145 148 0
141 146 0
136 137 0
141 149 0
138 145 0
142 147 0
144 150 0
138 142 0
140 145 0
148 157 0
140 147 0
142 147 0
142 149 0
146 153 0
143 149 0
143 149 0
147 155 0
138 143 0
146 151 0
142 149 0
147 153 0
145 151 0
148 155 0
140 145 0
144 152 0
147 155 0
144 150 0
149 157 0
156 166 0
154 162 0
153 161 0
150 157 0
149 158 0
156 165 0
152 163 0
150 160 0
153 163 0
152 162 0
158 167 0
155 168 0
157 169 0
152 162 0
152 160 0
172 195 0
174 198 0
172 196 0
174 197 0
175 198 0
174 197 0
173 197 0
171 195 0
174 198 0
174 197 0
173 196 0
172 196 0
172 196 0
171 196 0
172 196 0
170 194 0
172 196 0
172 197 0
172 196 0
172 196 0
172 195 0
172 196 0
173 197 0
169 193 0
173 197 0
172 196 0
170 195 0
171 195 0
171 195 0
170 195 0
170 195 0
170 194 0
169 193 0
172 196 0
170 195 0
168 192 0
172 196 0
172 196 0
167 192 0
170 194 0
171 196 0
171 195 0
170 194 0
166 190 0
167 192 0
172 195 0
168 192 0
170 195 0
169 194 0
171 195 0
169 192 0
171 195 0
171 195 0
164 188 0
169 194 0
166 190 0
167 191 0
165 189 0
164 188 0
167 192 0
167 191 0
166 190 0
168 192 0
167 190 0
165 190 0
167 191 0
161 185 0
167 190 0
166 190 0
165 189 0
164 188 0
165 188 0
164 187 0
158 181 0
162 185 0
167 191 0
166 190 0
168 192 0
165 188 0
159 182 0
165 188 0
159 182 0
160 183 0
164 187 0
163 187 0
159 183 0
161 185 0
155 178 0
161 184 0
162 185 0
163 186 0
161 184 0
155 177 0
158 181 0
159 182 0
157 179 0
160 183 0
156 178 0
160 183 0
161 183 0
160 182 0
160 183 0
156 179 0
164 188 0
156 179 0
149 172 0
161 183 0
158 180 0
160 182 0
149 172 0
155 178 0
153 175 0
151 173 0
151 173 0
152 173 0
151 173 0
156 177 0
154 176 0
152 173 0
152 174 0
153 175 0
151 173 0
149 170 0
152 173 0
145 167 0
153 175 0
157 179 0
150 172 0
153 174 0
158 180 0
150 172 0
147 169 0
144 166 0
139 160 0
146 167 0
146 168 0
134 156 0
149 170 0
144 165 0
136 157 0
146 167 0
145 166 0
139 160 0
140 161 0
135 156 0
146 167 0
148 169 0
145 166 0
144 165 0
135 156 0
134 155 0
128 147 0
135 156 0
138 158 0
135 154 0
129 149 0
127 146 0
141 161 0
135 154 0
127 147 0
136 155 0
130 150 0
126 146 0
127 147 0
122 142 0
127 147 0
120 139 0
122 141 0
129 148 0
128 148 0
120 139 0
132 150 0
130 149 0
117 137 0
120 138 0
121 140 0
120 139 0
124 142 0
130 148 0
125 144 0
122 140 0
115 133 0
121 141 0
113 130 0
115 134 0
111 128 0
115 133 0
107 125 0
110 129 0
117 135 0
119 137 0
124 143 0
123 141 0
114 130 0
111 129 0
120 140 0
114 132 0
120 138 0
102 119 0
124 142 0
107 124 0
120 137 0
116 135 0
120 138 0
116 134 0
118 135 0
112 129 0
124 141 0
94 111 0
109 127 0
100 117 0
109 127 0
113 131 0
116 132 0
112 130 0
122 141 0
122 138 0
103 119 0
115 132 0
118 135 0
118 134 0
125 141 0
113 130 0
112 131 0
114 130 0
114 132 0
117 134 0
106 120 0
114 129 0
116 133 0
123 139 0
123 140 0
121 138 0
117 134 0
121 137 0
120 137 0
118 135 0
103 119 0
122 139 0
132 149 0
126 145 0
114 128 0
115 131 0
122 139 0
120 136 0
128 144 0
125 141 0
120 136 0
106 123 0
129 146 0
118 136 0
121 137 0
118 133 0
120 136 0
121 138 0
132 149 0
126 144 0
124 140 0
116 132 0
118 135 0
132 148 0
118 133 0
130 146 0
129 146 0
135 150 0
126 144 0
130 146 0
130 145 0
123 139 0
126 142 0
125 141 0
135 154 0
133 148 0
131 148 0
131 147 0
119 135 0
128 145 0
132 148 0
134 148 0
132 147 0
128 141 0
123 138 0
119 132 0
134 150 0
133 149 0
136 151 0
139 153 0
133 149 0
129 146 0
138 153 0
142 156 0
133 148 0
140 155 0
138 152 0
135 149 0
137 151 0
143 158 0
132 146 0
131 142 0
139 153 0
129 143 0
133 147 0
131 143 0
131 144 0
140 152 0
139 154 0
136 149 0
134 146 0
142 157 0
132 142 0
131 143 0
129 140 0
138 149 0
136 146 0
135 146 0
134 145 0
126 135 0
131 139 0
130 143 0
137 144 0
134 146 0
124 134 0
132 139 0
142 148 0
141 152 0
145 153 0
138 148 0
130 137 0
141 151 0
141 149 0
143 153 0
139 148 0
139 150 0
136 145 0
136 146 0
135 146 0
140 148 0
135 144 0
139 145 0
139 147 0
139 147 0
139 146 0
133 142 0
132 139 0
136 141 0
142 150 0
150 158 0
133 143 0
144 150 0
127 130 0
143 149 0
142 149 0
138 144 0
141 146 0
144 149 0
137 143 0
129 132 0
146 153 0
147 155 0
147 153 0
138 145 0
144 150 0
135 141 0
146 151 0
140 146 0
141 146 0
145 152 0
146 151 0
133 135 0
140 148 0
145 151 0
146 155 0
143 149 0
142 150 0
138 141 0
141 148 0
145 150 0
149 157 0
140 147 0
138 143 0
149 157 0
140 148 0
148 154 0
150 160 0
146 156 0
149 156 0
151 159 0
146 152 0
149 159 0
155 165 0
144 152 0
147 156 0
150 158 0
146 152 0
152 160 0
153 164 0
151 161 0
156 166 0
159 174 0
150 158 0
175 198 0
173 197 0
173 196 0
175 198 0
174 197 0
174 198 0
175 198 0
174 198 0
173 196 0
172 196 0
174 198 0
171 195 0
174 197 0
173 197 0
172 196 0
173 197 0
171 195 0
173 197 0
173 197 0
171 195 0
167 192 0
172 196 0
171 195 0
171 196 0
171 196 0
169 193 0
170 194 0
169 194 0
172 195 0
171 195 0
169 193 0
172 196 0
172 196 0
173 197 0
170 194 0
172 197 0
168 192 0
172 197 0
170 195 0
166 191 0
171 196 0
168 193 0
166 190 0
171 195 0
171 195 0
168 192 0
171 196 0
168 193 0
166 190 0
169 193 0
166 190 0
169 193 0
167 191 0
168 193 0
164 188 0
169 193 0
169 193 0
168 192 0
166 191 0
165 189 0
165 189 0
163 187 0
169 193 0
168 191 0
162 186 0
170 194 0
163 187 0
162 186 0
165 188 0
170 193 0
167 191 0
170 194 0
165 188 0
168 191 0
165 188 0
159 183 0
164 188 0
165 189 0
168 191 0
160 183 0
158 181 0
167 191 0
167 190 0
164 187 0
160 183 0
155 178 0
165 188 0
159 183 0
162 185 0
159 182 0
158 180 0
163 186 0
163 186 0
163 186 0
159 183 0
163 186 0
159 180 0
160 182 0
161 183 0
152 175 0
157 180 0
161 184 0
159 181 0
155 178 0
158 181 0
149 171 0
153 176 0
154 177 0
157 180 0
160 181 0
154 177 0
161 183 0
157 179 0
162 184 0
157 179 0
160 183 0
152 174 0
151 173 0
152 174 0
156 178 0
157 178 0
150 172 0
155 177 0
149 171 0
150 172 0
147 169 0
149 171 0
157 179 0
153 175 0
146 167 0
153 175 0
141 163 0
146 168 0
143 164 0
149 170 0
146 168 0
149 171 0
146 167 0
138 159 0
141 163 0
146 167 0
144 164 0
134 154 0
147 168 0
135 155 0
137 158 0
136 156 0
141 160 0
137 158 0
137 157 0
145 165 0
136 157 0
137 157 0
137 157 0
139 159 0
135 155 0
129 149 0
127 147 0
134 154 0
140 160 0
126 145 0
125 146 0
132 152 0
131 150 0
132 152 0
118 137 0
128 148 0
112 131 0
132 151 0
122 141 0
135 154 0
128 147 0
130 150 0
124 143 0
125 145 0
133 151 0
121 141 0
120 140 0
123 142 0
131 150 0
116 134 0
128 146 0
101 120 0
113 133 0
119 138 0
122 141 0
118 136 0
113 130 0
114 132 0
107 125 0
123 142 0
117 135 0
117 134 0
108 126 0
112 130 0
127 144 0
115 132 0
115 134 0
105 123 0
120 138 0
119 137 0
120 138 0
104 122 0
111 128 0
124 142 0
116 134 0
104 121 0
120 136 0
113 131 0
120 138 0
116 133 0
105 123 0
110 127 0
123 142 0
112 130 0
107 124 0
109 125 0
115 133 0
106 123 0
112 129 0
124 140 0
120 136 0
119 137 0
116 133 0
110 126 0
116 133 0
115 132 0
125 143 0
108 126 0
115 132 0
108 127 0
119 136 0
121 138 0
118 135 0
117 133 0
119 136 0
117 133 0
109 126 0
127 144 0
128 145 0
131 148 0
113 131 0
127 145 0
120 139 0
113 128 0
123 140 0
130 147 0
124 143 0
120 136 0
120 135 0
116 133 0
128 144 0
119 136 0
121 138 0
125 143 0
124 141 0
127 146 0
126 144 0
123 141 0
118 133 0
128 144 0
134 153 0
129 146 0
136 152 0
132 151 0
134 151 0
130 147 0
118 133 0
128 144 0
136 153 0
131 147 0
134 151 0
124 140 0
133 149 0
136 151 0
132 147 0
132 147 0
133 150 0
137 153 0
136 154 0
135 152 0
131 149 0
129 147 0
135 150 0
133 147 0
124 140 0
132 147 0
140 154 0
130 146 0
135 149 0
141 156 0
119 134 0
125 140 0
128 140 0
133 147 0
132 149 0
128 141 0
144 162 0
137 153 0
138 152 0
126 137 0
132 146 0
133 147 0
130 142 0
134 147 0
137 150 0
141 154 0
130 143 0
139 150 0
138 154 0
135 148 0
132 146 0
139 150 0
135 147 0
131 143 0
134 147 0
133 142 0
133 141 0
138 151 0
128 141 0
132 144 0
130 138 0
139 148 0
135 149 0
129 139 0
134 145 0
129 140 0
140 151 0
139 148 0
129 138 0
133 145 0
132 141 0
124 133 0
134 142 0
142 153 0
138 147 0
134 141 0
141 145 0
138 146 0
138 149 0
142 153 0
136 145 0
132 138 0
139 147 0
141 150 0
145 155 0
135 141 0
141 149 0
149 157 0
141 148 0
139 147 0
142 149 0
150 158 0
137 142 0
133 135 0
143 149 0
132 136 0
137 140 0
140 146 0
138 143 0
139 143 0
143 152 0
141 148 0
139 145 0
139 147 0
142 148 0
145 152 0
141 147 0
146 151 0
146 153 0
140 147 0
151 158 0
134 137 0
145 153 0
144 153 0
147 155 0
147 152 0
149 156 0
145 153 0
143 148 0
151 157 0
148 154 0
148 156 0
150 158 0
150 155 0
140 147 0
150 155 0
149 158 0
144 149 0
151 161 0
152 163 0
148 156 0
154 163 0
156 162 0
151 159 0
156 164 0
151 162 0
151 160 0
153 161 0
155 166 0
172 196 0
173 197 0
174 198 0
173 197 0
172 196 0
174 198 0
174 198 0
173 197 0
173 197 0
171 195 0
174 198 0
174 197 0
173 197 0
172 196 0
171 195 0
173 197 0
174 197 0
171 195 0
173 197 0
173 197 0
173 197 0
172 196 0
172 196 0
171 195 0
173 196 0
171 194 0
169 193 0
170 194 0
168 193 0
172 196 0
171 194 0
171 196 0
171 195 0
172 196 0
172 196 0
166 190 0
169 194 0
166 190 0
170 194 0
170 194 0
170 194 0
168 193 0
168 193 0
169 193 0
166 190 0
168 192 0
169 193 0
171 195 0
169 193 0
167 191 0
169 193 0
169 193 0
171 195 0
164 188 0
169 193 0
167 191 0
168 193 0
170 194 0
167 191 0
167 191 0
168 192 0
164 188 0
166 190 0
166 189 0
162 185 0
166 189 0
164 188 0
168 191 0
164 187 0
165 188 0
159 182 0
162 186 0
164 187 0
160 183 0
166 189 0
164 188 0
165 188 0
159 183 0
163 187 0
156 179 0
161 184 0
162 185 0
166 189 0
162 185 0
162 184 0
159 182 0
160 184 0
164 187 0
161 184 0
162 185 0
164 187 0
163 186 0
164 187 0
155 178 0
167 189 0
165 187 0
164 186 0
160 184 0
159 181 0
161 184 0
160 183 0
159 182 0
158 180 0
161 183 0
160 183 0
157 179 0
151 173 0
154 176 0
158 180 0
162 183 0
155 176 0
152 173 0
157 179 0
156 178 0
154 177 0
149 171 0
151 173 0
153 174 0
150 172 0
151 173 0
146 167 0
147 170 0
155 177 0
157 178 0
152 174 0
158 179 0
154 176 0
154 175 0
142 162 0
151 173 0
149 170 0
145 167 0
144 164 0
149 170 0
142 163 0
146 167 0
140 162 0
147 168 0
150 171 0
146 167 0
146 167 0
143 164 0
150 170 0
144 163 0
142 163 0
135 155 0
129 150 0
137 157 0
144 165 0
141 161 0
147 168 0
133 154 0
139 160 0
133 154 0
133 152 0
126 146 0
128 150 0
137 157 0
130 150 0
129 149 0
142 163 0
135 155 0
130 150 0
136 156 0
134 154 0
133 152 0
136 155 0
127 145 0
128 147 0
136 156 0
130 149 0
132 150 0
116 136 0
115 134 0
121 141 0
131 150 0
122 140 0
130 148 0
119 137 0
124 142 0
139 157 0
116 135 0
111 129 0
126 145 0
120 139 0
123 142 0
118 138 0
111 130 0
113 131 0
128 147 0
123 141 0
117 135 0
119 137 0
110 129 0
120 139 0
112 130 0
121 140 0
115 133 0
119 137 0
128 145 0
110 128 0
125 143 0
122 141 0
117 135 0
119 137 0
115 134 0
113 128 0
117 133 0
110 127 0
120 136 0
107 124 0
111 129 0
122 140 0
109 125 0
117 135 0
108 125 0
117 135 0
121 138 0
126 144 0
113 130 0
112 130 0
118 137 0
116 132 0
117 134 0
122 140 0
118 136 0
120 137 0
125 143 0
109 126 0
123 140 0
125 142 0
110 126 0
116 133 0
117 134 0
106 124 0
115 133 0
129 145 0
128 144 0
110 127 0
127 144 0
118 135 0
128 146 0
121 140 0
127 145 0
121 138 0
127 143 0
126 143 0
124 142 0
125 142 0
125 142 0
132 149 0
118 135 0
116 133 0
113 131 0
128 144 0
124 139 0
119 136 0
124 141 0
128 146 0
117 133 0
129 145 0
131 147 0
124 142 0
126 141 0
130 146 0
130 147 0
131 148 0
134 151 0
143 161 0
125 140 0
131 148 0
129 147 0
132 149 0
138 156 0
126 143 0
138 154 0
129 146 0
136 152 0
145 161 0
131 148 0
135 152 0
121 135 0
132 147 0
131 146 0
133 151 0
131 147 0
122 135 0
135 150 0
128 143 0
127 141 0
130 144 0
142 156 0
138 154 0
142 157 0
136 151 0
135 150 0
132 147 0
135 151 0
134 147 0
137 151 0
137 153 0
144 158 0
129 144 0
133 145 0
134 145 0
139 149 0
134 147 0
144 160 0
137 151 0
138 150 0
140 153 0
141 153 0
123 132 0
141 155 0
136 149 0
138 150 0
139 154 0
140 153 0
134 147 0
137 147 0
134 145 0
138 149 0
133 143 0
137 147 0
136 146 0
124 136 0
137 148 0
137 149 0
134 144 0
133 143 0
141 150 0
141 150 0
147 156 0
138 147 0
133 141 0
137 144 0
134 144 0
132 141 0
143 154 0
131 137 0
147 154 0
142 150 0
149 159 0
140 147 0
140 147 0
138 143 0
143 152 0
142 151 0
146 155 0
138 145 0
141 150 0
132 138 0
148 156 0
141 149 0
136 143 0
142 146 0
140 150 0
140 146 0
144 154 0
146 154 0
145 151 0
135 143 0
145 152 0
144 150 0
152 162 0
140 148 0
143 149 0
150 157 0
146 154 0
141 148 0
144 149 0
142 147 0
144 150 0
150 156 0
142 149 0
134 139 0
156 165 0
141 150 0
149 157 0
148 155 0
145 153 0
150 158 0
149 156 0
148 157 0
154 162 0
144 154 0
149 159 0
147 154 0
154 162 0
152 159 0
152 162 0
152 159 0
157 167 0
152 164 0
148 155 0
159 170 0
152 161 0
156 168 0
155 166 0
158 171 0
175 198 0
173 197 0
172 195 0
172 196 0
173 196 0
173 197 0
172 196 0
173 197 0
172 196 0
172 196 0
172 196 0
172 196 0
174 197 0
171 195 0
173 196 0
171 194 0
173 196 0
171 195 0
172 196 0
172 196 0
171 195 0
173 197 0
171 196 0
169 194 0
169 193 0
173 197 0
171 195 0
171 195 0
173 197 0
171 196 0
169 193 0
171 195 0
169 194 0
171 196 0
169 193 0
170 194 0
167 191 0
173 197 0
171 195 0
171 195 0
171 195 0
172 195 0
170 194 0
167 191 0
168 193 0
168 192 0
165 189 0
168 192 0
170 194 0
168 192 0
170 194 0
167 191 0
165 190 0
170 194 0
166 191 0
168 192 0
164 188 0
167 190 0
169 193 0
165 188 0
166 190 0
166 190 0
163 187 0
166 189 0
165 188 0
163 187 0
163 187 0
166 190 0
164 187 0
162 185 0
165 189 0
164 187 0
164 188 0
163 186 0
164 187 0
167 189 0
161 184 0
167 190 0
163 186 0
159 182 0
165 188 0
158 181 0
155 179 0
161 183 0
163 186 0
160 184 0
161 183 0
163 186 0
165 187 0
159 182 0
166 189 0
158 180 0
159 182 0
160 183 0
158 181 0
154 178 0
152 174 0
152 175 0
161 184 0
159 182 0
163 185 0
157 179 0
163 185 0
157 179 0
151 173 0
154 175 0
156 178 0
148 170 0
156 178 0
157 179 0
159 181 0
158 181 0
156 178 0
160 182 0
152 173 0
145 167 0
153 175 0
154 176 0
151 172 0
144 165 0
158 180 0
146 167 0
150 172 0
143 166 0
156 178 0
151 173 0
162 184 0
152 174 0
145 167 0
147 169 0
146 167 0
140 161 0
148 170 0
149 169 0
146 168 0
142 163 0
151 172 0
148 170 0
146 167 0
137 158 0
147 168 0
141 162 0
144 165 0
147 168 0
142 163 0
137 157 0
142 163 0
143 163 0
139 160 0
134 154 0
143 165 0
148 169 0
135 156 0
141 162 0
140 161 0
144 164 0
134 155 0
131 151 0
140 160 0
125 145 0
144 163 0
127 148 0
136 155 0
127 146 0
118 138 0
128 149 0
135 156 0
132 152 0
127 147 0
132 151 0
125 145 0
133 152 0
116 134 0
128 148 0
126 145 0
128 149 0
119 138 0
127 146 0
117 137 0
114 135 0
126 145 0
131 150 0
116 135 0
116 135 0
118 137 0
117 136 0
121 141 0
118 137 0
125 144 0
120 139 0
121 139 0
114 131 0
119 136 0
116 134 0
117 134 0
118 136 0
108 127 0
117 137 0
121 138 0
117 134 0
117 136 0
123 141 0
120 138 0
119 138 0
127 145 0
109 126 0
122 139 0
123 141 0
113 129 0
121 138 0
120 137 0
115 134 0
119 137 0
120 136 0
116 133 0
120 138 0
114 131 0
109 126 0
122 138 0
127 145 0
120 138 0
130 148 0
117 136 0
115 131 0
109 127 0
126 144 0
124 142 0
121 137 0
116 133 0
111 128 0
118 136 0
123 139 0
133 151 0
122 139 0
124 140 0
122 139 0
118 137 0
117 134 0
130 148 0
112 130 0
118 135 0
129 148 0
131 148 0
127 144 0
117 135 0
123 140 0
134 152 0
115 132 0
134 152 0
113 130 0
129 146 0
122 138 0
129 146 0
129 147 0
124 141 0
127 144 0
120 136 0
127 146 0
124 141 0
125 142 0
127 144 0
127 145 0
125 143 0
140 158 0
136 155 0
125 142 0
124 139 0
140 157 0
137 156 0
122 137 0
125 139 0
139 157 0
130 146 0
137 156 0
134 150 0
132 147 0
140 158 0
132 149 0
135 151 0
135 151 0
137 153 0
136 153 0
130 147 0
138 153 0
137 153 0
124 139 0
123 139 0
122 135 0
130 145 0
131 146 0
133 149 0
134 149 0
136 152 0
140 154 0
137 152 0
143 159 0
143 159 0
140 158 0
140 156 0
137 149 0
138 154 0
132 148 0
142 156 0
143 155 0
137 151 0
136 149 0
147 163 0
136 150 0
147 162 0
136 150 0
132 146 0
132 143 0
134 147 0
137 152 0
147 160 0
142 156 0
136 151 0
137 150 0
140 150 0
133 143 0
139 152 0
146 159 0
133 140 0
137 149 0
136 146 0
140 155 0
131 142 0
136 146 0
137 147 0
142 154 0
137 148 0
145 155 0
141 149 0
138 149 0
131 140 0
131 140 0
140 153 0
138 148 0
133 141 0
143 153 0
144 153 0
140 147 0
141 149 0
143 153 0
146 155 0
135 143 0
140 150 0
135 144 0
142 150 0
136 140 0
131 138 0
138 146 0
138 147 0
144 152 0
142 148 0
143 152 0
135 140 0
147 155 0
146 155 0
139 145 0
150 156 0
144 152 0
145 153 0
136 143 0
147 156 0
140 147 0
144 152 0
147 155 0
142 149 0
143 149 0
143 151 0
145 150 0
143 151 0
140 146 0
151 161 0
143 151 0
152 161 0
153 161 0
143 152 0
143 151 0
143 149 0
146 154 0
158 167 0
150 159 0
154 162 0
146 151 0
143 152 0
157 166 0
153 162 0
154 165 0
144 151 0
140 148 0
155 163 0
153 160 0
153 161 0
148 157 0
149 157 0
153 162 0
153 163 0
159 168 0
175 198 0
173 197 0
174 197 0
173 197 0
173 197 0
174 197 0
173 197 0
173 196 0
174 198 0
173 196 0
173 197 0
174 197 0
171 195 0
172 195 0
173 197 0
172 196 0
172 196 0
169 193 0
170 194 0
171 195 0
172 195 0
171 194 0
171 195 0
171 194 0
170 194 0
169 193 0
171 196 0
171 196 0
171 196 0
168 192 0
171 195 0
171 195 0
172 196 0
170 194 0
171 195 0
168 192 0
167 192 0
169 193 0
171 195 0
171 195 0
170 194 0
168 191 0
169 193 0
170 194 0
165 188 0
169 192 0
164 188 0
168 192 0
168 192 0
170 194 0
168 192 0
167 190 0
170 193 0
163 187 0
170 195 0
166 190 0
165 188 0
167 190 0
166 189 0
168 192 0
163 187 0
166 189 0
162 185 0
169 193 0
168 192 0
166 190 0
168 192 0
162 186 0
162 185 0
157 180 0
164 187 0
162 185 0
161 184 0
161 184 0
168 192 0
166 188 0
159 183 0
164 187 0
163 186 0
157 181 0
166 190 0
157 179 0
160 183 0
160 183 0
162 185 0
164 187 0
158 179 0
159 182 0
161 185 0
162 185 0
167 190 0
164 186 0
154 177 0
161 184 0
165 188 0
159 182 0
157 179 0
157 180 0
157 179 0
156 179 0
160 182 0
157 179 0
151 173 0
161 183 0
158 180 0
156 179 0
159 180 0
158 179 0
147 169 0
155 178 0
156 178 0
153 174 0
154 177 0
153 175 0
148 170 0
159 181 0
161 183 0
152 175 0
154 176 0
154 175 0
147 168 0
152 174 0
152 173 0
152 174 0
152 175 0
154 176 0
149 171 0
152 172 0
148 169 0
146 167 0
153 174 0
154 174 0
146 167 0
146 168 0
146 167 0
147 168 0
149 170 0
144 165 0
143 164 0
140 161 0
142 163 0
146 167 0
133 154 0
141 161 0
128 148 0
138 159 0
141 162 0
138 158 0
131 152 0
139 159 0
145 166 0
141 160 0
136 157 0
131 152 0
139 159 0
142 163 0
133 153 0
136 155 0
136 156 0
142 161 0
134 155 0
138 158 0
131 151 0
129 149 0
127 148 0
123 142 0
122 141 0
136 155 0
130 150 0
114 133 0
131 149 0
127 145 0
134 153 0
119 138 0
127 147 0
135 155 0
131 150 0
120 140 0
125 145 0
131 150 0
126 145 0
128 147 0
131 151 0
134 152 0
114 132 0
110 129 0
129 149 0
123 142 0
127 146 0
115 132 0
111 129 0
114 132 0
110 129 0
118 137 0
116 135 0
113 132 0
121 139 0
115 132 0
126 145 0
115 133 0
117 135 0
122 140 0
111 129 0
108 125 0
115 135 0
114 132 0
121 140 0
112 130 0
117 134 0
115 133 0
113 130 0
111 131 0
116 134 0
115 133 0
120 138 0
101 117 0
120 137 0
124 142 0
116 134 0
113 131 0
131 150 0
113 129 0
116 136 0
122 141 0
132 150 0
119 137 0
120 135 0
116 133 0
116 134 0
122 141 0
115 132 0
119 136 0
117 135 0
119 135 0
124 146 0
131 147 0
125 141 0
120 137 0
122 140 0
126 144 0
124 142 0
122 138 0
132 151 0
128 144 0
112 129 0
119 136 0
122 138 0
122 138 0
127 145 0
121 139 0
129 147 0
136 153 0
128 144 0
131 148 0
118 134 0
121 138 0
126 142 0
133 149 0
135 155 0
125 143 0
130 147 0
126 146 0
125 142 0
132 150 0
127 143 0
124 141 0
128 145 0
132 150 0
126 144 0
136 154 0
135 152 0
134 150 0
131 147 0
127 143 0
128 144 0
134 150 0
128 143 0
134 152 0
139 155 0
134 151 0
138 156 0
130 145 0
136 153 0
123 137 0
142 157 0
143 161 0
138 154 0
140 157 0
121 135 0
136 151 0
134 147 0
128 144 0
133 148 0
147 164 0
133 149 0
142 158 0
141 154 0
133 146 0
140 154 0
142 157 0
129 141 0
129 145 0
132 147 0
137 150 0
130 146 0
132 147 0
133 147 0
139 153 0
133 147 0
141 154 0
134 146 0
134 145 0
143 156 0
140 153 0
128 141 0
136 151 0
136 149 0
129 142 0
143 154 0
148 159 0
128 141 0
137 149 0
129 137 0
146 159 0
134 146 0
141 156 0
145 155 0
143 155 0
134 144 0
141 155 0
134 147 0
130 137 0
144 155 0
138 150 0
130 141 0
146 157 0
138 147 0
143 154 0
134 143 0
132 142 0
133 142 0
147 156 0
140 149 0
141 150 0
139 149 0
138 147 0
151 159 0
144 152 0
126 133 0
134 143 0
135 143 0
147 156 0
140 147 0
139 147 0
145 152 0
138 144 0
146 156 0
140 146 0
144 153 0
144 153 0
147 157 0
148 155 0
147 156 0
145 154 0
146 156 0
148 154 0
150 160 0
143 150 0
138 145 0
145 153 0
148 154 0
152 163 0
148 155 0
151 160 0
145 153 0
142 151 0
138 143 0
140 149 0
150 154 0
149 159 0
147 156 0
148 155 0
149 157 0
144 150 0
146 155 0
141 147 0
153 161 0
145 155 0
157 167 0
143 148 0
152 160 0
150 157 0
152 163 0
154 163 0
149 159 0
158 167 0
154 161 0
151 160 0
152 163 0
155 163 0
174 198 0
173 197 0
173 196 0
173 197 0
173 197 0
173 197 0
172 196 0
173 197 0
170 194 0
172 196 0
173 196 0
171 195 0
173 196 0
171 194 0
172 196 0
172 196 0
173 197 0
171 195 0
171 195 0
171 195 0
171 195 0
170 194 0
171 195 0
171 195 0
171 195 0
168 192 0
170 194 0
170 194 0
168 192 0
170 195 0
171 196 0
171 195 0
170 194 0
170 193 0
167 191 0
167 191 0
171 195 0
167 191 0
170 194 0
168 192 0
171 195 0
168 192 0
169 193 0
165 189 0
167 191 0
168 192 0
170 193 0
168 192 0
168 192 0
170 193 0
167 190 0
169 193 0
168 192 0
162 185 0
167 191 0
164 187 0
166 190 0
166 189 0
171 194 0
171 194 0
166 189 0
163 186 0
167 190 0
165 189 0
168 192 0
163 187 0
169 193 0
163 187 0
165 189 0
166 189 0
166 190 0
162 185 0
159 182 0
167 190 0
157 180 0
162 186 0
157 181 0
170 193 0
164 187 0
166 190 0
164 187 0
160 183 0
159 181 0
159 182 0
160 183 0
160 182 0
153 176 0
160 183 0
163 186 0
163 186 0
159 181 0
158 180 0
169 192 0
155 177 0
159 181 0
158 180 0
157 180 0
160 182 0
162 184 0
155 177 0
160 182 0
161 182 0
160 183 0
157 179 0
148 170 0
156 178 0
153 175 0
154 176 0
150 173 0
154 176 0
155 176 0
160 183 0
161 183 0
152 174 0
151 174 0
152 174 0
153 174 0
156 178 0
157 178 0
153 174 0
159 181 0
160 182 0
154 176 0
144 165 0
145 167 0
144 166 0
158 180 0
150 170 0
145 166 0
145 166 0
150 171 0
151 174 0
143 163 0
151 172 0
145 167 0
145 166 0
144 165 0
149 170 0
146 168 0
146 168 0
149 169 0
146 167 0
138 159 0
135 156 0
140 161 0
140 160 0
138 158 0
148 169 0
146 166 0
129 150 0
143 162 0
140 159 0
127 146 0
127 148 0
141 163 0
130 150 0
140 160 0
142 164 0
137 157 0
129 148 0
129 149 0
137 157 0
133 153 0
124 144 0
127 148 0
127 147 0
132 152 0
130 149 0
133 152 0
126 147 0
132 153 0
131 152 0
142 162 0
118 138 0
119 138 0
124 142 0
126 146 0
116 136 0
133 153 0
117 135 0
127 146 0
114 134 0
141 159 0
123 142 0
114 134 0
122 141 0
127 146 0
117 136 0
117 136 0
112 131 0
123 140 0
124 143 0
135 155 0
123 142 0
109 127 0
105 123 0
113 131 0
117 136 0
115 133 0
108 126 0
123 140 0
124 143 0
103 120 0
112 131 0
119 136 0
120 139 0
130 149 0
124 143 0
120 138 0
113 131 0
127 146 0
113 130 0
117 135 0
114 133 0
117 135 0
120 138 0
109 127 0
117 136 0
137 154 0
106 125 0
110 127 0
125 143 0
127 145 0
120 139 0
121 139 0
121 137 0
129 148 0
114 133 0
129 148 0
120 139 0
126 144 0
109 126 0
133 151 0
118 139 0
120 138 0
120 137 0
123 142 0
122 140 0
132 150 0
124 141 0
116 133 0
130 148 0
120 138 0
130 148 0
131 149 0
116 134 0
121 137 0
121 138 0
136 156 0
129 147 0
115 132 0
134 150 0
135 152 0
124 141 0
136 154 0
124 141 0
135 152 0
128 146 0
126 143 0
121 137 0
125 140 0
126 143 0
127 142 0
130 147 0
130 148 0
126 143 0
135 152 0
124 143 0
120 137 0
126 143 0
135 150 0
135 152 0
145 164 0
136 152 0
134 151 0
125 141 0
128 145 0
129 147 0
139 154 0
135 155 0
137 154 0
131 147 0
141 154 0
141 156 0
140 156 0
134 151 0
127 143 0
140 156 0
136 154 0
132 146 0
141 157 0
127 141 0
141 156 0
139 155 0
138 153 0
136 152 0
145 162 0
127 143 0
139 156 0
141 158 0
133 148 0
133 146 0
133 147 0
133 148 0
133 148 0
131 146 0
132 145 0
146 161 0
131 145 0
131 144 0
135 148 0
137 153 0
137 152 0
151 165 0
138 151 0
146 158 0
142 152 0
135 149 0
141 156 0
142 153 0
139 151 0
139 150 0
142 156 0
138 150 0
134 144 0
144 157 0
145 158 0
147 159 0
141 153 0
141 151 0
135 143 0
146 158 0
145 157 0
147 157 0
135 147 0
145 154 0
139 150 0
135 146 0
128 136 0
142 153 0
138 149 0
141 152 0
150 160 0
143 152 0
135 146 0
141 153 0
143 154 0
140 152 0
141 147 0
145 157 0
138 147 0
139 151 0
147 155 0
140 149 0
143 152 0
136 144 0
144 154 0
144 151 0
148 155 0
152 162 0
138 144 0
140 145 0
149 157 0
144 150 0
140 147 0
148 159 0
152 162 0
141 148 0
145 152 0
143 151 0
146 154 0
147 155 0
144 154 0
143 150 0
147 156 0
148 158 0
151 161 0
145 152 0
141 148 0
148 157 0
154 165 0
157 168 0
153 163 0
150 161 0
154 163 0
148 159 0
151 157 0
153 162 0
148 153 0
146 154 0
149 158 0
153 162 0
150 158 0
147 159 0
151 158 0
156 166 0
151 159 0
155 165 0
156 168 0
146 152 0
173 197 0
174 197 0
173 197 0
173 196 0
174 198 0
172 195 0
173 196 0
171 195 0
173 197 0
171 195 0
173 196 0
169 193 0
171 195 0
172 196 0
170 194 0
172 196 0
170 194 0
170 193 0
169 193 0
167 191 0
170 194 0
170 193 0
170 194 0
171 194 0
170 194 0
171 195 0
171 195 0
170 194 0
172 195 0
170 195 0
170 195 0
164 189 0
173 196 0
170 194 0
171 195 0
168 192 0
170 194 0
170 195 0
168 192 0
169 193 0
167 191 0
167 191 0
168 193 0
168 192 0
167 191 0
165 188 0
168 193 0
166 190 0
170 194 0
169 194 0
166 190 0
165 189 0
167 191 0
167 191 0
165 188 0
169 192 0
169 193 0
168 192 0
167 189 0
164 188 0
163 186 0
163 186 0
164 187 0
165 189 0
168 192 0
163 186 0
168 191 0
169 192 0
164 188 0
164 187 0
160 184 0
169 192 0
164 187 0
161 183 0
163 186 0
168 191 0
167 190 0
165 188 0
161 184 0
162 184 0
159 183 0
163 187 0
164 187 0
166 189 0
165 189 0
162 184 0
161 183 0
160 183 0
158 181 0
161 184 0
164 187 0
156 178 0
161 184 0
157 180 0
162 184 0
159 181 0
162 185 0
162 184 0
161 184 0
160 183 0
153 174 0
156 178 0
154 177 0
156 179 0
160 182 0
157 179 0
158 180 0
154 177 0
155 177 0
148 169 0
152 175 0
154 175 0
153 175 0
146 168 0
149 170 0
150 173 0
156 178 0
158 180 0
155 177 0
152 174 0
157 179 0
152 174 0
146 168 0
151 173 0
152 174 0
154 176 0
153 174 0
154 175 0
148 171 0
146 166 0
151 173 0
155 176 0
149 171 0
150 172 0
150 171 0
150 172 0
143 165 0
140 160 0
136 157 0
147 168 0
154 175 0
143 163 0
139 160 0
129 151 0
140 162 0
133 154 0
139 160 0
139 159 0
137 158 0
142 164 0
134 154 0
148 168 0
132 152 0
141 161 0
152 172 0
135 155 0
138 158 0
147 167 0
138 158 0
131 152 0
144 163 0
134 155 0
128 148 0
136 156 0
138 158 0
143 163 0
138 159 0
136 155 0
127 147 0
136 156 0
130 151 0
129 149 0
117 135 0
133 152 0
126 145 0
131 151 0
130 149 0
128 147 0
123 143 0
126 145 0
126 145 0
119 139 0
125 145 0
119 138 0
122 141 0
126 145 0
127 146 0
121 139 0
130 149 0
126 146 0
114 132 0
127 146 0
117 135 0
110 130 0
116 136 0
116 135 0
126 144 0
124 144 0
121 140 0
122 141 0
119 137 0
128 146 0
123 140 0
125 144 0
121 140 0
132 151 0
116 133 0
126 146 0
115 132 0
120 139 0
112 130 0
120 137 0
122 141 0
119 138 0
114 133 0
125 144 0
126 144 0
119 138 0
120 138 0
120 139 0
122 141 0
123 141 0
125 144 0
122 139 0
112 129 0
118 138 0
120 139 0
123 142 0
123 141 0
126 145 0
123 141 0
122 141 0
126 143 0
110 128 0
123 141 0
131 148 0
120 139 0
128 145 0
127 146 0
121 141 0
135 153 0
135 153 0
113 131 0
129 148 0
124 142 0
119 136 0
132 147 0
126 144 0
128 147 0
123 142 0
131 147 0
141 160 0
126 142 0
126 141 0
114 127 0
133 153 0
125 142 0
133 148 0
127 144 0
126 144 0
129 148 0
129 144 0
127 144 0
135 154 0
145 161 0
135 153 0
135 153 0
131 148 0
128 145 0
129 146 0
123 139 0
141 157 0
131 150 0
139 156 0
134 151 0
137 155 0
131 149 0
136 152 0
138 152 0
137 153 0
134 150 0
140 157 0
136 153 0
131 147 0
137 153 0
138 156 0
150 168 0
134 150 0
134 151 0
135 153 0
142 159 0
142 158 0
140 157 0
129 145 0
129 145 0
138 155 0
129 145 0
143 159 0
140 154 0
140 157 0
145 163 0
141 155 0
146 161 0
137 151 0
134 150 0
137 152 0
132 145 0
144 159 0
139 151 0
134 149 0
130 143 0
139 154 0
140 151 0
143 156 0
130 144 0
137 151 0
142 157 0
136 150 0
137 150 0
140 155 0
141 154 0
137 151 0
142 157 0
136 145 0
146 162 0
157 169 0
144 159 0
133 145 0
139 153 0
143 156 0
147 158 0
135 144 0
146 158 0
136 144 0
141 153 0
139 150 0
129 141 0
133 142 0
142 156 0
142 153 0
139 150 0
139 150 0
137 145 0
135 145 0
139 149 0
134 141 0
138 146 0
146 156 0
138 146 0
140 148 0
142 151 0
140 148 0
147 157 0
144 153 0
142 149 0
140 144 0
140 151 0
141 148 0
149 162 0
137 145 0
139 146 0
140 148 0
138 146 0
140 146 0
147 154 0
134 141 0
143 150 0
140 146 0
143 152 0
141 148 0
148 158 0
146 155 0
147 154 0
155 165 0
147 158 0
147 156 0
152 158 0
154 164 0
151 161 0
133 139 0
143 155 0
148 156 0
148 157 0
148 155 0
147 157 0
151 162 0
145 152 0
145 153 0
153 164 0
146 154 0
148 157 0
154 165 0
154 162 0
149 160 0
149 159 0
154 163 0
147 156 0
151 160 0
148 160 0
155 166 0
174 198 0
172 196 0
174 197 0
171 195 0
173 196 0
173 197 0
172 196 0
172 195 0
173 197 0
173 197 0
170 194 0
170 194 0
171 194 0
172 196 0
170 194 0
174 197 0
172 196 0
170 194 0
171 195 0
170 194 0
170 194 0
170 193 0
170 194 0
170 193 0
174 197 0
171 196 0
171 195 0
169 193 0
168 192 0
170 194 0
170 194 0
167 190 0
166 190 0
170 194 0
167 191 0
167 191 0
170 194 0
165 188 0
167 191 0
170 193 0
170 193 0
169 192 0
168 192 0
163 187 0
168 192 0
165 189 0
164 188 0
168 192 0
168 192 0
162 186 0
164 187 0
169 192 0
168 191 0
162 186 0
168 191 0
166 189 0
169 193 0
161 184 0
170 193 0
165 189 0
162 186 0
165 188 0
165 189 0
162 185 0
163 186 0
166 190 0
161 184 0
165 188 0
160 183 0
159 182 0
167 189 0
163 186 0
163 186 0
166 189 0
163 186 0
167 189 0
163 187 0
164 187 0
158 180 0
163 186 0
165 188 0
161 183 0
159 183 0
157 179 0
155 178 0
159 182 0
158 181 0
153 175 0
158 181 0
158 181 0
155 178 0
164 186 0
154 176 0
164 186 0
160 183 0
157 179 0
155 177 0
162 184 0
156 179 0
155 178 0
159 181 0
150 172 0
157 180 0
155 177 0
153 176 0
157 179 0
152 175 0
159 181 0
156 179 0
156 178 0
155 178 0
149 171 0
160 182 0
150 172 0
154 176 0
159 181 0
158 180 0
157 179 0
158 179 0
147 168 0
155 176 0
153 174 0
145 167 0
139 161 0
145 167 0
149 171 0
149 171 0
144 165 0
153 175 0
147 167 0
156 177 0
152 174 0
147 168 0
144 164 0
145 165 0
138 159 0
148 170 0
145 166 0
152 173 0
147 168 0
147 168 0
137 159 0
146 167 0
142 163 0
143 165 0
144 165 0
146 166 0
150 171 0
142 163 0
135 156 0
138 158 0
137 158 0
141 161 0
132 152 0
132 153 0
139 160 0
142 163 0
137 158 0
131 152 0
135 154 0
137 157 0
148 169 0
125 145 0
130 149 0
137 157 0
124 144 0
138 160 0
133 153 0
123 142 0
131 151 0
124 145 0
133 152 0
127 148 0
129 149 0
134 154 0
137 157 0
127 147 0
126 145 0
116 136 0
134 154 0
125 144 0
127 147 0
117 136 0
114 132 0
125 145 0
114 133 0
125 144 0
124 142 0
131 151 0
125 145 0
130 150 0
124 144 0
131 150 0
115 133 0
120 139 0
122 141 0
123 141 0
121 140 0
125 144 0
129 147 0
125 143 0
117 136 0
122 141 0
123 142 0
114 131 0
114 132 0
111 128 0
126 144 0
121 139 0
113 131 0
127 145 0
126 144 0
128 145 0
118 136 0
109 127 0
112 131 0
120 138 0
125 144 0
126 144 0
121 138 0
128 146 0
128 146 0
121 139 0
112 129 0
119 136 0
117 134 0
108 126 0
127 145 0
123 140 0
125 143 0
121 139 0
117 135 0
119 137 0
116 134 0
137 157 0
126 144 0
125 140 0
133 151 0
126 145 0
133 152 0
130 146 0
120 137 0
122 140 0
130 148 0
136 154 0
125 142 0
130 148 0
120 138 0
128 146 0
130 149 0
129 147 0
134 153 0
135 154 0
126 144 0
129 148 0
123 141 0
132 152 0
128 146 0
127 145 0
131 147 0
137 153 0
128 143 0
134 152 0
135 153 0
137 155 0
135 152 0
135 153 0
136 153 0
127 144 0
134 152 0
132 151 0
130 148 0
133 150 0
131 148 0
130 146 0
133 152 0
137 154 0
134 149 0
135 153 0
138 155 0
136 152 0
133 151 0
129 146 0
135 151 0
137 153 0
141 157 0
131 148 0
140 156 0
133 149 0
139 154 0
131 147 0
136 155 0
135 151 0
137 154 0
133 150 0
141 157 0
140 155 0
136 153 0
144 159 0
136 149 0
132 147 0
140 156 0
133 149 0
139 152 0
141 156 0
138 156 0
146 160 0
135 149 0
140 155 0
145 159 0
142 158 0
133 146 0
138 155 0
137 152 0
146 161 0
135 150 0
140 155 0
134 147 0
142 157 0
131 145 0
134 148 0
143 160 0
141 153 0
137 150 0
137 151 0
124 139 0
143 156 0
133 144 0
143 154 0
136 147 0
140 149 0
139 150 0
132 144 0
132 145 0
141 153 0
146 159 0
131 143 0
142 154 0
142 153 0
145 157 0
144 156 0
141 153 0
147 160 0
134 142 0
147 157 0
147 153 0
133 143 0
139 149 0
134 146 0
144 155 0
136 145 0
147 158 0
145 154 0
144 150 0
144 154 0
153 165 0
145 155 0
145 155 0
151 162 0
145 154 0
137 144 0
153 161 0
148 156 0
140 148 0
142 148 0
148 156 0
142 153 0
143 153 0
141 148 0
144 152 0
138 146 0
133 140 0
141 151 0
147 157 0
151 160 0
144 154 0
144 151 0
152 163 0
148 156 0
143 152 0
148 156 0
147 155 0
144 150 0
148 158 0
152 162 0
140 149 0
144 152 0
143 150 0
150 162 0
149 157 0
150 160 0
153 163 0
146 155 0
143 153 0
152 161 0
147 158 0
149 159 0
152 161 0
154 165 0
147 155 0
172 195 0
173 197 0
173 196 0
174 197 0
171 193 0
175 198 0
171 194 0
174 198 0
171 195 0
173 196 0
170 194 0
171 195 0
171 195 0
171 195 0
173 197 0
169 193 0
171 195 0
170 194 0
171 195 0
172 196 0
169 193 0
172 196 0
170 194 0
172 196 0
169 193 0
170 194 0
169 193 0
174 198 0
170 194 0
168 192 0
172 195 0
170 194 0
169 194 0
164 188 0
170 194 0
168 191 0
171 195 0
173 196 0
170 193 0
169 192 0
167 190 0
170 194 0
167 191 0
168 191 0
172 196 0
167 191 0
169 192 0
169 192 0
169 193 0
166 189 0
166 189 0
170 192 0
163 186 0
164 188 0
168 191 0
168 192 0
167 190 0
169 193 0
169 193 0
164 187 0
163 186 0
165 189 0
163 186 0
165 188 0
163 186 0
163 186 0
157 180 0
161 184 0
162 185 0
162 186 0
169 191 0
162 184 0
163 187 0
162 184 0
162 185 0
167 191 0
165 189 0
162 185 0
162 185 0
161 185 0
160 183 0
163 186 0
161 184 0
163 186 0
161 185 0
160 183 0
160 182 0
163 185 0
162 185 0
156 179 0
164 186 0
160 183 0
158 181 0
158 180 0
158 181 0
163 185 0
157 179 0
165 187 0
161 184 0
165 187 0
159 181 0
160 183 0
162 185 0
155 178 0
158 180 0
148 171 0
156 179 0
148 170 0
160 182 0
161 183 0
155 177 0
151 172 0
153 175 0
157 178 0
153 175 0
152 174 0
158 179 0
152 174 0
154 175 0
156 177 0
147 169 0
155 177 0
152 173 0
156 178 0
151 173 0
153 174 0
155 176 0
147 168 0
150 171 0
147 168 0
142 163 0
147 168 0
142 164 0
149 171 0
147 168 0
148 170 0
148 170 0
146 167 0
143 165 0
142 162 0
141 161 0
144 165 0
138 159 0
143 164 0
145 165 0
140 161 0
140 161 0
138 159 0
137 157 0
141 161 0
129 149 0
138 159 0
140 161 0
138 159 0
133 154 0
133 153 0
142 162 0
139 159 0
141 161 0
138 158 0
135 156 0
139 159 0
129 148 0
144 163 0
132 152 0
137 158 0
131 152 0
130 151 0
135 155 0
131 151 0
131 152 0
134 154 0
134 154 0
126 146 0
124 143 0
122 142 0
129 149 0
131 151 0
126 146 0
127 147 0
132 152 0
127 148 0
131 152 0
119 137 0
134 155 0
131 150 0
132 150 0
125 144 0
123 142 0
124 142 0
125 144 0
123 143 0
124 143 0
125 143 0
131 151 0
123 142 0
124 142 0
123 142 0
128 146 0
120 138 0
125 144 0
132 152 0
111 132 0
122 142 0
121 138 0
121 139 0
123 140 0
113 132 0
123 140 0
121 137 0
124 145 0
121 138 0
107 125 0
120 139 0
117 136 0
123 143 0
125 144 0
129 148 0
124 142 0
125 143 0
128 147 0
114 132 0
127 145 0
119 138 0
125 143 0
120 140 0
120 138 0
127 144 0
133 151 0
116 133 0
123 140 0
120 138 0
136 155 0
127 145 0
125 143 0
133 151 0
125 142 0
128 145 0
127 144 0
126 143 0
120 136 0
131 150 0
116 132 0
127 145 0
144 163 0
131 148 0
127 145 0
122 141 0
130 149 0
121 139 0
131 148 0
129 147 0
133 153 0
132 149 0
132 149 0
128 145 0
136 155 0
127 144 0
122 138 0
128 147 0
132 150 0
127 145 0
134 151 0
130 148 0
130 149 0
134 151 0
135 151 0
130 148 0
140 159 0
133 151 0
135 154 0
133 151 0
136 153 0
137 156 0
135 150 0
130 147 0
129 146 0
139 157 0
135 154 0
135 152 0
134 149 0
136 152 0
132 149 0
140 156 0
129 145 0
131 147 0
141 158 0
129 145 0
127 144 0
137 154 0
125 142 0
134 151 0
124 140 0
137 153 0
127 142 0
143 160 0
134 150 0
132 147 0
134 150 0
142 160 0
132 148 0
138 154 0
137 153 0
146 161 0
130 146 0
136 153 0
135 150 0
132 146 0
136 151 0
138 152 0
138 151 0
138 152 0
132 146 0
140 154 0
133 146 0
145 159 0
140 153 0
147 161 0
132 147 0
138 151 0
140 154 0
141 157 0
144 157 0
136 149 0
136 149 0
139 152 0
146 158 0
144 158 0
145 160 0
134 145 0
136 148 0
148 162 0
129 139 0
139 152 0
145 159 0
144 155 0
141 154 0
142 154 0
135 148 0
141 151 0
145 158 0
131 140 0
146 159 0
143 155 0
141 152 0
148 160 0
137 147 0
149 161 0
147 156 0
141 153 0
140 149 0
146 158 0
143 152 0
143 152 0
141 151 0
135 145 0
152 163 0
141 153 0
143 152 0
151 164 0
142 152 0
143 152 0
144 152 0
145 154 0
144 156 0
147 156 0
138 144 0
148 159 0
143 150 0
146 155 0
152 162 0
147 158 0
147 159 0
152 163 0
150 159 0
143 153 0
149 159 0
149 162 0
156 169 0
154 165 0
141 145 0
151 158 0
153 164 0
148 156 0
150 160 0
148 157 0
153 165 0
144 153 0
151 160 0
152 162 0
148 157 0
142 150 0
148 158 0
150 162 0
157 168 0
147 154 0
155 166 0
150 159 0
147 156 0
148 159 0
171 195 0
171 195 0
171 195 0
174 198 0
174 197 0
170 194 0
173 196 0
171 195 0
173 196 0
171 194 0
170 194 0
172 196 0
174 197 0
171 194 0
173 197 0
171 195 0
171 195 0
171 195 0
173 196 0
173 196 0
171 195 0
169 192 0
169 193 0
172 195 0
172 196 0
171 194 0
171 195 0
169 194 0
172 196 0
171 195 0
173 196 0
168 191 0
171 195 0
169 193 0
169 193 0
172 195 0
169 192 0
170 194 0
165 189 0
169 192 0
168 192 0
165 189 0
168 191 0
165 189 0
167 191 0
167 191 0
167 190 0
168 191 0
166 189 0
164 188 0
165 188 0
172 195 0
168 190 0
163 186 0
165 189 0
164 187 0
166 189 0
167 190 0
164 188 0
167 190 0
162 186 0
163 186 0
170 193 0
166 190 0
164 187 0
165 188 0
162 185 0
160 182 0
163 186 0
167 190 0
161 185 0
160 184 0
165 188 0
161 184 0
162 185 0
161 184 0
157 180 0
161 183 0
161 183 0
162 185 0
161 183 0
158 182 0
161 183 0
161 184 0
164 188 0
164 186 0
158 181 0
162 184 0
160 183 0
156 178 0
163 185 0
158 180 0
157 180 0
166 188 0
157 179 0
160 182 0
157 180 0
164 187 0
147 170 0
158 180 0
160 181 0
160 183 0
151 173 0
159 180 0
156 178 0
158 180 0
158 181 0
151 174 0
155 176 0
156 178 0
155 177 0
161 182 0
160 181 0
152 174 0
153 176 0
157 178 0
150 172 0
154 176 0
145 168 0
156 178 0
145 166 0
154 175 0
155 177 0
154 175 0
147 168 0
152 174 0
148 170 0
139 161 0
150 171 0
154 175 0
150 171 0
150 172 0
146 167 0
144 165 0
147 168 0
153 174 0
142 163 0
148 169 0
150 171 0
147 168 0
138 159 0
134 155 0
146 167 0
145 167 0
137 158 0
138 158 0
142 163 0
137 157 0
136 157 0
149 170 0
146 167 0
141 162 0
143 165 0
134 155 0
141 162 0
144 166 0
133 154 0
137 158 0
128 150 0
145 167 0
128 148 0
136 156 0
136 158 0
126 147 0
134 155 0
141 161 0
133 155 0
125 145 0
133 153 0
139 160 0
129 147 0
133 153 0
128 147 0
141 161 0
136 156 0
127 148 0
141 161 0
129 149 0
134 153 0
128 148 0
135 155 0
136 157 0
137 156 0
137 157 0
118 136 0
117 136 0
125 145 0
131 151 0
118 137 0
119 138 0
115 134 0
129 147 0
128 147 0
137 155 0
128 147 0
125 144 0
123 141 0
132 152 0
122 141 0
120 138 0
135 155 0
121 139 0
131 151 0
118 137 0
131 149 0
123 141 0
121 140 0
120 142 0
121 140 0
112 132 0
128 147 0
119 137 0
133 153 0
117 135 0
116 135 0
138 157 0
121 140 0
114 133 0
126 145 0
135 153 0
119 136 0
128 146 0
122 139 0
127 145 0
110 129 0
126 143 0
116 134 0
125 143 0
119 136 0
132 151 0
134 152 0
128 146 0
129 147 0
126 144 0
131 149 0
131 151 0
122 141 0
129 149 0
116 133 0
122 141 0
125 144 0
131 149 0
124 142 0
125 142 0
127 145 0
128 147 0
122 142 0
123 141 0
118 136 0
143 161 0
130 149 0
126 145 0
138 157 0
142 159 0
136 156 0
130 149 0
137 154 0
124 141 0
133 150 0
135 153 0
129 150 0
120 136 0
135 154 0
126 145 0
135 153 0
123 140 0
131 148 0
129 147 0
143 161 0
131 148 0
133 151 0
130 148 0
135 153 0
135 152 0
135 151 0
141 160 0
130 146 0
130 147 0
152 171 0
138 156 0
133 152 0
132 148 0
134 149 0
128 143 0
145 163 0
133 150 0
142 160 0
139 157 0
137 156 0
134 149 0
143 162 0
143 160 0
147 162 0
137 154 0
144 161 0
150 167 0
139 156 0
150 166 0
142 160 0
146 162 0
139 155 0
141 155 0
140 157 0
134 149 0
145 162 0
137 152 0
139 154 0
145 160 0
133 148 0
139 153 0
142 157 0
137 151 0
140 158 0
136 153 0
144 159 0
145 160 0
131 143 0
148 162 0
142 156 0
140 152 0
135 149 0
135 148 0
132 147 0
148 161 0
143 158 0
141 157 0
133 148 0
132 144 0
144 158 0
133 144 0
147 160 0
148 161 0
145 158 0
140 155 0
143 156 0
145 159 0
137 147 0
139 153 0
135 145 0
140 153 0
141 155 0
128 141 0
143 152 0
146 156 0
139 150 0
133 142 0
146 158 0
140 150 0
147 160 0
139 150 0
151 163 0
144 157 0
135 144 0
139 144 0
147 157 0
141 151 0
138 147 0
143 154 0
149 161 0
147 162 0
133 142 0
149 162 0
149 162 0
139 148 0
150 162 0
140 149 0
146 156 0
140 150 0
145 155 0
147 160 0
151 164 0
141 151 0
141 150 0
147 155 0
143 152 0
147 154 0
145 153 0
145 155 0
153 165 0
145 153 0
148 156 0
149 159 0
145 155 0
147 156 0
147 157 0
148 155 0
150 160 0
144 155 0
155 165 0
149 157 0
148 157 0
155 166 0
153 160 0
146 155 0
152 162 0
155 163 0
149 159 0
150 161 0
150 162 0
151 164 0
174 197 0
173 197 0
173 197 0
175 198 0
174 197 0
171 195 0
171 195 0
172 195 0
172 196 0
174 198 0
173 197 0
173 196 0
173 196 0
166 190 0
171 196 0
172 195 0
171 195 0
170 194 0
172 194 0
170 194 0
170 194 0
168 193 0
168 191 0
170 193 0
169 193 0
170 194 0
172 195 0
168 192 0
171 194 0
169 193 0
169 193 0
169 194 0
169 192 0
173 197 0
169 193 0
167 192 0
168 192 0
169 192 0
169 192 0
170 193 0
174 197 0
170 194 0
166 190 0
165 188 0
170 193 0
165 189 0
168 191 0
167 191 0
170 193 0
167 190 0
166 190 0
171 194 0
168 191 0
167 191 0
167 190 0
170 193 0
167 190 0
168 192 0
165 189 0
162 186 0
164 188 0
159 181 0
166 189 0
169 192 0
165 188 0
163 186 0
167 190 0
159 182 0
166 189 0
163 187 0
166 188 0
164 187 0
164 187 0
162 184 0
166 189 0
166 189 0
158 182 0
163 186 0
168 191 0
160 182 0
161 183 0
160 183 0
164 187 0
159 181 0
161 184 0
163 185 0
160 183 0
155 177 0
162 184 0
158 180 0
159 181 0
161 184 0
160 182 0
163 186 0
158 179 0
158 180 0
157 179 0
157 179 0
164 187 0
156 178 0
152 175 0
160 182 0
162 184 0
158 181 0
155 178 0
157 178 0
157 178 0
157 179 0
158 180 0
153 174 0
151 173 0
155 178 0
153 175 0
163 185 0
154 176 0
149 171 0
158 180 0
143 166 0
155 177 0
154 175 0
150 172 0
147 169 0
158 180 0
153 175 0
149 170 0
152 174 0
153 175 0
146 168 0
152 174 0
142 164 0
146 168 0
145 165 0
149 171 0
139 160 0
149 171 0
146 168 0
139 159 0
136 156 0
149 168 0
143 165 0
150 171 0
141 161 0
142 163 0
142 162 0
137 158 0
139 160 0
144 165 0
134 155 0
147 167 0
141 162 0
139 160 0
143 164 0
134 155 0
142 163 0
135 156 0
138 159 0
139 160 0
135 155 0
136 157 0
132 153 0
140 161 0
133 154 0
131 151 0
143 163 0
140 161 0
132 153 0
129 150 0
139 159 0
131 150 0
137 157 0
137 158 0
133 153 0
132 152 0
136 157 0
144 163 0
137 156 0
139 160 0
130 151 0
128 149 0
125 145 0
136 155 0
126 146 0
122 141 0
127 147 0
118 138 0
130 150 0
118 136 0
135 156 0
128 147 0
118 139 0
120 140 0
121 142 0
138 157 0
125 144 0
129 148 0
128 147 0
134 153 0
134 155 0
113 132 0
122 140 0
126 144 0
132 151 0
117 135 0
118 138 0
125 143 0
121 140 0
120 137 0
128 149 0
120 139 0
130 149 0
136 156 0
132 151 0
123 140 0
128 148 0
126 146 0
132 150 0
134 153 0
125 145 0
124 143 0
125 143 0
120 136 0
135 155 0
115 134 0
124 142 0
131 150 0
132 152 0
126 144 0
118 138 0
125 145 0
123 140 0
126 144 0
124 143 0
128 147 0
135 152 0
119 136 0
141 158 0
121 141 0
127 144 0
126 145 0
127 147 0
131 148 0
123 141 0
119 136 0
132 149 0
133 150 0
132 149 0
133 150 0
136 153 0
132 152 0
128 146 0
128 146 0
126 144 0
127 145 0
129 147 0
136 155 0
137 155 0
127 146 0
130 147 0
134 152 0
119 137 0
134 152 0
138 155 0
134 151 0
129 145 0
127 146 0
137 155 0
138 157 0
136 154 0
127 144 0
130 147 0
133 151 0
118 136 0
143 161 0
126 142 0
133 151 0
135 153 0
136 156 0
150 169 0
141 158 0
140 159 0
130 146 0
134 151 0
139 158 0
145 165 0
131 148 0
144 162 0
140 155 0
133 149 0
137 153 0
145 162 0
138 153 0
131 148 0
124 140 0
152 169 0
134 153 0
137 152 0
145 162 0
136 151 0
135 152 0
144 161 0
137 153 0
137 151 0
141 154 0
143 159 0
132 144 0
142 159 0
140 155 0
144 162 0
143 159 0
137 151 0
140 153 0
145 162 0
140 156 0
136 147 0
143 158 0
137 152 0
144 159 0
147 161 0
143 159 0
145 159 0
138 152 0
142 158 0
139 155 0
138 149 0
134 149 0
137 150 0
151 166 0
139 153 0
142 155 0
139 153 0
135 148 0
148 162 0
140 156 0
144 158 0
147 160 0
136 148 0
132 145 0
132 142 0
146 161 0
147 160 0
149 161 0
142 153 0
140 153 0
144 157 0
142 151 0
144 155 0
144 154 0
143 153 0
139 149 0
141 150 0
145 157 0
151 164 0
152 163 0
140 150 0
134 145 0
144 155 0
150 162 0
147 161 0
152 163 0
151 163 0
146 158 0
139 148 0
140 151 0
143 152 0
151 163 0
146 157 0
147 158 0
147 158 0
143 154 0
146 157 0
152 162 0
144 155 0
145 153 0
143 150 0
150 160 0
146 156 0
153 165 0
145 153 0
154 164 0
141 150 0
150 157 0
156 170 0
135 144 0
140 148 0
148 157 0
141 152 0
151 161 0
148 159 0
156 168 0
154 162 0
151 163 0
154 163 0
143 151 0
144 152 0
154 167 0
148 158 0
157 168 0
156 167 0
156 170 0
153 164 0
173 197 0
172 196 0
173 196 0
169 193 0
174 197 0
175 198 0
170 194 0
169 193 0
173 197 0
173 196 0
167 190 0
171 195 0
171 195 0
171 195 0
172 195 0
170 194 0
171 195 0
172 195 0
171 194 0
171 194 0
174 197 0
167 190 0
168 191 0
168 192 0
170 194 0
171 194 0
170 194 0
172 195 0
166 189 0
168 191 0
167 191 0
168 192 0
170 194 0
166 190 0
166 190 0
167 191 0
167 190 0
171 194 0
161 185 0
170 194 0
173 196 0
171 194 0
171 193 0
171 194 0
165 188 0
166 190 0
166 191 0
162 186 0
165 188 0
161 184 0
167 190 0
170 193 0
159 182 0
166 190 0
167 190 0
168 191 0
167 189 0
166 189 0
168 191 0
163 186 0
168 192 0
165 187 0
165 188 0
171 194 0
163 186 0
164 186 0
165 188 0
167 189 0
163 186 0
162 185 0
157 179 0
166 189 0
160 183 0
162 184 0
159 182 0
164 186 0
160 184 0
167 189 0
165 188 0
158 181 0
159 182 0
164 187 0
158 180 0
164 187 0
159 182 0
156 179 0
159 182 0
160 183 0
157 179 0
158 181 0
165 188 0
161 184 0
159 181 0
157 180 0
158 180 0
160 183 0
162 183 0
156 179 0
154 176 0
153 175 0
161 183 0
158 181 0
156 179 0
163 186 0
156 178 0
163 185 0
157 178 0
163 186 0
160 182 0
153 175 0
157 179 0
153 176 0
150 173 0
155 177 0
150 173 0
162 184 0
165 187 0
145 167 0
151 173 0
153 175 0
151 172 0
157 179 0
155 178 0
152 173 0
153 174 0
148 169 0
145 168 0
153 175 0
141 163 0
149 170 0
149 172 0
155 177 0
143 164 0
140 161 0
145 166 0
153 175 0
140 161 0
144 165 0
143 164 0
143 163 0
153 175 0
140 160 0
147 169 0
145 165 0
147 168 0
138 158 0
149 169 0
152 173 0
140 162 0
148 169 0
142 163 0
153 174 0
133 154 0
142 162 0
139 160 0
133 153 0
138 159 0
138 159 0
143 163 0
135 154 0
138 158 0
133 153 0
127 147 0
144 165 0
141 162 0
128 148 0
127 148 0
135 156 0
140 160 0
134 154 0
133 153 0
135 154 0
122 142 0
135 155 0
124 144 0
140 160 0
130 150 0
128 148 0
124 142 0
126 145 0
136 157 0
123 142 0
126 146 0
130 150 0
124 143 0
135 154 0
130 149 0
134 154 0
118 139 0
125 145 0
129 150 0
121 141 0
123 143 0
137 156 0
136 156 0
128 148 0
131 150 0
123 143 0
135 155 0
125 146 0
131 150 0
122 142 0
129 148 0
126 145 0
117 137 0
139 158 0
133 154 0
128 148 0
127 146 0
129 147 0
127 147 0
120 138 0
132 152 0
130 150 0
121 140 0
130 148 0
127 146 0
120 139 0
136 155 0
132 149 0
127 146 0
121 139 0
132 151 0
132 151 0
125 142 0
131 150 0
130 149 0
126 145 0
142 161 0
118 135 0
135 153 0
121 139 0
135 155 0
118 136 0
137 156 0
129 148 0
124 142 0
130 149 0
128 146 0
113 130 0
142 159 0
133 152 0
124 144 0
133 152 0
139 159 0
130 147 0
136 155 0
134 153 0
132 150 0
134 153 0
121 138 0
128 147 0
132 150 0
141 160 0
138 156 0
128 146 0
116 133 0
125 144 0
139 158 0
139 159 0
133 153 0
132 150 0
122 139 0
130 147 0
136 156 0
139 157 0
142 160 0
134 153 0
145 163 0
132 149 0
139 158 0
138 156 0
129 144 0
139 157 0
146 164 0
142 160 0
139 157 0
145 162 0
137 155 0
135 152 0
133 151 0
124 141 0
133 149 0
142 159 0
134 150 0
134 152 0
134 150 0
148 167 0
139 156 0
140 156 0
144 161 0
144 161 0
140 158 0
142 159 0
140 158 0
147 165 0
141 156 0
134 151 0
138 157 0
147 165 0
142 157 0
136 152 0
142 157 0
142 160 0
147 162 0
139 154 0
142 157 0
139 155 0
149 163 0
147 165 0
137 150 0
132 147 0
143 159 0
141 156 0
140 155 0
144 160 0
148 163 0
136 149 0
143 159 0
141 156 0
143 159 0
140 153 0
143 159 0
143 159 0
143 156 0
153 170 0
137 150 0
145 158 0
137 151 0
138 151 0
138 153 0
147 162 0
144 157 0
144 159 0
141 154 0
141 153 0
141 154 0
145 159 0
135 145 0
145 157 0
140 151 0
147 159 0
135 148 0
149 161 0
145 157 0
147 159 0
147 160 0
147 159 0
145 157 0
135 148 0
141 154 0
143 155 0
150 161 0
147 159 0
141 153 0
146 159 0
139 153 0
153 166 0
146 155 0
146 158 0
152 165 0
139 149 0
147 160 0
145 155 0
139 147 0
150 163 0
147 156 0
149 158 0
153 163 0
147 158 0
143 152 0
145 157 0
147 158 0
145 157 0
149 161 0
151 164 0
153 163 0
155 168 0
151 161 0
147 158 0
148 158 0
139 149 0
145 155 0
148 160 0
149 158 0
153 163 0
155 164 0
155 167 0
148 157 0
155 166 0
156 168 0
156 167 0
154 165 0
152 161 0
160 170 0
153 166 0
157 168 0
151 162 0
153 163 0
149 161 0
173 196 0
172 195 0
173 197 0
173 196 0
172 196 0
170 194 0
171 194 0
169 192 0
169 193 0
170 195 0
173 196 0
168 192 0
168 192 0
172 196 0
167 191 0
168 193 0
170 194 0
170 194 0
169 193 0
169 193 0
173 197 0
170 194 0
167 191 0
167 190 0
168 191 0
173 197 0
173 197 0
171 194 0
172 196 0
165 189 0
168 192 0
172 196 0
171 194 0
167 190 0
168 192 0
166 190 0
172 196 0
166 189 0
166 190 0
166 189 0
168 191 0
167 190 0
162 185 0
167 190 0
163 187 0
166 190 0
164 188 0
164 188 0
169 192 0
171 193 0
168 192 0
165 188 0
168 191 0
170 193 0
167 190 0
166 189 0
167 189 0
165 189 0
164 187 0
162 185 0
163 186 0
160 182 0
166 189 0
169 191 0
165 187 0
162 184 0
165 188 0
162 184 0
163 185 0
159 181 0
164 187 0
162 185 0
167 190 0
163 186 0
162 185 0
161 184 0
164 187 0
157 181 0
162 184 0
166 188 0
162 185 0
160 183 0
155 179 0
163 185 0
160 182 0
163 186 0
162 184 0
165 188 0
162 184 0
164 187 0
163 185 0
160 183 0
155 177 0
151 173 0
159 181 0
159 182 0
157 180 0
157 180 0
151 173 0
157 179 0
149 171 0
151 173 0
155 175 0
152 175 0
158 180 0
151 173 0
157 178 0
160 182 0
150 171 0
159 181 0
156 179 0
149 172 0
152 173 0
149 171 0
152 175 0
163 183 0
154 176 0
159 181 0
156 178 0
153 175 0
154 176 0
145 167 0
154 175 0
152 175 0
148 169 0
140 161 0
151 173 0
154 176 0
142 163 0
140 162 0
150 171 0
156 177 0
152 174 0
140 162 0
144 165 0
151 172 0
148 169 0
140 163 0
139 160 0
154 175 0
140 161 0
141 162 0
148 169 0
144 166 0
140 161 0
150 173 0
144 165 0
149 170 0
141 163 0
139 160 0
146 168 0
133 153 0
138 160 0
144 164 0
138 158 0
148 169 0
135 155 0
135 156 0
141 162 0
133 154 0
142 162 0
131 153 0
131 152 0
138 158 0
131 151 0
140 161 0
139 160 0
135 156 0
134 155 0
130 151 0
135 156 0
141 161 0
139 159 0
137 158 0
133 152 0
136 157 0
133 152 0
133 153 0
136 155 0
129 149 0
137 156 0
135 154 0
129 149 0
144 165 0
132 152 0
128 147 0
121 141 0
124 144 0
132 151 0
121 140 0
141 162 0
135 153 0
123 143 0
123 144 0
133 153 0
128 147 0
115 135 0
129 148 0
130 150 0
117 136 0
129 149 0
135 153 0
132 153 0
132 150 0
124 143 0
127 146 0
127 146 0
124 143 0
124 143 0
128 146 0
129 149 0
124 143 0
137 157 0
130 150 0
130 149 0
124 143 0
132 151 0
130 148 0
129 148 0
120 139 0
127 145 0
132 149 0
121 139 0
124 143 0
117 136 0
123 141 0
123 141 0
127 145 0
130 150 0
129 148 0
132 150 0
123 141 0
129 148 0
123 144 0
137 157 0
125 144 0
141 160 0
126 145 0
127 145 0
128 146 0
131 151 0
128 147 0
133 153 0
119 138 0
126 144 0
135 154 0
136 154 0
123 140 0
135 153 0
130 148 0
136 156 0
134 155 0
140 159 0
136 153 0
132 150 0
136 156 0
130 148 0
140 162 0
139 157 0
136 152 0
139 158 0
131 149 0
145 163 0
137 154 0
123 142 0
139 156 0
138 154 0
138 157 0
140 157 0
139 158 0
139 158 0
136 153 0
134 151 0
136 152 0
135 153 0
135 153 0
141 159 0
135 154 0
142 159 0
137 155 0
136 152 0
144 162 0
132 148 0
130 148 0
140 156 0
132 148 0
129 143 0
144 162 0
135 150 0
137 154 0
140 156 0
143 162 0
138 155 0
136 151 0
137 154 0
138 154 0
152 169 0
147 165 0
142 159 0
138 156 0
148 164 0
137 153 0
138 155 0
141 159 0
142 157 0
137 152 0
139 155 0
133 150 0
136 152 0
145 161 0
139 155 0
133 150 0
139 152 0
141 157 0
148 166 0
147 162 0
134 151 0
135 152 0
139 154 0
140 154 0
141 153 0
137 150 0
142 156 0
143 159 0
138 155 0
137 151 0
148 162 0
140 153 0
146 160 0
148 161 0
145 159 0
150 163 0
148 163 0
147 160 0
135 148 0
141 154 0
137 150 0
142 155 0
142 155 0
153 166 0
143 154 0
150 162 0
147 158 0
146 160 0
148 159 0
146 160 0
140 152 0
147 161 0
144 157 0
142 157 0
154 165 0
147 155 0
151 165 0
148 160 0
146 160 0
149 161 0
144 157 0
139 150 0
143 155 0
145 157 0
139 146 0
148 161 0
145 156 0
146 156 0
144 154 0
150 160 0
147 157 0
147 160 0
140 150 0
141 151 0
144 151 0
154 165 0
153 165 0
152 164 0
150 162 0
152 165 0
141 151 0
151 163 0
150 161 0
149 162 0
146 156 0
158 169 0
154 164 0
148 158 0
150 161 0
145 155 0
155 167 0
152 160 0
150 160 0
147 158 0
150 159 0
146 153 0
143 150 0
146 155 0
154 167 0
153 163 0
159 171 0
157 169 0
154 164 0
157 169 0
172 196 0
171 195 0
170 194 0
171 195 0
171 195 0
172 195 0
170 194 0
171 195 0
173 197 0
169 193 0
167 192 0
172 195 0
169 193 0
170 193 0
168 192 0
170 194 0
172 196 0
168 191 0
171 195 0
170 193 0
167 191 0
172 195 0
172 194 0
172 196 0
169 193 0
170 193 0
169 192 0
169 192 0
170 194 0
170 194 0
169 193 0
171 194 0
170 194 0
167 191 0
168 191 0
169 193 0
169 192 0
165 189 0
166 189 0
171 194 0
166 189 0
166 189 0
165 189 0
166 190 0
168 192 0
164 188 0
172 195 0
169 192 0
164 188 0
164 188 0
168 191 0
165 188 0
167 190 0
167 191 0
167 189 0
165 189 0
165 188 0
163 186 0
165 189 0
163 186 0
167 190 0
163 185 0
166 188 0
161 184 0
162 185 0
165 187 0
170 193 0
166 189 0
165 188 0
163 186 0
161 184 0
167 189 0
161 184 0
163 186 0
164 187 0
160 183 0
163 186 0
164 188 0
158 180 0
162 184 0
166 189 0
155 178 0
161 184 0
165 187 0
160 183 0
161 183 0
159 182 0
160 183 0
163 185 0
151 174 0
158 180 0
158 180 0
162 183 0
153 176 0
159 181 0
163 185 0
159 182 0
162 185 0
158 180 0
158 180 0
161 183 0
153 175 0
152 175 0
162 185 0
159 182 0
153 175 0
156 178 0
152 175 0
162 184 0
147 170 0
152 175 0
152 174 0
151 173 0
157 178 0
155 176 0
148 168 0
155 176 0
153 175 0
153 175 0
150 171 0
149 171 0
150 173 0
152 173 0
157 180 0
146 167 0
144 165 0
143 166 0
146 167 0
146 167 0
154 176 0
144 165 0
145 166 0
145 166 0
138 159 0
154 176 0
150 172 0
154 176 0
146 167 0
141 162 0
146 168 0
141 162 0
143 164 0
140 161 0
147 169 0
144 165 0
145 167 0
145 166 0
144 165 0
146 167 0
142 162 0
149 170 0
138 158 0
147 167 0
145 166 0
151 172 0
145 165 0
137 156 0
137 156 0
135 156 0
138 158 0
140 161 0
144 165 0
127 147 0
137 158 0
138 159 0
144 164 0
137 158 0
138 159 0
131 150 0
136 156 0
142 162 0
138 158 0
132 152 0
141 161 0
136 157 0
127 148 0
138 158 0
129 149 0
138 159 0
126 147 0
128 148 0
129 149 0
129 148 0
130 150 0
123 144 0
135 154 0
138 157 0
133 153 0
127 147 0
129 149 0
127 148 0
130 150 0
135 156 0
133 154 0
132 152 0
127 147 0
120 140 0
135 154 0
134 155 0
125 145 0
132 152 0
132 152 0
137 156 0
138 158 0
130 150 0
127 145 0
136 156 0
122 141 0
131 151 0
130 150 0
126 145 0
127 146 0
139 158 0
120 138 0
130 149 0
127 146 0
122 140 0
123 142 0
131 150 0
138 158 0
131 149 0
132 151 0
131 151 0
146 166 0
136 156 0
124 143 0
135 154 0
137 156 0
118 136 0
124 142 0
137 157 0
124 142 0
134 154 0
133 151 0
128 146 0
138 157 0
136 155 0
119 136 0
128 146 0
127 145 0
138 158 0
131 151 0
112 130 0
125 144 0
130 149 0
129 146 0
125 144 0
120 139 0
125 142 0
137 154 0
126 145 0
135 154 0
138 157 0
132 151 0
131 148 0
137 155 0
138 156 0
136 154 0
124 143 0
134 152 0
138 157 0
122 142 0
136 154 0
135 152 0
143 161 0
135 154 0
135 152 0
130 148 0
135 153 0
136 155 0
130 147 0
137 156 0
133 150 0
138 158 0
142 159 0
134 151 0
135 152 0
151 168 0
146 163 0
137 154 0
143 163 0
142 160 0
144 161 0
142 159 0
134 150 0
141 159 0
144 162 0
137 154 0
132 149 0
148 164 0
135 151 0
138 154 0
141 161 0
139 155 0
143 160 0
141 158 0
137 154 0
139 156 0
143 160 0
141 157 0
142 159 0
135 152 0
144 160 0
145 162 0
141 158 0
147 163 0
139 157 0
142 157 0
143 160 0
140 154 0
147 164 0
139 155 0
142 159 0
143 157 0
143 160 0
144 161 0
138 153 0
141 157 0
150 167 0
131 145 0
148 165 0
141 156 0
145 162 0
146 161 0
150 166 0
143 158 0
146 159 0
140 155 0
146 160 0
141 154 0
135 148 0
139 152 0
141 155 0
149 164 0
143 159 0
138 152 0
149 163 0
148 162 0
145 156 0
149 163 0
144 158 0
142 154 0
147 160 0
144 157 0
146 158 0
144 156 0
143 155 0
143 155 0
138 151 0
133 145 0
143 154 0
148 162 0
152 165 0
147 159 0
146 157 0
148 161 0
147 159 0
146 159 0
148 160 0
143 156 0
148 160 0
148 159 0
146 158 0
141 155 0
143 154 0
153 164 0
133 144 0
141 153 0
139 148 0
148 156 0
147 160 0
142 153 0
152 164 0
149 162 0
151 161 0
152 162 0
149 161 0
148 160 0
141 150 0
144 155 0
147 158 0
145 156 0
150 161 0
141 151 0
155 167 0
154 164 0
155 166 0
152 161 0
150 162 0
153 160 0
151 164 0
149 160 0
150 160 0
154 166 0
150 160 0
149 157 0
153 166 0
148 162 0
153 165 0
148 160 0
173 196 0
171 195 0
171 195 0
171 195 0
173 197 0
172 195 0
171 195 0
170 194 0
169 193 0
172 196 0
171 194 0
170 194 0
172 196 0
169 193 0
169 193 0
172 195 0
172 195 0
169 193 0
171 194 0
168 192 0
171 195 0
171 194 0
165 189 0
172 195 0
172 195 0
165 188 0
166 190 0
167 191 0
166 189 0
170 194 0
168 192 0
168 191 0
167 190 0
174 197 0
167 190 0
172 195 0
170 193 0
168 191 0
164 188 0
171 194 0
172 195 0
169 192 0
173 196 0
168 191 0
162 186 0
163 186 0
165 188 0
168 191 0
163 187 0
170 193 0
168 191 0
168 191 0
163 186 0
160 183 0
166 189 0
166 189 0
163 186 0
161 185 0
164 187 0
163 187 0
167 190 0
169 192 0
166 188 0
168 191 0
165 187 0
162 185 0
160 183 0
160 183 0
160 183 0
165 188 0
156 179 0
164 187 0
160 182 0
164 187 0
163 185 0
159 182 0
166 189 0
163 185 0
160 182 0
162 185 0
164 186 0
162 184 0
161 184 0
163 185 0
161 183 0
158 180 0
160 182 0
163 186 0
156 179 0
160 182 0
160 181 0
162 185 0
149 171 0
163 185 0
160 184 0
158 180 0
160 183 0
161 183 0
160 182 0
156 179 0
155 178 0
154 177 0
164 186 0
157 179 0
154 175 0
163 185 0
150 173 0
151 172 0
159 181 0
152 174 0
151 173 0
152 174 0
157 178 0
158 181 0
152 174 0
149 171 0
150 172 0
157 178 0
154 175 0
150 172 0
157 178 0
149 171 0
155 177 0
147 168 0
156 177 0
149 171 0
145 167 0
146 167 0
147 168 0
150 170 0
150 172 0
145 167 0
144 165 0
147 169 0
155 176 0
139 161 0
142 164 0
154 176 0
143 165 0
149 171 0
142 164 0
144 164 0
141 162 0
144 166 0
150 172 0
143 164 0
142 162 0
129 150 0
145 166 0
141 163 0
138 160 0
149 170 0
132 153 0
136 158 0
140 160 0
146 166 0
141 162 0
126 147 0
142 163 0
143 164 0
140 162 0
143 164 0
129 149 0
133 154 0
137 158 0
137 158 0
139 158 0
146 165 0
144 165 0
147 167 0
141 161 0
148 168 0
144 164 0
130 152 0
137 158 0
117 135 0
134 154 0
134 154 0
136 156 0
124 144 0
135 155 0
137 157 0
145 166 0
135 155 0
141 162 0
133 153 0
126 146 0
133 152 0
124 142 0
139 159 0
131 151 0
118 137 0
135 155 0
119 137 0
121 140 0
135 156 0
135 154 0
137 159 0
139 159 0
127 145 0
132 152 0
136 156 0
128 149 0
135 156 0
127 145 0
132 151 0
133 152 0
131 152 0
125 144 0
121 141 0
116 135 0
135 152 0
132 150 0
133 153 0
127 147 0
121 139 0
127 147 0
138 156 0
127 146 0
127 147 0
130 150 0
117 135 0
131 150 0
126 145 0
132 150 0
120 140 0
142 160 0
136 154 0
125 145 0
129 148 0
122 139 0
139 157 0
129 147 0
127 145 0
132 150 0
119 137 0
136 157 0
131 149 0
133 153 0
138 157 0
131 150 0
131 151 0
140 156 0
131 150 0
135 154 0
135 154 0
131 149 0
130 147 0
126 143 0
139 158 0
120 140 0
129 148 0
128 146 0
135 153 0
124 141 0
131 149 0
139 157 0
129 149 0
139 156 0
132 150 0
138 156 0
137 157 0
137 154 0
138 158 0
143 161 0
142 161 0
130 149 0
136 154 0
132 150 0
131 150 0
141 161 0
140 160 0
142 159 0
142 159 0
142 160 0
144 163 0
146 166 0
132 151 0
138 155 0
142 160 0
139 157 0
140 157 0
139 157 0
145 160 0
142 160 0
141 159 0
133 148 0
143 160 0
143 161 0
135 152 0
135 153 0
145 163 0
139 156 0
142 157 0
145 163 0
137 154 0
138 156 0
137 153 0
144 160 0
140 156 0
141 158 0
137 154 0
133 148 0
142 160 0
139 154 0
145 161 0
141 157 0
146 160 0
143 160 0
138 153 0
135 150 0
136 154 0
138 153 0
139 152 0
133 150 0
144 161 0
142 159 0
142 158 0
149 165 0
144 161 0
159 178 0
139 155 0
148 163 0
146 163 0
138 152 0
143 159 0
144 158 0
148 162 0
138 153 0
153 169 0
144 160 0
139 154 0
145 159 0
150 164 0
148 163 0
147 163 0
146 159 0
138 153 0
142 156 0
143 152 0
146 160 0
143 156 0
140 154 0
141 152 0
150 164 0
150 163 0
137 150 0
144 158 0
147 163 0
146 159 0
148 162 0
145 155 0
149 160 0
148 162 0
142 156 0
143 156 0
140 153 0
153 167 0
146 158 0
140 156 0
148 160 0
143 155 0
148 158 0
154 166 0
152 165 0
142 155 0
147 155 0
148 161 0
143 155 0
153 168 0
148 160 0
149 162 0
141 152 0
143 156 0
149 163 0
151 163 0
147 160 0
152 163 0
154 168 0
152 165 0
149 160 0
153 162 0
143 153 0
148 160 0
152 164 0
151 161 0
143 153 0
145 156 0
146 156 0
146 154 0
152 166 0
146 155 0
157 170 0
149 161 0
150 163 0
150 159 0
151 163 0
157 168 0
159 171 0
154 166 0
170 194 0
171 194 0
173 196 0
170 193 0
171 194 0
167 190 0
172 195 0
170 194 0
171 195 0
171 196 0
172 195 0
171 195 0
172 195 0
168 191 0
170 194 0
171 195 0
169 192 0
169 193 0
169 193 0
168 192 0
168 192 0
169 191 0
169 192 0
169 192 0
168 192 0
168 192 0
167 191 0
168 190 0
168 192 0
168 192 0
168 192 0
167 191 0
169 191 0
169 192 0
169 193 0
170 193 0
169 192 0
171 195 0
166 189 0
166 190 0
165 188 0
166 189 0
166 189 0
165 188 0
166 190 0
163 186 0
169 192 0
170 193 0
161 185 0
162 186 0
167 190 0
162 186 0
168 191 0
161 185 0
164 187 0
162 184 0
164 187 0
164 187 0
163 186 0
165 188 0
162 185 0
161 184 0
164 186 0
161 183 0
168 191 0
164 187 0
166 189 0
162 185 0
162 184 0
164 187 0
163 186 0
160 183 0
165 188 0
160 183 0
165 189 0
164 186 0
154 177 0
155 177 0
156 179 0
157 179 0
153 175 0
167 190 0
170 191 0
162 184 0
162 185 0
159 182 0
157 179 0
160 183 0
156 179 0
159 181 0
157 180 0
156 179 0
161 184 0
157 180 0
156 178 0
157 179 0
159 181 0
160 182 0
152 173 0
159 182 0
161 183 0
158 181 0
155 176 0
158 180 0
152 174 0
163 184 0
151 173 0
156 179 0
152 174 0
153 175 0
156 177 0
156 178 0
160 181 0
154 175 0
157 179 0
155 175 0
152 174 0
156 177 0
148 171 0
159 181 0
153 175 0
156 178 0
147 168 0
152 174 0
152 173 0
145 167 0
151 173 0
158 180 0
153 174 0
157 177 0
152 174 0
144 166 0
150 173 0
151 172 0
145 167 0
150 171 0
137 159 0
147 168 0
152 173 0
143 164 0
145 166 0
138 160 0
148 168 0
145 166 0
147 169 0
144 165 0
154 175 0
143 165 0
150 171 0
140 160 0
140 160 0
139 159 0
138 159 0
142 163 0
139 161 0
132 151 0
138 160 0
133 154 0
135 155 0
128 150 0
144 164 0
142 163 0
133 152 0
136 157 0
132 152 0
135 156 0
137 158 0
149 170 0
142 161 0
132 152 0
145 165 0
131 152 0
137 157 0
128 150 0
132 152 0
137 158 0
137 158 0
133 154 0
140 160 0
136 156 0
128 148 0
124 144 0
127 148 0
140 161 0
136 156 0
136 155 0
131 151 0
126 146 0
137 156 0
132 152 0
130 150 0
133 153 0
128 146 0
140 161 0
128 146 0
130 149 0
118 139 0
133 151 0
140 160 0
130 150 0
141 162 0
124 142 0
144 164 0
129 149 0
117 138 0
129 149 0
137 158 0
125 145 0
132 151 0
123 143 0
132 153 0
134 153 0
130 150 0
119 138 0
139 158 0
123 143 0
137 156 0
128 149 0
135 153 0
135 153 0
130 149 0
138 158 0
122 141 0
132 152 0
130 148 0
126 146 0
127 147 0
131 150 0
121 141 0
126 146 0
134 153 0
129 149 0
128 146 0
135 154 0
129 148 0
126 146 0
133 151 0
134 152 0
132 152 0
127 145 0
137 156 0
129 149 0
132 150 0
131 150 0
132 151 0
136 155 0
136 153 0
118 138 0
140 157 0
133 152 0
134 152 0
133 151 0
139 159 0
129 146 0
134 153 0
135 155 0
137 156 0
133 152 0
138 157 0
135 154 0
127 144 0
130 149 0
137 155 0
131 150 0
130 149 0
135 154 0
136 154 0
135 154 0
134 151 0
133 151 0
137 154 0
134 152 0
132 150 0
139 157 0
139 156 0
133 150 0
142 160 0
142 162 0
141 159 0
133 152 0
136 153 0
138 155 0
139 157 0
136 153 0
138 156 0
142 161 0
134 150 0
141 159 0
145 163 0
134 152 0
130 144 0
147 165 0
139 158 0
137 156 0
142 158 0
137 155 0
142 159 0
135 151 0
136 153 0
141 158 0
138 153 0
144 161 0
134 152 0
141 156 0
140 157 0
142 160 0
145 161 0
138 153 0
148 165 0
135 150 0
141 157 0
140 156 0
143 159 0
141 156 0
147 161 0
148 165 0
138 154 0
142 157 0
142 155 0
142 158 0
140 154 0
146 163 0
144 162 0
148 165 0
141 157 0
144 161 0
144 160 0
149 164 0
144 161 0
139 153 0
135 147 0
148 164 0
147 163 0
145 160 0
141 156 0
149 165 0
148 164 0
142 158 0
152 169 0
135 149 0
142 154 0
146 159 0
144 158 0
149 163 0
151 163 0
142 154 0
143 156 0
153 163 0
153 166 0
147 161 0
149 163 0
140 151 0
143 157 0
148 161 0
150 165 0
145 157 0
145 159 0
142 151 0
152 164 0
149 163 0
147 162 0
145 157 0
144 159 0
141 150 0
152 163 0
157 170 0
142 154 0
145 156 0
146 156 0
155 168 0
145 155 0
145 156 0
146 158 0
146 156 0
148 159 0
152 164 0
152 165 0
149 161 0
147 159 0
152 162 0
158 170 0
149 160 0
146 157 0
153 164 0
154 169 0
155 167 0
149 158 0
151 161 0
148 156 0
153 166 0
151 163 0
149 161 0
155 167 0
148 158 0
150 160 0
147 158 0
149 157 0
148 158 0
154 166 0
152 164 0
172 195 0
170 193 0
169 192 0
173 196 0
171 194 0
172 196 0
169 193 0
171 194 0
172 195 0
172 196 0
171 195 0
169 193 0
167 190 0
170 193 0
170 193 0
170 194 0
169 192 0
170 193 0
169 192 0
170 194 0
167 190 0
169 192 0
168 191 0
171 194 0
170 193 0
171 194 0
171 194 0
166 190 0
166 190 0
169 192 0
169 193 0
170 193 0
171 194 0
163 187 0
171 194 0
166 189 0
165 189 0
170 192 0
165 188 0
167 190 0
169 192 0
167 190 0
168 191 0
168 192 0
166 189 0
168 191 0
167 190 0
166 189 0
168 191 0
170 192 0
165 188 0
164 187 0
166 189 0
169 192 0
162 185 0
167 189 0
169 192 0
168 191 0
170 193 0
163 186 0
165 187 0
161 184 0
166 189 0
163 187 0
162 185 0
162 185 0
157 181 0
163 186 0
157 180 0
160 182 0
164 187 0
164 188 0
162 185 0
162 184 0
165 187 0
165 188 0
157 180 0
165 188 0
159 182 0
159 182 0
165 187 0
161 184 0
160 182 0
162 185 0
155 177 0
162 185 0
163 186 0
159 181 0
162 184 0
158 180 0
156 178 0
150 172 0
150 174 0
156 178 0
154 176 0
163 185 0
158 180 0
154 175 0
156 179 0
160 182 0
160 182 0
155 177 0
161 184 0
156 178 0
150 172 0
146 168 0
154 176 0
153 175 0
156 178 0
157 180 0
153 176 0
156 178 0
158 180 0
158 180 0
155 177 0
155 177 0
155 176 0
154 175 0
154 176 0
158 180 0
154 176 0
152 173 0
149 171 0
149 171 0
146 167 0
150 171 0
158 180 0
152 173 0
152 174 0
150 173 0
150 172 0
145 168 0
147 169 0
141 163 0
154 175 0
146 168 0
149 171 0
152 174 0
146 168 0
138 160 0
153 173 0
138 159 0
143 164 0
150 170 0
141 162 0
152 173 0
155 175 0
153 175 0
141 161 0
140 161 0
139 159 0
142 164 0
142 163 0
133 153 0
144 166 0
148 170 0
140 160 0
137 158 0
141 161 0
147 169 0
143 165 0
128 149 0
130 151 0
135 155 0
137 158 0
147 167 0
141 162 0
144 164 0
143 163 0
139 159 0
128 148 0
132 152 0
145 165 0
147 167 0
143 163 0
137 157 0
137 157 0
130 150 0
136 155 0
138 159 0
130 150 0
130 151 0
130 150 0
138 158 0
142 163 0
140 160 0
126 145 0
137 158 0
136 156 0
132 152 0
130 151 0
134 154 0
122 142 0
136 155 0
130 150 0
140 160 0
134 154 0
133 153 0
125 144 0
127 147 0
141 162 0
129 148 0
134 154 0
134 154 0
129 148 0
129 149 0
128 148 0
132 153 0
131 151 0
126 146 0
128 145 0
126 145 0
126 144 0
130 152 0
141 161 0
120 139 0
126 146 0
123 140 0
134 154 0
133 151 0
122 141 0
136 157 0
120 138 0
131 149 0
125 144 0
143 162 0
123 142 0
139 160 0
136 155 0
127 146 0
132 151 0
119 137 0
125 141 0
140 160 0
132 151 0
131 148 0
131 151 0
138 155 0
128 147 0
133 150 0
136 154 0
130 148 0
138 157 0
129 148 0
136 157 0
134 152 0
131 151 0
138 157 0
130 148 0
141 160 0
132 151 0
135 154 0
140 159 0
130 149 0
129 146 0
130 149 0
136 154 0
142 161 0
129 148 0
138 154 0
134 153 0
142 160 0
136 153 0
134 155 0
130 148 0
136 156 0
138 157 0
132 151 0
146 166 0
149 167 0
128 146 0
125 143 0
134 153 0
141 159 0
140 159 0
143 162 0
134 151 0
142 160 0
146 164 0
139 158 0
126 145 0
143 163 0
134 154 0
130 147 0
134 152 0
138 157 0
145 164 0
145 161 0
130 146 0
139 158 0
135 150 0
138 159 0
131 148 0
141 159 0
145 163 0
141 159 0
140 156 0
147 166 0
144 162 0
135 153 0
140 157 0
150 170 0
137 152 0
143 161 0
137 152 0
146 163 0
143 159 0
136 152 0
143 163 0
144 162 0
146 162 0
139 155 0
144 161 0
146 162 0
145 162 0
139 155 0
129 143 0
146 162 0
141 159 0
143 159 0
140 157 0
144 161 0
142 159 0
144 159 0
143 159 0
141 157 0
147 162 0
147 162 0
142 157 0
150 167 0
143 160 0
152 169 0
135 149 0
141 155 0
142 157 0
136 149 0
147 163 0
148 162 0
148 163 0
147 163 0
142 158 0
147 161 0
146 159 0
141 156 0
144 155 0
144 158 0
152 164 0
142 154 0
150 165 0
143 157 0
154 169 0
147 159 0
142 155 0
142 155 0
146 158 0
147 160 0
148 160 0
151 161 0
152 165 0
145 157 0
145 158 0
147 161 0
144 155 0
149 163 0
149 164 0
147 161 0
148 161 0
147 157 0
140 152 0
149 162 0
142 152 0
151 165 0
143 153 0
143 152 0
150 163 0
150 164 0
149 162 0
154 166 0
151 163 0
147 159 0
152 164 0
151 164 0
150 161 0
148 158 0
153 165 0
146 157 0
154 164 0
149 160 0
150 157 0
150 160 0
158 172 0
155 168 0
149 161 0
154 168 0
148 159 0
155 168 0
146 155 0
154 162 0
156 170 0
148 160 0
172 195 0
171 194 0
172 196 0
172 196 0
170 194 0
170 194 0
169 192 0
172 196 0
171 194 0
170 193 0
171 194 0
171 194 0
172 195 0
173 196 0
170 194 0
169 192 0
169 193 0
169 192 0
169 192 0
168 191 0
172 195 0
169 193 0
170 194 0
171 194 0
168 192 0
166 189 0
168 191 0
169 193 0
167 189 0
165 188 0
171 194 0
168 192 0
168 192 0
169 193 0
166 190 0
166 189 0
167 190 0
166 190 0
170 193 0
169 193 0
168 191 0
166 188 0
169 192 0
163 186 0
169 192 0
168 191 0
167 191 0
168 190 0
168 191 0
167 189 0
166 190 0
164 187 0
166 189 0
169 193 0
166 189 0
164 186 0
165 188 0
164 187 0
167 190 0
163 185 0
167 191 0
169 193 0
166 190 0
164 186 0
161 185 0
156 179 0
159 182 0
162 185 0
161 184 0
159 182 0
158 180 0
163 186 0
162 185 0
162 184 0
162 184 0
166 189 0
159 181 0
161 183 0
166 188 0
166 188 0
157 179 0
154 177 0
164 187 0
167 189 0
163 186 0
162 185 0
161 183 0
159 182 0
162 185 0
165 187 0
163 186 0
160 182 0
157 180 0
159 181 0
161 184 0
164 186 0
166 187 0
151 173 0
152 174 0
158 180 0
161 183 0
151 173 0
155 178 0
153 175 0
156 179 0
153 174 0
152 174 0
150 172 0
150 172 0
153 175 0
150 173 0
154 175 0
152 174 0
157 180 0
156 178 0
165 187 0
156 176 0
155 176 0
157 179 0
162 184 0
156 177 0
147 169 0
150 172 0
160 182 0
152 174 0
153 174 0
155 177 0
148 170 0
143 165 0
150 172 0
150 171 0
151 173 0
152 173 0
160 182 0
145 167 0
157 177 0
144 167 0
149 170 0
146 168 0
154 176 0
151 172 0
147 167 0
147 168 0
143 165 0
140 161 0
143 164 0
145 166 0
155 175 0
147 168 0
140 161 0
142 163 0
144 165 0
147 169 0
144 165 0
138 158 0
135 156 0
149 170 0
150 172 0
147 167 0
132 151 0
141 161 0
133 154 0
137 159 0
138 160 0
134 156 0
140 161 0
141 161 0
136 156 0
133 154 0
138 159 0
135 155 0
140 160 0
142 163 0
132 152 0
145 166 0
129 149 0
135 156 0
137 157 0
138 159 0
141 162 0
135 155 0
135 155 0
140 160 0
131 150 0
145 164 0
140 160 0
129 149 0
141 163 0
127 147 0
135 156 0
140 159 0
140 160 0
135 156 0
138 158 0
131 151 0
136 156 0
130 149 0
141 161 0
137 155 0
125 145 0
136 156 0
125 144 0
132 152 0
136 156 0
134 155 0
138 159 0
134 155 0
123 143 0
121 141 0
130 150 0
135 154 0
116 135 0
132 151 0
124 142 0
136 156 0
128 146 0
142 163 0
133 153 0
126 146 0
126 147 0
135 155 0
132 151 0
131 149 0
133 151 0
127 146 0
135 154 0
129 149 0
130 150 0
129 148 0
122 142 0
137 156 0
122 141 0
131 149 0
129 147 0
130 148 0
134 153 0
133 152 0
129 148 0
137 155 0
134 152 0
132 152 0
129 148 0
133 151 0
127 145 0
135 154 0
139 157 0
129 146 0
133 153 0
134 153 0
132 151 0
133 153 0
134 153 0
132 151 0
142 161 0
130 149 0
133 152 0
145 165 0
128 149 0
131 150 0
140 160 0
132 153 0
135 155 0
136 154 0
135 154 0
135 151 0
144 164 0
142 161 0
125 143 0
143 161 0
143 160 0
135 155 0
131 148 0
134 152 0
132 151 0
142 163 0
141 160 0
141 159 0
137 154 0
145 161 0
143 160 0
140 159 0
133 151 0
139 157 0
140 159 0
143 161 0
142 161 0
139 158 0
141 156 0
139 157 0
148 166 0
139 155 0
140 157 0
144 161 0
134 152 0
143 162 0
137 153 0
140 158 0
140 156 0
137 153 0
145 161 0
150 167 0
141 161 0
142 159 0
139 157 0
133 150 0
149 165 0
138 156 0
138 155 0
139 156 0
138 155 0
148 164 0
142 159 0
146 163 0
142 157 0
146 162 0
146 161 0
134 150 0
142 157 0
151 166 0
145 162 0
144 159 0
140 155 0
139 157 0
145 163 0
141 156 0
143 157 0
141 156 0
142 156 0
152 171 0
144 160 0
141 155 0
154 170 0
136 150 0
143 157 0
150 166 0
148 164 0
148 163 0
142 157 0
144 160 0
143 157 0
148 163 0
144 158 0
139 154 0
149 165 0
139 154 0
149 165 0
148 162 0
144 158 0
140 150 0
151 164 0
147 159 0
149 163 0
142 155 0
153 165 0
148 163 0
151 165 0
144 158 0
147 159 0
147 159 0
146 161 0
143 158 0
148 162 0
147 157 0
151 165 0
145 157 0
149 163 0
156 169 0
142 155 0
151 165 0
150 160 0
153 166 0
145 160 0
149 162 0
143 154 0
149 161 0
146 158 0
143 155 0
147 159 0
145 157 0
139 149 0
152 163 0
146 157 0
148 160 0
157 170 0
158 171 0
146 161 0
151 164 0
154 167 0
153 165 0
150 162 0
155 168 0
152 165 0
149 163 0
153 165 0
156 170 0
149 160 0
157 169 0
161 173 0
153 164 0
151 160 0
172 195 0
172 195 0
171 194 0
170 194 0
171 194 0
164 187 0
173 196 0
171 194 0
167 191 0
170 194 0
168 191 0
169 192 0
172 196 0
170 193 0
172 195 0
170 193 0
173 196 0
167 191 0
171 194 0
166 189 0
167 190 0
169 192 0
169 191 0
170 194 0
165 188 0
167 190 0
170 194 0
166 189 0
166 190 0
168 191 0
170 193 0
160 184 0
168 191 0
166 188 0
163 187 0
165 188 0
167 191 0
161 184 0
170 193 0
169 191 0
169 192 0
166 189 0
168 191 0
166 189 0
165 188 0
163 187 0
168 191 0
168 191 0
164 187 0
167 189 0
167 190 0
168 190 0
168 190 0
167 189 0
169 191 0
165 187 0
166 189 0
166 188 0
164 188 0
165 188 0
165 187 0
167 190 0
161 184 0
165 188 0
162 185 0
164 187 0
166 189 0
164 186 0
159 182 0
164 187 0
168 190 0
160 183 0
164 187 0
163 186 0
161 184 0
157 180 0
161 184 0
162 183 0
158 180 0
158 180 0
159 182 0
160 183 0
157 180 0
166 188 0
157 180 0
155 176 0
164 186 0
159 182 0
158 180 0
156 178 0
163 185 0
161 183 0
157 179 0
160 182 0
163 185 0
161 183 0
154 177 0
154 177 0
148 170 0
155 177 0
155 178 0
157 180 0
154 175 0
161 184 0
151 173 0
158 181 0
159 181 0
157 179 0
162 183 0
156 177 0
156 177 0
158 180 0
154 176 0
150 171 0
152 174 0
153 175 0
151 173 0
153 175 0
149 172 0
156 179 0
141 162 0
149 171 0
149 170 0
155 176 0
150 173 0
145 167 0
146 168 0
159 180 0
154 175 0
156 178 0
147 169 0
151 172 0
154 175 0
160 182 0
141 162 0
148 170 0
151 173 0
149 170 0
147 168 0
151 172 0
143 165 0
152 174 0
136 157 0
141 162 0
149 171 0
150 171 0
147 167 0
146 167 0
148 169 0
148 170 0
151 171 0
147 168 0
138 158 0
144 165 0
144 165 0
148 169 0
146 168 0
142 163 0
132 152 0
140 159 0
139 160 0
144 165 0
138 160 0
134 155 0
135 156 0
140 161 0
138 159 0
133 154 0
143 163 0
135 156 0
130 150 0
126 147 0
146 167 0
137 157 0
143 165 0
144 164 0
135 155 0
142 163 0
128 149 0
135 156 0
131 150 0
129 149 0
136 156 0
137 157 0
130 150 0
145 165 0
127 147 0
136 157 0
144 164 0
136 156 0
134 155 0
131 150 0
141 160 0
143 164 0
143 161 0
138 157 0
134 154 0
132 150 0
131 150 0
138 158 0
131 151 0
139 158 0
131 152 0
145 165 0
126 148 0
134 155 0
131 152 0
128 146 0
118 137 0
128 148 0
131 150 0
128 148 0
127 147 0
132 152 0
123 141 0
125 146 0
124 144 0
135 155 0
123 142 0
128 148 0
132 152 0
130 151 0
138 157 0
128 149 0
123 141 0
122 143 0
142 162 0
139 159 0
133 152 0
127 145 0
144 164 0
133 154 0
129 150 0
134 153 0
130 150 0
132 151 0
132 152 0
124 142 0
134 153 0
130 149 0
135 155 0
140 160 0
129 148 0
126 145 0
133 152 0
140 160 0
134 153 0
143 162 0
134 152 0
136 154 0
126 144 0
134 153 0
127 144 0
134 152 0
129 147 0
140 159 0
140 161 0
130 149 0
134 153 0
140 159 0
141 160 0
130 148 0
137 155 0
135 155 0
140 161 0
145 163 0
136 155 0
141 158 0
136 154 0
140 159 0
135 153 0
140 158 0
123 141 0
142 162 0
145 164 0
133 151 0
135 153 0
140 158 0
133 151 0
137 156 0
138 158 0
132 153 0
141 160 0
148 167 0
137 156 0
141 160 0
146 165 0
134 152 0
146 163 0
140 158 0
140 156 0
141 157 0
145 163 0
151 169 0
145 165 0
140 156 0
143 160 0
146 163 0
150 169 0
143 160 0
148 167 0
143 162 0
138 155 0
146 163 0
145 159 0
141 159 0
144 163 0
146 163 0
137 154 0
143 161 0
140 156 0
142 160 0
146 164 0
148 163 0
139 157 0
148 164 0
150 165 0
143 160 0
143 160 0
148 166 0
147 161 0
149 166 0
147 163 0
139 154 0
147 162 0
144 160 0
147 163 0
150 166 0
144 160 0
147 161 0
145 161 0
142 158 0
147 163 0
145 160 0
153 167 0
145 160 0
148 164 0
141 156 0
142 155 0
142 158 0
147 161 0
141 155 0
144 158 0
149 162 0
148 164 0
144 156 0
143 154 0
141 156 0
141 152 0
146 160 0
150 165 0
146 162 0
149 165 0
142 157 0
147 163 0
147 159 0
144 159 0
145 160 0
142 154 0
143 159 0
150 163 0
148 161 0
146 162 0
146 158 0
147 158 0
145 154 0
154 169 0
147 159 0
145 159 0
146 159 0
149 161 0
148 160 0
149 162 0
145 158 0
145 157 0
156 169 0
153 164 0
144 153 0
149 160 0
149 164 0
147 159 0
150 163 0
154 166 0
145 156 0
159 170 0
149 160 0
152 166 0
149 158 0
149 160 0
149 160 0
144 155 0
155 169 0
143 152 0
154 168 0
154 169 0
150 159 0
147 157 0
156 168 0
151 161 0
152 163 0
172 195 0
168 192 0
172 195 0
174 197 0
171 195 0
166 189 0
171 194 0
169 192 0
171 194 0
169 192 0
173 196 0
171 194 0
164 187 0
170 193 0
174 196 0
167 190 0
169 193 0
169 193 0
170 193 0
167 190 0
166 189 0
170 194 0
165 188 0
168 191 0
172 195 0
168 191 0
168 191 0
170 193 0
168 191 0
169 192 0
165 188 0
172 194 0
169 192 0
165 187 0
167 190 0
168 191 0
166 189 0
169 192 0
164 188 0
168 191 0
162 184 0
165 189 0
166 189 0
166 189 0
166 189 0
167 190 0
161 184 0
167 190 0
163 186 0
164 186 0
165 188 0
167 190 0
160 183 0
165 187 0
167 190 0
163 186 0
169 192 0
166 188 0
166 189 0
166 188 0
160 183 0
158 180 0
162 185 0
164 187 0
164 186 0
157 180 0
162 185 0
165 187 0
166 189 0
160 183 0
164 187 0
163 185 0
159 182 0
167 190 0
158 181 0
164 187 0
169 192 0
162 184 0
159 181 0
162 184 0
158 181 0
158 180 0
157 180 0
165 188 0
159 181 0
161 183 0
159 181 0
162 183 0
159 182 0
163 185 0
163 185 0
160 183 0
161 183 0
151 173 0
157 179 0
155 178 0
155 177 0
148 170 0
158 180 0
160 182 0
159 181 0
157 179 0
154 176 0
157 179 0
155 177 0
160 182 0
150 172 0
157 179 0
156 178 0
155 178 0
157 179 0
152 174 0
160 182 0
148 170 0
163 184 0
152 173 0
153 175 0
148 169 0
153 174 0
158 179 0
149 172 0
151 174 0
142 164 0
143 165 0
151 173 0
153 174 0
150 171 0
148 170 0
148 170 0
149 171 0
148 170 0
149 171 0
156 178 0
151 172 0
145 166 0
146 169 0
147 168 0
146 168 0
148 169 0
146 167 0
153 174 0
153 174 0
142 164 0
141 162 0
138 160 0
146 167 0
144 166 0
149 169 0
144 166 0
143 163 0
149 171 0
140 161 0
150 171 0
148 170 0
142 163 0
142 164 0
150 171 0
146 167 0
135 157 0
148 169 0
147 167 0
142 163 0
139 160 0
140 160 0
145 166 0
150 172 0
142 163 0
145 166 0
142 162 0
128 149 0
134 154 0
144 166 0
140 161 0
142 163 0
140 161 0
139 158 0
137 157 0
140 160 0
124 145 0
136 156 0
142 163 0
136 156 0
120 140 0
131 151 0
146 167 0
141 162 0
138 158 0
132 153 0
134 155 0
141 160 0
135 157 0
126 145 0
132 152 0
126 145 0
135 155 0
128 149 0
138 158 0
139 159 0
139 159 0
127 147 0
135 157 0
140 160 0
142 161 0
138 158 0
131 151 0
135 154 0
128 146 0
125 145 0
135 155 0
138 158 0
130 150 0
146 165 0
130 148 0
140 160 0
136 155 0
144 163 0
136 156 0
129 148 0
140 159 0
143 162 0
135 154 0
130 149 0
134 153 0
124 143 0
124 141 0
136 156 0
122 141 0
146 165 0
135 155 0
135 155 0
135 154 0
133 152 0
134 154 0
143 162 0
113 133 0
137 155 0
139 157 0
126 145 0
139 158 0
132 151 0
138 158 0
134 154 0
136 156 0
136 155 0
126 144 0
137 157 0
134 151 0
143 161 0
138 157 0
133 151 0
135 154 0
135 155 0
144 163 0
131 150 0
137 158 0
143 162 0
146 167 0
135 154 0
138 157 0
136 152 0
141 160 0
130 149 0
140 159 0
142 159 0
135 154 0
137 155 0
141 161 0
132 150 0
137 156 0
139 159 0
136 154 0
135 153 0
136 154 0
143 163 0
142 159 0
131 150 0
138 156 0
143 163 0
128 147 0
138 159 0
134 150 0
145 163 0
138 157 0
137 157 0
133 151 0
133 150 0
144 164 0
136 153 0
139 157 0
148 165 0
138 157 0
152 170 0
141 158 0
133 151 0
146 165 0
141 157 0
143 161 0
146 163 0
144 163 0
144 162 0
140 157 0
139 159 0
147 164 0
147 165 0
136 152 0
143 162 0
137 156 0
147 167 0
145 163 0
141 158 0
139 155 0
148 164 0
141 158 0
147 163 0
144 161 0
140 155 0
147 164 0
142 159 0
137 154 0
145 162 0
146 162 0
145 160 0
143 159 0
145 161 0
147 164 0
138 152 0
149 165 0
148 161 0
147 163 0
144 160 0
145 160 0
145 159 0
146 163 0
149 165 0
143 157 0
143 158 0
141 155 0
137 151 0
150 167 0
149 165 0
149 164 0
151 166 0
144 158 0
146 162 0
151 166 0
147 162 0
147 160 0
144 157 0
146 160 0
143 157 0
140 153 0
140 153 0
144 160 0
144 160 0
142 156 0
149 164 0
151 167 0
147 160 0
148 161 0
149 164 0
139 153 0
148 163 0
146 159 0
149 163 0
146 161 0
150 165 0
145 158 0
148 161 0
147 159 0
155 167 0
151 165 0
145 158 0
151 166 0
148 162 0
151 163 0
154 167 0
148 160 0
151 163 0
146 157 0
157 172 0
149 163 0
153 168 0
147 158 0
149 163 0
155 171 0
147 158 0
151 163 0
145 158 0
151 163 0
159 171 0
151 163 0
151 162 0
152 166 0
152 165 0
154 168 0
156 170 0
153 166 0
154 167 0
146 158 0
153 163 0
172 196 0
170 193 0
173 197 0
171 195 0
172 195 0
172 196 0
172 195 0
169 192 0
171 195 0
169 192 0
171 194 0
170 193 0
169 192 0
171 195 0
170 193 0
171 194 0
168 191 0
173 196 0
172 195 0
169 193 0
171 193 0
169 192 0
168 192 0
172 196 0
165 188 0
166 189 0
170 193 0
169 192 0
168 191 0
163 186 0
169 192 0
164 188 0
169 191 0
167 191 0
168 192 0
168 191 0
169 192 0
169 192 0
170 193 0
169 192 0
166 189 0
165 188 0
163 186 0
165 188 0
166 189 0
165 188 0
159 182 0
162 185 0
172 194 0
165 187 0
164 187 0
165 189 0
165 188 0
165 188 0
165 189 0
162 185 0
163 186 0
163 185 0
162 185 0
168 191 0
166 189 0
163 185 0
166 188 0
165 188 0
160 183 0
167 190 0
160 183 0
165 188 0
165 187 0
158 181 0
164 186 0
160 183 0
163 187 0
160 183 0
161 184 0
157 180 0
165 187 0
160 183 0
160 182 0
160 183 0
167 188 0
162 184 0
163 185 0
162 185 0
165 188 0
161 183 0
159 181 0
161 184 0
156 179 0
154 176 0
161 184 0
156 179 0
160 181 0
153 175 0
157 180 0
156 178 0
154 176 0
162 183 0
154 177 0
157 179 0
152 174 0
158 180 0
155 176 0
161 183 0
161 183 0
159 181 0
153 175 0
160 183 0
158 181 0
153 175 0
159 181 0
159 181 0
155 177 0
154 176 0
153 175 0
145 166 0
156 178 0
157 179 0
150 172 0
153 177 0
158 180 0
154 177 0
143 165 0
149 171 0
147 168 0
139 160 0
150 172 0
151 173 0
147 168 0
155 176 0
149 170 0
156 177 0
141 163 0
144 167 0
146 168 0
150 171 0
143 164 0
150 172 0
151 173 0
150 171 0
143 165 0
150 171 0
133 154 0
144 166 0
146 168 0
145 166 0
140 161 0
144 165 0
130 151 0
149 171 0
143 165 0
151 172 0
141 162 0
147 168 0
140 160 0
152 173 0
148 170 0
145 166 0
143 165 0
140 161 0
142 164 0
143 164 0
146 167 0
139 160 0
142 163 0
143 163 0
143 164 0
140 161 0
142 163 0
145 166 0
137 158 0
146 168 0
137 157 0
142 163 0
146 167 0
133 153 0
141 161 0
144 164 0
147 167 0
139 159 0
134 155 0
140 159 0
139 160 0
134 154 0
135 154 0
138 159 0
134 154 0
136 154 0
140 160 0
129 150 0
130 151 0
136 156 0
137 157 0
126 146 0
142 161 0
139 157 0
138 158 0
138 159 0
136 157 0
136 157 0
134 154 0
134 154 0
137 157 0
133 154 0
137 158 0
136 156 0
130 150 0
129 149 0
137 157 0
130 150 0
130 150 0
141 160 0
134 153 0
127 146 0
142 161 0
139 159 0
129 148 0
132 152 0
133 152 0
139 159 0
126 144 0
138 158 0
133 153 0
128 148 0
138 157 0
133 153 0
137 157 0
140 159 0
137 158 0
134 154 0
141 160 0
134 154 0
141 160 0
138 158 0
144 164 0
141 161 0
131 151 0
147 167 0
129 146 0
138 157 0
139 159 0
130 150 0
137 153 0
134 154 0
144 164 0
138 156 0
138 156 0
126 145 0
133 152 0
132 152 0
129 147 0
142 161 0
137 155 0
145 165 0
137 156 0
139 159 0
135 155 0
143 163 0
137 158 0
138 157 0
134 150 0
143 161 0
135 154 0
124 143 0
136 156 0
127 144 0
135 154 0
146 165 0
135 153 0
128 144 0
132 151 0
133 153 0
141 160 0
146 166 0
134 153 0
139 158 0
145 165 0
143 162 0
141 161 0
146 163 0
141 161 0
146 165 0
145 164 0
138 158 0
139 157 0
144 161 0
143 160 0
136 155 0
137 153 0
140 159 0
134 151 0
146 165 0
135 153 0
139 156 0
145 162 0
149 168 0
143 161 0
141 159 0
150 168 0
148 165 0
132 150 0
142 159 0
142 160 0
136 153 0
137 154 0
141 159 0
132 150 0
143 161 0
147 164 0
128 144 0
141 159 0
143 163 0
144 161 0
146 164 0
139 155 0
136 150 0
137 154 0
148 166 0
148 167 0
143 160 0
140 158 0
142 158 0
139 155 0
142 159 0
144 162 0
143 159 0
150 168 0
151 167 0
145 162 0
148 162 0
142 157 0
139 152 0
148 164 0
137 153 0
138 151 0
145 161 0
147 161 0
156 172 0
143 160 0
142 158 0
151 167 0
144 157 0
145 160 0
148 163 0
152 168 0
146 162 0
140 156 0
135 147 0
152 169 0
142 157 0
150 167 0
154 170 0
146 163 0
153 167 0
154 168 0
152 166 0
145 161 0
148 162 0
153 169 0
153 169 0
144 158 0
150 165 0
147 159 0
150 166 0
148 161 0
155 171 0
149 165 0
149 161 0
148 161 0
146 159 0
152 166 0
153 166 0
152 165 0
135 147 0
149 162 0
154 166 0
156 169 0
155 169 0
145 157 0
152 165 0
152 166 0
147 161 0
155 170 0
150 164 0
145 158 0
159 172 0
152 165 0
152 163 0
147 159 0
154 166 0
149 163 0
145 156 0
153 166 0
152 164 0
145 159 0
147 159 0
155 166 0
148 162 0
143 156 0
152 164 0
171 194 0
171 194 0
171 194 0
171 195 0
173 196 0
169 193 0
170 193 0
173 196 0
170 193 0
171 195 0
171 194 0
169 193 0
168 191 0
171 193 0
168 191 0
164 188 0
168 192 0
171 194 0
170 193 0
172 195 0
171 194 0
170 193 0
167 190 0
170 193 0
171 194 0
172 195 0
167 190 0
169 193 0
168 191 0
164 187 0
164 187 0
168 191 0
165 189 0
163 186 0
167 190 0
163 186 0
167 189 0
165 188 0
167 190 0
166 189 0
164 187 0
164 186 0
171 195 0
169 192 0
168 191 0
165 188 0
163 186 0
165 188 0
166 189 0
167 190 0
161 183 0
162 185 0
163 186 0
168 191 0
165 188 0
167 190 0
170 193 0
158 181 0
161 184 0
169 192 0
163 187 0
164 187 0
162 184 0
160 183 0
160 183 0
163 186 0
163 185 0
168 190 0
165 189 0
160 183 0
163 186 0
166 189 0
156 179 0
161 182 0
159 180 0
161 184 0
165 188 0
163 185 0
163 186 0
164 187 0
159 182 0
158 180 0
155 178 0
152 174 0
161 184 0
156 178 0
156 179 0
156 178 0
167 189 0
159 182 0
158 180 0
163 186 0
165 188 0
154 175 0
164 186 0
154 177 0
159 181 0
157 180 0
151 174 0
149 172 0
156 178 0
154 176 0
155 177 0
164 186 0
157 179 0
156 178 0
157 178 0
152 173 0
159 182 0
154 177 0
149 170 0
152 174 0
159 180 0
162 184 0
157 178 0
152 174 0
158 180 0
144 166 0
150 172 0
151 173 0
163 184 0
155 177 0
153 175 0
145 167 0
144 165 0
150 171 0
153 175 0
141 164 0
145 166 0
146 168 0
142 164 0
150 172 0
149 170 0
155 176 0
146 167 0
148 169 0
158 179 0
153 174 0
149 171 0
147 169 0
141 162 0
151 173 0
154 176 0
148 170 0
140 161 0
143 163 0
143 165 0
152 173 0
143 165 0
142 164 0
137 157 0
147 169 0
145 166 0
149 170 0
140 161 0
149 169 0
139 161 0
145 166 0
134 154 0
132 153 0
145 166 0
145 165 0
143 163 0
144 166 0
138 160 0
146 167 0
138 160 0
140 159 0
135 155 0
140 161 0
139 160 0
140 161 0
119 140 0
144 165 0
138 158 0
137 156 0
136 155 0
142 162 0
141 161 0
141 162 0
138 159 0
132 153 0
132 151 0
139 159 0
143 164 0
139 158 0
133 153 0
146 166 0
132 151 0
133 153 0
145 166 0
135 156 0
141 162 0
144 165 0
137 157 0
128 147 0
135 156 0
139 159 0
134 154 0
136 155 0
139 160 0
136 156 0
135 154 0
141 159 0
130 150 0
131 151 0
135 155 0
129 149 0
131 150 0
137 157 0
135 155 0
129 149 0
130 149 0
128 149 0
134 154 0
137 157 0
130 149 0
134 152 0
141 160 0
135 154 0
136 156 0
137 157 0
141 162 0
129 148 0
132 151 0
142 162 0
129 148 0
131 151 0
139 160 0
129 148 0
134 155 0
135 153 0
130 150 0
134 153 0
139 158 0
129 149 0
139 159 0
133 150 0
138 158 0
130 147 0
139 160 0
129 149 0
141 159 0
136 154 0
133 152 0
138 158 0
135 155 0
126 145 0
126 146 0
139 160 0
132 153 0
131 150 0
137 154 0
139 157 0
131 150 0
137 156 0
135 155 0
134 154 0
131 151 0
134 153 0
131 150 0
137 155 0
136 154 0
132 149 0
132 151 0
139 158 0
137 156 0
148 167 0
138 157 0
143 163 0
132 151 0
142 160 0
144 164 0
129 145 0
144 163 0
132 150 0
138 157 0
144 163 0
143 162 0
142 161 0
154 172 0
143 163 0
132 150 0
141 159 0
137 156 0
148 168 0
151 171 0
147 167 0
147 165 0
146 164 0
144 163 0
137 158 0
145 164 0
139 156 0
144 161 0
138 156 0
140 158 0
143 160 0
146 164 0
143 162 0
140 157 0
143 161 0
146 163 0
142 160 0
144 158 0
143 157 0
139 155 0
146 164 0
136 154 0
145 161 0
142 161 0
141 157 0
151 168 0
149 166 0
138 154 0
138 155 0
134 150 0
147 164 0
147 164 0
148 165 0
143 159 0
149 168 0
148 164 0
143 161 0
143 158 0
153 170 0
140 156 0
150 162 0
133 150 0
148 164 0
139 153 0
150 164 0
151 167 0
147 163 0
143 159 0
138 155 0
148 164 0
151 168 0
145 160 0
152 167 0
144 158 0
150 166 0
144 158 0
146 163 0
154 171 0
152 165 0
139 152 0
143 159 0
148 163 0
146 160 0
149 167 0
151 167 0
146 158 0
151 164 0
146 162 0
148 165 0
150 165 0
150 164 0
153 169 0
152 165 0
151 163 0
147 162 0
150 163 0
152 165 0
149 163 0
145 157 0
144 159 0
148 163 0
154 167 0
142 157 0
153 167 0
157 172 0
149 163 0
145 159 0
146 159 0
152 168 0
147 159 0
153 166 0
151 164 0
148 159 0
151 164 0
156 169 0
154 168 0
151 164 0
158 175 0
153 167 0
146 159 0
153 165 0
157 173 0
150 162 0
151 165 0
153 168 0
152 163 0
153 168 0
155 167 0
150 163 0
153 166 0
150 162 0
159 170 0
162 175 0
172 195 0
171 194 0
170 193 0
171 194 0
173 196 0
166 189 0
170 194 0
170 193 0
171 193 0
171 194 0
172 196 0
168 192 0
169 192 0
169 192 0
164 187 0
163 186 0
170 193 0
168 191 0
171 195 0
167 191 0
172 195 0
167 190 0
169 191 0
168 191 0
169 192 0
168 191 0
167 190 0
170 193 0
166 189 0
169 191 0
171 194 0
165 189 0
169 192 0
167 191 0
167 190 0
166 189 0
164 187 0
167 189 0
170 193 0
166 189 0
166 189 0
171 194 0
166 188 0
166 190 0
165 188 0
171 194 0
166 189 0
156 178 0
165 188 0
167 189 0
165 187 0
167 190 0
164 187 0
166 188 0
161 184 0
164 188 0
163 186 0
167 189 0
166 188 0
165 188 0
167 190 0
164 187 0
166 190 0
167 190 0
159 182 0
160 183 0
162 185 0
161 183 0
165 188 0
161 183 0
158 181 0
165 187 0
160 182 0
162 186 0
166 188 0
162 184 0
159 182 0
164 187 0
163 185 0
160 183 0
156 178 0
162 185 0
161 184 0
161 183 0
153 176 0
162 184 0
152 174 0
164 186 0
161 184 0
156 179 0
159 181 0
160 182 0
156 178 0
157 180 0
157 180 0
153 175 0
161 184 0
155 178 0
153 176 0
162 183 0
159 182 0
161 183 0
155 177 0
163 185 0
155 177 0
156 178 0
159 181 0
152 176 0
163 185 0
157 179 0
152 175 0
155 177 0
156 178 0
152 174 0
162 185 0
152 174 0
156 178 0
151 173 0
154 176 0
155 177 0
145 167 0
146 168 0
158 179 0
157 179 0
151 173 0
144 164 0
159 181 0
153 174 0
145 167 0
148 170 0
144 166 0
145 167 0
147 169 0
155 177 0
150 171 0
149 170 0
147 168 0
156 178 0
152 174 0
149 171 0
155 177 0
146 167 0
155 178 0
148 170 0
143 165 0
147 168 0
152 173 0
147 169 0
143 165 0
143 163 0
145 166 0
147 170 0
152 173 0
146 168 0
141 162 0
146 167 0
154 176 0
138 159 0
143 165 0
142 163 0
143 164 0
148 169 0
139 160 0
134 156 0
149 170 0
149 169 0
134 155 0
137 158 0
140 162 0
143 163 0
142 163 0
139 160 0
137 158 0
140 161 0
139 160 0
142 162 0
137 158 0
134 154 0
136 156 0
136 157 0
139 159 0
133 152 0
138 159 0
134 153 0
133 154 0
135 155 0
141 161 0
137 158 0
121 141 0
139 160 0
138 158 0
135 155 0
134 153 0
135 155 0
144 163 0
128 147 0
137 156 0
136 157 0
141 162 0
131 151 0
134 154 0
129 147 0
142 163 0
146 166 0
138 159 0
122 142 0
128 149 0
135 157 0
136 156 0
127 147 0
134 153 0
133 153 0
136 156 0
132 151 0
140 160 0
132 152 0
133 154 0
128 146 0
139 158 0
139 160 0
131 150 0
134 154 0
148 169 0
133 151 0
132 150 0
137 156 0
135 155 0
135 154 0
140 161 0
134 154 0
137 157 0
130 151 0
132 151 0
133 153 0
142 162 0
140 159 0
141 161 0
137 156 0
141 160 0
136 156 0
139 159 0
132 151 0
137 157 0
139 157 0
139 159 0
133 154 0
135 156 0
135 153 0
147 166 0
138 158 0
142 161 0
133 151 0
145 164 0
123 143 0
138 157 0
149 169 0
133 151 0
138 156 0
139 159 0
134 153 0
141 160 0
144 163 0
133 152 0
144 164 0
131 151 0
145 163 0
138 157 0
143 162 0
138 158 0
138 157 0
140 159 0
139 156 0
134 154 0
133 151 0
140 160 0
131 150 0
138 156 0
153 172 0
142 160 0
135 155 0
132 151 0
137 156 0
143 162 0
139 157 0
148 166 0
136 153 0
155 174 0
143 161 0
149 168 0
142 161 0
147 165 0
138 157 0
143 161 0
147 165 0
140 159 0
145 163 0
140 158 0
148 166 0
141 160 0
135 153 0
138 155 0
140 158 0
141 157 0
139 157 0
145 163 0
141 160 0
147 165 0
145 165 0
142 161 0
144 161 0
146 162 0
145 164 0
148 166 0
143 162 0
143 160 0
149 167 0
147 164 0
145 162 0
154 173 0
142 158 0
153 170 0
142 161 0
155 174 0
148 164 0
142 158 0
141 157 0
144 162 0
144 161 0
137 151 0
143 158 0
143 160 0
141 156 0
149 165 0
146 161 0
150 168 0
147 162 0
150 164 0
143 158 0
154 170 0
147 162 0
143 159 0
141 157 0
149 165 0
149 164 0
147 163 0
146 161 0
138 150 0
148 164 0
147 161 0
154 170 0
150 164 0
154 167 0
158 177 0
144 160 0
151 166 0
146 157 0
154 168 0
149 164 0
147 162 0
151 166 0
153 167 0
142 155 0
143 157 0
148 162 0
148 160 0
152 167 0
143 158 0
145 158 0
148 162 0
147 161 0
151 166 0
148 163 0
150 163 0
154 169 0
153 168 0
149 161 0
148 162 0
148 162 0
155 168 0
147 162 0
149 163 0
148 162 0
148 159 0
155 170 0
146 158 0
149 163 0
150 163 0
148 159 0
146 163 0
155 169 0
147 160 0
158 172 0
154 166 0
146 160 0
155 168 0
158 171 0
151 161 0
155 169 0
146 158 0
148 160 0
173 196 0
170 193 0
172 195 0
172 195 0
164 187 0
169 191 0
170 193 0
171 194 0
167 191 0
169 192 0
169 192 0
168 192 0
168 191 0
170 193 0
167 190 0
169 192 0
169 193 0
169 192 0
170 194 0
164 187 0
170 193 0
168 191 0
167 191 0
165 188 0
167 190 0
165 188 0
166 189 0
170 192 0
169 192 0
166 189 0
165 188 0
168 190 0
169 192 0
171 194 0
172 195 0
168 191 0
167 190 0
168 190 0
166 188 0
164 187 0
165 188 0
164 188 0
165 188 0
167 189 0
163 186 0
164 186 0
166 189 0
169 191 0
164 188 0
164 187 0
163 185 0
164 187 0
163 186 0
161 183 0
158 181 0
163 186 0
165 187 0
162 186 0
160 183 0
157 181 0
165 188 0
166 188 0
166 188 0
164 186 0
158 181 0
163 186 0
157 180 0
163 186 0
158 181 0
162 185 0
165 187 0
164 187 0
163 185 0
163 185 0
162 185 0
166 189 0
157 180 0
160 183 0
157 179 0
161 183 0
155 178 0
157 180 0
163 186 0
160 182 0
159 182 0
163 186 0
152 174 0
160 183 0
162 184 0
166 188 0
162 185 0
163 184 0
160 181 0
159 182 0
163 184 0
162 185 0
154 177 0
160 182 0
158 180 0
154 176 0
159 180 0
155 178 0
157 179 0
157 179 0
146 168 0
150 172 0
165 187 0
152 174 0
155 177 0
150 172 0
158 180 0
155 176 0
151 174 0
153 176 0
152 176 0
159 181 0
149 171 0
157 178 0
147 169 0
153 175 0
158 178 0
147 169 0
161 182 0
151 172 0
154 176 0
150 172 0
143 165 0
156 178 0
145 167 0
139 161 0
141 162 0
145 168 0
154 177 0
149 171 0
147 168 0
146 168 0
148 170 0
155 176 0
156 178 0
151 172 0
154 175 0
148 170 0
149 170 0
139 161 0
142 163 0
147 169 0
144 165 0
148 169 0
149 170 0
144 166 0
151 172 0
140 162 0
140 161 0
141 162 0
140 161 0
143 164 0
143 164 0
144 165 0
142 163 0
148 168 0
151 172 0
140 162 0
142 163 0
143 163 0
148 168 0
143 165 0
144 164 0
135 155 0
143 164 0
140 161 0
136 156 0
140 160 0
140 160 0
138 159 0
135 154 0
142 163 0
132 152 0
146 167 0
147 168 0
139 160 0
136 156 0
133 153 0
135 156 0
142 163 0
138 159 0
137 157 0
133 153 0
141 162 0
149 169 0
150 170 0
145 166 0
133 153 0
142 162 0
144 165 0
146 166 0
132 152 0
132 152 0
143 162 0
141 160 0
135 156 0
142 163 0
146 166 0
136 156 0
133 154 0
129 149 0
129 150 0
129 149 0
132 153 0
140 160 0
127 147 0
140 159 0
137 157 0
137 157 0
125 144 0
136 156 0
144 164 0
136 156 0
129 150 0
138 158 0
136 157 0
135 155 0
146 166 0
140 159 0
135 155 0
136 156 0
133 153 0
127 148 0
134 153 0
141 161 0
142 163 0
143 163 0
135 154 0
136 156 0
131 151 0
140 160 0
144 163 0
145 166 0
136 156 0
137 157 0
145 163 0
135 154 0
139 160 0
139 159 0
145 165 0
140 161 0
132 152 0
140 159 0
140 161 0
138 158 0
136 156 0
139 160 0
135 153 0
136 155 0
143 163 0
145 165 0
135 156 0
140 158 0
143 163 0
140 161 0
133 152 0
139 159 0
131 150 0
139 158 0
142 161 0
141 160 0
134 152 0
145 165 0
143 163 0
138 158 0
135 153 0
143 162 0
144 164 0
145 166 0
136 155 0
147 165 0
140 159 0
138 157 0
139 158 0
140 160 0
143 161 0
143 163 0
143 163 0
147 167 0
147 166 0
134 152 0
143 162 0
143 162 0
134 152 0
146 165 0
146 164 0
144 164 0
143 162 0
138 155 0
151 170 0
140 157 0
150 169 0
147 163 0
145 163 0
139 156 0
139 156 0
142 161 0
148 167 0
146 165 0
144 162 0
145 163 0
141 157 0
141 159 0
147 163 0
145 162 0
141 158 0
142 158 0
147 163 0
141 159 0
146 163 0
151 169 0
141 156 0
149 165 0
140 157 0
145 160 0
138 154 0
143 161 0
137 154 0
148 166 0
150 168 0
144 164 0
146 165 0
141 158 0
143 159 0
146 163 0
138 153 0
145 163 0
147 163 0
145 162 0
158 175 0
143 160 0
139 153 0
142 158 0
146 162 0
144 159 0
144 161 0
146 160 0
149 164 0
145 159 0
151 166 0
142 155 0
147 164 0
152 166 0
147 163 0
150 164 0
151 165 0
155 172 0
149 168 0
149 166 0
151 167 0
149 165 0
145 161 0
152 167 0
148 162 0
147 165 0
148 163 0
143 156 0
145 161 0
142 154 0
146 160 0
150 165 0
151 166 0
159 174 0
147 162 0
155 171 0
144 158 0
155 171 0
154 166 0
154 169 0
145 158 0
151 166 0
148 160 0
153 167 0
150 165 0
144 157 0
147 161 0
148 158 0
159 171 0
155 172 0
149 165 0
146 161 0
145 158 0
154 168 0
145 158 0
155 166 0
146 159 0
140 153 0
150 163 0
152 167 0
155 168 0
150 164 0
146 159 0
154 167 0
161 173 0
156 172 0
152 164 0
166 189 0
171 195 0
166 188 0
169 192 0
167 190 0
164 187 0
171 193 0
169 192 0
173 196 0
171 194 0
170 194 0
172 194 0
171 194 0
169 192 0
168 192 0
167 190 0
168 191 0
173 196 0
169 191 0
167 190 0
167 190 0
168 191 0
166 189 0
171 194 0
171 194 0
170 193 0
169 193 0
168 191 0
164 188 0
168 191 0
168 191 0
166 189 0
163 186 0
164 186 0
169 192 0
172 195 0
168 192 0
162 185 0
167 190 0
164 186 0
171 194 0
168 190 0
156 178 0
166 189 0
169 191 0
166 188 0
167 190 0
169 192 0
164 187 0
166 188 0
165 188 0
164 187 0
156 179 0
160 183 0
160 183 0
167 190 0
162 185 0
159 182 0
160 183 0
163 185 0
166 188 0
166 188 0
168 192 0
162 184 0
160 183 0
162 185 0
162 184 0
166 187 0
168 190 0
163 185 0
160 182 0
157 180 0
162 184 0
161 184 0
161 184 0
161 183 0
156 179 0
160 182 0
156 177 0
160 183 0
159 181 0
153 175 0
160 182 0
158 180 0
156 179 0
159 182 0
159 181 0
160 183 0
162 185 0
157 179 0
161 183 0
157 180 0
158 181 0
160 182 0
157 179 0
155 177 0
161 183 0
153 175 0
161 182 0
153 177 0
155 177 0
157 180 0
156 178 0
157 180 0
149 171 0
154 176 0
157 179 0
148 170 0
159 181 0
145 167 0
148 170 0
151 173 0
153 176 0
155 177 0
150 173 0
149 171 0
164 186 0
151 173 0
152 175 0
151 173 0
160 182 0
157 179 0
161 183 0
156 177 0
156 177 0
145 166 0
149 171 0
154 176 0
148 170 0
150 171 0
146 167 0
145 166 0
148 169 0
155 177 0
148 169 0
149 171 0
148 170 0
145 165 0
146 169 0
149 170 0
149 170 0
148 169 0
149 170 0
143 165 0
148 170 0
140 162 0
152 174 0
151 173 0
149 171 0
144 164 0
145 166 0
142 163 0
138 159 0
150 172 0
149 170 0
149 170 0
137 158 0
150 171 0
144 165 0
145 165 0
145 167 0
144 166 0
151 172 0
129 149 0
151 172 0
139 159 0
136 157 0
142 162 0
150 170 0
146 167 0
140 162 0
133 153 0
144 164 0
135 155 0
140 160 0
144 164 0
153 174 0
145 165 0
145 166 0
138 160 0
138 158 0
141 163 0
133 153 0
136 157 0
142 163 0
137 158 0
146 166 0
140 161 0
141 161 0
140 160 0
135 156 0
130 150 0
134 154 0
146 167 0
137 158 0
138 159 0
141 161 0
140 162 0
131 151 0
138 157 0
139 159 0
136 157 0
138 159 0
140 160 0
142 162 0
130 149 0
137 157 0
140 161 0
138 157 0
132 153 0
123 142 0
130 149 0
135 155 0
127 147 0
146 165 0
137 157 0
141 161 0
132 152 0
133 152 0
137 156 0
141 162 0
140 160 0
142 163 0
137 157 0
124 143 0
135 155 0
137 157 0
128 148 0
134 154 0
133 152 0
133 151 0
139 158 0
143 162 0
138 157 0
143 164 0
135 156 0
145 165 0
135 155 0
139 159 0
148 168 0
134 153 0
136 157 0
128 147 0
137 157 0
146 167 0
137 158 0
141 160 0
129 148 0
135 153 0
128 149 0
135 153 0
137 158 0
130 149 0
137 155 0
144 164 0
141 161 0
142 161 0
141 160 0
130 149 0
135 154 0
140 160 0
137 155 0
152 172 0
142 162 0
131 150 0
135 154 0
137 156 0
140 159 0
148 168 0
140 159 0
149 168 0
142 162 0
138 158 0
146 166 0
144 164 0
141 159 0
140 159 0
131 147 0
143 162 0
140 158 0
137 156 0
135 152 0
147 165 0
143 162 0
133 152 0
139 157 0
140 157 0
145 165 0
144 162 0
142 160 0
147 164 0
144 163 0
143 162 0
151 170 0
132 151 0
148 166 0
138 156 0
144 162 0
143 161 0
143 161 0
147 165 0
146 165 0
152 171 0
141 156 0
154 173 0
148 166 0
145 164 0
139 156 0
143 161 0
143 158 0
148 164 0
144 163 0
146 162 0
146 166 0
149 167 0
142 157 0
143 159 0
145 160 0
141 158 0
147 163 0
148 166 0
150 170 0
145 164 0
144 161 0
145 162 0
146 162 0
145 162 0
145 162 0
147 163 0
157 172 0
145 160 0
147 164 0
149 165 0
144 162 0
141 157 0
144 160 0
147 163 0
144 162 0
148 165 0
148 164 0
149 166 0
154 172 0
148 166 0
146 159 0
153 169 0
147 162 0
143 159 0
139 154 0
155 171 0
146 159 0
148 164 0
147 163 0
143 157 0
141 158 0
141 157 0
147 165 0
149 164 0
149 164 0
153 168 0
142 155 0
147 163 0
150 165 0
148 164 0
149 162 0
151 166 0
152 168 0
150 165 0
152 168 0
152 167 0
146 162 0
145 157 0
146 162 0
147 158 0
146 160 0
146 159 0
148 162 0
146 159 0
152 163 0
150 163 0
139 152 0
147 159 0
150 165 0
146 158 0
152 165 0
149 162 0
151 165 0
151 166 0
148 161 0
146 161 0
152 165 0
156 171 0
156 166 0
152 167 0
158 171 0
150 163 0
151 164 0
148 159 0
148 163 0
146 158 0
154 165 0
172 195 0
171 195 0
172 195 0
169 192 0
169 192 0
171 194 0
167 190 0
173 197 0
170 194 0
174 197 0
172 195 0
172 195 0
172 195 0
167 189 0
171 194 0
168 192 0
169 192 0
169 191 0
168 191 0
168 191 0
167 190 0
167 190 0
171 194 0
171 194 0
169 192 0
167 191 0
168 191 0
170 193 0
167 190 0
169 192 0
168 190 0
171 194 0
167 190 0
165 188 0
169 192 0
165 187 0
169 192 0
164 187 0
164 188 0
165 188 0
165 188 0
164 188 0
166 189 0
163 186 0
164 187 0
164 187 0
164 187 0
164 185 0
169 192 0
162 185 0
166 189 0
165 188 0
163 186 0
160 183 0
167 190 0
166 188 0
155 177 0
164 187 0
155 178 0
165 187 0
160 182 0
166 188 0
167 189 0
162 185 0
161 184 0
162 185 0
161 184 0
164 188 0
159 182 0
159 181 0
169 192 0
161 183 0
160 183 0
162 185 0
162 184 0
165 188 0
161 182 0
162 185 0
164 186 0
164 186 0
159 181 0
161 183 0
155 178 0
163 185 0
164 187 0
166 189 0
161 184 0
149 172 0
157 179 0
159 180 0
159 181 0
159 180 0
159 181 0
159 181 0
164 186 0
158 180 0
155 178 0
164 186 0
159 181 0
159 181 0
152 175 0
156 178 0
148 170 0
158 180 0
156 178 0
152 175 0
159 181 0
149 170 0
156 178 0
153 175 0
159 180 0
157 180 0
151 173 0
151 173 0
157 180 0
153 176 0
152 173 0
152 174 0
158 179 0
159 182 0
154 176 0
150 172 0
151 173 0
149 172 0
156 177 0
150 172 0
153 175 0
157 178 0
151 174 0
153 175 0
154 176 0
155 177 0
146 168 0
151 174 0
149 170 0
145 166 0
143 164 0
146 167 0
147 169 0
156 178 0
149 169 0
145 166 0
147 169 0
150 172 0
141 162 0
146 168 0
138 160 0
139 160 0
145 166 0
150 171 0
147 168 0
148 169 0
143 166 0
153 175 0
156 178 0
145 167 0
143 165 0
139 161 0
147 169 0
140 161 0
147 169 0
142 163 0
136 158 0
138 159 0
144 164 0
137 157 0
148 169 0
143 163 0
148 169 0
140 162 0
141 163 0
140 161 0
147 170 0
133 153 0
139 160 0
141 161 0
141 162 0
134 155 0
136 158 0
140 160 0
149 170 0
139 161 0
141 161 0
133 154 0
135 155 0
142 164 0
143 164 0
141 161 0
128 148 0
132 152 0
136 155 0
147 167 0
138 159 0
130 150 0
135 155 0
131 150 0
140 160 0
146 167 0
131 151 0
140 160 0
130 150 0
142 163 0
137 158 0
131 153 0
138 159 0
132 152 0
135 155 0
142 162 0
136 157 0
145 167 0
123 143 0
141 159 0
140 162 0
143 163 0
145 166 0
140 161 0
137 156 0
138 158 0
134 155 0
143 163 0
142 163 0
140 161 0
139 159 0
139 159 0
138 157 0
140 160 0
137 157 0
138 158 0
136 156 0
128 146 0
137 156 0
143 164 0
141 161 0
140 160 0
145 165 0
129 149 0
136 158 0
134 154 0
135 155 0
141 161 0
144 166 0
138 158 0
136 157 0
145 164 0
131 150 0
140 159 0
139 158 0
148 169 0
140 161 0
144 165 0
133 151 0
131 149 0
141 160 0
137 157 0
143 163 0
142 161 0
128 147 0
139 159 0
138 158 0
139 159 0
138 157 0
141 161 0
143 163 0
138 157 0
143 164 0
137 156 0
138 159 0
143 162 0
125 144 0
141 162 0
142 161 0
150 169 0
145 165 0
144 162 0
138 157 0
141 160 0
136 153 0
136 154 0
144 165 0
140 160 0
138 158 0
140 160 0
137 157 0
133 150 0
138 158 0
148 167 0
142 159 0
141 159 0
147 165 0
136 155 0
135 154 0
152 170 0
138 156 0
145 165 0
140 159 0
139 157 0
143 161 0
148 167 0
147 167 0
151 170 0
143 164 0
150 169 0
138 156 0
151 166 0
141 160 0
147 165 0
144 161 0
143 162 0
149 165 0
146 165 0
141 158 0
152 170 0
147 167 0
144 161 0
143 159 0
145 162 0
147 166 0
146 163 0
151 170 0
145 163 0
153 172 0
136 153 0
149 167 0
146 163 0
145 162 0
151 169 0
153 172 0
151 168 0
147 166 0
147 165 0
137 153 0
150 170 0
149 166 0
144 160 0
145 163 0
153 171 0
144 162 0
149 167 0
138 153 0
143 160 0
147 163 0
149 166 0
151 167 0
144 161 0
147 163 0
153 170 0
145 162 0
143 159 0
152 166 0
148 163 0
148 165 0
145 161 0
150 168 0
143 157 0
152 167 0
148 165 0
154 170 0
153 170 0
147 163 0
147 162 0
148 165 0
151 164 0
151 167 0
150 165 0
150 166 0
146 161 0
152 168 0
152 168 0
147 162 0
151 167 0
150 167 0
149 165 0
147 160 0
156 172 0
146 164 0
144 157 0
145 157 0
146 162 0
155 169 0
159 175 0
155 168 0
151 168 0
157 171 0
149 164 0
149 163 0
149 162 0
152 166 0
149 164 0
150 165 0
152 166 0
149 163 0
153 166 0
155 171 0
152 165 0
146 158 0
157 170 0
154 170 0
155 171 0
152 166 0
154 169 0
170 193 0
171 193 0
167 190 0
170 193 0
170 193 0
169 193 0
169 192 0
171 194 0
168 191 0
166 189 0
168 192 0
169 192 0
170 193 0
169 192 0
173 196 0
171 193 0
164 187 0
172 195 0
169 191 0
169 191 0
170 194 0
169 192 0
165 187 0
164 187 0
171 194 0
163 185 0
164 187 0
166 189 0
162 185 0
164 187 0
168 191 0
169 192 0
166 189 0
164 187 0
162 185 0
168 191 0
163 186 0
165 188 0
169 192 0
170 193 0
164 187 0
165 188 0
165 189 0
165 188 0
163 186 0
167 190 0
164 187 0
165 187 0
167 190 0
165 188 0
165 188 0
168 190 0
166 188 0
166 187 0
164 186 0
162 185 0
161 184 0
165 188 0
167 190 0
167 191 0
161 184 0
161 184 0
165 188 0
161 183 0
165 188 0
155 177 0
159 182 0
158 181 0
165 188 0
165 188 0
158 181 0
160 183 0
163 185 0
163 186 0
166 188 0
166 188 0
156 179 0
163 186 0
163 185 0
162 186 0
163 186 0
152 175 0
159 181 0
161 184 0
163 184 0
158 181 0
154 175 0
160 182 0
158 180 0
155 179 0
157 180 0
163 185 0
164 187 0
164 187 0
160 182 0
158 180 0
156 178 0
154 177 0
157 179 0
154 177 0
153 175 0
149 172 0
159 181 0
158 180 0
153 175 0
149 172 0
161 182 0
155 178 0
153 174 0
149 171 0
149 171 0
158 181 0
156 177 0
150 173 0
155 178 0
152 174 0
154 176 0
152 173 0
155 176 0
151 173 0
154 176 0
150 172 0
149 172 0
152 174 0
158 180 0
157 179 0
159 181 0
150 172 0
150 171 0
148 170 0
157 177 0
142 163 0
152 173 0
151 173 0
157 179 0
150 172 0
150 173 0
145 166 0
152 174 0
152 173 0
149 170 0
152 172 0
146 167 0
146 167 0
143 165 0
149 171 0
148 169 0
146 167 0
150 173 0
144 164 0
148 169 0
139 160 0
146 167 0
150 170 0
152 172 0
144 165 0
149 170 0
146 167 0
141 161 0
144 165 0
149 170 0
142 162 0
136 157 0
140 161 0
146 167 0
137 159 0
147 169 0
143 163 0
145 165 0
141 163 0
139 160 0
138 159 0
145 165 0
143 164 0
148 169 0
143 165 0
137 158 0
138 159 0
141 162 0
139 159 0
126 146 0
134 153 0
132 153 0
142 162 0
142 163 0
139 161 0
141 162 0
137 157 0
142 163 0
134 153 0
135 155 0
138 158 0
138 159 0
151 171 0
131 152 0
134 155 0
136 157 0
146 168 0
146 166 0
141 162 0
136 156 0
126 146 0
131 151 0
153 175 0
147 168 0
138 157 0
139 159 0
138 159 0
140 161 0
140 160 0
140 161 0
139 159 0
139 159 0
146 166 0
130 150 0
151 171 0
133 152 0
138 159 0
143 162 0
138 158 0
138 158 0
138 158 0
133 153 0
143 163 0
141 162 0
124 144 0
143 163 0
137 158 0
142 162 0
134 154 0
135 155 0
137 157 0
146 164 0
139 157 0
133 152 0
137 156 0
132 152 0
130 150 0
132 153 0
147 167 0
147 167 0
144 164 0
136 156 0
145 164 0
139 158 0
129 150 0
124 143 0
140 160 0
136 156 0
139 159 0
143 163 0
139 158 0
134 155 0
133 152 0
141 160 0
142 162 0
138 159 0
132 151 0
144 163 0
149 169 0
139 159 0
141 160 0
142 160 0
125 144 0
141 160 0
147 166 0
142 160 0
140 160 0
134 153 0
150 170 0
138 156 0
142 161 0
141 160 0
151 171 0
141 161 0
141 161 0
140 157 0
139 158 0
137 157 0
139 160 0
145 164 0
134 153 0
140 158 0
146 165 0
140 157 0
138 157 0
142 163 0
151 171 0
137 155 0
147 165 0
135 151 0
139 158 0
140 160 0
144 163 0
142 161 0
138 155 0
146 166 0
144 163 0
142 161 0
147 165 0
147 167 0
139 156 0
149 168 0
144 163 0
152 172 0
144 162 0
145 164 0
145 162 0
141 159 0
143 161 0
144 162 0
144 162 0
143 164 0
144 162 0
134 152 0
142 158 0
148 165 0
146 164 0
148 167 0
145 164 0
147 164 0
138 157 0
142 157 0
140 156 0
148 167 0
140 156 0
149 167 0
143 160 0
146 162 0
143 161 0
146 163 0
148 164 0
149 166 0
147 162 0
149 165 0
146 164 0
151 170 0
148 165 0
142 156 0
154 171 0
152 169 0
145 162 0
155 173 0
150 166 0
147 164 0
146 162 0
152 167 0
151 168 0
147 164 0
144 155 0
142 156 0
157 173 0
156 173 0
149 166 0
151 167 0
151 168 0
145 160 0
148 164 0
149 164 0
142 157 0
146 160 0
146 160 0
150 165 0
147 161 0
152 169 0
148 161 0
157 172 0
152 166 0
151 166 0
149 165 0
146 161 0
145 158 0
143 157 0
145 160 0
147 161 0
148 163 0
147 163 0
155 172 0
154 169 0
154 171 0
151 169 0
149 164 0
157 171 0
153 169 0
143 155 0
156 170 0
152 166 0
151 165 0
149 161 0
158 173 0
147 161 0
155 169 0
156 170 0
151 164 0
151 163 0
151 164 0
150 166 0
154 167 0
156 171 0
149 163 0
171 194 0
170 193 0
171 194 0
170 193 0
164 187 0
171 194 0
169 192 0
167 191 0
171 193 0
166 189 0
170 193 0
170 193 0
164 187 0
171 194 0
169 191 0
167 191 0
170 193 0
162 186 0
168 191 0
167 189 0
170 193 0
169 192 0
166 190 0
164 186 0
170 193 0
172 195 0
167 190 0
172 194 0
167 190 0
166 189 0
163 186 0
169 192 0
165 189 0
166 190 0
165 189 0
165 188 0
167 190 0
168 191 0
169 192 0
167 189 0
165 188 0
168 191 0
167 190 0
163 186 0
161 184 0
162 184 0
166 190 0
163 186 0
166 188 0
172 194 0
165 187 0
160 182 0
165 187 0
167 190 0
156 179 0
165 189 0
162 185 0
160 183 0
162 184 0
165 188 0
166 189 0
160 183 0
161 183 0
157 180 0
162 185 0
156 177 0
160 183 0
164 187 0
168 190 0
165 187 0
160 182 0
164 186 0
166 188 0
164 187 0
160 183 0
159 181 0
165 187 0
165 188 0
167 189 0
158 179 0
155 177 0
161 183 0
166 188 0
151 173 0
156 179 0
156 178 0
160 183 0
157 180 0
157 179 0
159 182 0
157 179 0
162 184 0
154 176 0
161 183 0
162 185 0
155 177 0
151 173 0
157 180 0
159 182 0
153 175 0
156 178 0
156 178 0
158 179 0
157 180 0
160 184 0
151 172 0
163 185 0
155 177 0
156 179 0
155 178 0
159 181 0
156 179 0
151 172 0
155 178 0
164 186 0
158 179 0
155 177 0
153 175 0
151 172 0
157 180 0
156 178 0
154 176 0
155 177 0
152 174 0
158 180 0
151 172 0
152 174 0
148 170 0
153 175 0
137 159 0
153 176 0
160 182 0
155 177 0
150 171 0
156 179 0
150 171 0
148 171 0
142 163 0
149 169 0
154 174 0
150 172 0
148 168 0
151 172 0
148 169 0
150 171 0
147 167 0
144 166 0
157 179 0
143 164 0
138 160 0
157 177 0
148 171 0
151 172 0
148 170 0
146 168 0
147 169 0
145 166 0
151 172 0
148 169 0
146 168 0
148 170 0
141 163 0
142 163 0
145 166 0
141 162 0
152 172 0
140 160 0
140 160 0
137 158 0
145 166 0
137 158 0
147 168 0
145 166 0
137 158 0
140 162 0
140 161 0
139 160 0
150 170 0
147 167 0
145 166 0
140 160 0
143 164 0
140 162 0
131 153 0
145 166 0
140 160 0
142 162 0
139 160 0
149 170 0
137 159 0
138 159 0
141 162 0
144 165 0
140 161 0
140 160 0
138 159 0
134 153 0
127 148 0
135 155 0
139 159 0
133 155 0
138 159 0
143 164 0
142 163 0
137 158 0
130 150 0
132 153 0
140 160 0
133 155 0
141 162 0
133 153 0
134 152 0
140 160 0
143 162 0
134 154 0
131 151 0
136 155 0
139 160 0
138 158 0
149 169 0
146 166 0
141 162 0
134 154 0
147 168 0
123 142 0
137 159 0
144 164 0
139 161 0
135 154 0
142 161 0
136 154 0
145 165 0
141 161 0
145 166 0
137 157 0
128 148 0
140 160 0
138 157 0
140 161 0
136 156 0
150 169 0
131 149 0
139 157 0
134 154 0
134 154 0
138 159 0
132 151 0
138 159 0
136 156 0
141 162 0
138 158 0
141 161 0
144 163 0
142 163 0
143 165 0
138 157 0
140 160 0
136 155 0
136 154 0
134 154 0
138 157 0
141 161 0
137 156 0
143 162 0
150 171 0
140 160 0
141 161 0
142 160 0
142 161 0
137 157 0
145 163 0
150 171 0
131 152 0
144 163 0
141 160 0
141 162 0
139 159 0
141 160 0
142 162 0
142 160 0
135 154 0
143 161 0
146 165 0
138 157 0
142 161 0
138 156 0
145 164 0
144 163 0
136 155 0
154 174 0
135 153 0
144 162 0
143 162 0
140 159 0
147 165 0
145 164 0
145 165 0
149 168 0
151 170 0
149 167 0
150 168 0
142 161 0
149 168 0
141 156 0
138 155 0
150 170 0
151 170 0
152 171 0
147 166 0
151 170 0
146 167 0
138 158 0
148 166 0
150 167 0
144 162 0
148 166 0
150 170 0
150 168 0
146 162 0
147 164 0
154 172 0
143 161 0
144 163 0
148 166 0
149 168 0
149 167 0
148 166 0
146 165 0
155 175 0
140 155 0
151 170 0
147 164 0
142 159 0
148 168 0
144 162 0
147 165 0
153 169 0
143 159 0
144 160 0
147 165 0
147 166 0
151 170 0
143 157 0
154 172 0
154 171 0
147 164 0
148 165 0
152 168 0
150 167 0
146 160 0
147 165 0
151 168 0
147 163 0
153 170 0
149 166 0
146 164 0
150 167 0
156 173 0
149 164 0
155 172 0
153 168 0
150 167 0
153 167 0
154 169 0
147 162 0
148 163 0
147 163 0
150 164 0
150 166 0
146 160 0
155 172 0
151 165 0
148 166 0
153 169 0
148 164 0
144 157 0
149 165 0
150 166 0
153 167 0
148 163 0
155 169 0
149 164 0
146 160 0
147 160 0
155 171 0
150 164 0
153 168 0
159 174 0
154 168 0
157 172 0
150 164 0
158 173 0
146 157 0
153 165 0
155 167 0
153 165 0
155 171 0
148 161 0
154 170 0
152 165 0
172 195 0
167 190 0
170 193 0
166 190 0
169 192 0
169 192 0
167 191 0
169 192 0
169 192 0
171 194 0
167 190 0
170 192 0
169 193 0
168 191 0
169 193 0
170 193 0
165 188 0
170 192 0
170 193 0
167 189 0
172 195 0
166 188 0
163 186 0
162 185 0
165 188 0
167 190 0
165 188 0
157 180 0
165 188 0
171 194 0
167 190 0
168 191 0
169 192 0
164 187 0
166 188 0
161 183 0
163 185 0
165 188 0
167 190 0
166 189 0
167 189 0
165 189 0
165 188 0
166 189 0
163 186 0
163 187 0
170 192 0
169 192 0
166 189 0
163 186 0
165 188 0
162 185 0
166 188 0
164 187 0
160 182 0
166 189 0
164 188 0
162 185 0
164 187 0
168 191 0
165 187 0
161 184 0
161 183 0
161 183 0
158 181 0
161 183 0
161 184 0
161 184 0
164 187 0
165 187 0
165 186 0
161 184 0
163 186 0
160 182 0
165 188 0
157 179 0
155 176 0
161 183 0
161 184 0
162 185 0
161 183 0
157 180 0
159 182 0
160 183 0
155 178 0
163 186 0
156 177 0
165 188 0
165 188 0
161 183 0
153 175 0
161 182 0
156 178 0
161 183 0
165 186 0
157 179 0
160 182 0
160 182 0
158 180 0
159 182 0
161 183 0
150 172 0
162 183 0
158 181 0
153 176 0
153 176 0
148 170 0
155 176 0
153 175 0
148 170 0
152 175 0
156 178 0
154 175 0
159 180 0
162 184 0
156 179 0
152 174 0
154 176 0
159 182 0
152 174 0
156 178 0
149 171 0
156 177 0
155 174 0
156 178 0
155 176 0
148 170 0
148 171 0
156 177 0
143 165 0
152 175 0
148 170 0
149 170 0
161 183 0
151 173 0
144 165 0
146 167 0
147 169 0
146 166 0
154 175 0
149 172 0
144 165 0
151 173 0
153 175 0
152 174 0
144 164 0
149 169 0
149 170 0
149 170 0
149 171 0
141 162 0
152 173 0
150 172 0
142 164 0
151 171 0
153 175 0
141 161 0
158 181 0
150 171 0
149 172 0
152 172 0
135 157 0
149 170 0
146 167 0
150 172 0
143 163 0
146 167 0
143 164 0
144 165 0
145 166 0
134 154 0
140 161 0
138 160 0
145 164 0
138 159 0
137 157 0
141 162 0
145 165 0
147 168 0
142 162 0
141 163 0
146 167 0
153 174 0
140 160 0
134 154 0
136 157 0
143 164 0
144 165 0
138 158 0
144 164 0
134 154 0
133 153 0
143 165 0
139 160 0
147 167 0
141 161 0
142 163 0
138 157 0
145 165 0
136 157 0
137 158 0
148 169 0
144 163 0
132 153 0
141 162 0
135 156 0
142 161 0
139 159 0
139 160 0
143 162 0
141 162 0
134 155 0
140 160 0
134 155 0
134 153 0
142 162 0
132 153 0
136 157 0
149 171 0
144 164 0
136 156 0
137 157 0
136 156 0
137 158 0
143 164 0
140 161 0
135 156 0
139 160 0
148 168 0
138 158 0
143 163 0
129 149 0
146 166 0
130 150 0
139 160 0
130 149 0
136 156 0
137 157 0
137 157 0
142 162 0
145 164 0
135 154 0
137 157 0
137 156 0
130 148 0
142 162 0
136 157 0
138 157 0
140 160 0
136 156 0
141 162 0
144 164 0
143 163 0
132 151 0
145 166 0
140 160 0
139 158 0
138 157 0
144 164 0
135 155 0
139 158 0
144 164 0
142 162 0
141 162 0
143 165 0
148 167 0
147 167 0
137 157 0
147 167 0
134 154 0
148 168 0
143 163 0
136 157 0
144 164 0
134 153 0
141 160 0
131 152 0
138 155 0
144 164 0
140 159 0
137 158 0
144 165 0
148 169 0
139 159 0
140 158 0
144 164 0
147 168 0
141 161 0
136 155 0
144 164 0
141 160 0
144 164 0
135 154 0
142 161 0
145 162 0
143 159 0
141 159 0
141 159 0
148 167 0
153 173 0
153 169 0
141 162 0
152 171 0
147 167 0
143 161 0
145 164 0
146 165 0
151 168 0
141 161 0
149 167 0
144 164 0
145 164 0
146 166 0
151 167 0
147 165 0
145 164 0
144 164 0
145 163 0
151 169 0
145 164 0
144 162 0
148 166 0
146 165 0
146 165 0
152 171 0
149 166 0
151 170 0
146 162 0
148 167 0
149 167 0
155 173 0
149 167 0
145 165 0
134 150 0
150 167 0
147 164 0
157 174 0
147 161 0
144 160 0
145 162 0
153 169 0
145 162 0
153 170 0
145 161 0
152 169 0
144 162 0
148 165 0
149 166 0
153 171 0
136 151 0
150 165 0
152 168 0
152 168 0
148 165 0
156 172 0
150 165 0
148 164 0
147 163 0
148 161 0
146 161 0
146 163 0
149 165 0
147 162 0
152 166 0
147 164 0
149 164 0
150 166 0
153 168 0
153 169 0
148 166 0
153 169 0
155 170 0
147 164 0
149 166 0
144 158 0
152 168 0
147 160 0
151 166 0
148 166 0
152 168 0
149 164 0
154 170 0
158 172 0
150 165 0
154 169 0
145 159 0
155 170 0
155 169 0
156 168 0
154 168 0
145 160 0
148 162 0
145 158 0
154 166 0
157 169 0
156 169 0
151 166 0
161 175 0
156 172 0
152 164 0
168 190 0
172 195 0
172 195 0
167 190 0
171 194 0
173 196 0
169 191 0
165 189 0
168 191 0
169 192 0
169 192 0
166 189 0
168 190 0
171 194 0
167 190 0
165 187 0
171 193 0
170 193 0
168 191 0
166 190 0
166 188 0
168 191 0
168 191 0
168 190 0
167 191 0
168 191 0
166 190 0
171 195 0
166 190 0
166 189 0
168 191 0
166 188 0
166 189 0
169 191 0
166 189 0
170 192 0
165 187 0
164 187 0
164 187 0
162 186 0
169 192 0
165 187 0
164 187 0
172 194 0
170 193 0
165 189 0
164 186 0
159 182 0
164 186 0
166 189 0
165 188 0
163 187 0
163 186 0
163 185 0
167 190 0
165 188 0
163 185 0
165 188 0
160 183 0
163 186 0
167 190 0
166 189 0
161 182 0
166 189 0
158 181 0
162 186 0
164 187 0
166 188 0
160 182 0
166 189 0
163 186 0
161 184 0
158 181 0
163 186 0
164 187 0
165 187 0
165 187 0
159 182 0
158 182 0
155 178 0
165 188 0
167 190 0
157 179 0
160 183 0
158 180 0
159 182 0
161 183 0
156 179 0
157 180 0
160 182 0
158 181 0
159 181 0
160 182 0
155 177 0
156 178 0
158 180 0
159 181 0
162 184 0
160 183 0
157 180 0
151 173 0
154 175 0
154 176 0
153 175 0
155 177 0
159 181 0
148 171 0
160 183 0
151 173 0
152 174 0
155 177 0
161 183 0
160 182 0
157 180 0
165 187 0
151 173 0
158 180 0
148 170 0
152 173 0
149 171 0
154 176 0
157 178 0
146 169 0
148 170 0
156 178 0
147 169 0
147 169 0
151 172 0
145 167 0
154 176 0
148 170 0
154 176 0
150 172 0
142 163 0
151 172 0
148 170 0
147 169 0
150 171 0
140 161 0
154 176 0
152 173 0
146 168 0
144 165 0
156 178 0
142 163 0
143 166 0
149 171 0
146 167 0
142 164 0
151 172 0
141 163 0
149 171 0
145 166 0
145 166 0
135 156 0
149 170 0
145 166 0
141 163 0
143 164 0
142 163 0
141 161 0
151 172 0
150 171 0
140 161 0
144 166 0
148 169 0
149 172 0
152 174 0
147 167 0
145 165 0
140 162 0
139 160 0
140 162 0
151 173 0
137 156 0
144 165 0
142 163 0
134 154 0
148 169 0
146 167 0
142 163 0
146 167 0
143 164 0
146 165 0
129 150 0
144 164 0
142 164 0
138 160 0
134 155 0
141 161 0
136 155 0
146 166 0
142 161 0
133 153 0
137 158 0
145 166 0
150 170 0
139 160 0
143 164 0
151 172 0
142 163 0
132 154 0
143 164 0
140 161 0
145 165 0
139 160 0
137 157 0
148 170 0
148 169 0
143 163 0
149 169 0
145 164 0
146 166 0
129 148 0
138 158 0
138 158 0
139 159 0
129 149 0
133 152 0
144 164 0
137 157 0
140 161 0
147 168 0
137 157 0
140 160 0
136 157 0
142 163 0
139 158 0
152 173 0
142 162 0
139 157 0
139 159 0
143 162 0
136 154 0
140 160 0
141 162 0
131 151 0
140 160 0
137 155 0
139 160 0
146 166 0
145 166 0
143 163 0
135 156 0
139 160 0
137 156 0
139 159 0
134 153 0
141 162 0
136 156 0
136 156 0
141 161 0
137 157 0
138 158 0
134 152 0
137 156 0
131 150 0
151 171 0
136 156 0
142 162 0
146 164 0
152 172 0
145 164 0
138 158 0
139 160 0
135 155 0
138 158 0
142 162 0
145 164 0
141 160 0
144 164 0
143 164 0
143 163 0
143 163 0
139 159 0
149 169 0
146 167 0
145 166 0
149 168 0
140 160 0
149 169 0
143 163 0
138 156 0
141 160 0
146 163 0
142 159 0
146 165 0
132 150 0
148 168 0
145 165 0
149 170 0
139 156 0
145 162 0
147 164 0
151 169 0
140 158 0
140 159 0
134 152 0
144 162 0
155 173 0
143 161 0
144 161 0
148 167 0
149 169 0
148 168 0
140 157 0
152 170 0
138 155 0
143 159 0
143 160 0
142 160 0
145 164 0
145 164 0
140 158 0
139 158 0
139 155 0
148 167 0
141 157 0
141 160 0
143 162 0
144 159 0
151 169 0
147 167 0
141 158 0
147 164 0
143 158 0
143 161 0
151 167 0
136 153 0
147 165 0
139 155 0
145 162 0
141 159 0
151 169 0
145 163 0
150 166 0
140 157 0
146 163 0
144 163 0
149 166 0
152 170 0
152 170 0
145 164 0
149 167 0
149 166 0
151 166 0
145 161 0
141 156 0
152 168 0
158 175 0
152 168 0
143 160 0
149 163 0
149 163 0
151 166 0
149 162 0
142 157 0
151 166 0
153 168 0
159 175 0
146 160 0
144 158 0
149 163 0
151 167 0
151 168 0
148 165 0
147 162 0
154 170 0
149 164 0
151 167 0
148 163 0
154 168 0
152 167 0
152 165 0
145 160 0
154 171 0
148 163 0
153 170 0
153 169 0
150 162 0
149 166 0
148 164 0
152 168 0
150 167 0
145 159 0
147 162 0
151 164 0
148 162 0
152 168 0
150 164 0
158 171 0
154 169 0
148 162 0
157 174 0
154 169 0
151 164 0
155 171 0
150 165 0
157 172 0
159 174 0
170 194 0
170 192 0
167 190 0
169 191 0
172 194 0
166 189 0
164 187 0
170 193 0
168 192 0
166 188 0
168 190 0
160 183 0
166 189 0
170 193 0
172 194 0
165 188 0
167 190 0
169 192 0
168 191 0
168 191 0
167 189 0
167 190 0
166 189 0
171 194 0
164 187 0
164 187 0
162 185 0
171 194 0
169 192 0
168 191 0
164 187 0
167 190 0
167 189 0
164 187 0
163 186 0
164 187 0
167 189 0
172 194 0
162 185 0
168 190 0
164 187 0
168 191 0
165 187 0
166 189 0
163 186 0
164 186 0
158 181 0
164 187 0
165 188 0
164 187 0
163 187 0
162 183 0
163 186 0
167 189 0
159 182 0
161 183 0
170 193 0
159 182 0
164 187 0
168 190 0
171 194 0
165 188 0
162 184 0
162 184 0
165 188 0
160 183 0
164 185 0
170 193 0
163 186 0
164 187 0
162 185 0
162 185 0
168 191 0
159 181 0
159 180 0
163 186 0
150 173 0
162 184 0
157 179 0
157 179 0
162 186 0
157 179 0
163 186 0
164 186 0
157 179 0
156 178 0
156 178 0
156 178 0
154 176 0
160 182 0
160 183 0
160 182 0
168 190 0
156 178 0
157 179 0
161 184 0
152 174 0
161 184 0
159 182 0
157 178 0
154 176 0
156 178 0
163 186 0
158 180 0
159 181 0
158 180 0
152 174 0
151 173 0
156 178 0
155 177 0
153 175 0
160 182 0
154 177 0
158 181 0
152 175 0
149 171 0
149 170 0
151 173 0
157 180 0
148 171 0
150 173 0
146 168 0
142 164 0
153 174 0
155 177 0
151 173 0
156 177 0
146 169 0
145 167 0
154 175 0
155 177 0
150 172 0
152 175 0
144 166 0
151 173 0
146 167 0
157 179 0
151 173 0
153 174 0
157 178 0
148 170 0
151 173 0
153 175 0
153 175 0
147 169 0
141 162 0
150 172 0
151 173 0
154 176 0
150 172 0
149 170 0
147 169 0
146 167 0
143 165 0
143 164 0
153 174 0
140 161 0
153 173 0
151 173 0
145 167 0
151 172 0
152 173 0
146 168 0
148 170 0
145 165 0
144 165 0
145 167 0
144 165 0
140 161 0
140 161 0
141 163 0
141 162 0
151 172 0
144 165 0
137 159 0
147 168 0
138 159 0
143 164 0
136 156 0
135 155 0
137 158 0
144 166 0
145 166 0
142 162 0
145 166 0
134 154 0
138 159 0
140 160 0
133 154 0
149 170 0
139 161 0
148 169 0
141 162 0
144 165 0
144 164 0
144 165 0
141 161 0
133 154 0
130 151 0
143 163 0
146 166 0
141 162 0
147 169 0
142 163 0
142 163 0
136 157 0
142 162 0
133 154 0
137 159 0
140 161 0
138 159 0
136 157 0
134 155 0
142 163 0
140 161 0
140 161 0
138 157 0
135 156 0
144 165 0
148 168 0
141 162 0
144 164 0
140 159 0
140 159 0
139 160 0
136 156 0
140 160 0
135 155 0
133 154 0
141 161 0
144 163 0
135 154 0
141 162 0
137 157 0
142 162 0
141 161 0
139 159 0
139 158 0
143 163 0
140 159 0
139 158 0
137 155 0
139 159 0
146 168 0
140 160 0
144 165 0
141 163 0
145 165 0
141 161 0
138 158 0
152 172 0
145 166 0
141 161 0
136 156 0
138 158 0
134 155 0
137 156 0
147 167 0
142 163 0
136 156 0
141 160 0
143 163 0
144 164 0
147 167 0
134 155 0
143 164 0
140 161 0
136 152 0
134 154 0
148 169 0
137 157 0
142 161 0
149 168 0
136 156 0
148 169 0
139 158 0
144 163 0
139 159 0
135 154 0
146 163 0
144 164 0
148 167 0
141 163 0
135 155 0
141 160 0
133 153 0
142 160 0
143 161 0
149 168 0
147 167 0
144 163 0
149 170 0
144 165 0
151 170 0
143 160 0
148 168 0
150 168 0
141 162 0
137 153 0
151 170 0
139 157 0
139 159 0
151 170 0
142 161 0
142 160 0
140 158 0
151 170 0
140 157 0
142 162 0
145 163 0
144 162 0
147 166 0
145 164 0
153 173 0
138 155 0
147 167 0
144 163 0
141 157 0
142 160 0
143 161 0
147 165 0
145 163 0
151 172 0
152 170 0
144 162 0
147 166 0
155 172 0
140 155 0
148 165 0
146 164 0
152 167 0
150 168 0
147 165 0
148 167 0
154 172 0
146 163 0
145 160 0
149 166 0
147 163 0
152 171 0
156 174 0
152 169 0
147 164 0
153 170 0
152 170 0
149 168 0
149 168 0
149 165 0
152 167 0
148 166 0
139 155 0
148 165 0
149 166 0
150 167 0
156 174 0
152 168 0
147 162 0
142 157 0
148 164 0
150 168 0
153 171 0
143 157 0
140 156 0
147 162 0
144 161 0
144 161 0
155 172 0
148 165 0
156 173 0
150 165 0
153 166 0
148 165 0
149 162 0
156 174 0
145 161 0
146 162 0
150 166 0
154 171 0
147 164 0
150 164 0
151 167 0
152 167 0
153 169 0
148 163 0
153 167 0
155 169 0
151 165 0
156 170 0
158 174 0
150 164 0
148 163 0
154 169 0
150 163 0
148 160 0
147 160 0
148 160 0
149 163 0
156 172 0
155 169 0
147 162 0
171 194 0
166 189 0
165 188 0
169 191 0
170 193 0
172 195 0
171 194 0
170 192 0
170 194 0
166 189 0
171 193 0
166 189 0
166 189 0
170 192 0
166 189 0
172 195 0
167 191 0
166 189 0
166 188 0
167 190 0
172 195 0
172 194 0
167 190 0
165 188 0
167 189 0
162 185 0
168 191 0
170 192 0
163 186 0
166 189 0
165 188 0
169 192 0
168 191 0
171 193 0
168 191 0
163 186 0
169 191 0
165 188 0
164 186 0
166 188 0
168 191 0
162 186 0
163 187 0
171 193 0
166 189 0
162 185 0
171 193 0
166 189 0
163 185 0
166 189 0
166 188 0
161 183 0
164 187 0
161 183 0
162 185 0
164 186 0
167 190 0
167 189 0
165 188 0
161 183 0
169 192 0
156 179 0
163 186 0
161 183 0
155 177 0
164 186 0
165 189 0
162 184 0
166 188 0
165 187 0
162 185 0
157 180 0
162 184 0
160 183 0
165 187 0
158 181 0
168 191 0
162 184 0
162 184 0
155 178 0
157 180 0
162 185 0
160 183 0
159 181 0
159 181 0
159 181 0
163 186 0
163 185 0
156 179 0
163 185 0
160 182 0
160 182 0
158 180 0
158 180 0
154 175 0
161 184 0
155 176 0
162 185 0
162 184 0
157 179 0
149 172 0
149 172 0
156 178 0
155 176 0
153 177 0
164 185 0
160 182 0
159 180 0
155 177 0
163 186 0
155 177 0
154 176 0
153 175 0
158 181 0
151 174 0
160 182 0
153 176 0
160 182 0
154 176 0
161 182 0
157 178 0
158 180 0
149 171 0
156 179 0
146 168 0
155 177 0
152 174 0
150 172 0
158 179 0
151 173 0
151 173 0
159 181 0
155 178 0
152 174 0
148 169 0
147 169 0
152 173 0
157 178 0
149 171 0
141 162 0
154 175 0
153 176 0
146 168 0
157 179 0
151 173 0
152 174 0
153 174 0
149 170 0
138 158 0
148 169 0
150 172 0
148 169 0
148 170 0
147 168 0
150 171 0
145 165 0
147 168 0
144 166 0
150 173 0
149 171 0
143 165 0
139 160 0
137 158 0
138 160 0
143 165 0
140 161 0
148 171 0
145 166 0
142 163 0
145 165 0
156 177 0
148 168 0
143 164 0
145 166 0
140 162 0
141 164 0
146 167 0
139 160 0
136 156 0
132 153 0
142 163 0
138 157 0
145 165 0
150 170 0
152 174 0
138 159 0
141 162 0
134 154 0
144 166 0
141 162 0
137 158 0
148 170 0
145 165 0
139 161 0
141 162 0
142 163 0
139 159 0
137 159 0
132 152 0
139 160 0
137 157 0
142 162 0
139 159 0
133 154 0
140 161 0
138 158 0
144 164 0
146 168 0
137 158 0
137 157 0
143 163 0
143 164 0
143 163 0
142 163 0
142 163 0
133 153 0
144 163 0
140 160 0
139 159 0
145 164 0
140 161 0
140 161 0
133 154 0
132 153 0
137 159 0
140 160 0
133 155 0
132 152 0
151 171 0
140 161 0
134 154 0
139 159 0
145 167 0
136 157 0
146 166 0
139 161 0
135 155 0
138 159 0
142 162 0
147 167 0
145 166 0
142 161 0
146 165 0
147 168 0
131 149 0
144 164 0
141 162 0
142 162 0
135 156 0
135 155 0
133 153 0
133 153 0
142 162 0
144 164 0
137 157 0
136 156 0
150 169 0
147 166 0
135 156 0
138 157 0
143 164 0
143 163 0
134 153 0
140 158 0
143 163 0
141 160 0
151 172 0
139 160 0
135 155 0
129 147 0
141 160 0
147 168 0
152 172 0
149 169 0
146 164 0
135 154 0
151 170 0
129 150 0
145 163 0
146 165 0
138 158 0
139 158 0
141 159 0
146 167 0
142 162 0
145 164 0
138 159 0
141 159 0
144 162 0
149 169 0
153 174 0
144 163 0
148 167 0
151 169 0
150 169 0
143 162 0
154 174 0
144 162 0
145 164 0
146 165 0
140 158 0
151 170 0
149 168 0
144 162 0
139 158 0
142 162 0
152 172 0
138 159 0
150 169 0
142 160 0
143 160 0
148 167 0
151 170 0
153 172 0
149 166 0
153 172 0
142 160 0
147 166 0
149 168 0
146 164 0
150 168 0
145 163 0
151 168 0
145 162 0
139 155 0
152 170 0
147 165 0
158 176 0
149 165 0
149 167 0
153 171 0
150 168 0
146 164 0
150 168 0
152 170 0
148 166 0
153 171 0
147 165 0
142 159 0
144 160 0
145 162 0
148 165 0
144 162 0
133 148 0
151 170 0
150 167 0
150 167 0
151 170 0
148 165 0
148 164 0
152 167 0
148 165 0
148 168 0
146 162 0
150 167 0
141 157 0
151 171 0
152 170 0
154 171 0
147 164 0
142 156 0
149 164 0
147 163 0
149 165 0
148 163 0
156 172 0
152 169 0
150 167 0
151 168 0
148 164 0
153 169 0
150 164 0
148 164 0
155 168 0
155 172 0
157 175 0
153 167 0
149 165 0
153 169 0
149 162 0
143 159 0
150 164 0
150 165 0
157 174 0
148 165 0
156 172 0
150 165 0
153 167 0
150 164 0
150 165 0
153 169 0
156 173 0
153 167 0
153 168 0
152 167 0
157 175 0
150 165 0
159 174 0
153 166 0
154 169 0
